%
(FLOORVENT)
(MACHINE)
(  VENDOR AUTODESK)
(  MODEL GENERIC 3-AXIS ROUTER)
(  DESCRIPTION THIS MACHINE HAS XYZ AXIS ON THE HEAD)
(T20 D=6.35 CR=0. - ZMIN=-19.05 - FLAT END MILL)
(T21 D=12.7 CR=0. - ZMIN=-12.7 - FLAT END MILL)
N10 G90 G94 G17 G91.1
N20 G21
(-ATTENTION- PROPERTY SAFE RETRACTS IS SET TO CLEARANCE HEIGHT.)
(ENSURE THE CLEARANCE HEIGHT WILL CLEAR THE PART AND OR FIXTURES.)
(RAISE THE Z-AXIS TO A SAFE HEIGHT BEFORE STARTING THE PROGRAM.)
(OUTSIDECLEARING)
N30 M0
(MANUAL TOOL CHANGE TO T21)
N40 S20000 M3
N50 G17 G90 G94
N60 G54
N70 G0 X-1.968 Y140.1
N80 G43 Z15. H21
N90 G0 Z5.
N100 Z-3.08
N110 G1 Z-4.35 F4000.
N120 Z-6.35
N130 G2 X0. Y133.398 I-12.098 J-7.193
N140 G1 Y133.248
N150 X-0.258 Y131.982
N160 X-0.465 Y130.706
N170 X-0.63 Y129.425
N180 X-0.762 Y128.14
N190 X-0.866 Y126.852
N200 X-0.95 Y125.562
N210 X-1.016 Y124.272
N220 X-1.068 Y122.981
N230 X-1.11 Y121.69
N240 X-1.143 Y120.398
N250 X-1.169 Y119.106
N260 X-1.19 Y117.814
N270 X-1.207 Y116.522
N280 X-1.22 Y115.23
N290 X-1.23 Y113.938
N300 X-1.239 Y112.646
N310 X-1.245 Y111.354
N320 X-1.25 Y110.062
N330 X-1.258 Y107.478
N340 X-1.264 Y103.602
N350 X-1.268 Y98.434
N360 X-1.27 Y88.097
N370 Y82.929
N380 Y32.539
N390 Y6.052
N400 X-1.236 Y5.731
N410 X-1.167 Y5.415
N420 X-0.755 Y4.19
N430 X0.026 Y3.161
N440 X0.995 Y2.307
N450 X2.081 Y1.606
N460 X3.24 Y1.036
N470 X4.447 Y0.574
N480 X5.684 Y0.203
N490 X6.941 Y-0.096
N500 X8.211 Y-0.335
N510 X9.489 Y-0.527
N520 X10.772 Y-0.679
N530 X12.058 Y-0.801
N540 X13.347 Y-0.897
N550 X14.636 Y-0.974
N560 X15.927 Y-1.035
N570 X17.218 Y-1.084
N580 X18.51 Y-1.122
N590 X19.801 Y-1.153
N600 X21.093 Y-1.177
N610 X22.385 Y-1.196
N620 X23.677 Y-1.212
N630 X24.969 Y-1.224
N640 X26.261 Y-1.233
N650 X27.553 Y-1.241
N660 X28.845 Y-1.247
N670 X31.429 Y-1.256
N680 X34.013 Y-1.261
N690 X37.89 Y-1.265
N700 X44.35 Y-1.269
N710 X62.439 Y-1.27
N720 X70.191
N730 X120.581
N740 X170.971
N750 X221.361
N760 X271.751
N770 X273.366
N780 X273.688 Y-1.235
N790 X274.003 Y-1.165
N800 X275.226 Y-0.75
N810 X276.253 Y0.035
N820 X277.105 Y1.006
N830 X277.804 Y2.093
N840 X278.372 Y3.253
N850 X278.832 Y4.461
N860 X279.203 Y5.699
N870 X279.5 Y6.956
N880 X279.739 Y8.226
N890 X279.929 Y9.504
N900 X280.081 Y10.787
N910 X280.202 Y12.073
N920 X280.299 Y13.362
N930 X280.375 Y14.651
N940 X280.436 Y15.942
N950 X280.485 Y17.233
N960 X280.523 Y18.525
N970 X280.553 Y19.816
N980 X280.578 Y21.108
N990 X280.597 Y22.4
N1000 X280.612 Y23.692
N1010 X280.624 Y24.984
N1020 X280.634 Y26.276
N1030 X280.641 Y27.568
N1040 X280.647 Y28.86
N1050 X280.656 Y31.444
N1060 X280.661 Y34.028
N1070 X280.665 Y37.904
N1080 X280.669 Y44.365
N1090 X280.67 Y62.453
N1100 Y94.755
N1110 Y120.919
N1120 X280.641 Y121.241
N1130 X280.577 Y121.557
N1140 X280.184 Y122.788
N1150 X279.408 Y123.821
N1160 X278.441 Y124.679
N1170 X277.358 Y125.382
N1180 X276.199 Y125.954
N1190 X274.993 Y126.418
N1200 X273.756 Y126.791
N1210 X272.499 Y127.091
N1220 X271.23 Y127.331
N1230 X269.952 Y127.523
N1240 X268.669 Y127.677
N1250 X267.383 Y127.799
N1260 X266.095 Y127.896
N1270 X264.805 Y127.973
N1280 X263.514 Y128.034
N1290 X262.223 Y128.083
N1300 X260.932 Y128.122
N1310 X259.64 Y128.153
N1320 X258.348 Y128.177
N1330 X257.056 Y128.196
N1340 X255.764 Y128.211
N1350 X254.472 Y128.224
N1360 X253.18 Y128.233
N1370 X251.888 Y128.241
N1380 X250.596 Y128.247
N1390 X248.012 Y128.256
N1400 X245.428 Y128.261
N1410 X241.552 Y128.265
N1420 X235.092 Y128.269
N1430 X217.003 Y128.27
N1440 X209.25
N1450 X158.86
N1460 X108.47
N1470 X58.08
N1480 X11.566
N1490 X11.244 Y128.243
N1500 X10.61 Y128.118
N1510 X9.418 Y127.621
N1520 X8.397 Y126.829
N1530 X7.542 Y125.86
N1540 X6.835 Y124.779
N1550 X6.254 Y123.625
N1560 X5.78 Y122.423
N1570 X5.396 Y121.189
N1580 X5.084 Y119.935
N1590 X4.832 Y118.668
N1600 X4.629 Y117.392
N1610 X4.466 Y116.11
N1620 X4.335 Y114.825
N1630 X4.23 Y113.537
N1640 X4.146 Y112.248
N1650 X4.079 Y110.957
N1660 X4.025 Y109.667
N1670 X3.981 Y108.375
N1680 X3.947 Y107.084
N1690 X3.919 Y105.792
N1700 X3.897 Y104.5
N1710 X3.88 Y103.208
N1720 X3.866 Y101.916
N1730 X3.854 Y100.624
N1740 X3.845 Y99.332
N1750 X3.838 Y98.04
N1760 X3.833 Y96.748
N1770 X3.824 Y94.164
N1780 X3.819 Y91.58
N1790 X3.815 Y87.704
N1800 X3.811 Y81.243
N1810 Y77.367
N1820 X3.81 Y26.977
N1830 Y12.764
N1840 X3.997 Y11.486
N1850 X4.507 Y10.299
N1860 X5.253 Y9.244
N1870 X6.166 Y8.33
N1880 X7.197 Y7.551
N1890 X8.31 Y6.894
N1900 X9.479 Y6.345
N1910 X10.687 Y5.887
N1920 X11.923 Y5.509
N1930 X13.176 Y5.196
N1940 X14.443 Y4.94
N1950 X15.718 Y4.729
N1960 X16.998 Y4.557
N1970 X18.282 Y4.417
N1980 X19.569 Y4.302
N1990 X20.858 Y4.209
N2000 X22.148 Y4.133
N2010 X23.439 Y4.071
N2020 X24.73 Y4.021
N2030 X26.021 Y3.981
N2040 X27.313 Y3.948
N2050 X28.604 Y3.922
N2060 X29.896 Y3.9
N2070 X31.188 Y3.883
N2080 X32.48 Y3.869
N2090 X33.772 Y3.857
N2100 X35.064 Y3.848
N2110 X36.356 Y3.841
N2120 X37.648 Y3.835
N2130 X40.232 Y3.826
N2140 X42.817 Y3.82
N2150 X46.693 Y3.815
N2160 X53.153 Y3.812
N2170 X67.366 Y3.81
N2180 X86.746
N2190 X137.136
N2200 X187.527
N2210 X237.917
N2220 X266.342
N2230 X267.63 Y3.915
N2240 X268.843 Y4.358
N2250 X269.929 Y5.058
N2260 X270.875 Y5.939
N2270 X271.683 Y6.947
N2280 X272.367 Y8.043
N2290 X272.94 Y9.201
N2300 X273.417 Y10.402
N2310 X273.812 Y11.632
N2320 X274.138 Y12.882
N2330 X274.406 Y14.146
N2340 X274.626 Y15.419
N2350 X274.807 Y16.699
N2360 X274.954 Y17.983
N2370 X275.074 Y19.269
N2380 X275.172 Y20.557
N2390 X275.251 Y21.847
N2400 X275.316 Y23.137
N2410 X275.368 Y24.428
N2420 X275.411 Y25.72
N2430 X275.445 Y27.011
N2440 X275.473 Y28.303
N2450 X275.495 Y29.595
N2460 X275.514 Y30.887
N2470 X275.528 Y32.179
N2480 X275.54 Y33.471
N2490 X275.55 Y34.763
N2500 X275.558 Y36.055
N2510 X275.564 Y37.347
N2520 X275.573 Y39.931
N2530 X275.579 Y42.515
N2540 X275.584 Y46.391
N2550 X275.588 Y52.852
N2560 X275.59 Y67.064
N2570 Y72.232
N2580 Y113.578
N2590 X275.586 Y114.87
N2600 X275.227 Y116.111
N2610 X274.591 Y117.236
N2620 X273.755 Y118.221
N2630 X272.778 Y119.067
N2640 X271.704 Y119.784
N2650 X270.561 Y120.387
N2660 X269.371 Y120.89
N2670 X268.148 Y121.307
N2680 X266.903 Y121.652
N2690 X265.642 Y121.935
N2700 X264.371 Y122.168
N2710 X263.093 Y122.359
N2720 X261.811 Y122.515
N2730 X260.525 Y122.642
N2740 X259.237 Y122.746
N2750 X257.948 Y122.83
N2760 X256.657 Y122.899
N2770 X255.367 Y122.954
N2780 X254.075 Y122.999
N2790 X252.784 Y123.036
N2800 X251.492 Y123.066
N2810 X250.2 Y123.09
N2820 X248.908 Y123.109
N2830 X247.616 Y123.125
N2840 X246.324 Y123.137
N2850 X245.032 Y123.147
N2860 X243.74 Y123.156
N2870 X242.448 Y123.162
N2880 X241.156 Y123.168
N2890 X238.572 Y123.176
N2900 X235.988 Y123.181
N2910 X232.112 Y123.185
N2920 X225.652 Y123.188
N2930 X220.483 Y123.189
N2940 X170.093 Y123.19
N2950 X119.703
N2960 X69.313
N2970 X18.923
N2980 X17.631
N2990 X16.373 Y122.896
N3000 X15.219 Y122.315
N3010 X14.197 Y121.524
N3020 X13.313 Y120.581
N3030 X12.559 Y119.532
N3040 X11.923 Y118.408
N3050 X11.388 Y117.231
N3060 X10.943 Y116.018
N3070 X10.574 Y114.78
N3080 X10.268 Y113.525
N3090 X10.068 Y112.517
N3100 X10.016 Y112.297
N3110 X9.946 Y112.081
N3120 X9.861 Y111.872
N3130 X9.637 Y111.378
N3140 X9.598 Y111.285
N3150 X9.37 Y110.523
N3160 X9.23 Y109.762
N3170 X9.168 Y109.381
N3180 X9.111 Y109.
N3190 X9.066 Y108.619
N3200 X9.025 Y107.858
N3210 Y19.142
N3220 X9.066 Y18.381
N3230 X9.111 Y18.
N3240 X9.168 Y17.619
N3250 X9.23 Y17.238
N3260 X9.37 Y16.477
N3270 X9.598 Y15.715
N3280 X9.637 Y15.622
N3290 X10.018 Y14.781
N3300 X10.399 Y14.04
N3310 X10.528 Y13.812
N3320 X11.024 Y13.05
N3330 X11.161 Y12.876
N3340 X11.333 Y12.669
N3350 X11.695 Y12.289
N3360 X11.922 Y12.055
N3370 X12.07 Y11.908
N3380 X12.303 Y11.68
N3390 X12.684 Y11.321
N3400 X12.894 Y11.146
N3410 X13.065 Y11.012
N3420 X13.827 Y10.52
N3430 X14.065 Y10.385
N3440 X14.809 Y10.004
N3450 X15.656 Y9.623
N3460 X15.731 Y9.592
N3470 X16.112 Y9.478
N3480 X16.493 Y9.366
N3490 X17.254 Y9.227
N3500 X17.635 Y9.166
N3510 X18.016 Y9.109
N3520 X18.397 Y9.064
N3530 X19.159 Y9.025
N3540 X260.241
N3550 X261.003 Y9.064
N3560 X261.384 Y9.109
N3570 X261.765 Y9.166
N3580 X262.146 Y9.227
N3590 X262.907 Y9.366
N3600 X263.288 Y9.478
N3610 X263.669 Y9.592
N3620 X263.744 Y9.623
N3630 X264.591 Y10.004
N3640 X265.335 Y10.385
N3650 X265.573 Y10.52
N3660 X266.335 Y11.012
N3670 X266.506 Y11.146
N3680 X266.716 Y11.322
N3690 X267.097 Y11.68
N3700 X267.33 Y11.908
N3710 X267.478 Y12.055
N3720 X267.706 Y12.289
N3730 X268.067 Y12.669
N3740 X268.239 Y12.876
N3750 X268.376 Y13.05
N3760 X268.873 Y13.812
N3770 X269.001 Y14.039
N3780 X269.382 Y14.78
N3790 X269.763 Y15.621
N3800 X269.803 Y15.715
N3810 X270.03 Y16.477
N3820 X270.17 Y17.238
N3830 X270.232 Y17.619
N3840 X270.289 Y18.
N3850 X270.334 Y18.381
N3860 X270.375 Y19.142
N3870 Y107.858
N3880 X270.334 Y108.619
N3890 X270.289 Y109.
N3900 X270.232 Y109.381
N3910 X270.17 Y109.762
N3920 X270.03 Y110.523
N3930 X269.803 Y111.285
N3940 X269.763 Y111.379
N3950 X269.382 Y112.22
N3960 X269.001 Y112.96
N3970 X268.873 Y113.188
N3980 X268.376 Y113.95
N3990 X268.239 Y114.124
N4000 X268.067 Y114.331
N4010 X267.706 Y114.711
N4020 X267.478 Y114.945
N4030 X267.33 Y115.092
N4040 X267.097 Y115.32
N4050 X266.716 Y115.679
N4060 X266.506 Y115.854
N4070 X266.335 Y115.988
N4080 X265.573 Y116.481
N4090 X265.335 Y116.615
N4100 X264.592 Y116.996
N4110 X263.745 Y117.377
N4120 X263.669 Y117.408
N4130 X263.288 Y117.523
N4140 X262.907 Y117.634
N4150 X262.146 Y117.773
N4160 X261.765 Y117.834
N4170 X261.384 Y117.891
N4180 X261.003 Y117.936
N4190 X260.241 Y117.975
N4200 X19.159
N4210 X18.397 Y117.936
N4220 X18.016 Y117.891
N4230 X17.635 Y117.834
N4240 X17.254 Y117.773
N4250 X16.493 Y117.634
N4260 X16.112 Y117.523
N4270 X15.731 Y117.408
N4280 X15.655 Y117.377
N4290 X14.808 Y116.996
N4300 X14.065 Y116.615
N4310 X13.827 Y116.481
N4320 X13.065 Y115.988
N4330 X12.893 Y115.854
N4340 X12.684 Y115.679
N4350 X12.303 Y115.32
N4360 X12.07 Y115.092
N4370 X11.922 Y114.945
N4380 X11.695 Y114.711
N4390 X11.334 Y114.331
N4400 X11.161 Y114.124
N4410 X11.024 Y113.95
N4420 X10.528 Y113.188
N4430 X10.399 Y112.96
N4440 X10.018 Y112.219
N4450 X9.861 Y111.872
N4460 X9.801 Y111.781 Z-6.342
N4470 X9.742 Y111.692 Z-6.32
N4480 X9.685 Y111.607 Z-6.283
N4490 X9.618 Y111.546 Z-6.235
N4500 X9.555 Y111.489 Z-6.175
N4510 X9.499 Y111.439 Z-6.105
N4520 X9.45 Y111.394 Z-6.025
N4530 X9.405 Y111.367 Z-5.942
N4540 X9.37 Y111.345 Z-5.853
N4550 X9.344 Y111.329 Z-5.759
N4560 X9.328 Y111.32 Z-5.663
N4570 X9.323 Y111.316 Z-5.565
N4580 G0 Z5.
N4590 X-1.968 Y140.1
N4600 Z-8.93
N4610 G1 Z-10.2 F4000.
N4620 Z-12.2
N4630 G2 X0. Y133.398 I-12.098 J-7.193
N4640 G1 Y133.248
N4650 X-0.258 Y131.982
N4660 X-0.465 Y130.706
N4670 X-0.63 Y129.425
N4680 X-0.762 Y128.14
N4690 X-0.866 Y126.852
N4700 X-0.95 Y125.562
N4710 X-1.016 Y124.272
N4720 X-1.068 Y122.981
N4730 X-1.11 Y121.69
N4740 X-1.143 Y120.398
N4750 X-1.169 Y119.106
N4760 X-1.19 Y117.814
N4770 X-1.207 Y116.522
N4780 X-1.22 Y115.23
N4790 X-1.23 Y113.938
N4800 X-1.239 Y112.646
N4810 X-1.245 Y111.354
N4820 X-1.25 Y110.062
N4830 X-1.258 Y107.478
N4840 X-1.264 Y103.602
N4850 X-1.268 Y98.434
N4860 X-1.27 Y88.097
N4870 Y82.929
N4880 Y32.539
N4890 Y6.052
N4900 X-1.236 Y5.731
N4910 X-1.167 Y5.415
N4920 X-0.755 Y4.19
N4930 X0.026 Y3.161
N4940 X0.995 Y2.307
N4950 X2.081 Y1.606
N4960 X3.24 Y1.036
N4970 X4.447 Y0.574
N4980 X5.684 Y0.203
N4990 X6.941 Y-0.096
N5000 X8.211 Y-0.335
N5010 X9.489 Y-0.527
N5020 X10.772 Y-0.679
N5030 X12.058 Y-0.801
N5040 X13.347 Y-0.897
N5050 X14.636 Y-0.974
N5060 X15.927 Y-1.035
N5070 X17.218 Y-1.084
N5080 X18.51 Y-1.122
N5090 X19.801 Y-1.153
N5100 X21.093 Y-1.177
N5110 X22.385 Y-1.196
N5120 X23.677 Y-1.212
N5130 X24.969 Y-1.224
N5140 X26.261 Y-1.233
N5150 X27.553 Y-1.241
N5160 X28.845 Y-1.247
N5170 X31.429 Y-1.256
N5180 X34.013 Y-1.261
N5190 X37.89 Y-1.265
N5200 X44.35 Y-1.269
N5210 X62.439 Y-1.27
N5220 X70.191
N5230 X120.581
N5240 X170.971
N5250 X221.361
N5260 X271.751
N5270 X273.366
N5280 X273.688 Y-1.235
N5290 X274.003 Y-1.165
N5300 X275.226 Y-0.75
N5310 X276.253 Y0.035
N5320 X277.105 Y1.006
N5330 X277.804 Y2.093
N5340 X278.372 Y3.253
N5350 X278.832 Y4.461
N5360 X279.203 Y5.699
N5370 X279.5 Y6.956
N5380 X279.739 Y8.226
N5390 X279.929 Y9.504
N5400 X280.081 Y10.787
N5410 X280.202 Y12.073
N5420 X280.299 Y13.362
N5430 X280.375 Y14.651
N5440 X280.436 Y15.942
N5450 X280.485 Y17.233
N5460 X280.523 Y18.525
N5470 X280.553 Y19.816
N5480 X280.578 Y21.108
N5490 X280.597 Y22.4
N5500 X280.612 Y23.692
N5510 X280.624 Y24.984
N5520 X280.634 Y26.276
N5530 X280.641 Y27.568
N5540 X280.647 Y28.86
N5550 X280.656 Y31.444
N5560 X280.661 Y34.028
N5570 X280.665 Y37.904
N5580 X280.669 Y44.365
N5590 X280.67 Y62.453
N5600 Y94.755
N5610 Y120.919
N5620 X280.641 Y121.241
N5630 X280.577 Y121.557
N5640 X280.184 Y122.788
N5650 X279.408 Y123.821
N5660 X278.441 Y124.679
N5670 X277.358 Y125.382
N5680 X276.199 Y125.954
N5690 X274.993 Y126.418
N5700 X273.756 Y126.791
N5710 X272.499 Y127.091
N5720 X271.23 Y127.331
N5730 X269.952 Y127.523
N5740 X268.669 Y127.677
N5750 X267.383 Y127.799
N5760 X266.095 Y127.896
N5770 X264.805 Y127.973
N5780 X263.514 Y128.034
N5790 X262.223 Y128.083
N5800 X260.932 Y128.122
N5810 X259.64 Y128.153
N5820 X258.348 Y128.177
N5830 X257.056 Y128.196
N5840 X255.764 Y128.211
N5850 X254.472 Y128.224
N5860 X253.18 Y128.233
N5870 X251.888 Y128.241
N5880 X250.596 Y128.247
N5890 X248.012 Y128.256
N5900 X245.428 Y128.261
N5910 X241.552 Y128.265
N5920 X235.092 Y128.269
N5930 X217.003 Y128.27
N5940 X209.25
N5950 X158.86
N5960 X108.47
N5970 X58.08
N5980 X11.566
N5990 X11.244 Y128.243
N6000 X10.61 Y128.118
N6010 X9.418 Y127.621
N6020 X8.397 Y126.829
N6030 X7.542 Y125.86
N6040 X6.835 Y124.779
N6050 X6.254 Y123.625
N6060 X5.78 Y122.423
N6070 X5.396 Y121.189
N6080 X5.084 Y119.935
N6090 X4.832 Y118.668
N6100 X4.629 Y117.392
N6110 X4.466 Y116.11
N6120 X4.335 Y114.825
N6130 X4.23 Y113.537
N6140 X4.146 Y112.248
N6150 X4.079 Y110.957
N6160 X4.025 Y109.667
N6170 X3.981 Y108.375
N6180 X3.947 Y107.084
N6190 X3.919 Y105.792
N6200 X3.897 Y104.5
N6210 X3.88 Y103.208
N6220 X3.866 Y101.916
N6230 X3.854 Y100.624
N6240 X3.845 Y99.332
N6250 X3.838 Y98.04
N6260 X3.833 Y96.748
N6270 X3.824 Y94.164
N6280 X3.819 Y91.58
N6290 X3.815 Y87.704
N6300 X3.811 Y81.243
N6310 Y77.367
N6320 X3.81 Y26.977
N6330 Y12.764
N6340 X3.997 Y11.486
N6350 X4.507 Y10.299
N6360 X5.253 Y9.244
N6370 X6.166 Y8.33
N6380 X7.197 Y7.551
N6390 X8.31 Y6.894
N6400 X9.479 Y6.345
N6410 X10.687 Y5.887
N6420 X11.923 Y5.509
N6430 X13.176 Y5.196
N6440 X14.443 Y4.94
N6450 X15.718 Y4.729
N6460 X16.998 Y4.557
N6470 X18.282 Y4.417
N6480 X19.569 Y4.302
N6490 X20.858 Y4.209
N6500 X22.148 Y4.133
N6510 X23.439 Y4.071
N6520 X24.73 Y4.021
N6530 X26.021 Y3.981
N6540 X27.313 Y3.948
N6550 X28.604 Y3.922
N6560 X29.896 Y3.9
N6570 X31.188 Y3.883
N6580 X32.48 Y3.869
N6590 X33.772 Y3.857
N6600 X35.064 Y3.848
N6610 X36.356 Y3.841
N6620 X37.648 Y3.835
N6630 X40.232 Y3.826
N6640 X42.817 Y3.82
N6650 X46.693 Y3.815
N6660 X53.153 Y3.812
N6670 X67.366 Y3.81
N6680 X86.746
N6690 X137.136
N6700 X187.527
N6710 X237.917
N6720 X266.342
N6730 X267.63 Y3.915
N6740 X268.843 Y4.358
N6750 X269.929 Y5.058
N6760 X270.875 Y5.939
N6770 X271.683 Y6.947
N6780 X272.367 Y8.043
N6790 X272.94 Y9.201
N6800 X273.417 Y10.402
N6810 X273.812 Y11.632
N6820 X274.138 Y12.882
N6830 X274.406 Y14.146
N6840 X274.626 Y15.419
N6850 X274.807 Y16.699
N6860 X274.954 Y17.983
N6870 X275.074 Y19.269
N6880 X275.172 Y20.557
N6890 X275.251 Y21.847
N6900 X275.316 Y23.137
N6910 X275.368 Y24.428
N6920 X275.411 Y25.72
N6930 X275.445 Y27.011
N6940 X275.473 Y28.303
N6950 X275.495 Y29.595
N6960 X275.514 Y30.887
N6970 X275.528 Y32.179
N6980 X275.54 Y33.471
N6990 X275.55 Y34.763
N7000 X275.558 Y36.055
N7010 X275.564 Y37.347
N7020 X275.573 Y39.931
N7030 X275.579 Y42.515
N7040 X275.584 Y46.391
N7050 X275.588 Y52.852
N7060 X275.59 Y67.064
N7070 Y72.232
N7080 Y113.578
N7090 X275.586 Y114.87
N7100 X275.227 Y116.111
N7110 X274.591 Y117.236
N7120 X273.755 Y118.221
N7130 X272.778 Y119.067
N7140 X271.704 Y119.784
N7150 X270.561 Y120.387
N7160 X269.371 Y120.89
N7170 X268.148 Y121.307
N7180 X266.903 Y121.652
N7190 X265.642 Y121.935
N7200 X264.371 Y122.168
N7210 X263.093 Y122.359
N7220 X261.811 Y122.515
N7230 X260.525 Y122.642
N7240 X259.237 Y122.746
N7250 X257.948 Y122.83
N7260 X256.657 Y122.899
N7270 X255.367 Y122.954
N7280 X254.075 Y122.999
N7290 X252.784 Y123.036
N7300 X251.492 Y123.066
N7310 X250.2 Y123.09
N7320 X248.908 Y123.109
N7330 X247.616 Y123.125
N7340 X246.324 Y123.137
N7350 X245.032 Y123.147
N7360 X243.74 Y123.156
N7370 X242.448 Y123.162
N7380 X241.156 Y123.168
N7390 X238.572 Y123.176
N7400 X235.988 Y123.181
N7410 X232.112 Y123.185
N7420 X225.652 Y123.188
N7430 X220.483 Y123.189
N7440 X170.093 Y123.19
N7450 X119.703
N7460 X69.313
N7470 X18.923
N7480 X17.631
N7490 X16.373 Y122.896
N7500 X15.219 Y122.315
N7510 X14.197 Y121.524
N7520 X13.313 Y120.581
N7530 X12.559 Y119.532
N7540 X11.923 Y118.408
N7550 X11.388 Y117.231
N7560 X10.943 Y116.018
N7570 X10.574 Y114.78
N7580 X10.268 Y113.525
N7590 X10.068 Y112.517
N7600 X10.016 Y112.297
N7610 X9.946 Y112.081
N7620 X9.861 Y111.872
N7630 X9.637 Y111.378
N7640 X9.598 Y111.285
N7650 X9.37 Y110.523
N7660 X9.23 Y109.762
N7670 X9.168 Y109.381
N7680 X9.111 Y109.
N7690 X9.066 Y108.619
N7700 X9.025 Y107.858
N7710 Y19.142
N7720 X9.066 Y18.381
N7730 X9.111 Y18.
N7740 X9.168 Y17.619
N7750 X9.23 Y17.238
N7760 X9.37 Y16.477
N7770 X9.598 Y15.715
N7780 X9.637 Y15.622
N7790 X10.018 Y14.781
N7800 X10.399 Y14.04
N7810 X10.528 Y13.812
N7820 X11.024 Y13.05
N7830 X11.161 Y12.876
N7840 X11.333 Y12.669
N7850 X11.695 Y12.289
N7860 X11.922 Y12.055
N7870 X12.07 Y11.908
N7880 X12.303 Y11.68
N7890 X12.684 Y11.321
N7900 X12.894 Y11.146
N7910 X13.065 Y11.012
N7920 X13.827 Y10.52
N7930 X14.065 Y10.385
N7940 X14.809 Y10.004
N7950 X15.656 Y9.623
N7960 X15.731 Y9.592
N7970 X16.112 Y9.478
N7980 X16.493 Y9.366
N7990 X17.254 Y9.227
N8000 X17.635 Y9.166
N8010 X18.016 Y9.109
N8020 X18.397 Y9.064
N8030 X19.159 Y9.025
N8040 X260.241
N8050 X261.003 Y9.064
N8060 X261.384 Y9.109
N8070 X261.765 Y9.166
N8080 X262.146 Y9.227
N8090 X262.907 Y9.366
N8100 X263.288 Y9.478
N8110 X263.669 Y9.592
N8120 X263.744 Y9.623
N8130 X264.591 Y10.004
N8140 X265.335 Y10.385
N8150 X265.573 Y10.52
N8160 X266.335 Y11.012
N8170 X266.506 Y11.146
N8180 X266.716 Y11.322
N8190 X267.097 Y11.68
N8200 X267.33 Y11.908
N8210 X267.478 Y12.055
N8220 X267.706 Y12.289
N8230 X268.067 Y12.669
N8240 X268.239 Y12.876
N8250 X268.376 Y13.05
N8260 X268.873 Y13.812
N8270 X269.001 Y14.039
N8280 X269.382 Y14.78
N8290 X269.763 Y15.621
N8300 X269.803 Y15.715
N8310 X270.03 Y16.477
N8320 X270.17 Y17.238
N8330 X270.232 Y17.619
N8340 X270.289 Y18.
N8350 X270.334 Y18.381
N8360 X270.375 Y19.142
N8370 Y107.858
N8380 X270.334 Y108.619
N8390 X270.289 Y109.
N8400 X270.232 Y109.381
N8410 X270.17 Y109.762
N8420 X270.03 Y110.523
N8430 X269.803 Y111.285
N8440 X269.763 Y111.379
N8450 X269.382 Y112.22
N8460 X269.001 Y112.96
N8470 X268.873 Y113.188
N8480 X268.376 Y113.95
N8490 X268.239 Y114.124
N8500 X268.067 Y114.331
N8510 X267.706 Y114.711
N8520 X267.478 Y114.945
N8530 X267.33 Y115.092
N8540 X267.097 Y115.32
N8550 X266.716 Y115.679
N8560 X266.506 Y115.854
N8570 X266.335 Y115.988
N8580 X265.573 Y116.481
N8590 X265.335 Y116.615
N8600 X264.592 Y116.996
N8610 X263.745 Y117.377
N8620 X263.669 Y117.408
N8630 X263.288 Y117.523
N8640 X262.907 Y117.634
N8650 X262.146 Y117.773
N8660 X261.765 Y117.834
N8670 X261.384 Y117.891
N8680 X261.003 Y117.936
N8690 X260.241 Y117.975
N8700 X19.159
N8710 X18.397 Y117.936
N8720 X18.016 Y117.891
N8730 X17.635 Y117.834
N8740 X17.254 Y117.773
N8750 X16.493 Y117.634
N8760 X16.112 Y117.523
N8770 X15.731 Y117.408
N8780 X15.655 Y117.377
N8790 X14.808 Y116.996
N8800 X14.065 Y116.615
N8810 X13.827 Y116.481
N8820 X13.065 Y115.988
N8830 X12.893 Y115.854
N8840 X12.684 Y115.679
N8850 X12.303 Y115.32
N8860 X12.07 Y115.092
N8870 X11.922 Y114.945
N8880 X11.695 Y114.711
N8890 X11.334 Y114.331
N8900 X11.161 Y114.124
N8910 X11.024 Y113.95
N8920 X10.528 Y113.188
N8930 X10.399 Y112.96
N8940 X10.018 Y112.219
N8950 X9.861 Y111.872
N8960 G2 X9.323 Y111.316 I-1.138 J0.564
N8970 G1 X9.198 Y111.249 Z-12.192
N8980 X9.074 Y111.183 Z-12.168
N8990 X8.953 Y111.118 Z-12.129
N9000 X8.837 Y111.056 Z-12.074
N9010 X8.727 Y110.997 Z-12.005
N9020 X8.625 Y110.942 Z-11.923
N9030 X8.531 Y110.892 Z-11.828
N9040 X8.448 Y110.847 Z-11.722
N9050 X8.375 Y110.809 Z-11.606
N9060 X8.314 Y110.776 Z-11.481
N9070 X8.266 Y110.75 Z-11.349
N9080 X8.232 Y110.732 Z-11.213
N9090 X8.211 Y110.72 Z-11.072
N9100 X8.204 Y110.717 Z-10.93
N9110 G0 Z15.
(OUTSIDEFACEFINISH)
N9120 G0 X274.11 Y-7.244
N9130 Z15.
N9140 Z-5.7
N9150 G1 Z-11.113 F333.33
N9160 Z-11.43 F3000.
N9170 X274.117 Y-7.24 Z-11.572
N9180 X274.138 Y-7.227 Z-11.713
N9190 X274.171 Y-7.207 Z-11.849
N9200 X274.218 Y-7.178 Z-11.981
N9210 X274.277 Y-7.143 Z-12.106
N9220 X274.347 Y-7.1 Z-12.222
N9230 X274.428 Y-7.05 Z-12.328
N9240 X274.519 Y-6.995 Z-12.423
N9250 X274.618 Y-6.935 Z-12.505
N9260 X274.725 Y-6.87 Z-12.574
N9270 X274.837 Y-6.802 Z-12.629
N9280 X274.954 Y-6.73 Z-12.668
N9290 X275.074 Y-6.657 Z-12.692
N9300 X275.195 Y-6.584 Z-12.7
N9310 X275.744 Y-6.25
N9320 G3 X285.647 Y3.651 I-15.394 J25.299
N9330 G1 X285.672 Y3.693
N9340 X285.746 Y3.815 Z-12.692
N9350 X285.819 Y3.935 Z-12.668
N9360 X285.89 Y4.052 Z-12.629
N9370 X285.959 Y4.164 Z-12.574
N9380 X286.024 Y4.27 Z-12.505
N9390 X286.084 Y4.37 Z-12.423
N9400 X286.139 Y4.46 Z-12.328
N9410 X286.189 Y4.541 Z-12.222
N9420 X286.232 Y4.612 Z-12.106
N9430 X286.267 Y4.671 Z-11.981
N9440 X286.296 Y4.717 Z-11.849
N9450 X286.316 Y4.751 Z-11.713
N9460 X286.329 Y4.771 Z-11.572
N9470 X286.333 Y4.778 Z-11.43
N9480 G0 Z5.
N9490 X286.636 Y121.724
N9500 Z-5.7
N9510 G1 Z-11.43 F333.33
N9520 X286.631 Y121.731 Z-11.572 F3000.
N9530 X286.619 Y121.751 Z-11.713
N9540 X286.599 Y121.785 Z-11.849
N9550 X286.57 Y121.831 Z-11.981
N9560 X286.534 Y121.89 Z-12.106
N9570 X286.492 Y121.96 Z-12.222
N9580 X286.442 Y122.041 Z-12.328
N9590 X286.387 Y122.132 Z-12.423
N9600 X286.327 Y122.231 Z-12.505
N9610 X286.262 Y122.338 Z-12.574
N9620 X286.193 Y122.45 Z-12.629
N9630 X286.122 Y122.567 Z-12.668
N9640 X286.049 Y122.687 Z-12.692
N9650 X285.975 Y122.809 Z-12.7
N9660 X285.65 Y123.344
N9670 G3 X275.749 Y133.247 I-25.299 J-15.394
N9680 G1 X275.707 Y133.272
N9690 X275.585 Y133.346 Z-12.692
N9700 X275.465 Y133.419 Z-12.668
N9710 X275.348 Y133.49 Z-12.629
N9720 X275.236 Y133.559 Z-12.574
N9730 X275.13 Y133.624 Z-12.505
N9740 X275.03 Y133.684 Z-12.423
N9750 X274.94 Y133.739 Z-12.328
N9760 X274.859 Y133.789 Z-12.222
N9770 X274.788 Y133.832 Z-12.106
N9780 X274.729 Y133.867 Z-11.981
N9790 X274.683 Y133.896 Z-11.849
N9800 X274.649 Y133.916 Z-11.713
N9810 X274.629 Y133.929 Z-11.572
N9820 X274.622 Y133.933 Z-11.43
N9830 G0 Z5.
N9840 X5.303 Y134.252
N9850 Z-5.7
N9860 G1 Z-11.43 F333.33
N9870 X5.296 Y134.248 Z-11.572 F3000.
N9880 X5.276 Y134.235 Z-11.713
N9890 X5.242 Y134.215 Z-11.849
N9900 X5.196 Y134.186 Z-11.981
N9910 X5.137 Y134.151 Z-12.106
N9920 X5.066 Y134.108 Z-12.222
N9930 X4.985 Y134.058 Z-12.328
N9940 X4.895 Y134.003 Z-12.423
N9950 X4.795 Y133.943 Z-12.505
N9960 X4.689 Y133.878 Z-12.574
N9970 X4.576 Y133.81 Z-12.629
N9980 X4.459 Y133.739 Z-12.668
N9990 X4.34 Y133.666 Z-12.692
N10000 X4.218 Y133.592 Z-12.7
N10010 X3.656 Y133.249
N10020 G3 X-6.247 Y123.349 I15.394 J-25.299
N10030 G1 X-6.272 Y123.307
N10040 X-6.346 Y123.185 Z-12.692
N10050 X-6.419 Y123.065 Z-12.668
N10060 X-6.49 Y122.948 Z-12.629
N10070 X-6.559 Y122.836 Z-12.574
N10080 X-6.624 Y122.73 Z-12.505
N10090 X-6.684 Y122.63 Z-12.423
N10100 X-6.739 Y122.54 Z-12.328
N10110 X-6.789 Y122.459 Z-12.222
N10120 X-6.832 Y122.388 Z-12.106
N10130 X-6.867 Y122.329 Z-11.981
N10140 X-6.896 Y122.283 Z-11.849
N10150 X-6.916 Y122.249 Z-11.713
N10160 X-6.929 Y122.229 Z-11.572
N10170 X-6.933 Y122.222 Z-11.43
N10180 G0 Z5.
N10190 X-7.252 Y5.303
N10200 Z-5.7
N10210 G1 Z-11.43 F333.33
N10220 X-7.248 Y5.296 Z-11.572 F3000.
N10230 X-7.235 Y5.276 Z-11.713
N10240 X-7.215 Y5.242 Z-11.849
N10250 X-7.186 Y5.196 Z-11.981
N10260 X-7.151 Y5.137 Z-12.106
N10270 X-7.108 Y5.066 Z-12.222
N10280 X-7.058 Y4.985 Z-12.328
N10290 X-7.003 Y4.895 Z-12.423
N10300 X-6.943 Y4.795 Z-12.505
N10310 X-6.878 Y4.689 Z-12.574
N10320 X-6.81 Y4.576 Z-12.629
N10330 X-6.739 Y4.459 Z-12.668
N10340 X-6.666 Y4.34 Z-12.692
N10350 X-6.592 Y4.218 Z-12.7
N10360 X-6.25 Y3.656
N10370 G3 X3.651 Y-6.247 I25.299 J15.394
N10380 X11.156 Y-5.575 I3.298 J5.417
N10390 G2 X18.248 Y-3.03 I6.724 J-7.586
N10400 G3 X19.05 Y-3.045 I0.802 J22.08
N10410 G1 X260.35
N10420 G3 X282.445 Y19.05 I0. J22.095
N10430 G1 Y107.95
N10440 G3 X260.35 Y130.045 I-22.095 J0.
N10450 G1 X19.05
N10460 G3 X-3.045 Y107.95 I0. J-22.095
N10470 G1 Y19.05
N10480 G3 X18.248 Y-3.03 I22.095 J0.
N10490 X24.097 Y0.695 I0.222 J6.107
N10500 G2 X29.878 Y4.525 I5.781 J-2.446
N10510 G1 X260.35
N10520 G3 X274.875 Y19.05 I0. J14.525
N10530 G1 Y107.95
N10540 G3 X260.35 Y122.475 I-14.525 J0.
N10550 G1 X19.05
N10560 G3 X4.525 Y107.95 I0. J-14.525
N10570 G1 Y19.05
N10580 G3 X19.05 Y4.525 I14.525 J0.
N10590 G1 X29.878
N10600 G3 X33.628 Y7.025 I0. J4.062
N10610 G2 X37.378 Y9.525 I3.75 J-1.563
N10620 G1 X260.35
N10630 G3 X269.875 Y19.05 I0. J9.525
N10640 G1 Y107.95
N10650 G3 X260.35 Y117.475 I-9.525 J0.
N10660 G1 X19.05
N10670 G3 X9.525 Y107.95 I0. J-9.525
N10680 G1 Y19.05
N10690 G3 X19.05 Y9.525 I9.525 J0.
N10700 G1 X37.378
N10710 G2 X37.657 Y9.486 Z-12.668 I-0.032 J-1.238
N10720 X37.908 Y9.391 Z-12.574 I-0.311 J-1.199
N10730 G1 X38.012 Y9.331 Z-12.499
N10740 X38.11 Y9.262 Z-12.423
N10750 X38.187 Y9.196 Z-12.322
N10760 X38.258 Y9.125 Z-12.222
N10770 X38.307 Y9.068 Z-12.101
N10780 X38.353 Y9.008 Z-11.981
N10790 X38.405 Y8.929 Z-11.713
N10800 X38.421 Y8.902 Z-11.43
N10810 G0 Z15.
(INSIDECLEARING)
N10820 G0 X209.51 Y62.48
N10830 Z15.
N10840 Z5.
N10850 Z2.5
N10860 G2 X216.389 Y69.63 Z2.098 I6.095 J1.02 F333.33
N10870 X221.242 Y60.987 Z1.695 I-0.784 J-6.123
N10880 X211.576 Y58.842 Z1.293 I-5.629 J2.517
N10890 X212.315 Y68.704 Z0.891 I4.031 J4.657
N10900 X221.532 Y65.151 Z0.489 I3.289 J-5.199
N10910 X215.475 Y57.363 Z0.086 I-5.921 J-1.645
N10920 X209.775 Y65.403 Z-0.316 I0.136 J6.137
N10930 X219.108 Y68.533 Z-0.718 I5.829 J-1.901
N10940 X219.407 Y58.704 Z-1.12 I-3.5 J-5.025
N10950 X209.923 Y61.255 Z-1.523 I-3.795 J4.798
N10960 X215.1 Y69.588 Z-1.925 I5.683 J2.244
N10970 X221.574 Y62.233 Z-2.327 I0.506 J-6.082
N10980 X212.672 Y58.165 Z-2.73 I-5.962 J1.272
N10990 X211.351 Y67.852 Z-3.132 I2.937 J5.334
N11000 X220.995 Y66.319 Z-3.534 I4.253 J-4.348
N11010 X216.746 Y57.539 Z-3.936 I-5.385 J-2.812
N11020 X209.577 Y64.137 Z-4.339 I-1.134 J5.961
N11030 X217.955 Y69.088 Z-4.741 I6.027 J-0.636
N11040 X220.271 Y59.647 Z-5.143 I-2.348 J-5.58
N11050 X210.575 Y60.157 Z-5.545 I-4.658 J3.855
N11060 X213.861 Y69.281 Z-5.948 I5.031 J3.342
N11070 X221.637 Y63.506 Z-6.35 I1.743 J-5.775
N11080 X209.572 I-6.033 J0.
N11090 X221.637 I6.033 J0.
N11100 G1 X221.641 Y63.183 F3500.
N11110 X221.68 Y62.862
N11120 X221.975 Y61.604
N11130 X222.017 Y61.519
N11140 X222.099 Y61.336
N11150 X222.173 Y61.125
N11160 X222.236 Y60.888
N11170 X222.284 Y60.623
N11180 X222.313 Y60.333
N11190 X222.319 Y60.017
N11200 X222.298 Y59.68
N11210 X222.247 Y59.321
N11220 X222.162 Y58.945
N11230 X222.041 Y58.555
N11240 X221.879 Y58.155
N11250 X221.676 Y57.749
N11260 X221.43 Y57.341
N11270 X221.139 Y56.936
N11280 X220.803 Y56.541
N11290 X220.421 Y56.159
N11300 X219.996 Y55.796
N11310 X219.527 Y55.457
N11320 X219.018 Y55.148
N11330 X218.47 Y54.874
N11340 X217.888 Y54.638
N11350 X217.275 Y54.446
N11360 X216.635 Y54.3
N11370 X215.973 Y54.204
N11380 X215.294 Y54.162
N11390 X214.604 Y54.173
N11400 X213.907 Y54.242
N11410 X213.21 Y54.367
N11420 X212.518 Y54.55
N11430 X211.835 Y54.79
N11440 X211.169 Y55.087
N11450 X210.524 Y55.439
N11460 X209.905 Y55.844
N11470 X209.317 Y56.3
N11480 X208.765 Y56.805
N11490 X208.253 Y57.354
N11500 X207.785 Y57.946
N11510 X207.364 Y58.575
N11520 X206.994 Y59.238
N11530 X206.677 Y59.931
N11540 X206.416 Y60.648
N11550 X206.214 Y61.386
N11560 X206.071 Y62.138
N11570 X205.988 Y62.902
N11580 X205.968 Y63.67
N11590 X206.009 Y64.438
N11600 X206.111 Y65.202
N11610 X206.275 Y65.955
N11620 X206.499 Y66.693
N11630 X206.781 Y67.412
N11640 X207.121 Y68.106
N11650 X207.515 Y68.771
N11660 X207.962 Y69.403
N11670 X208.458 Y69.996
N11680 X209.001 Y70.549
N11690 X209.586 Y71.056
N11700 X210.21 Y71.514
N11710 X210.869 Y71.921
N11720 X211.559 Y72.274
N11730 X212.275 Y72.571
N11740 X213.012 Y72.809
N11750 X213.767 Y72.987
N11760 X214.533 Y73.105
N11770 X215.306 Y73.16
N11780 X216.082 Y73.153
N11790 X216.854 Y73.084
N11800 X217.619 Y72.953
N11810 X218.37 Y72.761
N11820 X219.104 Y72.509
N11830 X219.815 Y72.199
N11840 X220.499 Y71.834
N11850 X221.152 Y71.414
N11860 X221.768 Y70.944
N11870 X222.345 Y70.425
N11880 X222.879 Y69.862
N11890 X223.366 Y69.258
N11900 X223.802 Y68.616
N11910 X224.441 Y67.493
N11920 X225.023 Y66.34
N11930 X225.498 Y65.216
N11940 X225.83 Y64.217
N11950 X226.061 Y63.269
N11960 X226.206 Y62.369
N11970 X226.275 Y61.496
N11980 X226.274 Y60.64
N11990 X226.206 Y59.799
N12000 X226.071 Y58.973
N12010 X225.871 Y58.163
N12020 X225.606 Y57.372
N12030 X225.277 Y56.601
N12040 X224.885 Y55.853
N12050 X224.43 Y55.133
N12060 X223.912 Y54.444
N12070 X223.334 Y53.79
N12080 X222.698 Y53.178
N12090 X222.005 Y52.611
N12100 X221.26 Y52.095
N12110 X220.467 Y51.636
N12120 X219.629 Y51.236
N12130 X218.751 Y50.902
N12140 X217.839 Y50.635
N12150 X216.898 Y50.441
N12160 X215.933 Y50.321
N12170 X214.95 Y50.279
N12180 X213.956 Y50.316
N12190 X212.958 Y50.434
N12200 X211.964 Y50.633
N12210 X210.981 Y50.914
N12220 X210.016 Y51.276
N12230 X209.076 Y51.717
N12240 X208.17 Y52.235
N12250 X207.303 Y52.828
N12260 X206.482 Y53.492
N12270 X205.714 Y54.223
N12280 X205.004 Y55.016
N12290 X204.357 Y55.867
N12300 X203.779 Y56.77
N12310 X203.274 Y57.72
N12320 X202.845 Y58.71
N12330 X202.496 Y59.733
N12340 X202.23 Y60.783
N12350 X202.049 Y61.853
N12360 X201.954 Y62.936
N12370 X201.947 Y64.025
N12380 X202.027 Y65.112
N12390 X202.194 Y66.191
N12400 X202.447 Y67.253
N12410 X202.785 Y68.293
N12420 X203.206 Y69.304
N12430 X203.707 Y70.278
N12440 X204.285 Y71.209
N12450 X204.936 Y72.091
N12460 X205.656 Y72.919
N12470 X206.441 Y73.686
N12480 X207.285 Y74.389
N12490 X208.183 Y75.021
N12500 X209.129 Y75.58
N12510 X210.117 Y76.061
N12520 X211.141 Y76.461
N12530 X212.194 Y76.778
N12540 X213.269 Y77.009
N12550 X214.359 Y77.153
N12560 X215.458 Y77.21
N12570 X216.558 Y77.178
N12580 X217.651 Y77.058
N12590 X218.732 Y76.85
N12600 X219.792 Y76.557
N12610 X220.826 Y76.179
N12620 X221.826 Y75.719
N12630 X222.786 Y75.181
N12640 X223.7 Y74.567
N12650 X224.614 Y73.84
N12660 X225.558 Y72.957
N12670 X226.428 Y72.002
N12680 X227.224 Y70.984
N12690 X227.946 Y69.912
N12700 X228.588 Y68.791
N12710 X229.146 Y67.626
N12720 X229.614 Y66.421
N12730 X229.986 Y65.184
N12740 X230.255 Y63.939
N12750 X230.421 Y62.7
N12760 X230.485 Y61.47
N12770 X230.45 Y60.253
N12780 X230.319 Y59.053
N12790 X230.094 Y57.871
N12800 X229.774 Y56.715
N12810 X229.364 Y55.588
N12820 X228.863 Y54.495
N12830 X228.274 Y53.443
N12840 X227.599 Y52.437
N12850 X226.842 Y51.484
N12860 X226.007 Y50.589
N12870 X225.096 Y49.759
N12880 X224.115 Y48.999
N12890 X223.069 Y48.316
N12900 X221.962 Y47.714
N12910 X220.8 Y47.198
N12920 X219.591 Y46.774
N12930 X218.341 Y46.445
N12940 X217.069 Y46.218
N12950 X215.783 Y46.093
N12960 X214.491 Y46.069
N12970 X213.202 Y46.146
N12980 X211.922 Y46.323
N12990 X210.659 Y46.598
N13000 X209.421 Y46.969
N13010 X208.215 Y47.432
N13020 X207.047 Y47.985
N13030 X205.924 Y48.623
N13040 X204.852 Y49.344
N13050 X203.837 Y50.143
N13060 X202.884 Y51.016
N13070 X201.999 Y51.958
N13080 X201.187 Y52.962
N13090 X200.451 Y54.024
N13100 X199.795 Y55.137
N13110 X199.222 Y56.295
N13120 X198.734 Y57.492
N13130 X198.335 Y58.721
N13140 X198.026 Y59.975
N13150 X197.808 Y61.249
N13160 X197.683 Y62.535
N13170 X197.654 Y63.827
N13180 X197.718 Y65.117
N13190 X197.877 Y66.399
N13200 X198.127 Y67.667
N13210 X198.469 Y68.913
N13220 X198.898 Y70.131
N13230 X199.414 Y71.316
N13240 X200.014 Y72.461
N13250 X200.693 Y73.559
N13260 X201.451 Y74.606
N13270 X202.283 Y75.594
N13280 X203.185 Y76.52
N13290 X204.151 Y77.378
N13300 X205.176 Y78.165
N13310 X206.254 Y78.876
N13320 X207.381 Y79.508
N13330 X208.55 Y80.059
N13340 X209.755 Y80.525
N13350 X210.991 Y80.903
N13360 X212.25 Y81.19
N13370 X213.528 Y81.385
N13380 X214.816 Y81.487
N13390 X216.108 Y81.497
N13400 X217.397 Y81.414
N13410 X218.677 Y81.239
N13420 X219.942 Y80.974
N13430 X221.184 Y80.619
N13440 X222.398 Y80.177
N13450 X223.577 Y79.648
N13460 X224.715 Y79.035
N13470 X225.807 Y78.346
N13480 X226.852 Y77.586
N13490 X227.847 Y76.761
N13500 X228.786 Y75.874
N13510 X229.668 Y74.929
N13520 X230.489 Y73.932
N13530 X231.248 Y72.887
N13540 X231.944 Y71.798
N13550 X232.572 Y70.669
N13560 X233.128 Y69.502
N13570 X233.61 Y68.304
N13580 X234.016 Y67.077
N13590 X234.347 Y65.828
N13600 X234.596 Y64.56
N13610 X234.762 Y63.279
N13620 X234.843 Y61.989
N13630 X234.84 Y60.697
N13640 X234.754 Y59.408
N13650 X234.584 Y58.127
N13660 X234.329 Y56.861
N13670 X233.989 Y55.614
N13680 X233.566 Y54.393
N13690 X233.064 Y53.203
N13700 X232.485 Y52.048
N13710 X231.832 Y50.933
N13720 X231.105 Y49.865
N13730 X230.308 Y48.848
N13740 X229.446 Y47.885
N13750 X228.523 Y46.981
N13760 X227.545 Y46.137
N13770 X226.513 Y45.36
N13780 X225.432 Y44.652
N13790 X224.307 Y44.016
N13800 X223.144 Y43.453
N13810 X221.949 Y42.963
N13820 X220.724 Y42.551
N13830 X219.475 Y42.22
N13840 X218.208 Y41.968
N13850 X216.927 Y41.794
N13860 X215.639 Y41.699
N13870 X214.347 Y41.686
N13880 X213.057 Y41.754
N13890 X211.773 Y41.901
N13900 X210.5 Y42.125
N13910 X209.244 Y42.424
N13920 X208.008 Y42.801
N13930 X206.797 Y43.253
N13940 X205.616 Y43.777
N13950 X204.468 Y44.369
N13960 X203.357 Y45.029
N13970 X202.288 Y45.755
N13980 X201.265 Y46.544
N13990 X200.291 Y47.393
N14000 X199.368 Y48.297
N14010 X198.499 Y49.254
N14020 X197.691 Y50.261
N14030 X196.943 Y51.315
N14040 X196.258 Y52.411
N14050 X195.638 Y53.544
N14060 X195.084 Y54.711
N14070 X194.6 Y55.909
N14080 X194.188 Y57.134
N14090 X193.848 Y58.381
N14100 X193.58 Y59.645
N14110 X193.385 Y60.922
N14120 X193.267 Y62.209
N14130 X193.226 Y63.5
N14140 X193.259 Y64.792
N14150 X193.365 Y66.079
N14160 X193.545 Y67.359
N14170 X193.8 Y68.625
N14180 X194.13 Y69.875
N14190 X194.53 Y71.103
N14200 X194.999 Y72.307
N14210 X195.536 Y73.482
N14220 X196.142 Y74.623
N14230 X196.814 Y75.727
N14240 X197.548 Y76.79
N14250 X198.342 Y77.81
N14260 X199.192 Y78.782
N14270 X200.099 Y79.703
N14280 X201.058 Y80.569
N14290 X202.064 Y81.379
N14300 X203.115 Y82.13
N14310 X204.207 Y82.821
N14320 X205.338 Y83.447
N14330 X206.503 Y84.005
N14340 X207.698 Y84.496
N14350 X208.92 Y84.917
N14360 X210.163 Y85.269
N14370 X211.425 Y85.546
N14380 X212.701 Y85.75
N14390 X213.986 Y85.879
N14400 X215.277 Y85.935
N14410 X216.569 Y85.919
N14420 X217.858 Y85.827
N14430 X219.139 Y85.66
N14440 X220.409 Y85.419
N14450 X221.662 Y85.107
N14460 X222.897 Y84.725
N14470 X224.107 Y84.272
N14480 X225.289 Y83.751
N14490 X226.44 Y83.164
N14500 X227.558 Y82.515
N14510 X228.639 Y81.808
N14520 X229.681 Y81.045
N14530 X230.68 Y80.225
N14540 X231.634 Y79.354
N14550 X232.542 Y78.435
N14560 X233.402 Y77.471
N14570 X234.213 Y76.465
N14580 X234.971 Y75.418
N14590 X235.672 Y74.333
N14600 X236.317 Y73.213
N14610 X236.904 Y72.062
N14620 X237.432 Y70.883
N14630 X237.9 Y69.679
N14640 X238.304 Y68.452
N14650 X238.642 Y67.204
N14660 X238.913 Y65.941
N14670 X239.119 Y64.666
N14680 X239.259 Y63.381
N14690 X239.33 Y62.091
N14700 X239.332 Y60.799
N14710 X239.264 Y59.509
N14720 X239.127 Y58.224
N14730 X238.923 Y56.948
N14740 X238.651 Y55.685
N14750 X238.31 Y54.439
N14760 X237.902 Y53.213
N14770 X237.43 Y52.01
N14780 X236.894 Y50.835
N14790 X236.296 Y49.689
N14800 X235.637 Y48.578
N14810 X234.918 Y47.504
N14820 X234.142 Y46.471
N14830 X233.313 Y45.48
N14840 X232.434 Y44.533
N14850 X231.505 Y43.635
N14860 X230.528 Y42.79
N14870 X229.508 Y41.997
N14880 X228.447 Y41.259
N14890 X227.349 Y40.577
N14900 X226.218 Y39.953
N14910 X225.055 Y39.39
N14920 X223.864 Y38.891
N14930 X222.648 Y38.453
N14940 X221.411 Y38.079
N14950 X220.157 Y37.768
N14960 X218.889 Y37.522
N14970 X217.609 Y37.343
N14980 X216.322 Y37.231
N14990 X215.031 Y37.185
N15000 X213.739 Y37.204
N15010 X212.449 Y37.286
N15020 X211.166 Y37.434
N15030 X209.891 Y37.648
N15040 X208.63 Y37.927
N15050 X207.384 Y38.268
N15060 X206.156 Y38.671
N15070 X204.949 Y39.132
N15080 X203.767 Y39.655
N15090 X202.613 Y40.236
N15100 X201.49 Y40.875
N15110 X200.4 Y41.568
N15120 X199.344 Y42.313
N15130 X198.326 Y43.109
N15140 X197.349 Y43.954
N15150 X196.416 Y44.848
N15160 X195.528 Y45.786
N15170 X194.687 Y46.767
N15180 X193.894 Y47.787
N15190 X193.15 Y48.844
N15200 X192.46 Y49.936
N15210 X191.826 Y51.061
N15220 X191.246 Y52.216
N15230 X190.723 Y53.398
N15240 X190.257 Y54.603
N15250 X189.849 Y55.829
N15260 X189.503 Y57.074
N15270 X189.218 Y58.334
N15280 X188.995 Y59.607
N15290 X188.833 Y60.888
N15300 X188.732 Y62.177
N15310 X188.693 Y63.468
N15320 X188.718 Y64.76
N15330 X188.805 Y66.049
N15340 X188.955 Y67.332
N15350 X189.166 Y68.607
N15360 X189.437 Y69.87
N15370 X189.768 Y71.119
N15380 X190.16 Y72.351
N15390 X190.611 Y73.561
N15400 X191.12 Y74.749
N15410 X191.686 Y75.911
N15420 X192.305 Y77.044
N15430 X192.978 Y78.147
N15440 X193.704 Y79.216
N15450 X194.482 Y80.248
N15460 X195.308 Y81.241
N15470 X196.18 Y82.194
N15480 X197.096 Y83.105
N15490 X198.055 Y83.972
N15500 X199.055 Y84.79
N15510 X200.094 Y85.558
N15520 X201.168 Y86.276
N15530 X202.275 Y86.943
N15540 X203.412 Y87.556
N15550 X204.577 Y88.115
N15560 X205.768 Y88.615
N15570 X206.982 Y89.057
N15580 X208.216 Y89.441
N15590 X209.467 Y89.765
N15600 X210.731 Y90.03
N15610 X212.007 Y90.235
N15620 X213.291 Y90.376
N15630 X214.581 Y90.456
N15640 X215.873 Y90.474
N15650 X217.164 Y90.43
N15660 X218.452 Y90.326
N15670 X219.734 Y90.16
N15680 X221.005 Y89.933
N15690 X222.265 Y89.644
N15700 X223.509 Y89.296
N15710 X224.736 Y88.89
N15720 X225.942 Y88.428
N15730 X227.126 Y87.91
N15740 X228.284 Y87.337
N15750 X229.415 Y86.711
N15760 X230.515 Y86.034
N15770 X231.584 Y85.309
N15780 X232.62 Y84.536
N15790 X233.62 Y83.719
N15800 X234.583 Y82.857
N15810 X235.506 Y81.953
N15820 X236.389 Y81.01
N15830 X237.229 Y80.028
N15840 X238.027 Y79.011
N15850 X238.779 Y77.961
N15860 X239.485 Y76.879
N15870 X240.143 Y75.767
N15880 X240.751 Y74.627
N15890 X241.309 Y73.461
N15900 X241.815 Y72.273
N15910 X242.269 Y71.063
N15920 X242.67 Y69.835
N15930 X243.016 Y68.59
N15940 X243.306 Y67.331
N15950 X243.54 Y66.06
N15960 X243.717 Y64.78
N15970 X243.838 Y63.494
N15980 X243.902 Y62.204
N15990 X243.908 Y60.911
N16000 X243.855 Y59.62
N16010 X243.744 Y58.333
N16020 X243.575 Y57.052
N16030 X243.35 Y55.78
N16040 X243.068 Y54.519
N16050 X242.729 Y53.272
N16060 X242.334 Y52.042
N16070 X241.883 Y50.831
N16080 X241.378 Y49.642
N16090 X240.821 Y48.476
N16100 X240.212 Y47.337
N16110 X239.552 Y46.226
N16120 X238.842 Y45.146
N16130 X238.084 Y44.1
N16140 X237.28 Y43.089
N16150 X236.431 Y42.114
N16160 X235.54 Y41.179
N16170 X234.608 Y40.284
N16180 X233.637 Y39.432
N16190 X232.628 Y38.624
N16200 X231.585 Y37.863
N16210 X230.508 Y37.148
N16220 X229.401 Y36.482
N16230 X228.266 Y35.864
N16240 X227.105 Y35.298
N16250 X225.919 Y34.784
N16260 X224.712 Y34.323
N16270 X223.486 Y33.916
N16280 X222.244 Y33.562
N16290 X220.987 Y33.262
N16300 X219.718 Y33.017
N16310 X218.44 Y32.829
N16320 X217.155 Y32.696
N16330 X215.865 Y32.619
N16340 X214.573 Y32.598
N16350 X213.282 Y32.632
N16360 X211.993 Y32.721
N16370 X210.709 Y32.866
N16380 X209.432 Y33.066
N16390 X208.165 Y33.321
N16400 X206.911 Y33.629
N16410 X205.67 Y33.99
N16420 X204.446 Y34.403
N16430 X203.24 Y34.868
N16440 X202.056 Y35.383
N16450 X200.894 Y35.949
N16460 X199.758 Y36.564
N16470 X198.648 Y37.226
N16480 X197.567 Y37.933
N16490 X196.516 Y38.685
N16500 X195.498 Y39.48
N16510 X194.514 Y40.318
N16520 X193.567 Y41.197
N16530 X192.658 Y42.115
N16540 X191.787 Y43.07
N16550 X190.957 Y44.06
N16560 X190.168 Y45.083
N16570 X189.422 Y46.138
N16580 X188.722 Y47.224
N16590 X188.068 Y48.338
N16600 X187.46 Y49.478
N16610 X186.9 Y50.643
N16620 X186.388 Y51.829
N16630 X185.925 Y53.035
N16640 X185.513 Y54.26
N16650 X185.153 Y55.501
N16660 X184.845 Y56.755
N16670 X184.589 Y58.022
N16680 X184.384 Y59.298
N16690 X184.233 Y60.581
N16700 X184.133 Y61.869
N16710 X184.088 Y63.16
N16720 X184.096 Y64.452
N16730 X184.158 Y65.743
N16740 X184.273 Y67.03
N16750 X184.44 Y68.311
N16760 X184.659 Y69.584
N16770 X184.93 Y70.848
N16780 X185.253 Y72.099
N16790 X185.629 Y73.335
N16800 X186.055 Y74.555
N16810 X186.53 Y75.756
N16820 X187.053 Y76.938
N16830 X187.625 Y78.096
N16840 X188.243 Y79.231
N16850 X188.908 Y80.339
N16860 X189.618 Y81.418
N16870 X190.373 Y82.467
N16880 X191.169 Y83.484
N16890 X192.006 Y84.469
N16900 X192.882 Y85.419
N16910 X193.796 Y86.332
N16920 X194.748 Y87.206
N16930 X195.735 Y88.039
N16940 X196.755 Y88.832
N16950 X197.806 Y89.583
N16960 X198.888 Y90.29
N16970 X199.996 Y90.954
N16980 X201.132 Y91.571
N16990 X202.292 Y92.14
N17000 X203.474 Y92.66
N17010 X204.677 Y93.132
N17020 X205.898 Y93.554
N17030 X207.135 Y93.927
N17040 X208.386 Y94.25
N17050 X209.65 Y94.52
N17060 X210.923 Y94.738
N17070 X212.205 Y94.903
N17080 X213.492 Y95.015
N17090 X214.783 Y95.076
N17100 X216.075 Y95.084
N17110 X217.366 Y95.04
N17120 X218.654 Y94.943
N17130 X219.938 Y94.792
N17140 X221.214 Y94.589
N17150 X222.48 Y94.334
N17160 X223.736 Y94.028
N17170 X224.978 Y93.673
N17180 X226.205 Y93.269
N17190 X227.415 Y92.816
N17200 X228.605 Y92.313
N17210 X229.775 Y91.764
N17220 X230.922 Y91.169
N17230 X232.044 Y90.529
N17240 X233.141 Y89.847
N17250 X234.212 Y89.123
N17260 X235.253 Y88.358
N17270 X236.263 Y87.552
N17280 X237.241 Y86.708
N17290 X238.187 Y85.827
N17300 X239.098 Y84.911
N17310 X239.974 Y83.961
N17320 X240.813 Y82.979
N17330 X241.615 Y81.967
N17340 X242.378 Y80.923
N17350 X243.1 Y79.852
N17360 X243.78 Y78.754
N17370 X244.419 Y77.63
N17380 X245.015 Y76.484
N17390 X245.568 Y75.316
N17400 X246.077 Y74.128
N17410 X246.539 Y72.922
N17420 X246.955 Y71.699
N17430 X247.323 Y70.46
N17440 X247.644 Y69.209
N17450 X247.917 Y67.946
N17460 X248.143 Y66.674
N17470 X248.32 Y65.394
N17480 X248.447 Y64.108
N17490 X248.525 Y62.818
N17500 X248.551 Y61.526
N17510 X248.529 Y60.235
N17520 X248.456 Y58.945
N17530 X248.335 Y57.658
N17540 X248.164 Y56.377
N17550 X247.944 Y55.104
N17560 X247.674 Y53.841
N17570 X247.355 Y52.589
N17580 X246.987 Y51.35
N17590 X246.572 Y50.127
N17600 X246.11 Y48.92
N17610 X245.602 Y47.732
N17620 X245.049 Y46.564
N17630 X244.45 Y45.419
N17640 X243.807 Y44.299
N17650 X243.12 Y43.204
N17660 X242.392 Y42.137
N17670 X241.623 Y41.099
N17680 X240.816 Y40.09
N17690 X239.97 Y39.113
N17700 X239.087 Y38.17
N17710 X238.167 Y37.263
N17720 X237.213 Y36.391
N17730 X236.226 Y35.557
N17740 X235.208 Y34.761
N17750 X234.161 Y34.005
N17760 X233.086 Y33.288
N17770 X231.984 Y32.614
N17780 X230.856 Y31.982
N17790 X229.706 Y31.395
N17800 X228.533 Y30.852
N17810 X227.341 Y30.354
N17820 X226.131 Y29.901
N17830 X224.905 Y29.493
N17840 X223.873 Y29.193
N17850 X223.602 Y29.128
N17860 X223.325 Y29.088
N17870 X223.045 Y29.075
N17880 X210.274
N17890 X208.984 Y29.14
N17900 X207.695 Y29.227
N17910 X206.414 Y29.397
N17920 X205.145 Y29.641
N17930 X203.891 Y29.952
N17940 X202.654 Y30.324
N17950 X201.435 Y30.754
N17960 X200.237 Y31.236
N17970 X199.06 Y31.77
N17980 X197.907 Y32.352
N17990 X196.778 Y32.981
N18000 X195.675 Y33.654
N18010 X194.599 Y34.369
N18020 X193.551 Y35.124
N18030 X192.532 Y35.919
N18040 X191.543 Y36.751
N18050 X190.586 Y37.619
N18060 X189.662 Y38.522
N18070 X188.773 Y39.459
N18080 X187.918 Y40.428
N18090 X187.1 Y41.428
N18100 X186.318 Y42.457
N18110 X185.574 Y43.513
N18120 X184.868 Y44.595
N18130 X184.202 Y45.703
N18140 X183.578 Y46.834
N18150 X182.995 Y47.987
N18160 X182.454 Y49.16
N18170 X181.955 Y50.352
N18180 X181.5 Y51.561
N18190 X181.088 Y52.786
N18200 X180.72 Y54.025
N18210 X180.398 Y55.276
N18220 X180.121 Y56.538
N18230 X179.89 Y57.809
N18240 X179.705 Y59.088
N18250 X179.566 Y60.372
N18260 X179.472 Y61.661
N18270 X179.425 Y62.952
N18280 X179.424 Y64.244
N18290 X179.469 Y65.535
N18300 X179.562 Y66.824
N18310 X179.7 Y68.109
N18320 X179.884 Y69.388
N18330 X180.114 Y70.659
N18340 X180.389 Y71.922
N18350 X180.708 Y73.174
N18360 X181.072 Y74.413
N18370 X181.481 Y75.639
N18380 X181.934 Y76.849
N18390 X182.43 Y78.042
N18400 X182.968 Y79.217
N18410 X183.547 Y80.372
N18420 X184.167 Y81.505
N18430 X184.827 Y82.616
N18440 X185.527 Y83.703
N18450 X186.265 Y84.763
N18460 X187.041 Y85.796
N18470 X187.853 Y86.801
N18480 X188.7 Y87.776
N18490 X189.582 Y88.721
N18500 X190.496 Y89.634
N18510 X191.442 Y90.514
N18520 X192.42 Y91.359
N18530 X193.427 Y92.168
N18540 X194.462 Y92.941
N18550 X195.524 Y93.676
N18560 X196.612 Y94.374
N18570 X197.724 Y95.032
N18580 X198.859 Y95.65
N18590 X200.014 Y96.228
N18600 X201.19 Y96.763
N18610 X202.385 Y97.256
N18620 X203.596 Y97.706
N18630 X203.803 Y97.775
N18640 X204.108 Y97.858
N18650 X204.42 Y97.908
N18660 X204.735 Y97.925
N18670 X222.459
N18680 X223.749 Y97.86
N18690 X225.036 Y97.75
N18700 X226.312 Y97.547
N18710 X227.573 Y97.263
N18720 X228.815 Y96.908
N18730 X230.037 Y96.489
N18740 X231.238 Y96.011
N18750 X232.416 Y95.48
N18760 X233.57 Y94.899
N18770 X234.7 Y94.272
N18780 X235.804 Y93.602
N18790 X236.883 Y92.891
N18800 X237.934 Y92.14
N18810 X238.958 Y91.352
N18820 X239.953 Y90.527
N18830 X240.917 Y89.667
N18840 X241.852 Y88.775
N18850 X242.755 Y87.851
N18860 X243.626 Y86.896
N18870 X244.464 Y85.913
N18880 X245.268 Y84.902
N18890 X246.039 Y83.865
N18900 X246.773 Y82.802
N18910 X247.471 Y81.715
N18920 X248.133 Y80.605
N18930 X248.756 Y79.473
N18940 X249.342 Y78.321
N18950 X249.889 Y77.151
N18960 X250.087 Y76.688
N18970 X250.218 Y76.312
N18980 X250.298 Y75.921
N18990 X250.325 Y75.524
N19000 Y51.465
N19010 X250.26 Y50.174
N19020 X250.112 Y48.928
N19030 X249.858 Y47.662
N19040 X249.513 Y46.417
N19050 X249.091 Y45.195
N19060 X248.602 Y44.
N19070 X248.052 Y42.83
N19080 X247.448 Y41.688
N19090 X246.794 Y40.574
N19100 X246.095 Y39.487
N19110 X245.353 Y38.43
N19120 X244.57 Y37.402
N19130 X243.748 Y36.404
N19140 X242.89 Y35.439
N19150 X241.997 Y34.505
N19160 X241.072 Y33.603
N19170 X240.115 Y32.734
N19180 X239.13 Y31.899
N19190 X238.116 Y31.098
N19200 X237.075 Y30.332
N19210 X236.009 Y29.603
N19220 X235.903 Y29.536
N19230 X235.535 Y29.337
N19240 X235.143 Y29.193
N19250 X234.734 Y29.105
N19260 X234.317 Y29.075
N19270 X223.045
N19280 G2 X221.969 Y29.747 Z-6.217 I0.044 J1.269
N19290 X221.794 Y30.383 Z-6.15 I1.329 J0.708
N19300 X222.266 Y31.552 I1.504 J0.072
N19310 X232.9 Y30.318 I4.797 J-5.098
N19320 X233.24 Y29.747 Z-6.217 I-5.837 J-3.864
N19330 G3 X234.317 Y29.075 Z-6.35 I1.121 J0.597
N19340 G1 X238.069 F3150.
N19350 X238.738 Y29.108
N19360 X239.352 Y29.189
N19370 X240.054 Y29.339
N19380 X240.837 Y29.574
N19390 X241.727 Y29.92
N19400 X242.726 Y30.405
N19410 X243.829 Y31.054
N19420 X244.887 Y31.797
N19430 X245.889 Y32.612
N19440 X246.84 Y33.487
N19450 X247.741 Y34.413
N19460 X248.592 Y35.385
N19470 X249.396 Y36.397
N19480 X249.765 Y36.908
N19490 X250.005 Y37.303
N19500 X250.181 Y37.731
N19510 X250.289 Y38.181
N19520 X250.325 Y38.642
N19530 Y51.465
N19540 G3 X249.653 Y52.541 Z-6.217 I-1.269 J-0.044 F3500.
N19550 X249.022 Y52.738 Z-6.15 I-0.835 J-1.566
N19560 X247.508 Y52.171 I-0.203 J-1.763
N19570 X249.08 Y40.056 I5.909 J-5.393
N19580 X249.653 Y39.719 Z-6.217 I4.337 J6.723
N19590 G2 X250.325 Y38.642 Z-6.35 I-0.597 J-1.121
N19600 G1 Y35.482
N19610 X250.29 Y34.78
N19620 X250.222 Y34.265
N19630 X250.105 Y33.718
N19640 X249.917 Y33.088
N19650 X249.664 Y32.44
N19660 X249.31 Y31.709
N19670 X248.886 Y30.99
N19680 X248.343 Y30.217
N19690 X248.284 Y30.146
N19700 X247.984 Y29.833
N19710 X247.641 Y29.568
N19720 X247.263 Y29.356
N19730 X246.859 Y29.201
N19740 X246.436 Y29.107
N19750 X246.004 Y29.075
N19760 G2 X244.779 Y30.388 Z-6.15 I0.044 J1.269
N19770 X244.955 Y30.99 I1.269 J-0.043
N19780 G1 X247.962 Y36.083
N19790 G2 X249.012 Y36.707 I1.094 J-0.646
N19800 X250.325 Y35.482 Z-6.35 I0.043 J-1.269
N19810 G1 Y30.706
N19820 X250.308 Y30.37
N19830 X250.238 Y30.074
N19840 X250.109 Y29.798
N19850 X249.926 Y29.554
N19860 X249.697 Y29.353
N19870 X249.433 Y29.202
N19880 X249.143 Y29.108
N19890 X248.84 Y29.076
N19900 G2 X247.752 Y29.515 Z-6.23 I0.051 J1.689
N19910 X247.326 Y30.177 Z-6.15 I1.036 J1.137
N19920 X247.25 Y30.652 I1.462 J0.476
N19930 X249.153 Y32.146 I1.538 J0.
N19940 X250.325 Y30.706 Z-6.35 I-0.365 J-1.494
N19950 G1 Y30.535
N19960 X250.309 Y30.154
N19970 X250.286 Y30.046
N19980 X250.254 Y29.938
N19990 X250.183 Y29.774
N20000 X250.128 Y29.679
N20010 X250.062 Y29.583
N20020 X249.981 Y29.488
N20030 X249.883 Y29.393
N20040 X249.873 Y29.384
N20050 X249.778 Y29.31
N20060 X249.682 Y29.248
N20070 X249.492 Y29.157
N20080 X249.302 Y29.102
N20090 X249.111 Y29.077
N20100 X248.731 Y29.075
N20110 X238.069
N20120 G2 X236.845 Y30.388 Z-6.15 I0.044 J1.269
N20130 X237.947 Y31.603 I1.269 J-0.043
N20140 X238.131 Y30.212 I0.092 J-0.696
N20150 X237.548 Y30.406 I-0.092 J0.696
N20160 X249.129 Y74.138 I18.183 J18.584
N20170 G1 X249.325 Y74.188 Z-6.17
N20180 G3 X250.104 Y74.77 Z-6.27 I-0.313 J1.231
N20190 G1 X250.11 Y74.781 Z-6.272
N20200 G3 X250.325 Y75.524 Z-6.35 I-1.367 J0.798
N20210 G1 Y81.147 F3150.
N20220 X250.29 Y81.851
N20230 X250.186 Y82.646
N20240 X249.991 Y83.556
N20250 X249.684 Y84.579
N20260 X249.229 Y85.748
N20270 X248.665 Y86.911
N20280 X248.021 Y88.031
N20290 X247.309 Y89.109
N20300 X246.54 Y90.148
N20310 X245.722 Y91.147
N20320 X244.859 Y92.11
N20330 X243.957 Y93.035
N20340 X243.019 Y93.923
N20350 X242.048 Y94.775
N20360 X241.045 Y95.59
N20370 X240.013 Y96.367
N20380 X238.953 Y97.106
N20390 X238.417 Y97.452
N20400 X238.045 Y97.656
N20410 X237.648 Y97.804
N20420 X237.234 Y97.895
N20430 X236.811 Y97.925
N20440 X222.459
N20450 G3 X221.382 Y97.253 Z-6.217 I0.044 J-1.269 F3500.
N20460 X221.169 Y96.626 Z-6.15 I1.818 J-0.969
N20470 X221.837 Y94.739 I2.032 J-0.342
N20480 X235.4 Y96.678 I5.956 J6.748
N20490 X235.735 Y97.253 Z-6.217 I-7.608 J4.809
N20500 G2 X236.811 Y97.925 Z-6.35 I1.121 J-0.597
N20510 G1 X240.735
N20520 X241.246 Y97.899
N20530 X241.852 Y97.82
N20540 X242.532 Y97.674
N20550 X243.313 Y97.44
N20560 X244.164 Y97.109
N20570 X245.103 Y96.654
N20580 X246.13 Y96.049
N20590 X247.187 Y95.306
N20600 X248.183 Y94.484
N20610 X249.12 Y93.594
N20620 X249.538 Y93.142
N20630 X249.813 Y92.796
N20640 X250.033 Y92.413
N20650 X250.194 Y92.002
N20660 X250.292 Y91.571
N20670 X250.325 Y91.131
N20680 Y81.147
N20690 G2 X249.653 Y80.071 Z-6.217 I-1.269 J0.044
N20700 X249.008 Y79.981 Z-6.15 I-0.446 J0.836
N20710 X248.594 Y80.184 I0.2 J0.927
N20720 X249.085 Y89.71 I3.881 J4.575
N20730 X249.653 Y90.055 Z-6.217 I3.391 J-4.95
N20740 G3 X250.325 Y91.131 Z-6.35 I-0.597 J1.121
N20750 G1 Y93.705 F3150.
N20760 X250.299 Y94.23
N20770 X250.249 Y94.607
N20780 X250.154 Y95.052
N20790 X250.019 Y95.502
N20800 X249.818 Y96.02
N20810 X249.565 Y96.541
N20820 X249.327 Y96.883
N20830 X249.042 Y97.187
N20840 X248.715 Y97.445
N20850 X248.354 Y97.651
N20860 X247.966 Y97.802
N20870 X247.56 Y97.894
N20880 X247.144 Y97.925
N20890 X240.735
N20900 G3 X239.51 Y96.612 Z-6.15 I0.044 J-1.269 F3500.
N20910 X240.358 Y95.458 I1.269 J0.043
N20920 G1 X248.635 Y92.551
N20930 G3 X249.012 Y92.48 I0.421 J1.198
N20940 X250.325 Y93.705 Z-6.35 I0.043 J1.269
N20950 G1 Y96.369 F3150.
N20960 X250.32 Y96.749
N20970 X250.297 Y96.906
N20980 X250.254 Y97.062
N20990 X250.228 Y97.13
N21000 X250.129 Y97.32
N21010 X250.062 Y97.415
N21020 X249.982 Y97.51
N21030 X249.873 Y97.616
N21040 X249.778 Y97.69
N21050 X249.682 Y97.752
N21060 X249.492 Y97.843
N21070 X249.334 Y97.891
N21080 X249.223 Y97.912
N21090 X249.111 Y97.923
N21100 X248.731 Y97.925
N21110 X247.144
N21120 G3 X245.919 Y96.672 I0.044 J-1.269 F3500.
N21130 G1 Y96.656
N21140 X245.932 Y96.55 Z-6.344
N21150 X245.945 Y96.445 Z-6.329
N21160 X245.958 Y96.341 Z-6.305
N21170 X245.999 Y96.239 Z-6.27
N21180 X246.038 Y96.14 Z-6.224
N21190 X246.075 Y96.046 Z-6.17
N21200 X246.143 Y95.952 Z-6.091
N21210 X246.205 Y95.866 Z-6.001
N21220 X246.261 Y95.789 Z-5.899
N21230 X246.32 Y95.739 Z-5.798
N21240 X246.37 Y95.696 Z-5.69
N21250 X246.412 Y95.661 Z-5.575
N21260 X246.446 Y95.633 Z-5.456
N21270 X246.47 Y95.612 Z-5.333
N21280 X246.484 Y95.6 Z-5.207
N21290 X246.489 Y95.596 Z-5.081
N21300 G0 Z-3.81
N21310 X206.581 Y97.055
N21320 G1 Z-5.08 F3500.
N21330 X206.574 Y97.059 Z-5.222
N21340 X206.553 Y97.071 Z-5.363
N21350 X206.519 Y97.091 Z-5.499
N21360 X206.472 Y97.119 Z-5.631
N21370 X206.413 Y97.154 Z-5.756
N21380 X206.342 Y97.196 Z-5.872
N21390 X206.261 Y97.245 Z-5.978
N21400 X206.17 Y97.299 Z-6.073
N21410 X206.07 Y97.358 Z-6.155
N21420 X205.963 Y97.422 Z-6.224
N21430 X205.849 Y97.489 Z-6.279
N21440 X205.732 Y97.559 Z-6.318
N21450 X205.611 Y97.631 Z-6.342
N21460 X205.489 Y97.704 Z-6.35
N21470 G3 X204.735 Y97.925 I-0.809 J-1.36
N21480 G1 X198.471 F3150.
N21490 X197.414 Y97.872
N21500 X196.576 Y97.762
N21510 X195.611 Y97.556
N21520 X194.514 Y97.227
N21530 X193.31 Y96.758
N21540 X192.146 Y96.197
N21550 X191.023 Y95.558
N21560 X189.939 Y94.854
N21570 X188.895 Y94.094
N21580 X187.888 Y93.284
N21590 X186.918 Y92.431
N21600 X185.984 Y91.538
N21610 X185.085 Y90.609
N21620 X184.223 Y89.648
N21630 X183.395 Y88.655
N21640 X182.603 Y87.635
N21650 X181.846 Y86.587
N21660 X181.126 Y85.514
N21670 X180.443 Y84.418
N21680 X179.796 Y83.299
N21690 X179.186 Y82.16
N21700 X178.613 Y81.002
N21710 X178.078 Y79.826
N21720 X177.581 Y78.634
N21730 X177.122 Y77.426
N21740 X176.702 Y76.204
N21750 X176.321 Y74.969
N21760 X175.981 Y73.723
N21770 X175.68 Y72.466
N21780 X175.42 Y71.201
N21790 X175.199 Y69.928
N21800 X175.019 Y68.648
N21810 X174.879 Y67.364
N21820 X174.78 Y66.075
N21830 X174.722 Y64.785
N21840 X174.706 Y63.493
N21850 X174.73 Y62.201
N21860 X174.796 Y60.911
N21870 X174.903 Y59.623
N21880 X175.05 Y58.339
N21890 X175.238 Y57.061
N21900 X175.466 Y55.789
N21910 X175.734 Y54.525
N21920 X176.043 Y53.271
N21930 X176.392 Y52.027
N21940 X176.78 Y50.794
N21950 X177.208 Y49.575
N21960 X177.674 Y48.37
N21970 X178.178 Y47.18
N21980 X178.719 Y46.007
N21990 X179.298 Y44.852
N22000 X179.913 Y43.716
N22010 X180.565 Y42.6
N22020 X181.252 Y41.506
N22030 X181.974 Y40.435
N22040 X182.731 Y39.387
N22050 X183.52 Y38.364
N22060 X184.342 Y37.367
N22070 X185.195 Y36.397
N22080 X186.079 Y35.455
N22090 X186.994 Y34.542
N22100 X187.939 Y33.661
N22110 X188.912 Y32.811
N22120 X189.913 Y31.993
N22130 X190.94 Y31.21
N22140 X191.993 Y30.461
N22150 X193.07 Y29.748
N22160 X193.453 Y29.513
N22170 X193.814 Y29.324
N22180 X194.198 Y29.186
N22190 X194.597 Y29.103
N22200 X195.003 Y29.075
N22210 X210.274
N22220 G3 X211.351 Y29.747 Z-6.217 I-0.044 J1.269 F3500.
N22230 X211.46 Y30.391 Z-6.15 I-0.913 J0.486
N22240 X211.271 Y30.846 I-1.022 J-0.158
N22250 X196.414 Y30.322 I-7.25 J-5.333
N22260 X196.079 Y29.747 Z-6.217 I7.608 J-4.809
N22270 G2 X195.003 Y29.075 Z-6.35 I-1.121 J0.597
N22280 G1 X190.856
N22290 X190.357 Y29.1
N22300 X189.715 Y29.184
N22310 X188.974 Y29.343
N22320 X188.148 Y29.59
N22330 X187.206 Y29.957
N22340 X186.14 Y30.474
N22350 X185.026 Y31.13
N22360 X183.965 Y31.866
N22370 X182.952 Y32.669
N22380 X181.985 Y33.526
N22390 X181.062 Y34.43
N22400 X180.18 Y35.374
N22410 X179.338 Y36.354
N22420 X178.534 Y37.366
N22430 X177.769 Y38.407
N22440 X177.04 Y39.473
N22450 X176.347 Y40.564
N22460 X175.69 Y41.677
N22470 X175.068 Y42.809
N22480 X174.481 Y43.96
N22490 X173.929 Y45.128
N22500 X173.412 Y46.312
N22510 X172.93 Y47.511
N22520 X172.484 Y48.724
N22530 X172.075 Y49.949
N22540 X171.701 Y51.186
N22550 X171.363 Y52.433
N22560 X171.062 Y53.69
N22570 X170.796 Y54.954
N22580 X170.567 Y56.226
N22590 X170.373 Y57.503
N22600 X170.216 Y58.786
N22610 X170.096 Y60.072
N22620 X170.013 Y61.361
N22630 X169.967 Y62.653
N22640 X169.958 Y63.945
N22650 X169.986 Y65.236
N22660 X170.051 Y66.527
N22670 X170.152 Y67.815
N22680 X170.29 Y69.1
N22690 X170.463 Y70.38
N22700 X170.673 Y71.655
N22710 X170.919 Y72.923
N22720 X171.202 Y74.184
N22730 X171.521 Y75.436
N22740 X171.876 Y76.679
N22750 X172.266 Y77.91
N22760 X172.691 Y79.13
N22770 X173.15 Y80.338
N22780 X173.644 Y81.532
N22790 X174.171 Y82.712
N22800 X174.733 Y83.875
N22810 X175.329 Y85.021
N22820 X175.959 Y86.15
N22830 X176.622 Y87.258
N22840 X177.318 Y88.347
N22850 X178.047 Y89.414
N22860 X178.807 Y90.459
N22870 X179.6 Y91.479
N22880 X180.424 Y92.474
N22890 X181.281 Y93.441
N22900 X182.171 Y94.377
N22910 X183.094 Y95.282
N22920 X184.049 Y96.152
N22930 X185.036 Y96.986
N22940 X185.443 Y97.302
N22950 X185.767 Y97.521
N22960 X186.117 Y97.695
N22970 X186.487 Y97.822
N22980 X186.871 Y97.899
N22990 X187.261 Y97.925
N23000 X198.471
N23010 G2 X199.548 Y97.253 Z-6.217 I-0.044 J-1.269
N23020 X199.728 Y96.618 Z-6.15 I-1.378 J-0.735
N23030 X199.219 Y95.362 I-1.559 J-0.099
N23040 X188.678 Y96.682 I-4.704 J5.184
N23050 X188.338 Y97.253 Z-6.217 I5.837 J3.864
N23060 G3 X187.261 Y97.925 Z-6.35 I-1.121 J-0.597
N23070 G1 X184.003 F3150.
N23080 X183.522 Y97.901
N23090 X182.987 Y97.831
N23100 X182.395 Y97.704
N23110 X181.709 Y97.499
N23120 X180.942 Y97.2
N23130 X180.084 Y96.784
N23140 X179.117 Y96.214
N23150 X178.059 Y95.471
N23160 X177.064 Y94.648
N23170 X176.124 Y93.761
N23180 X175.237 Y92.822
N23190 X174.398 Y91.839
N23200 X173.604 Y90.82
N23210 X172.852 Y89.769
N23220 X172.14 Y88.691
N23230 X171.466 Y87.589
N23240 X170.83 Y86.464
N23250 X170.229 Y85.32
N23260 X169.664 Y84.158
N23270 X169.134 Y82.98
N23280 X168.637 Y81.787
N23290 X168.174 Y80.581
N23300 X167.745 Y79.362
N23310 X167.348 Y78.133
N23320 X166.985 Y76.893
N23330 X166.654 Y75.644
N23340 X166.357 Y74.386
N23350 X166.094 Y73.121
N23360 X165.864 Y71.85
N23370 X165.667 Y70.573
N23380 X165.504 Y69.291
N23390 X165.373 Y68.006
N23400 X165.276 Y66.717
N23410 X165.213 Y65.427
N23420 X165.182 Y64.135
N23430 X165.185 Y62.843
N23440 X165.221 Y61.552
N23450 X165.291 Y60.261
N23460 X165.394 Y58.974
N23470 X165.531 Y57.689
N23480 X165.702 Y56.408
N23490 X165.905 Y55.132
N23500 X166.141 Y53.862
N23510 X166.41 Y52.598
N23520 X166.712 Y51.342
N23530 X167.046 Y50.094
N23540 X167.413 Y48.855
N23550 X167.812 Y47.626
N23560 X168.244 Y46.408
N23570 X168.709 Y45.203
N23580 X169.206 Y44.01
N23590 X169.736 Y42.831
N23600 X170.297 Y41.668
N23610 X170.89 Y40.52
N23620 X171.515 Y39.389
N23630 X172.172 Y38.277
N23640 X172.862 Y37.184
N23650 X173.585 Y36.113
N23660 X174.343 Y35.067
N23670 X175.135 Y34.046
N23680 X175.961 Y33.052
N23690 X176.823 Y32.09
N23700 X177.72 Y31.16
N23710 X178.656 Y30.269
N23720 X179.198 Y29.799
N23730 X179.536 Y29.546
N23740 X179.907 Y29.343
N23750 X180.304 Y29.195
N23760 X180.717 Y29.105
N23770 X181.139 Y29.075
N23780 X190.856
N23790 G3 X191.932 Y29.747 Z-6.217 I-0.044 J1.269 F3500.
N23800 X192.077 Y30.388 Z-6.15 I-1.092 J0.582
N23810 X191.706 Y31.213 I-1.236 J-0.059
N23820 X182.56 Y30.315 I-4.196 J-4.289
N23830 X182.215 Y29.747 Z-6.217 I4.95 J-3.391
N23840 G2 X181.139 Y29.075 Z-6.35 I-1.121 J0.597
N23850 G1 X178.291
N23860 X177.71 Y29.104
N23870 X177.234 Y29.167
N23880 X176.688 Y29.283
N23890 X176.075 Y29.467
N23900 X175.372 Y29.74
N23910 X174.602 Y30.114
N23920 X173.738 Y30.623
N23930 X172.774 Y31.3
N23940 X171.78 Y32.126
N23950 X170.85 Y33.022
N23960 X169.978 Y33.976
N23970 X169.159 Y34.976
N23980 X168.389 Y36.013
N23990 X167.663 Y37.082
N24000 X166.98 Y38.179
N24010 X166.335 Y39.299
N24020 X165.729 Y40.439
N24030 X165.158 Y41.599
N24040 X164.623 Y42.774
N24050 X164.122 Y43.965
N24060 X163.653 Y45.17
N24070 X163.218 Y46.386
N24080 X162.814 Y47.613
N24090 X162.441 Y48.85
N24100 X162.1 Y50.097
N24110 X161.79 Y51.351
N24120 X161.51 Y52.612
N24130 X161.261 Y53.88
N24140 X161.043 Y55.154
N24150 X160.855 Y56.432
N24160 X160.699 Y57.715
N24170 X160.574 Y59.001
N24180 X160.48 Y60.289
N24190 X160.416 Y61.58
N24200 X160.383 Y62.871
N24210 X160.381 Y64.163
N24220 X160.408 Y65.455
N24230 X160.467 Y66.746
N24240 X160.555 Y68.035
N24250 X160.674 Y69.321
N24260 X160.824 Y70.605
N24270 X161.005 Y71.884
N24280 X161.216 Y73.159
N24290 X161.458 Y74.428
N24300 X161.731 Y75.691
N24310 X162.034 Y76.947
N24320 X162.367 Y78.195
N24330 X162.73 Y79.435
N24340 X163.124 Y80.666
N24350 X163.548 Y81.886
N24360 X164.002 Y83.096
N24370 X164.489 Y84.293
N24380 X165.006 Y85.477
N24390 X165.556 Y86.646
N24400 X166.138 Y87.799
N24410 X166.753 Y88.936
N24420 X167.401 Y90.054
N24430 X168.083 Y91.151
N24440 X168.801 Y92.225
N24450 X169.556 Y93.274
N24460 X170.351 Y94.292
N24470 X171.186 Y95.278
N24480 X172.062 Y96.228
N24490 X172.982 Y97.135
N24500 X173.031 Y97.178
N24510 X173.372 Y97.439
N24520 X173.747 Y97.648
N24530 X174.149 Y97.801
N24540 X174.569 Y97.894
N24550 X174.997 Y97.925
N24560 X184.003
N24570 G2 X185.079 Y97.253 Z-6.217 I-0.044 J-1.269
N24580 X185.275 Y96.622 Z-6.15 I-1.553 J-0.828
N24590 X184.421 Y94.91 I-1.749 J-0.196
N24600 X176.419 Y96.685 I-3.053 J5.165
N24610 X176.074 Y97.253 Z-6.217 I4.95 J3.391
N24620 G3 X174.997 Y97.925 Z-6.35 I-1.121 J-0.597
N24630 G1 X172.199 F3150.
N24640 X171.805 Y97.905
N24650 X171.375 Y97.849
N24660 X170.868 Y97.74
N24670 X170.312 Y97.574
N24680 X169.672 Y97.324
N24690 X168.973 Y96.985
N24700 X168.191 Y96.525
N24710 X167.32 Y95.913
N24720 X166.357 Y95.114
N24730 X165.432 Y94.211
N24740 X164.572 Y93.247
N24750 X163.771 Y92.233
N24760 X163.023 Y91.18
N24770 X162.323 Y90.093
N24780 X161.669 Y88.98
N24790 X161.055 Y87.842
N24800 X160.482 Y86.685
N24810 X159.945 Y85.51
N24820 X159.443 Y84.319
N24830 X158.974 Y83.115
N24840 X158.539 Y81.898
N24850 X158.134 Y80.671
N24860 X157.76 Y79.435
N24870 X157.417 Y78.189
N24880 X157.103 Y76.936
N24890 X156.818 Y75.675
N24900 X156.563 Y74.409
N24910 X156.337 Y73.137
N24920 X156.139 Y71.86
N24930 X155.971 Y70.579
N24940 X155.832 Y69.294
N24950 X155.721 Y68.007
N24960 X155.638 Y66.717
N24970 X155.584 Y65.427
N24980 X155.559 Y64.135
N24990 X155.561 Y62.843
N25000 X155.592 Y61.551
N25010 X155.651 Y60.26
N25020 X155.738 Y58.971
N25030 X155.853 Y57.684
N25040 X155.997 Y56.4
N25050 X156.17 Y55.12
N25060 X156.371 Y53.844
N25070 X156.601 Y52.572
N25080 X156.86 Y51.306
N25090 X157.147 Y50.046
N25100 X157.462 Y48.793
N25110 X157.806 Y47.548
N25120 X158.179 Y46.311
N25130 X158.581 Y45.083
N25140 X159.012 Y43.865
N25150 X159.474 Y42.658
N25160 X159.967 Y41.464
N25170 X160.491 Y40.283
N25180 X161.048 Y39.117
N25190 X161.638 Y37.968
N25200 X162.261 Y36.836
N25210 X162.92 Y35.725
N25220 X163.615 Y34.635
N25230 X164.35 Y33.573
N25240 X165.127 Y32.54
N25250 X165.948 Y31.543
N25260 X166.813 Y30.583
N25270 X167.448 Y29.946
N25280 X167.802 Y29.643
N25290 X168.199 Y29.399
N25300 X168.629 Y29.221
N25310 X169.082 Y29.112
N25320 X169.547 Y29.075
N25330 X178.291
N25340 G3 X179.516 Y30.388 Z-6.15 I-0.044 J1.269 F3500.
N25350 X179.113 Y31.273 I-1.269 J-0.043
N25360 X178.102 Y31.812 I-1.517 J-1.627
N25370 X171.154 Y30.163 I-1.82 J-7.79
N25380 X170.431 Y29.478 Z-6.25 I5.128 J-6.141
N25390 G2 X169.547 Y29.075 Z-6.35 I-0.929 J0.866
N25400 G1 X166.869
N25410 X166.446 Y29.096
N25420 X166.037 Y29.15
N25430 X165.55 Y29.254
N25440 X165.022 Y29.412
N25450 X164.412 Y29.65
N25460 X163.749 Y29.972
N25470 X163.007 Y30.408
N25480 X162.181 Y30.989
N25490 X161.271 Y31.744
N25500 X160.346 Y32.646
N25510 X159.491 Y33.614
N25520 X158.698 Y34.634
N25530 X157.961 Y35.696
N25540 X157.275 Y36.79
N25550 X156.635 Y37.913
N25560 X156.039 Y39.059
N25570 X155.482 Y40.225
N25580 X154.963 Y41.408
N25590 X154.478 Y42.606
N25600 X154.027 Y43.817
N25610 X153.608 Y45.039
N25620 X153.219 Y46.271
N25630 X152.86 Y47.512
N25640 X152.53 Y48.762
N25650 X152.229 Y50.018
N25660 X151.956 Y51.281
N25670 X151.71 Y52.549
N25680 X151.492 Y53.823
N25690 X151.301 Y55.101
N25700 X151.138 Y56.382
N25710 X151.002 Y57.667
N25720 X150.892 Y58.955
N25730 X150.809 Y60.244
N25740 X150.753 Y61.535
N25750 X150.723 Y62.827
N25760 X150.72 Y64.119
N25770 X150.743 Y65.41
N25780 X150.792 Y66.702
N25790 X150.868 Y67.991
N25800 X150.97 Y69.279
N25810 X151.098 Y70.565
N25820 X151.254 Y71.848
N25830 X151.436 Y73.127
N25840 X151.646 Y74.402
N25850 X151.882 Y75.672
N25860 X152.146 Y76.937
N25870 X152.437 Y78.196
N25880 X152.755 Y79.448
N25890 X153.101 Y80.693
N25900 X153.476 Y81.929
N25910 X153.879 Y83.157
N25920 X154.311 Y84.375
N25930 X154.774 Y85.581
N25940 X155.269 Y86.775
N25950 X155.796 Y87.954
N25960 X156.358 Y89.118
N25970 X156.955 Y90.264
N25980 X157.588 Y91.39
N25990 X158.26 Y92.493
N26000 X158.974 Y93.57
N26010 X159.734 Y94.615
N26020 X160.54 Y95.625
N26030 X161.395 Y96.594
N26040 X161.83 Y97.038
N26050 X162.186 Y97.346
N26060 X162.585 Y97.595
N26070 X163.019 Y97.777
N26080 X163.476 Y97.888
N26090 X163.945 Y97.925
N26100 X172.199
N26110 G2 X173.276 Y97.253 Z-6.217 I-0.044 J-1.269
N26120 X173.344 Y96.608 Z-6.15 I-0.765 J-0.408
N26130 X173.156 Y96.267 I-0.834 J0.238
N26140 X165.372 Y96.689 I-3.722 J3.338
N26150 X165.021 Y97.253 Z-6.217 I4.061 J2.917
N26160 G3 X163.945 Y97.925 Z-6.35 I-1.121 J-0.597
N26170 G1 X161.329 F3150.
N26180 X160.937 Y97.905
N26190 X160.544 Y97.854
N26200 X160.079 Y97.754
N26210 X159.575 Y97.604
N26220 X158.993 Y97.377
N26230 X158.363 Y97.071
N26240 X157.659 Y96.657
N26250 X156.876 Y96.107
N26260 X156.019 Y95.395
N26270 X155.094 Y94.493
N26280 X154.244 Y93.52
N26290 X153.461 Y92.493
N26300 X152.737 Y91.422
N26310 X152.067 Y90.318
N26320 X151.446 Y89.185
N26330 X150.869 Y88.028
N26340 X150.333 Y86.853
N26350 X149.835 Y85.661
N26360 X149.373 Y84.454
N26370 X148.943 Y83.236
N26380 X148.546 Y82.006
N26390 X148.178 Y80.768
N26400 X147.84 Y79.52
N26410 X147.53 Y78.266
N26420 X147.248 Y77.005
N26430 X146.993 Y75.739
N26440 X146.765 Y74.467
N26450 X146.563 Y73.191
N26460 X146.388 Y71.911
N26470 X146.238 Y70.627
N26480 X146.114 Y69.341
N26490 X146.015 Y68.053
N26500 X145.942 Y66.763
N26510 X145.893 Y65.472
N26520 X145.869 Y64.18
N26530 X145.87 Y62.888
N26540 X145.896 Y61.596
N26550 X145.947 Y60.305
N26560 X146.022 Y59.015
N26570 X146.123 Y57.727
N26580 X146.248 Y56.441
N26590 X146.399 Y55.158
N26600 X146.575 Y53.878
N26610 X146.778 Y52.602
N26620 X147.006 Y51.33
N26630 X147.259 Y50.063
N26640 X147.539 Y48.802
N26650 X147.845 Y47.546
N26660 X148.179 Y46.298
N26670 X148.539 Y45.057
N26680 X148.928 Y43.825
N26690 X149.345 Y42.602
N26700 X149.792 Y41.39
N26710 X150.271 Y40.19
N26720 X150.783 Y39.004
N26730 X151.33 Y37.833
N26740 X151.912 Y36.68
N26750 X152.532 Y35.546
N26760 X153.191 Y34.435
N26770 X153.895 Y33.351
N26780 X154.646 Y32.3
N26790 X155.445 Y31.284
N26800 X156.294 Y30.311
N26810 X156.627 Y29.969
N26820 X156.982 Y29.658
N26830 X157.383 Y29.408
N26840 X157.818 Y29.225
N26850 X158.277 Y29.113
N26860 X158.748 Y29.075
N26870 X166.869
N26880 G3 X167.945 Y29.747 Z-6.217 I-0.044 J1.269 F3500.
N26890 X168.049 Y30.392 Z-6.15 I-0.89 J0.474
N26900 X167.767 Y30.936 I-0.994 J-0.17
N26910 X160.175 Y30.311 I-3.53 J-3.541
N26920 X159.824 Y29.747 Z-6.217 I4.061 J-2.917
N26930 G2 X158.748 Y29.075 Z-6.35 I-1.121 J0.597
N26940 G1 X156.208
N26950 X155.786 Y29.096
N26960 X155.402 Y29.146
N26970 X154.947 Y29.244
N26980 X154.456 Y29.391
N26990 X153.887 Y29.612
N27000 X153.275 Y29.909
N27010 X152.59 Y30.313
N27020 X151.829 Y30.847
N27030 X151.002 Y31.534
N27040 X150.1 Y32.414
N27050 X149.251 Y33.387
N27060 X148.471 Y34.417
N27070 X147.752 Y35.491
N27080 X147.089 Y36.6
N27090 X146.476 Y37.738
N27100 X145.909 Y38.898
N27110 X145.383 Y40.078
N27120 X144.895 Y41.275
N27130 X144.442 Y42.485
N27140 X144.023 Y43.707
N27150 X143.635 Y44.94
N27160 X143.277 Y46.181
N27170 X142.948 Y47.431
N27180 X142.646 Y48.687
N27190 X142.372 Y49.949
N27200 X142.123 Y51.217
N27210 X141.901 Y52.49
N27220 X141.704 Y53.767
N27230 X141.532 Y55.048
N27240 X141.385 Y56.331
N27250 X141.262 Y57.618
N27260 X141.163 Y58.906
N27270 X141.088 Y60.196
N27280 X141.037 Y61.487
N27290 X141.009 Y62.778
N27300 X141.005 Y64.07
N27310 X141.024 Y65.362
N27320 X141.067 Y66.654
N27330 X141.134 Y67.944
N27340 X141.224 Y69.233
N27350 X141.338 Y70.52
N27360 X141.476 Y71.805
N27370 X141.638 Y73.086
N27380 X141.825 Y74.365
N27390 X142.037 Y75.639
N27400 X142.274 Y76.91
N27410 X142.537 Y78.175
N27420 X142.825 Y79.434
N27430 X143.139 Y80.688
N27440 X143.48 Y81.934
N27450 X143.849 Y83.172
N27460 X144.246 Y84.401
N27470 X144.674 Y85.621
N27480 X145.133 Y86.829
N27490 X145.626 Y88.023
N27500 X146.153 Y89.202
N27510 X146.718 Y90.364
N27520 X147.321 Y91.507
N27530 X147.965 Y92.627
N27540 X148.656 Y93.719
N27550 X149.397 Y94.778
N27560 X150.187 Y95.8
N27570 X151.03 Y96.779
N27580 X151.266 Y97.023
N27590 X151.622 Y97.336
N27600 X152.024 Y97.589
N27610 X152.461 Y97.774
N27620 X152.922 Y97.887
N27630 X153.395 Y97.925
N27640 X161.329
N27650 G2 X162.405 Y97.253 Z-6.217 I-0.044 J-1.269
N27660 X162.54 Y96.611 Z-6.15 I-1.04 J-0.554
N27670 X162.13 Y95.803 I-1.175 J0.088
N27680 X154.823 Y96.689 I-3.247 J3.803
N27690 X154.471 Y97.253 Z-6.217 I4.061 J2.917
N27700 G3 X153.395 Y97.925 Z-6.35 I-1.121 J-0.597
N27710 G1 X150.877 F3150.
N27720 X150.484 Y97.905
N27730 X150.109 Y97.856
N27740 X149.665 Y97.761
N27750 X149.188 Y97.618
N27760 X148.634 Y97.403
N27770 X148.041 Y97.115
N27780 X147.376 Y96.723
N27790 X146.639 Y96.206
N27800 X145.847 Y95.549
N27810 X144.98 Y94.703
N27820 X144.131 Y93.729
N27830 X143.354 Y92.697
N27840 X142.642 Y91.619
N27850 X141.987 Y90.505
N27860 X141.383 Y89.363
N27870 X140.827 Y88.196
N27880 X140.313 Y87.011
N27890 X139.838 Y85.81
N27900 X139.399 Y84.594
N27910 X138.993 Y83.368
N27920 X138.619 Y82.131
N27930 X138.275 Y80.885
N27940 X137.96 Y79.632
N27950 X137.672 Y78.373
N27960 X137.41 Y77.108
N27970 X137.174 Y75.837
N27980 X136.964 Y74.562
N27990 X136.778 Y73.284
N28000 X136.617 Y72.002
N28010 X136.479 Y70.717
N28020 X136.365 Y69.43
N28030 X136.273 Y68.141
N28040 X136.204 Y66.851
N28050 X136.158 Y65.56
N28060 X136.135 Y64.268
N28070 X136.134 Y62.976
N28080 X136.155 Y61.684
N28090 X136.199 Y60.393
N28100 X136.266 Y59.103
N28110 X136.355 Y57.814
N28120 X136.466 Y56.526
N28130 X136.601 Y55.241
N28140 X136.76 Y53.959
N28150 X136.942 Y52.68
N28160 X137.148 Y51.404
N28170 X137.378 Y50.133
N28180 X137.633 Y48.866
N28190 X137.913 Y47.605
N28200 X138.218 Y46.349
N28210 X138.55 Y45.101
N28220 X138.909 Y43.86
N28230 X139.296 Y42.627
N28240 X139.713 Y41.404
N28250 X140.162 Y40.192
N28260 X140.644 Y38.994
N28270 X141.162 Y37.81
N28280 X141.716 Y36.643
N28290 X142.31 Y35.495
N28300 X142.946 Y34.37
N28310 X143.629 Y33.274
N28320 X144.362 Y32.21
N28330 X145.147 Y31.183
N28340 X145.985 Y30.2
N28350 X146.191 Y29.985
N28360 X146.548 Y29.669
N28370 X146.951 Y29.414
N28380 X147.39 Y29.227
N28390 X147.853 Y29.113
N28400 X148.328 Y29.075
N28410 X156.208
N28420 G3 X157.284 Y29.747 Z-6.217 I-0.044 J1.269 F3500.
N28430 X157.426 Y30.388 Z-6.15 I-1.079 J0.575
N28440 X156.978 Y31.269 I-1.22 J-0.067
N28450 X149.756 Y30.311 I-3.161 J-3.874
N28460 X149.405 Y29.747 Z-6.217 I4.061 J-2.917
N28470 G2 X148.328 Y29.075 Z-6.35 I-1.121 J0.597
N28480 G1 X145.927
N28490 X145.439 Y29.099
N28500 X145.069 Y29.148
N28510 X144.631 Y29.242
N28520 X144.161 Y29.383
N28530 X143.614 Y29.596
N28540 X143.031 Y29.878
N28550 X142.375 Y30.265
N28560 X141.653 Y30.772
N28570 X140.877 Y31.416
N28580 X140.026 Y32.246
N28590 X139.177 Y33.219
N28600 X138.401 Y34.253
N28610 X137.692 Y35.333
N28620 X137.041 Y36.449
N28630 X136.442 Y37.594
N28640 X135.891 Y38.762
N28650 X135.383 Y39.95
N28660 X134.914 Y41.154
N28670 X134.481 Y42.372
N28680 X134.082 Y43.6
N28690 X133.714 Y44.839
N28700 X133.376 Y46.086
N28710 X133.066 Y47.34
N28720 X132.783 Y48.601
N28730 X132.526 Y49.867
N28740 X132.295 Y51.138
N28750 X132.088 Y52.414
N28760 X131.905 Y53.693
N28770 X131.745 Y54.975
N28780 X131.608 Y56.26
N28790 X131.494 Y57.547
N28800 X131.402 Y58.836
N28810 X131.332 Y60.126
N28820 X131.284 Y61.417
N28830 X131.257 Y62.709
N28840 X131.252 Y64.001
N28850 X131.269 Y65.293
N28860 X131.307 Y66.584
N28870 X131.366 Y67.875
N28880 X131.447 Y69.164
N28890 X131.551 Y70.452
N28900 X131.676 Y71.738
N28910 X131.825 Y73.022
N28920 X131.996 Y74.302
N28930 X132.191 Y75.58
N28940 X132.409 Y76.853
N28950 X132.651 Y78.122
N28960 X132.918 Y79.386
N28970 X133.21 Y80.645
N28980 X133.528 Y81.897
N28990 X133.874 Y83.142
N29000 X134.247 Y84.379
N29010 X134.651 Y85.607
N29020 X135.087 Y86.823
N29030 X135.557 Y88.026
N29040 X136.062 Y89.216
N29050 X136.605 Y90.388
N29060 X137.188 Y91.541
N29070 X137.815 Y92.671
N29080 X138.491 Y93.772
N29090 X139.217 Y94.841
N29100 X139.996 Y95.871
N29110 X140.831 Y96.858
N29120 X140.977 Y97.01
N29130 X141.271 Y97.279
N29140 X141.599 Y97.506
N29150 X141.954 Y97.687
N29160 X142.33 Y97.818
N29170 X142.72 Y97.898
N29180 X143.118 Y97.925
N29190 X150.877
N29200 G2 X151.953 Y97.253 Z-6.217 I-0.044 J-1.269
N29210 X152.107 Y96.613 Z-6.15 I-1.157 J-0.617
N29220 X151.575 Y95.581 I-1.311 J0.023
N29230 X144.545 Y96.689 I-2.968 J4.024
N29240 X144.194 Y97.253 Z-6.217 I4.061 J2.917
N29250 G3 X143.118 Y97.925 Z-6.35 I-1.121 J-0.597
N29260 G1 X140.597 F3150.
N29270 X140.265 Y97.908
N29280 X139.901 Y97.861
N29290 X139.47 Y97.768
N29300 X139.007 Y97.63
N29310 X138.468 Y97.42
N29320 X137.896 Y97.142
N29330 X137.251 Y96.763
N29340 X136.546 Y96.267
N29350 X135.787 Y95.637
N29360 X134.957 Y94.827
N29370 X134.107 Y93.853
N29380 X133.334 Y92.818
N29390 X132.628 Y91.736
N29400 X131.982 Y90.617
N29410 X131.39 Y89.469
N29420 X130.847 Y88.296
N29430 X130.347 Y87.105
N29440 X129.887 Y85.897
N29450 X129.464 Y84.677
N29460 X129.075 Y83.445
N29470 X128.717 Y82.203
N29480 X128.389 Y80.953
N29490 X128.089 Y79.697
N29500 X127.816 Y78.434
N29510 X127.569 Y77.166
N29520 X127.347 Y75.893
N29530 X127.149 Y74.616
N29540 X126.975 Y73.336
N29550 X126.823 Y72.053
N29560 X126.694 Y70.767
N29570 X126.586 Y69.479
N29580 X126.5 Y68.19
N29590 X126.435 Y66.9
N29600 X126.392 Y65.608
N29610 X126.369 Y64.317
N29620 X126.367 Y63.025
N29630 X126.385 Y61.733
N29640 X126.425 Y60.441
N29650 X126.485 Y59.151
N29660 X126.567 Y57.861
N29670 X126.669 Y56.573
N29680 X126.794 Y55.287
N29690 X126.94 Y54.003
N29700 X127.109 Y52.722
N29710 X127.3 Y51.444
N29720 X127.514 Y50.17
N29730 X127.752 Y48.9
N29740 X128.014 Y47.635
N29750 X128.301 Y46.375
N29760 X128.613 Y45.122
N29770 X128.953 Y43.875
N29780 X129.32 Y42.636
N29790 X129.718 Y41.407
N29800 X130.148 Y40.188
N29810 X130.611 Y38.982
N29820 X131.111 Y37.791
N29830 X131.648 Y36.616
N29840 X132.225 Y35.46
N29850 X132.847 Y34.327
N29860 X133.519 Y33.224
N29870 X134.242 Y32.152
N29880 X135.017 Y31.119
N29890 X135.849 Y30.131
N29900 X135.98 Y29.993
N29910 X136.274 Y29.724
N29920 X136.602 Y29.496
N29930 X136.958 Y29.314
N29940 X137.335 Y29.182
N29950 X137.726 Y29.102
N29960 X138.125 Y29.075
N29970 X145.927
N29980 G3 X147.004 Y29.747 Z-6.217 I-0.044 J1.269 F3500.
N29990 X147.153 Y30.387 Z-6.15 I-1.13 J0.602
N30000 X146.652 Y31.366 I-1.28 J-0.038
N30010 X139.552 Y30.311 I-3.039 J-3.971
N30020 X139.201 Y29.747 Z-6.217 I4.061 J-2.917
N30030 G2 X138.125 Y29.075 Z-6.35 I-1.121 J0.597
N30040 G1 X135.647
N30050 X135.283 Y29.093
N30060 X134.923 Y29.14
N30070 X134.495 Y29.232
N30080 X134.036 Y29.37
N30090 X133.501 Y29.578
N30100 X132.933 Y29.853
N30110 X132.293 Y30.23
N30120 X131.597 Y30.719
N30130 X130.846 Y31.343
N30140 X130.024 Y32.145
N30150 X129.175 Y33.118
N30160 X128.402 Y34.154
N30170 X127.698 Y35.237
N30180 X127.055 Y36.358
N30190 X126.466 Y37.508
N30200 X125.926 Y38.682
N30210 X125.429 Y39.875
N30220 X124.973 Y41.083
N30230 X124.554 Y42.306
N30240 X124.168 Y43.539
N30250 X123.814 Y44.781
N30260 X123.49 Y46.032
N30270 X123.194 Y47.29
N30280 X122.924 Y48.553
N30290 X122.68 Y49.822
N30300 X122.46 Y51.095
N30310 X122.264 Y52.372
N30320 X122.091 Y53.653
N30330 X121.94 Y54.936
N30340 X121.811 Y56.222
N30350 X121.703 Y57.509
N30360 X121.616 Y58.798
N30370 X121.55 Y60.089
N30380 X121.504 Y61.38
N30390 X121.479 Y62.672
N30400 X121.473 Y63.964
N30410 X121.488 Y65.256
N30420 X121.523 Y66.547
N30430 X121.578 Y67.838
N30440 X121.653 Y69.128
N30450 X121.75 Y70.416
N30460 X121.867 Y71.703
N30470 X122.006 Y72.988
N30480 X122.167 Y74.27
N30490 X122.349 Y75.549
N30500 X122.555 Y76.824
N30510 X122.784 Y78.096
N30520 X123.036 Y79.363
N30530 X123.314 Y80.625
N30540 X123.617 Y81.881
N30550 X123.947 Y83.13
N30560 X124.305 Y84.372
N30570 X124.693 Y85.604
N30580 X125.114 Y86.826
N30590 X125.569 Y88.035
N30600 X126.06 Y89.23
N30610 X126.59 Y90.408
N30620 X127.16 Y91.568
N30630 X127.776 Y92.703
N30640 X128.443 Y93.81
N30650 X129.161 Y94.884
N30660 X129.934 Y95.92
N30670 X130.763 Y96.911
N30680 X130.852 Y97.004
N30690 X131.146 Y97.274
N30700 X131.475 Y97.503
N30710 X131.831 Y97.685
N30720 X132.208 Y97.818
N30730 X132.6 Y97.898
N30740 X132.999 Y97.925
N30750 X140.597
N30760 G2 X141.673 Y97.253 Z-6.217 I-0.044 J-1.269
N30770 X141.839 Y96.615 Z-6.15 I-1.248 J-0.665
N30780 X141.189 Y95.398 I-1.414 J-0.027
N30790 X134.427 Y96.689 I-2.701 J4.208
N30800 X134.076 Y97.253 Z-6.217 I4.061 J2.917
N30810 G3 X132.999 Y97.925 Z-6.35 I-1.121 J-0.597
N30820 G1 X130.488 F3150.
N30830 X130.181 Y97.91
N30840 X129.824 Y97.863
N30850 X129.4 Y97.772
N30860 X128.946 Y97.636
N30870 X128.417 Y97.43
N30880 X127.856 Y97.158
N30890 X127.223 Y96.785
N30900 X126.538 Y96.304
N30910 X125.797 Y95.689
N30920 X124.988 Y94.9
N30930 X124.139 Y93.926
N30940 X123.368 Y92.89
N30950 X122.667 Y91.804
N30960 X122.027 Y90.682
N30970 X121.443 Y89.529
N30980 X120.908 Y88.353
N30990 X120.418 Y87.158
N31000 X119.969 Y85.946
N31010 X119.556 Y84.722
N31020 X119.178 Y83.486
N31030 X118.831 Y82.242
N31040 X118.514 Y80.989
N31050 X118.226 Y79.73
N31060 X117.964 Y78.464
N31070 X117.727 Y77.194
N31080 X117.514 Y75.92
N31090 X117.325 Y74.642
N31100 X117.159 Y73.36
N31110 X117.014 Y72.076
N31120 X116.891 Y70.79
N31130 X116.788 Y69.502
N31140 X116.706 Y68.213
N31150 X116.644 Y66.922
N31160 X116.602 Y65.631
N31170 X116.58 Y64.339
N31180 X116.577 Y63.047
N31190 X116.594 Y61.755
N31200 X116.631 Y60.464
N31210 X116.688 Y59.173
N31220 X116.764 Y57.883
N31230 X116.861 Y56.595
N31240 X116.978 Y55.308
N31250 X117.116 Y54.023
N31260 X117.275 Y52.741
N31270 X117.456 Y51.462
N31280 X117.66 Y50.186
N31290 X117.886 Y48.914
N31300 X118.136 Y47.646
N31310 X118.41 Y46.383
N31320 X118.71 Y45.127
N31330 X119.037 Y43.876
N31340 X119.391 Y42.634
N31350 X119.776 Y41.401
N31360 X120.193 Y40.178
N31370 X120.645 Y38.967
N31380 X121.132 Y37.771
N31390 X121.659 Y36.591
N31400 X122.226 Y35.43
N31410 X122.84 Y34.293
N31420 X123.504 Y33.184
N31430 X124.22 Y32.109
N31440 X124.99 Y31.072
N31450 X125.819 Y30.08
N31460 X125.896 Y29.998
N31470 X126.191 Y29.727
N31480 X126.52 Y29.498
N31490 X126.876 Y29.316
N31500 X127.254 Y29.183
N31510 X127.646 Y29.102
N31520 X128.046 Y29.075
N31530 X135.647
N31540 G3 X136.723 Y29.747 Z-6.217 I-0.044 J1.269 F3500.
N31550 X136.889 Y30.385 Z-6.15 I-1.246 J0.664
N31560 X136.242 Y31.598 I-1.412 J0.026
N31570 X129.473 Y30.311 I-2.707 J-4.204
N31580 X129.122 Y29.747 Z-6.217 I4.061 J-2.917
N31590 G2 X128.046 Y29.075 Z-6.35 I-1.121 J0.597
N31600 G1 X125.538
N31610 X125.235 Y29.09
N31620 X124.88 Y29.137
N31630 X124.458 Y29.227
N31640 X124.006 Y29.362
N31650 X123.479 Y29.568
N31660 X122.921 Y29.838
N31670 X122.291 Y30.209
N31680 X121.61 Y30.687
N31690 X120.874 Y31.299
N31700 X120.07 Y32.083
N31710 X119.22 Y33.057
N31720 X118.45 Y34.094
N31730 X117.75 Y35.18
N31740 X117.112 Y36.303
N31750 X116.529 Y37.457
N31760 X115.996 Y38.634
N31770 X115.508 Y39.83
N31780 X115.061 Y41.042
N31790 X114.651 Y42.268
N31800 X114.275 Y43.504
N31810 X113.931 Y44.749
N31820 X113.616 Y46.002
N31830 X113.329 Y47.262
N31840 X113.069 Y48.528
N31850 X112.834 Y49.798
N31860 X112.622 Y51.073
N31870 X112.434 Y52.351
N31880 X112.268 Y53.632
N31890 X112.123 Y54.916
N31900 X112. Y56.202
N31910 X111.896 Y57.49
N31920 X111.813 Y58.78
N31930 X111.75 Y60.07
N31940 X111.706 Y61.361
N31950 X111.681 Y62.653
N31960 X111.676 Y63.945
N31970 X111.689 Y65.237
N31980 X111.722 Y66.529
N31990 X111.775 Y67.82
N32000 X111.846 Y69.11
N32010 X111.938 Y70.399
N32020 X112.05 Y71.686
N32030 X112.182 Y72.971
N32040 X112.336 Y74.254
N32050 X112.511 Y75.534
N32060 X112.707 Y76.811
N32070 X112.927 Y78.085
N32080 X113.17 Y79.354
N32090 X113.438 Y80.618
N32100 X113.731 Y81.876
N32110 X114.05 Y83.128
N32120 X114.398 Y84.372
N32130 X114.776 Y85.608
N32140 X115.187 Y86.833
N32150 X115.632 Y88.046
N32160 X116.114 Y89.244
N32170 X116.635 Y90.427
N32180 X117.198 Y91.59
N32190 X117.807 Y92.729
N32200 X118.468 Y93.839
N32210 X119.182 Y94.917
N32220 X119.95 Y95.955
N32230 X120.777 Y96.948
N32240 X120.827 Y97.001
N32250 X121.121 Y97.272
N32260 X121.45 Y97.501
N32270 X121.807 Y97.684
N32280 X122.185 Y97.817
N32290 X122.577 Y97.898
N32300 X122.977 Y97.925
N32310 X130.488
N32320 G2 X131.564 Y97.253 Z-6.217 I-0.044 J-1.269
N32330 X131.735 Y96.616 Z-6.15 I-1.291 J-0.688
N32340 X131.02 Y95.307 I-1.462 J-0.051
N32350 X124.405 Y96.689 I-2.555 J4.298
N32360 X124.053 Y97.253 Z-6.217 I4.061 J2.917
N32370 G3 X122.977 Y97.925 Z-6.35 I-1.121 J-0.597
N32380 G1 X120.417 F3150.
N32390 X120.182 Y97.913
N32400 X119.83 Y97.867
N32410 X119.41 Y97.777
N32420 X118.961 Y97.643
N32430 X118.438 Y97.439
N32440 X117.885 Y97.171
N32450 X117.259 Y96.802
N32460 X116.586 Y96.329
N32470 X115.856 Y95.724
N32480 X115.061 Y94.948
N32490 X114.212 Y93.974
N32500 X113.442 Y92.936
N32510 X112.744 Y91.849
N32520 X112.108 Y90.724
N32530 X111.529 Y89.569
N32540 X111. Y88.39
N32550 X110.517 Y87.192
N32560 X110.075 Y85.978
N32570 X109.669 Y84.751
N32580 X109.299 Y83.513
N32590 X108.96 Y82.266
N32600 X108.651 Y81.012
N32610 X108.37 Y79.751
N32620 X108.115 Y78.484
N32630 X107.886 Y77.213
N32640 X107.68 Y75.937
N32650 X107.496 Y74.658
N32660 X107.335 Y73.376
N32670 X107.196 Y72.092
N32680 X107.076 Y70.805
N32690 X106.977 Y69.517
N32700 X106.898 Y68.227
N32710 X106.838 Y66.937
N32720 X106.797 Y65.645
N32730 X106.776 Y64.353
N32740 X106.773 Y63.061
N32750 X106.789 Y61.769
N32760 X106.823 Y60.478
N32770 X106.877 Y59.187
N32780 X106.95 Y57.897
N32790 X107.042 Y56.608
N32800 X107.155 Y55.321
N32810 X107.287 Y54.036
N32820 X107.44 Y52.753
N32830 X107.614 Y51.472
N32840 X107.81 Y50.195
N32850 X108.028 Y48.922
N32860 X108.27 Y47.652
N32870 X108.536 Y46.388
N32880 X108.827 Y45.129
N32890 X109.145 Y43.877
N32900 X109.49 Y42.632
N32910 X109.866 Y41.396
N32920 X110.275 Y40.17
N32930 X110.718 Y38.956
N32940 X111.198 Y37.757
N32950 X111.717 Y36.574
N32960 X112.278 Y35.41
N32970 X112.886 Y34.269
N32980 X113.545 Y33.158
N32990 X114.257 Y32.08
N33000 X115.024 Y31.04
N33010 X115.851 Y30.047
N33020 X115.894 Y30.001
N33030 X116.189 Y29.729
N33040 X116.518 Y29.499
N33050 X116.875 Y29.316
N33060 X117.253 Y29.183
N33070 X117.646 Y29.102
N33080 X118.046 Y29.075
N33090 X125.538
N33100 G3 X126.614 Y29.747 Z-6.217 I-0.044 J1.269 F3500.
N33110 X126.786 Y30.384 Z-6.15 I-1.3 J0.693
N33120 X126.058 Y31.712 I-1.472 J0.056
N33130 X119.474 Y30.311 I-2.523 J-4.317
N33140 X119.123 Y29.747 Z-6.217 I4.061 J-2.917
N33150 G2 X118.046 Y29.075 Z-6.35 I-1.121 J0.597
N33160 G1 X115.467
N33170 X115.257 Y29.086
N33180 X114.905 Y29.132
N33190 X114.487 Y29.221
N33200 X114.039 Y29.355
N33210 X113.517 Y29.558
N33220 X112.965 Y29.826
N33230 X112.341 Y30.194
N33240 X111.671 Y30.665
N33250 X110.943 Y31.268
N33260 X110.151 Y32.042
N33270 X109.301 Y33.015
N33280 X108.532 Y34.054
N33290 X107.835 Y35.141
N33300 X107.2 Y36.267
N33310 X106.622 Y37.422
N33320 X106.094 Y38.601
N33330 X105.612 Y39.8
N33340 X105.171 Y41.015
N33350 X104.767 Y42.242
N33360 X104.398 Y43.48
N33370 X104.06 Y44.727
N33380 X103.752 Y45.982
N33390 X103.472 Y47.243
N33400 X103.218 Y48.51
N33410 X102.989 Y49.782
N33420 X102.784 Y51.057
N33430 X102.601 Y52.336
N33440 X102.439 Y53.618
N33450 X102.299 Y54.903
N33460 X102.179 Y56.189
N33470 X102.079 Y57.477
N33480 X101.999 Y58.767
N33490 X101.937 Y60.058
N33500 X101.895 Y61.349
N33510 X101.871 Y62.641
N33520 X101.865 Y63.933
N33530 X101.879 Y65.225
N33540 X101.91 Y66.516
N33550 X101.96 Y67.808
N33560 X102.03 Y69.098
N33570 X102.118 Y70.387
N33580 X102.226 Y71.674
N33590 X102.354 Y72.96
N33600 X102.503 Y74.244
N33610 X102.672 Y75.524
N33620 X102.863 Y76.802
N33630 X103.076 Y78.077
N33640 X103.313 Y79.347
N33650 X103.573 Y80.612
N33660 X103.859 Y81.872
N33670 X104.172 Y83.126
N33680 X104.512 Y84.372
N33690 X104.884 Y85.61
N33700 X105.288 Y86.837
N33710 X105.727 Y88.052
N33720 X106.203 Y89.254
N33730 X106.718 Y90.438
N33740 X107.275 Y91.604
N33750 X107.88 Y92.746
N33760 X108.537 Y93.858
N33770 X109.247 Y94.938
N33780 X110.013 Y95.979
N33790 X110.838 Y96.973
N33800 X110.862 Y96.998
N33810 X111.157 Y97.27
N33820 X111.486 Y97.5
N33830 X111.843 Y97.683
N33840 X112.221 Y97.817
N33850 X112.614 Y97.898
N33860 X113.015 Y97.925
N33870 X120.417
N33880 G2 X121.493 Y97.253 Z-6.217 I-0.044 J-1.269
N33890 X121.67 Y96.617 Z-6.15 I-1.34 J-0.714
N33900 X120.873 Y95.202 I-1.516 J-0.078
N33910 X114.442 Y96.689 I-2.369 J4.403
N33920 X114.091 Y97.253 Z-6.217 I4.061 J2.917
N33930 G3 X113.015 Y97.925 Z-6.35 I-1.121 J-0.597
N33940 G1 X110.517 F3150.
N33950 X110.232 Y97.911
N33960 X109.883 Y97.865
N33970 X109.466 Y97.776
N33980 X109.021 Y97.643
N33990 X108.502 Y97.44
N34000 X107.954 Y97.174
N34010 X107.333 Y96.809
N34020 X106.668 Y96.342
N34030 X105.946 Y95.742
N34040 X105.159 Y94.975
N34050 X104.313 Y94.005
N34060 X103.544 Y92.966
N34070 X102.848 Y91.878
N34080 X102.215 Y90.751
N34090 X101.639 Y89.594
N34100 X101.114 Y88.414
N34110 X100.635 Y87.214
N34120 X100.198 Y85.998
N34130 X99.798 Y84.77
N34140 X99.432 Y83.53
N34150 X99.099 Y82.282
N34160 X98.795 Y81.026
N34170 X98.519 Y79.764
N34180 X98.27 Y78.496
N34190 X98.045 Y77.224
N34200 X97.843 Y75.948
N34210 X97.664 Y74.668
N34220 X97.507 Y73.386
N34230 X97.371 Y72.101
N34240 X97.254 Y70.814
N34250 X97.158 Y69.525
N34260 X97.081 Y68.236
N34270 X97.022 Y66.945
N34280 X96.982 Y65.654
N34290 X96.961 Y64.362
N34300 X96.958 Y63.07
N34310 X96.973 Y61.778
N34320 X97.006 Y60.486
N34330 X97.058 Y59.195
N34340 X97.128 Y57.905
N34350 X97.218 Y56.616
N34360 X97.326 Y55.328
N34370 X97.455 Y54.043
N34380 X97.603 Y52.759
N34390 X97.773 Y51.478
N34400 X97.964 Y50.201
N34410 X98.176 Y48.926
N34420 X98.412 Y47.656
N34430 X98.672 Y46.39
N34440 X98.957 Y45.13
N34450 X99.269 Y43.876
N34460 X99.608 Y42.629
N34470 X99.978 Y41.391
N34480 X100.381 Y40.164
N34490 X100.819 Y38.948
N34500 X101.294 Y37.746
N34510 X101.808 Y36.561
N34520 X102.364 Y35.395
N34530 X102.968 Y34.253
N34540 X103.624 Y33.14
N34550 X104.333 Y32.06
N34560 X105.098 Y31.018
N34570 X105.923 Y30.024
N34580 X105.943 Y30.003
N34590 X106.238 Y29.73
N34600 X106.567 Y29.5
N34610 X106.924 Y29.317
N34620 X107.303 Y29.183
N34630 X107.696 Y29.102
N34640 X108.097 Y29.075
N34650 X115.467
N34660 G3 X116.543 Y29.747 Z-6.217 I-0.044 J1.269 F3500.
N34670 X116.721 Y30.383 Z-6.15 I-1.353 J0.721
N34680 X115.9 Y31.827 I-1.531 J0.085
N34690 X109.524 Y30.311 I-2.315 J-4.432
N34700 X109.173 Y29.747 Z-6.217 I4.061 J-2.917
N34710 G2 X108.097 Y29.075 Z-6.35 I-1.121 J0.597
N34720 G1 X105.567
N34730 X105.318 Y29.087
N34740 X104.969 Y29.133
N34750 X104.553 Y29.222
N34760 X104.109 Y29.355
N34770 X103.591 Y29.557
N34780 X103.043 Y29.823
N34790 X102.423 Y30.188
N34800 X101.759 Y30.654
N34810 X101.039 Y31.252
N34820 X100.254 Y32.018
N34830 X99.409 Y32.986
N34840 X98.64 Y34.025
N34850 X97.944 Y35.113
N34860 X97.312 Y36.24
N34870 X96.736 Y37.397
N34880 X96.212 Y38.578
N34890 X95.733 Y39.778
N34900 X95.296 Y40.994
N34910 X94.897 Y42.223
N34920 X94.532 Y43.462
N34930 X94.199 Y44.711
N34940 X93.896 Y45.967
N34950 X93.62 Y47.229
N34960 X93.371 Y48.497
N34970 X93.146 Y49.769
N34980 X92.944 Y51.045
N34990 X92.765 Y52.325
N35000 X92.607 Y53.607
N35010 X92.47 Y54.892
N35020 X92.353 Y56.179
N35030 X92.255 Y57.467
N35040 X92.177 Y58.757
N35050 X92.117 Y60.047
N35060 X92.075 Y61.339
N35070 X92.052 Y62.63
N35080 X92.046 Y63.923
N35090 X92.059 Y65.215
N35100 X92.09 Y66.506
N35110 X92.139 Y67.797
N35120 X92.206 Y69.088
N35130 X92.292 Y70.377
N35140 X92.398 Y71.665
N35150 X92.523 Y72.951
N35160 X92.668 Y74.234
N35170 X92.833 Y75.516
N35180 X93.02 Y76.794
N35190 X93.229 Y78.069
N35200 X93.461 Y79.34
N35210 X93.717 Y80.607
N35220 X93.998 Y81.868
N35230 X94.306 Y83.123
N35240 X94.642 Y84.371
N35250 X95.008 Y85.61
N35260 X95.407 Y86.838
N35270 X95.842 Y88.055
N35280 X96.314 Y89.258
N35290 X96.825 Y90.444
N35300 X97.379 Y91.612
N35310 X97.981 Y92.755
N35320 X98.635 Y93.869
N35330 X99.343 Y94.95
N35340 X100.107 Y95.992
N35350 X100.931 Y96.987
N35360 X100.941 Y96.997
N35370 X101.236 Y97.27
N35380 X101.565 Y97.5
N35390 X101.922 Y97.683
N35400 X102.301 Y97.817
N35410 X102.694 Y97.898
N35420 X103.095 Y97.925
N35430 X110.517
N35440 G2 X111.594 Y97.253 Z-6.217 I-0.044 J-1.269
N35450 X111.769 Y96.617 Z-6.15 I-1.331 J-0.709
N35460 X110.988 Y95.221 I-1.506 J-0.073
N35470 X104.522 Y96.689 I-2.405 J4.384
N35480 X104.171 Y97.253 Z-6.217 I4.061 J2.917
N35490 G3 X103.095 Y97.925 Z-6.35 I-1.121 J-0.597
N35500 G1 X100.618 F3150.
N35510 X100.32 Y97.91
N35520 X99.972 Y97.864
N35530 X99.558 Y97.776
N35540 X99.115 Y97.643
N35550 X98.599 Y97.442
N35560 X98.053 Y97.177
N35570 X97.436 Y96.814
N35580 X96.776 Y96.35
N35590 X96.058 Y95.755
N35600 X95.278 Y94.993
N35610 X94.438 Y94.031
N35620 X93.67 Y92.992
N35630 X92.974 Y91.904
N35640 X92.343 Y90.776
N35650 X91.769 Y89.619
N35660 X91.246 Y88.437
N35670 X90.77 Y87.236
N35680 X90.335 Y86.019
N35690 X89.938 Y84.79
N35700 X89.576 Y83.55
N35710 X89.246 Y82.3
N35720 X88.946 Y81.044
N35730 X88.674 Y79.781
N35740 X88.428 Y78.512
N35750 X88.206 Y77.239
N35760 X88.007 Y75.963
N35770 X87.831 Y74.683
N35780 X87.676 Y73.4
N35790 X87.542 Y72.115
N35800 X87.428 Y70.828
N35810 X87.333 Y69.539
N35820 X87.257 Y68.249
N35830 X87.199 Y66.959
N35840 X87.16 Y65.667
N35850 X87.138 Y64.375
N35860 X87.135 Y63.083
N35870 X87.149 Y61.791
N35880 X87.181 Y60.5
N35890 X87.232 Y59.209
N35900 X87.3 Y57.918
N35910 X87.387 Y56.629
N35920 X87.494 Y55.342
N35930 X87.619 Y54.056
N35940 X87.765 Y52.772
N35950 X87.931 Y51.49
N35960 X88.118 Y50.212
N35970 X88.327 Y48.937
N35980 X88.558 Y47.666
N35990 X88.814 Y46.399
N36000 X89.095 Y45.138
N36010 X89.402 Y43.883
N36020 X89.737 Y42.635
N36030 X90.103 Y41.396
N36040 X90.501 Y40.167
N36050 X90.935 Y38.95
N36060 X91.406 Y37.747
N36070 X91.917 Y36.56
N36080 X92.47 Y35.392
N36090 X93.071 Y34.249
N36100 X93.725 Y33.134
N36110 X94.432 Y32.053
N36120 X95.195 Y31.01
N36130 X96.019 Y30.015
N36140 X96.029 Y30.004
N36150 X96.324 Y29.731
N36160 X96.653 Y29.501
N36170 X97.01 Y29.317
N36180 X97.389 Y29.183
N36190 X97.783 Y29.102
N36200 X98.184 Y29.075
N36210 X105.567
N36220 G3 X106.644 Y29.747 Z-6.217 I-0.044 J1.269 F3500.
N36230 X106.821 Y30.383 Z-6.15 I-1.347 J0.718
N36240 X106.01 Y31.815 I-1.524 J0.082
N36250 X99.611 Y30.311 I-2.338 J-4.42
N36260 X99.26 Y29.747 Z-6.217 I4.061 J-2.917
N36270 G2 X98.184 Y29.075 Z-6.35 I-1.121 J0.597
N36280 G1 X95.668
N36290 X95.412 Y29.088
N36300 X95.065 Y29.133
N36310 X94.651 Y29.222
N36320 X94.208 Y29.354
N36330 X93.692 Y29.555
N36340 X93.147 Y29.82
N36350 X92.53 Y30.183
N36360 X91.871 Y30.646
N36370 X91.154 Y31.241
N36380 X90.374 Y32.002
N36390 X89.536 Y32.963
N36400 X88.767 Y34.002
N36410 X88.072 Y35.091
N36420 X87.44 Y36.218
N36430 X86.867 Y37.376
N36440 X86.344 Y38.557
N36450 X85.868 Y39.759
N36460 X85.434 Y40.975
N36470 X85.037 Y42.205
N36480 X84.675 Y43.445
N36490 X84.345 Y44.695
N36500 X84.045 Y45.951
N36510 X83.773 Y47.214
N36520 X83.526 Y48.483
N36530 X83.304 Y49.756
N36540 X83.105 Y51.032
N36550 X82.929 Y52.312
N36560 X82.773 Y53.595
N36570 X82.638 Y54.88
N36580 X82.523 Y56.167
N36590 X82.427 Y57.455
N36600 X82.349 Y58.745
N36610 X82.29 Y60.036
N36620 X82.249 Y61.327
N36630 X82.226 Y62.619
N36640 X82.221 Y63.911
N36650 X82.233 Y65.203
N36660 X82.263 Y66.495
N36670 X82.311 Y67.786
N36680 X82.377 Y69.076
N36690 X82.462 Y70.365
N36700 X82.566 Y71.653
N36710 X82.688 Y72.939
N36720 X82.831 Y74.224
N36730 X82.994 Y75.505
N36740 X83.178 Y76.784
N36750 X83.384 Y78.06
N36760 X83.613 Y79.331
N36770 X83.865 Y80.598
N36780 X84.143 Y81.86
N36790 X84.447 Y83.116
N36800 X84.779 Y84.365
N36810 X85.143 Y85.605
N36820 X85.539 Y86.834
N36830 X85.97 Y88.052
N36840 X86.439 Y89.256
N36850 X86.948 Y90.444
N36860 X87.499 Y91.613
N36870 X88.099 Y92.757
N36880 X88.751 Y93.872
N36890 X89.457 Y94.954
N36900 X90.22 Y95.997
N36910 X91.046 Y96.996
N36920 X91.341 Y97.268
N36930 X91.67 Y97.499
N36940 X92.027 Y97.683
N36950 X92.406 Y97.817
N36960 X92.8 Y97.898
N36970 X93.201 Y97.925
N36980 X100.618
N36990 G2 X101.694 Y97.253 Z-6.217 I-0.044 J-1.269
N37000 X101.87 Y96.617 Z-6.15 I-1.333 J-0.711
N37010 X101.084 Y95.216 I-1.509 J-0.075
N37020 X94.628 Y96.689 I-2.395 J4.389
N37030 X94.277 Y97.253 Z-6.217 I4.061 J2.917
N37040 G3 X93.201 Y97.925 Z-6.35 I-1.121 J-0.597
N37050 G1 X90.718 F3150.
N37060 X90.432 Y97.911
N37070 X90.085 Y97.865
N37080 X89.673 Y97.777
N37090 X89.231 Y97.645
N37100 X88.717 Y97.444
N37110 X88.173 Y97.18
N37120 X87.557 Y96.818
N37130 X86.901 Y96.357
N37140 X86.187 Y95.764
N37150 X85.41 Y95.006
N37160 X84.575 Y94.05
N37170 X83.807 Y93.011
N37180 X83.111 Y91.922
N37190 X82.481 Y90.794
N37200 X81.908 Y89.636
N37210 X81.387 Y88.454
N37220 X80.913 Y87.252
N37230 X80.48 Y86.034
N37240 X80.086 Y84.804
N37250 X79.726 Y83.563
N37260 X79.398 Y82.313
N37270 X79.101 Y81.056
N37280 X78.831 Y79.792
N37290 X78.587 Y78.524
N37300 X78.367 Y77.25
N37310 X78.171 Y75.973
N37320 X77.996 Y74.693
N37330 X77.843 Y73.41
N37340 X77.71 Y72.125
N37350 X77.597 Y70.838
N37360 X77.503 Y69.549
N37370 X77.428 Y68.259
N37380 X77.371 Y66.968
N37390 X77.332 Y65.677
N37400 X77.31 Y64.385
N37410 X77.307 Y63.093
N37420 X77.321 Y61.801
N37430 X77.352 Y60.509
N37440 X77.401 Y59.218
N37450 X77.469 Y57.928
N37460 X77.554 Y56.639
N37470 X77.659 Y55.351
N37480 X77.782 Y54.065
N37490 X77.926 Y52.781
N37500 X78.089 Y51.499
N37510 X78.273 Y50.22
N37520 X78.48 Y48.945
N37530 X78.708 Y47.673
N37540 X78.961 Y46.406
N37550 X79.239 Y45.144
N37560 X79.543 Y43.888
N37570 X79.875 Y42.64
N37580 X80.238 Y41.4
N37590 X80.634 Y40.17
N37600 X81.065 Y38.952
N37610 X81.533 Y37.748
N37620 X82.041 Y36.56
N37630 X82.592 Y35.391
N37640 X83.192 Y34.246
N37650 X83.844 Y33.131
N37660 X84.549 Y32.048
N37670 X85.311 Y31.005
N37680 X86.137 Y30.005
N37690 X86.432 Y29.732
N37700 X86.762 Y29.501
N37710 X87.119 Y29.318
N37720 X87.498 Y29.184
N37730 X87.892 Y29.102
N37740 X88.293 Y29.075
N37750 X95.668
N37760 G3 X96.744 Y29.747 Z-6.217 I-0.044 J1.269 F3500.
N37770 X96.922 Y30.383 Z-6.15 I-1.351 J0.72
N37780 X96.104 Y31.823 I-1.529 J0.084
N37790 X89.721 Y30.311 I-2.322 J-4.428
N37800 X89.37 Y29.747 Z-6.217 I4.061 J-2.917
N37810 G2 X88.293 Y29.075 Z-6.35 I-1.121 J0.597
N37820 G1 X85.768
N37830 X85.527 Y29.087
N37840 X85.181 Y29.132
N37850 X84.768 Y29.221
N37860 X84.327 Y29.353
N37870 X83.813 Y29.553
N37880 X83.269 Y29.817
N37890 X82.653 Y30.179
N37900 X81.997 Y30.64
N37910 X81.283 Y31.233
N37920 X80.507 Y31.99
N37930 X79.673 Y32.947
N37940 X78.904 Y33.985
N37950 X78.209 Y35.074
N37960 X77.578 Y36.202
N37970 X77.006 Y37.361
N37980 X76.485 Y38.543
N37990 X76.01 Y39.745
N38000 X75.578 Y40.962
N38010 X75.183 Y42.192
N38020 X74.823 Y43.433
N38030 X74.496 Y44.683
N38040 X74.198 Y45.941
N38050 X73.928 Y47.204
N38060 X73.683 Y48.473
N38070 X73.463 Y49.746
N38080 X73.266 Y51.023
N38090 X73.091 Y52.303
N38100 X72.937 Y53.586
N38110 X72.804 Y54.871
N38120 X72.69 Y56.158
N38130 X72.594 Y57.447
N38140 X72.518 Y58.736
N38150 X72.459 Y60.027
N38160 X72.419 Y61.318
N38170 X72.396 Y62.61
N38180 X72.391 Y63.902
N38190 X72.403 Y65.194
N38200 X72.433 Y66.486
N38210 X72.48 Y67.777
N38220 X72.545 Y69.068
N38230 X72.629 Y70.357
N38240 X72.731 Y71.645
N38250 X72.853 Y72.931
N38260 X72.994 Y74.216
N38270 X73.155 Y75.498
N38280 X73.337 Y76.777
N38290 X73.541 Y78.053
N38300 X73.767 Y79.325
N38310 X74.017 Y80.592
N38320 X74.293 Y81.855
N38330 X74.595 Y83.111
N38340 X74.925 Y84.36
N38350 X75.286 Y85.601
N38360 X75.679 Y86.831
N38370 X76.109 Y88.05
N38380 X76.575 Y89.255
N38390 X77.082 Y90.443
N38400 X77.631 Y91.613
N38410 X78.23 Y92.758
N38420 X78.881 Y93.874
N38430 X79.586 Y94.957
N38440 X80.348 Y96.
N38450 X81.047 Y96.848
N38460 X81.348 Y97.162
N38470 X81.691 Y97.429
N38480 X82.069 Y97.642
N38490 X82.475 Y97.798
N38500 X82.899 Y97.893
N38510 X83.333 Y97.925
N38520 X90.718
N38530 G2 X91.794 Y97.253 Z-6.217 I-0.044 J-1.269
N38540 X91.972 Y96.617 Z-6.15 I-1.347 J-0.718
N38550 X91.162 Y95.187 I-1.524 J-0.082
N38560 X84.76 Y96.689 I-2.341 J4.418
N38570 X84.409 Y97.253 Z-6.217 I4.061 J2.917
N38580 G3 X83.333 Y97.925 Z-6.35 I-1.121 J-0.597
N38590 G1 X80.818 F3150.
N38600 X80.56 Y97.912
N38610 X80.215 Y97.867
N38620 X79.802 Y97.779
N38630 X79.362 Y97.647
N38640 X78.849 Y97.447
N38650 X78.306 Y97.184
N38660 X77.692 Y96.822
N38670 X77.038 Y96.362
N38680 X76.326 Y95.771
N38690 X75.552 Y95.016
N38700 X74.72 Y94.063
N38710 X73.952 Y93.024
N38720 X73.256 Y91.935
N38730 X72.627 Y90.807
N38740 X72.055 Y89.648
N38750 X71.535 Y88.465
N38760 X71.062 Y87.263
N38770 X70.63 Y86.045
N38780 X70.237 Y84.814
N38790 X69.879 Y83.573
N38800 X69.553 Y82.323
N38810 X69.257 Y81.065
N38820 X68.989 Y79.801
N38830 X68.747 Y78.532
N38840 X68.528 Y77.258
N38850 X68.333 Y75.981
N38860 X68.16 Y74.701
N38870 X68.008 Y73.418
N38880 X67.876 Y72.132
N38890 X67.764 Y70.845
N38900 X67.671 Y69.556
N38910 X67.596 Y68.267
N38920 X67.539 Y66.976
N38930 X67.5 Y65.684
N38940 X67.479 Y64.392
N38950 X67.475 Y63.1
N38960 X67.489 Y61.808
N38970 X67.519 Y60.517
N38980 X67.568 Y59.226
N38990 X67.634 Y57.935
N39000 X67.719 Y56.646
N39010 X67.822 Y55.358
N39020 X67.944 Y54.072
N39030 X68.086 Y52.788
N39040 X68.248 Y51.506
N39050 X68.43 Y50.227
N39060 X68.635 Y48.951
N39070 X68.861 Y47.679
N39080 X69.112 Y46.411
N39090 X69.387 Y45.149
N39100 X69.689 Y43.893
N39110 X70.019 Y42.643
N39120 X70.38 Y41.403
N39130 X70.774 Y40.172
N39140 X71.203 Y38.953
N39150 X71.67 Y37.749
N39160 X72.176 Y36.56
N39170 X72.725 Y35.39
N39180 X73.324 Y34.245
N39190 X73.974 Y33.129
N39200 X74.679 Y32.046
N39210 X75.44 Y31.002
N39220 X76.14 Y30.153
N39230 X76.441 Y29.839
N39240 X76.784 Y29.572
N39250 X77.163 Y29.358
N39260 X77.569 Y29.202
N39270 X77.993 Y29.107
N39280 X78.427 Y29.075
N39290 X85.768
N39300 G3 X86.845 Y29.747 Z-6.217 I-0.044 J1.269 F3500.
N39310 X87.024 Y30.382 Z-6.15 I-1.364 J0.727
N39320 X86.181 Y31.852 I-1.543 J0.092
N39330 X79.854 Y30.311 I-2.265 J-4.457
N39340 X79.503 Y29.747 Z-6.217 I4.061 J-2.917
N39350 G2 X78.427 Y29.075 Z-6.35 I-1.121 J0.597
N39360 G1 X75.869
N39370 X75.656 Y29.086
N39380 X75.311 Y29.131
N39390 X74.899 Y29.219
N39400 X74.459 Y29.351
N39410 X73.946 Y29.551
N39420 X73.403 Y29.814
N39430 X72.788 Y30.176
N39440 X72.135 Y30.635
N39450 X71.422 Y31.226
N39460 X70.648 Y31.982
N39470 X69.817 Y32.935
N39480 X69.048 Y33.973
N39490 X68.353 Y35.063
N39500 X67.723 Y36.191
N39510 X67.151 Y37.349
N39520 X66.631 Y38.532
N39530 X66.158 Y39.734
N39540 X65.727 Y40.952
N39550 X65.333 Y42.183
N39560 X64.975 Y43.425
N39570 X64.649 Y44.675
N39580 X64.353 Y45.932
N39590 X64.084 Y47.196
N39600 X63.841 Y48.465
N39610 X63.622 Y49.739
N39620 X63.427 Y51.016
N39630 X63.253 Y52.296
N39640 X63.1 Y53.579
N39650 X62.967 Y54.864
N39660 X62.854 Y56.151
N39670 X62.76 Y57.44
N39680 X62.684 Y58.73
N39690 X62.626 Y60.021
N39700 X62.586 Y61.312
N39710 X62.563 Y62.604
N39720 X62.558 Y63.896
N39730 X62.57 Y65.188
N39740 X62.599 Y66.48
N39750 X62.646 Y67.771
N39760 X62.711 Y69.061
N39770 X62.794 Y70.351
N39780 X62.895 Y71.639
N39790 X63.016 Y72.925
N39800 X63.156 Y74.21
N39810 X63.316 Y75.492
N39820 X63.496 Y76.771
N39830 X63.699 Y78.047
N39840 X63.924 Y79.319
N39850 X64.172 Y80.587
N39860 X64.446 Y81.85
N39870 X64.746 Y83.107
N39880 X65.075 Y84.356
N39890 X65.434 Y85.597
N39900 X65.826 Y86.829
N39910 X66.254 Y88.048
N39920 X66.719 Y89.253
N39930 X67.224 Y90.442
N39940 X67.773 Y91.612
N39950 X68.37 Y92.758
N39960 X69.02 Y93.874
N39970 X69.724 Y94.958
N39980 X70.485 Y96.002
N39990 X71.181 Y96.846
N40000 X71.482 Y97.161
N40010 X71.825 Y97.428
N40020 X72.204 Y97.642
N40030 X72.61 Y97.798
N40040 X73.034 Y97.893
N40050 X73.468 Y97.925
N40060 X80.818
N40070 G2 X81.895 Y97.253 Z-6.217 I-0.044 J-1.269
N40080 X82.073 Y96.618 Z-6.15 I-1.361 J-0.725
N40090 X81.238 Y95.156 I-1.539 J-0.09
N40100 X74.895 Y96.689 I-2.281 J4.449
N40110 X74.544 Y97.253 Z-6.217 I4.061 J2.917
N40120 G3 X73.468 Y97.925 Z-6.35 I-1.121 J-0.597
N40130 G1 X70.919 F3150.
N40140 X70.699 Y97.914
N40150 X70.354 Y97.869
N40160 X69.943 Y97.781
N40170 X69.503 Y97.649
N40180 X68.991 Y97.45
N40190 X68.449 Y97.187
N40200 X67.835 Y96.825
N40210 X67.183 Y96.367
N40220 X66.472 Y95.777
N40230 X65.699 Y95.023
N40240 X64.87 Y94.073
N40250 X64.102 Y93.034
N40260 X63.407 Y91.945
N40270 X62.777 Y90.816
N40280 X62.206 Y89.657
N40290 X61.687 Y88.474
N40300 X61.214 Y87.272
N40310 X60.784 Y86.053
N40320 X60.392 Y84.822
N40330 X60.035 Y83.58
N40340 X59.71 Y82.33
N40350 X59.416 Y81.072
N40360 X59.148 Y79.808
N40370 X58.907 Y78.539
N40380 X58.69 Y77.265
N40390 X58.496 Y75.987
N40400 X58.323 Y74.707
N40410 X58.172 Y73.424
N40420 X58.041 Y72.138
N40430 X57.929 Y70.851
N40440 X57.836 Y69.562
N40450 X57.762 Y68.273
N40460 X57.705 Y66.982
N40470 X57.666 Y65.69
N40480 X57.645 Y64.398
N40490 X57.641 Y63.106
