%
(FLOORVENTRNDCRNRS)
(MACHINE)
(  VENDOR AUTODESK)
(  MODEL GENERIC 3-AXIS ROUTER)
(  DESCRIPTION THIS MACHINE HAS XYZ AXIS ON THE HEAD)
(T20 D=6.35 CR=0. - ZMIN=-19.05 - FLAT END MILL)
(T21 D=12.7 CR=0. - ZMIN=-12.7 - FLAT END MILL)
N10 G90 G94 G17 G91.1
N15 G21
N20 G53 G0 Z0.
(OUTSIDECLEARING)
N25 G53 G0 X-200 Y0
N30 M0
(MANUAL TOOL CHANGE TO T21)
N35 S18500 M3
N40 G4 P3.0
N45 G17 G90 G94
N50 G54
N55 G0 X30.441 Y152.546
N60 G43 Z15. H21
N65 G0 Z5.
N70 Z-1.46
N75 G1 Z-2.73 F3500.
N80 X30.443 Y152.538 Z-2.872
N85 X30.448 Y152.515 Z-3.013
N90 X30.458 Y152.477 Z-3.149
N95 X30.472 Y152.424 Z-3.281
N100 X30.489 Y152.358 Z-3.406
N105 X30.509 Y152.278 Z-3.522
N110 X30.533 Y152.186 Z-3.628
N115 X30.559 Y152.083 Z-3.723
N120 X30.588 Y151.97 Z-3.805
N125 X30.619 Y151.85 Z-3.874
N130 X30.652 Y151.722 Z-3.929
N135 X30.686 Y151.59 Z-3.968
N140 X30.72 Y151.454 Z-3.992
N145 X30.756 Y151.316 Z-4.
N150 G2 X31.75 Y144.402 I-31.409 J-8.045
N155 G1 Y144.079
N160 X31.802 Y143.606
N165 X31.819 Y143.001
N170 X31.764 Y141.942
N175 X31.594 Y140.661
N180 X31.389 Y139.386
N185 X31.203 Y138.107
N190 X31.055 Y136.824
N195 X30.936 Y135.537
N200 X30.842 Y134.248
N205 X30.767 Y132.959
N210 X30.708 Y131.668
N215 X30.661 Y130.377
N220 X30.623 Y129.085
N225 X30.594 Y127.793
N230 X30.57 Y126.502
N235 X30.551 Y125.21
N240 X30.537 Y123.918
N245 X30.525 Y122.626
N250 X30.516 Y121.334
N255 X30.508 Y120.042
N260 X30.502 Y118.75
N265 X30.494 Y116.165
N270 X30.489 Y113.581
N275 X30.484 Y109.705
N280 X30.481 Y103.245
N285 X30.48 Y94.201
N290 Y43.81
N295 Y11.509
N300 X30.504 Y10.217
N305 X30.594 Y8.928
N310 X30.786 Y7.651
N315 X31.111 Y6.4
N320 X31.591 Y5.2
N325 X32.241 Y4.084
N330 X33.065 Y3.089
N335 X34.046 Y2.247
N340 X35.138 Y1.558
N345 X36.302 Y0.997
N350 X37.512 Y0.543
N355 X38.751 Y0.177
N360 X40.009 Y-0.117
N365 X41.28 Y-0.352
N370 X42.558 Y-0.54
N375 X43.841 Y-0.69
N380 X45.128 Y-0.809
N385 X46.416 Y-0.904
N390 X47.706 Y-0.98
N395 X48.997 Y-1.04
N400 X50.288 Y-1.087
N405 X51.58 Y-1.125
N410 X52.871 Y-1.155
N415 X54.163 Y-1.179
N420 X55.455 Y-1.198
N425 X56.747 Y-1.213
N430 X58.039 Y-1.225
N435 X59.331 Y-1.234
N440 X60.623 Y-1.242
N445 X61.915 Y-1.247
N450 X64.499 Y-1.256
N455 X67.083 Y-1.261
N460 X70.959 Y-1.266
N465 X77.42 Y-1.269
N470 X91.632 Y-1.27
N475 X142.022
N480 X192.413
N485 X242.803
N490 X293.193
N495 X312.574
N500 X313.865 Y-1.24
N505 X315.153 Y-1.136
N510 X316.427 Y-0.922
N515 X317.671 Y-0.57
N520 X318.857 Y-0.059
N525 X319.955 Y0.623
N530 X320.923 Y1.479
N535 X321.736 Y2.483
N540 X322.401 Y3.59
N545 X322.941 Y4.764
N550 X323.378 Y5.98
N555 X323.73 Y7.223
N560 X324.012 Y8.484
N565 X324.238 Y9.756
N570 X324.419 Y11.036
N575 X324.563 Y12.32
N580 X324.677 Y13.607
N585 X324.769 Y14.895
N590 X324.841 Y16.185
N595 X324.899 Y17.476
N600 X324.945 Y18.767
N605 X324.981 Y20.059
N610 X325.01 Y21.351
N615 X325.033 Y22.643
N620 X325.051 Y23.934
N625 X325.065 Y25.226
N630 X325.076 Y26.518
N635 X325.086 Y27.81
N640 X325.093 Y29.103
N645 X325.098 Y30.395
N650 X325.106 Y32.979
N655 X325.111 Y35.563
N660 X325.116 Y39.439
N665 X325.119 Y45.899
N670 X325.12 Y65.28
N675 Y73.032
N680 Y123.422
N685 Y127.299
N690 X325.116 Y128.591
N695 X325.083 Y129.882
N700 X324.969 Y131.169
N705 X324.74 Y132.441
N710 X324.369 Y133.679
N715 X323.837 Y134.856
N720 X323.132 Y135.939
N725 X322.255 Y136.888
N730 X321.234 Y137.68
N735 X320.116 Y138.328
N740 X318.936 Y138.854
N745 X317.716 Y139.278
N750 X316.47 Y139.62
N755 X315.207 Y139.895
N760 X313.934 Y140.114
N765 X312.654 Y140.289
N770 X311.37 Y140.429
N775 X310.082 Y140.541
N780 X308.793 Y140.629
N785 X307.503 Y140.7
N790 X306.212 Y140.755
N795 X304.921 Y140.8
N800 X303.629 Y140.835
N805 X302.338 Y140.863
N810 X301.046 Y140.885
N815 X299.754 Y140.903
N820 X298.462 Y140.917
N825 X297.17 Y140.928
N830 X295.878 Y140.937
N835 X294.586 Y140.943
N840 X293.294 Y140.949
N845 X290.71 Y140.957
N850 X288.126 Y140.962
N855 X286.834 Y140.963
N860 X281.665 Y140.967
N865 X271.329 Y140.97
N870 X236.443
N875 X186.053
N880 X135.663
N885 X85.273
N890 X43.927
N895 X43.283 Y140.927
N900 X42.036 Y140.587
N905 X40.933 Y139.915
N910 X39.987 Y139.034
N915 X39.19 Y138.017
N920 X38.526 Y136.909
N925 X37.977 Y135.74
N930 X37.524 Y134.529
N935 X37.153 Y133.292
N940 X36.85 Y132.036
N945 X36.604 Y130.767
N950 X36.403 Y129.491
N955 X36.241 Y128.209
N960 X36.109 Y126.924
N965 X36.002 Y125.636
N970 X35.916 Y124.347
N975 X35.847 Y123.057
N980 X35.791 Y121.766
N985 X35.746 Y120.475
N990 X35.709 Y119.183
N995 X35.68 Y117.891
N1000 X35.656 Y116.6
N1005 X35.637 Y115.308
N1010 X35.622 Y114.016
N1015 X35.61 Y112.724
N1020 X35.6 Y111.432
N1025 X35.592 Y110.14
N1030 X35.586 Y108.848
N1035 X35.581 Y107.556
N1040 X35.573 Y104.972
N1045 X35.567 Y101.095
N1050 X35.563 Y95.927
N1055 X35.56 Y85.591
N1060 Y84.299
N1065 Y33.909
N1070 Y17.112
N1075 X35.563 Y15.82
N1080 X35.579 Y14.528
N1085 X35.644 Y13.237
N1090 X35.857 Y11.963
N1095 X36.332 Y10.761
N1100 X37.033 Y9.676
N1105 X37.905 Y8.723
N1110 X38.901 Y7.9
N1115 X39.987 Y7.2
N1120 X41.137 Y6.61
N1125 X42.33 Y6.115
N1130 X43.555 Y5.703
N1135 X44.801 Y5.361
N1140 X46.062 Y5.079
N1145 X47.333 Y4.846
N1150 X48.61 Y4.655
N1155 X49.893 Y4.498
N1160 X51.179 Y4.37
N1165 X52.466 Y4.265
N1170 X53.756 Y4.179
N1175 X55.046 Y4.11
N1180 X56.337 Y4.053
N1185 X57.628 Y4.007
N1190 X58.919 Y3.969
N1195 X60.211 Y3.939
N1200 X61.503 Y3.914
N1205 X62.795 Y3.894
N1210 X64.087 Y3.878
N1215 X65.379 Y3.865
N1220 X66.671 Y3.854
N1225 X67.963 Y3.846
N1230 X69.255 Y3.839
N1235 X70.547 Y3.833
N1240 X73.131 Y3.825
N1245 X75.715 Y3.82
N1250 X79.591 Y3.815
N1255 X86.051 Y3.812
N1260 X101.556 Y3.81
N1265 X111.893
N1270 X162.283
N1275 X212.673
N1280 X263.063
N1285 X306.993
N1290 X308.285 Y3.813
N1295 X309.577 Y3.836
N1300 X310.866 Y3.917
N1305 X312.131 Y4.181
N1310 X313.313 Y4.704
N1315 X314.372 Y5.443
N1320 X315.3 Y6.343
N1325 X316.097 Y7.359
N1330 X316.774 Y8.46
N1335 X317.345 Y9.619
N1340 X317.822 Y10.819
N1345 X318.22 Y12.049
N1350 X318.549 Y13.298
N1355 X318.821 Y14.561
N1360 X319.045 Y15.834
N1365 X319.229 Y17.113
N1370 X319.379 Y18.396
N1375 X319.503 Y19.682
N1380 X319.603 Y20.97
N1385 X319.686 Y22.26
N1390 X319.752 Y23.55
N1395 X319.807 Y24.841
N1400 X319.851 Y26.132
N1405 X319.887 Y27.424
N1410 X319.916 Y28.716
N1415 X319.94 Y30.007
N1420 X319.959 Y31.299
N1425 X319.975 Y32.591
N1430 X319.987 Y33.883
N1435 X319.997 Y35.175
N1440 X320.006 Y36.467
N1445 X320.012 Y37.759
N1450 X320.018 Y39.051
N1455 X320.025 Y41.635
N1460 X320.031 Y44.22
N1465 X320.035 Y48.096
N1470 X320.038 Y53.264
N1475 X320.04 Y66.185
N1480 Y103.654
N1485 Y123.035
N1490 X320.035 Y124.327
N1495 X320.008 Y125.619
N1500 X319.912 Y126.907
N1505 X319.611 Y128.164
N1510 X319.053 Y129.329
N1515 X318.287 Y130.369
N1520 X317.367 Y131.277
N1525 X316.336 Y132.056
N1530 X315.226 Y132.716
N1535 X314.059 Y133.272
N1540 X312.854 Y133.736
N1545 X311.621 Y134.123
N1550 X310.369 Y134.443
N1555 X309.104 Y134.707
N1560 X307.83 Y134.925
N1565 X306.551 Y135.103
N1570 X305.267 Y135.249
N1575 X303.981 Y135.369
N1580 X302.692 Y135.467
N1585 X301.403 Y135.546
N1590 X300.112 Y135.611
N1595 X298.821 Y135.664
N1600 X297.53 Y135.707
N1605 X296.238 Y135.742
N1610 X294.947 Y135.77
N1615 X293.655 Y135.793
N1620 X292.363 Y135.812
N1625 X291.071 Y135.827
N1630 X289.779 Y135.839
N1635 X288.487 Y135.849
N1640 X287.195 Y135.857
N1645 X285.903 Y135.863
N1650 X284.611 Y135.868
N1655 X282.027 Y135.876
N1660 X278.15 Y135.883
N1665 X272.982 Y135.887
N1670 X263.938 Y135.889
N1675 X245.849 Y135.89
N1680 X195.459
N1685 X145.069
N1690 X94.679
N1695 X50.749
N1700 X49.457 Y135.876
N1705 X48.207 Y135.549
N1710 X47.06 Y134.954
N1715 X46.043 Y134.157
N1720 X45.159 Y133.215
N1725 X44.402 Y132.167
N1730 X43.761 Y131.046
N1735 X43.221 Y129.872
N1740 X42.769 Y128.662
N1745 X42.393 Y127.426
N1750 X42.08 Y126.172
N1755 X41.822 Y124.906
N1760 X41.608 Y123.632
N1765 X41.433 Y122.352
N1770 X41.288 Y121.068
N1775 X41.169 Y119.781
N1780 X41.072 Y118.493
N1785 X40.992 Y117.203
N1790 X40.927 Y115.913
N1795 X40.874 Y114.622
N1800 X40.831 Y113.33
N1805 X40.795 Y112.039
N1810 X40.766 Y110.747
N1815 X40.743 Y109.455
N1820 X40.723 Y108.163
N1825 X40.708 Y106.871
N1830 X40.695 Y105.579
N1835 X40.685 Y104.287
N1840 X40.676 Y102.995
N1845 X40.669 Y101.703
N1850 X40.664 Y100.411
N1855 X40.656 Y97.827
N1860 X40.65 Y95.243
N1865 X40.645 Y91.367
N1870 X40.642 Y84.907
N1875 Y83.615
N1880 X40.64 Y65.526
N1885 Y33.224
N1890 Y21.596
N1895 X40.642 Y20.304
N1900 X40.652 Y19.012
N1905 X40.817 Y17.73
N1910 X41.241 Y16.51
N1915 X41.889 Y15.392
N1920 X42.714 Y14.398
N1925 X43.669 Y13.528
N1930 X44.721 Y12.777
N1935 X45.843 Y12.136
N1940 X47.015 Y11.593
N1945 X48.223 Y11.135
N1950 X49.457 Y10.75
N1955 X50.708 Y10.429
N1960 X51.972 Y10.161
N1965 X53.245 Y9.938
N1970 X54.524 Y9.754
N1975 X55.807 Y9.601
N1980 X57.093 Y9.474
N1985 X58.38 Y9.37
N1990 X59.67 Y9.284
N1995 X60.96 Y9.213
N2000 X62.25 Y9.155
N2005 X63.542 Y9.107
N2010 X64.833 Y9.067
N2015 X66.125 Y9.035
N2020 X67.416 Y9.009
N2025 X68.708 Y8.987
N2030 X70. Y8.969
N2035 X71.292 Y8.955
N2040 X72.584 Y8.943
N2045 X73.876 Y8.933
N2050 X75.168 Y8.925
N2055 X76.46 Y8.919
N2060 X79.044 Y8.909
N2065 X81.629 Y8.903
N2070 X85.505 Y8.897
N2075 X90.673 Y8.893
N2080 X101.009 Y8.891
N2085 X122.974 Y8.89
N2090 X173.364
N2095 X223.755
N2100 X274.145
N2105 X302.57
N2110 X303.862 Y8.893
N2115 X305.154 Y8.908
N2120 X306.425 Y9.14
N2125 X307.623 Y9.624
N2130 X308.711 Y10.32
N2135 X309.675 Y11.181
N2140 X310.515 Y12.162
N2145 X311.238 Y13.233
N2150 X311.854 Y14.369
N2155 X312.375 Y15.551
N2160 X312.815 Y16.766
N2165 X313.183 Y18.005
N2170 X313.49 Y19.26
N2175 X313.747 Y20.526
N2180 X313.96 Y21.801
N2185 X314.136 Y23.08
N2190 X314.282 Y24.364
N2195 X314.403 Y25.651
N2200 X314.503 Y26.939
N2205 X314.585 Y28.228
N2210 X314.652 Y29.519
N2215 X314.708 Y30.809
N2220 X314.754 Y32.101
N2225 X314.791 Y33.392
N2230 X314.822 Y34.684
N2235 X314.847 Y35.976
N2240 X314.868 Y37.268
N2245 X314.885 Y38.559
N2250 X314.898 Y39.851
N2255 X314.91 Y41.143
N2260 X314.919 Y42.435
N2265 X314.927 Y43.728
N2270 X314.933 Y45.02
N2275 X314.942 Y47.604
N2280 X314.948 Y50.188
N2285 X314.954 Y54.064
N2290 X314.957 Y59.232
N2295 X314.959 Y69.569
N2300 X314.96 Y74.737
N2305 Y117.375
N2310 X314.959 Y118.667
N2315 X314.956 Y119.959
N2320 X314.92 Y121.25
N2325 X314.64 Y122.512
N2330 X314.111 Y123.691
N2335 X313.38 Y124.756
N2340 X312.494 Y125.696
N2345 X311.493 Y126.513
N2350 X310.408 Y127.214
N2355 X309.262 Y127.811
N2360 X308.072 Y128.316
N2365 X306.852 Y128.74
N2370 X305.61 Y129.096
N2375 X304.352 Y129.393
N2380 X303.084 Y129.641
N2385 X301.809 Y129.846
N2390 X300.528 Y130.016
N2395 X299.243 Y130.157
N2400 X297.957 Y130.274
N2405 X296.668 Y130.37
N2410 X295.379 Y130.449
N2415 X294.088 Y130.514
N2420 X292.797 Y130.567
N2425 X291.506 Y130.611
N2430 X290.214 Y130.647
N2435 X288.923 Y130.677
N2440 X287.631 Y130.701
N2445 X286.339 Y130.721
N2450 X285.047 Y130.738
N2455 X283.755 Y130.751
N2460 X282.463 Y130.762
N2465 X281.171 Y130.771
N2470 X279.879 Y130.778
N2475 X278.587 Y130.784
N2480 X276.003 Y130.793
N2485 X273.419 Y130.799
N2490 X269.543 Y130.804
N2495 X264.374 Y130.807
N2500 X254.038 Y130.809
N2505 X213.984 Y130.81
N2510 X163.594
N2515 X113.204
N2520 X62.814
N2525 X56.354
N2530 X55.062 Y130.759
N2535 X53.81 Y130.44
N2540 X52.649 Y129.875
N2545 X51.606 Y129.112
N2550 X50.688 Y128.202
N2555 X49.894 Y127.183
N2560 X49.789 Y127.014
N2565 X49.564 Y126.699
N2570 X49.299 Y126.415
N2575 X48.999 Y126.169
N2580 X48.67 Y125.963
N2585 X48.644 Y125.949
N2590 X48.499 Y125.855
N2595 X47.882 Y125.433
N2600 X47.501 Y125.088
N2605 X47.1 Y124.712
N2610 X46.739 Y124.35
N2615 X46.358 Y123.945
N2620 X46.021 Y123.569
N2625 X45.596 Y122.953
N2630 X45.503 Y122.807
N2635 X45.215 Y122.274
N2640 X45.096 Y122.045
N2645 X44.834 Y121.504
N2650 X44.728 Y121.283
N2655 X44.57 Y120.902
N2660 X44.439 Y120.521
N2665 X44.316 Y120.14
N2670 X44.24 Y119.759
N2675 X44.166 Y119.378
N2680 X44.046 Y118.616
N2685 X44.005 Y118.235
N2690 X43.973 Y117.854
N2695 X43.952 Y117.473
N2700 X43.95 Y116.711
N2705 Y22.989
N2710 X43.952 Y22.227
N2715 X43.973 Y21.846
N2720 X44.005 Y21.465
N2725 X44.046 Y21.084
N2730 X44.166 Y20.322
N2735 X44.24 Y19.941
N2740 X44.316 Y19.56
N2745 X44.439 Y19.179
N2750 X44.57 Y18.798
N2755 X44.728 Y18.417
N2760 X44.911 Y18.036
N2765 X45.096 Y17.655
N2770 X45.215 Y17.426
N2775 X45.503 Y16.893
N2780 X45.596 Y16.747
N2785 X46.02 Y16.131
N2790 X46.362 Y15.75
N2795 X46.739 Y15.35
N2800 X47.1 Y14.988
N2805 X47.507 Y14.607
N2810 X47.882 Y14.267
N2815 X48.5 Y13.845
N2820 X48.644 Y13.751
N2825 X49.179 Y13.464
N2830 X49.406 Y13.346
N2835 X49.787 Y13.161
N2840 X50.168 Y12.978
N2845 X50.549 Y12.819
N2850 X50.93 Y12.69
N2855 X51.311 Y12.567
N2860 X51.692 Y12.488
N2865 X52.073 Y12.416
N2870 X52.835 Y12.296
N2875 X53.216 Y12.254
N2880 X53.597 Y12.223
N2885 X53.978 Y12.201
N2890 X55.121 Y12.2
N2895 X300.86
N2900 X301.622 Y12.201
N2905 X302.003 Y12.223
N2910 X302.384 Y12.254
N2915 X302.765 Y12.296
N2920 X303.527 Y12.416
N2925 X303.908 Y12.488
N2930 X304.289 Y12.567
N2935 X304.67 Y12.69
N2940 X305.051 Y12.819
N2945 X305.432 Y12.978
N2950 X305.813 Y13.161
N2955 X306.194 Y13.346
N2960 X306.42 Y13.464
N2965 X306.956 Y13.751
N2970 X307.1 Y13.845
N2975 X307.718 Y14.267
N2980 X308.099 Y14.613
N2985 X308.5 Y14.988
N2990 X308.861 Y15.349
N2995 X309.242 Y15.754
N3000 X309.58 Y16.131
N3005 X310.004 Y16.746
N3010 X310.098 Y16.893
N3015 X310.385 Y17.425
N3020 X310.504 Y17.655
N3025 X310.766 Y18.195
N3030 X310.873 Y18.417
N3035 X311.031 Y18.798
N3040 X311.161 Y19.179
N3045 X311.284 Y19.56
N3050 X311.36 Y19.941
N3055 X311.434 Y20.322
N3060 X311.554 Y21.084
N3065 X311.595 Y21.465
N3070 X311.627 Y21.846
N3075 X311.648 Y22.227
N3080 X311.65 Y22.989
N3085 Y116.711
N3090 X311.648 Y117.473
N3095 X311.627 Y117.854
N3100 X311.595 Y118.235
N3105 X311.554 Y118.616
N3110 X311.434 Y119.378
N3115 X311.36 Y119.759
N3120 X311.284 Y120.14
N3125 X311.161 Y120.521
N3130 X311.031 Y120.902
N3135 X310.873 Y121.283
N3140 X310.689 Y121.664
N3145 X310.504 Y122.045
N3150 X310.385 Y122.274
N3155 X310.098 Y122.807
N3160 X310.004 Y122.954
N3165 X309.58 Y123.569
N3170 X309.238 Y123.95
N3175 X308.861 Y124.351
N3180 X308.5 Y124.712
N3185 X308.093 Y125.093
N3190 X307.718 Y125.433
N3195 X307.101 Y125.855
N3200 X306.956 Y125.949
N3205 X306.421 Y126.236
N3210 X306.194 Y126.355
N3215 X305.813 Y126.54
N3220 X305.432 Y126.722
N3225 X305.051 Y126.882
N3230 X304.67 Y127.011
N3235 X304.289 Y127.134
N3240 X303.908 Y127.212
N3245 X303.527 Y127.284
N3250 X302.765 Y127.404
N3255 X302.384 Y127.446
N3260 X302.003 Y127.477
N3265 X301.622 Y127.499
N3270 X300.479 Y127.5
N3275 X54.74
N3280 X53.978 Y127.499
N3285 X53.597 Y127.477
N3290 X53.216 Y127.446
N3295 X52.835 Y127.404
N3300 X52.073 Y127.284
N3305 X51.692 Y127.212
N3310 X51.311 Y127.134
N3315 X50.93 Y127.011
N3320 X50.549 Y126.882
N3325 X50.168 Y126.722
N3330 X49.787 Y126.54
N3335 X49.406 Y126.355
N3340 X49.179 Y126.236
N3345 X48.67 Y125.963
N3350 X48.567 Y125.928 Z-3.992
N3355 X48.467 Y125.893 Z-3.97
N3360 X48.37 Y125.86 Z-3.933
N3365 X48.275 Y125.85 Z-3.882
N3370 X48.188 Y125.841 Z-3.819
N3375 X48.11 Y125.833 Z-3.744
N3380 X48.049 Y125.838 Z-3.669
N3385 X47.999 Y125.842 Z-3.586
N3390 X47.958 Y125.845 Z-3.498
N3395 X47.929 Y125.848 Z-3.406
N3400 X47.911 Y125.849 Z-3.311
N3405 X47.906 Y125.85 Z-3.215
N3410 G0 Z5.
N3415 X30.441 Y152.546
N3420 Z-5.46
N3425 G1 Z-6.73 F3500.
N3430 X30.443 Y152.538 Z-6.872
N3435 X30.448 Y152.515 Z-7.013
N3440 X30.458 Y152.477 Z-7.149
N3445 X30.472 Y152.424 Z-7.281
N3450 X30.489 Y152.358 Z-7.406
N3455 X30.509 Y152.278 Z-7.522
N3460 X30.533 Y152.186 Z-7.628
N3465 X30.559 Y152.083 Z-7.723
N3470 X30.588 Y151.97 Z-7.805
N3475 X30.619 Y151.85 Z-7.874
N3480 X30.652 Y151.722 Z-7.929
N3485 X30.686 Y151.59 Z-7.968
N3490 X30.72 Y151.454 Z-7.992
N3495 X30.756 Y151.316 Z-8.
N3500 G2 X31.75 Y144.402 I-31.409 J-8.045
N3505 G1 Y144.079
N3510 X31.802 Y143.606
N3515 X31.819 Y143.001
N3520 X31.764 Y141.942
N3525 X31.594 Y140.661
N3530 X31.389 Y139.386
N3535 X31.203 Y138.107
N3540 X31.055 Y136.824
N3545 X30.936 Y135.537
N3550 X30.842 Y134.248
N3555 X30.767 Y132.959
N3560 X30.708 Y131.668
N3565 X30.661 Y130.377
N3570 X30.623 Y129.085
N3575 X30.594 Y127.793
N3580 X30.57 Y126.502
N3585 X30.551 Y125.21
N3590 X30.537 Y123.918
N3595 X30.525 Y122.626
N3600 X30.516 Y121.334
N3605 X30.508 Y120.042
N3610 X30.502 Y118.75
N3615 X30.494 Y116.165
N3620 X30.489 Y113.581
N3625 X30.484 Y109.705
N3630 X30.481 Y103.245
N3635 X30.48 Y94.201
N3640 Y43.81
N3645 Y11.509
N3650 X30.504 Y10.217
N3655 X30.594 Y8.928
N3660 X30.786 Y7.651
N3665 X31.111 Y6.4
N3670 X31.591 Y5.2
N3675 X32.241 Y4.084
N3680 X33.065 Y3.089
N3685 X34.046 Y2.247
N3690 X35.138 Y1.558
N3695 X36.302 Y0.997
N3700 X37.512 Y0.543
N3705 X38.751 Y0.177
N3710 X40.009 Y-0.117
N3715 X41.28 Y-0.352
N3720 X42.558 Y-0.54
N3725 X43.841 Y-0.69
N3730 X45.128 Y-0.809
N3735 X46.416 Y-0.904
N3740 X47.706 Y-0.98
N3745 X48.997 Y-1.04
N3750 X50.288 Y-1.087
N3755 X51.58 Y-1.125
N3760 X52.871 Y-1.155
N3765 X54.163 Y-1.179
N3770 X55.455 Y-1.198
N3775 X56.747 Y-1.213
N3780 X58.039 Y-1.225
N3785 X59.331 Y-1.234
N3790 X60.623 Y-1.242
N3795 X61.915 Y-1.247
N3800 X64.499 Y-1.256
N3805 X67.083 Y-1.261
N3810 X70.959 Y-1.266
N3815 X77.42 Y-1.269
N3820 X91.632 Y-1.27
N3825 X142.022
N3830 X192.413
N3835 X242.803
N3840 X293.193
N3845 X312.574
N3850 X313.865 Y-1.24
N3855 X315.153 Y-1.136
N3860 X316.427 Y-0.922
N3865 X317.671 Y-0.57
N3870 X318.857 Y-0.059
N3875 X319.955 Y0.623
N3880 X320.923 Y1.479
N3885 X321.736 Y2.483
N3890 X322.401 Y3.59
N3895 X322.941 Y4.764
N3900 X323.378 Y5.98
N3905 X323.73 Y7.223
N3910 X324.012 Y8.484
N3915 X324.238 Y9.756
N3920 X324.419 Y11.036
N3925 X324.563 Y12.32
N3930 X324.677 Y13.607
N3935 X324.769 Y14.895
N3940 X324.841 Y16.185
N3945 X324.899 Y17.476
N3950 X324.945 Y18.767
N3955 X324.981 Y20.059
N3960 X325.01 Y21.351
N3965 X325.033 Y22.643
N3970 X325.051 Y23.934
N3975 X325.065 Y25.226
N3980 X325.076 Y26.518
N3985 X325.086 Y27.81
N3990 X325.093 Y29.103
N3995 X325.098 Y30.395
N4000 X325.106 Y32.979
N4005 X325.111 Y35.563
N4010 X325.116 Y39.439
N4015 X325.119 Y45.899
N4020 X325.12 Y65.28
N4025 Y73.032
N4030 Y123.422
N4035 Y127.299
N4040 X325.116 Y128.591
N4045 X325.083 Y129.882
N4050 X324.969 Y131.169
N4055 X324.74 Y132.441
N4060 X324.369 Y133.679
N4065 X323.837 Y134.856
N4070 X323.132 Y135.939
N4075 X322.255 Y136.888
N4080 X321.234 Y137.68
N4085 X320.116 Y138.328
N4090 X318.936 Y138.854
N4095 X317.716 Y139.278
N4100 X316.47 Y139.62
N4105 X315.207 Y139.895
N4110 X313.934 Y140.114
N4115 X312.654 Y140.289
N4120 X311.37 Y140.429
N4125 X310.082 Y140.541
N4130 X308.793 Y140.629
N4135 X307.503 Y140.7
N4140 X306.212 Y140.755
N4145 X304.921 Y140.8
N4150 X303.629 Y140.835
N4155 X302.338 Y140.863
N4160 X301.046 Y140.885
N4165 X299.754 Y140.903
N4170 X298.462 Y140.917
N4175 X297.17 Y140.928
N4180 X295.878 Y140.937
N4185 X294.586 Y140.943
N4190 X293.294 Y140.949
N4195 X290.71 Y140.957
N4200 X288.126 Y140.962
N4205 X286.834 Y140.963
N4210 X281.665 Y140.967
N4215 X271.329 Y140.97
N4220 X236.443
N4225 X186.053
N4230 X135.663
N4235 X85.273
N4240 X43.927
N4245 X43.283 Y140.927
N4250 X42.036 Y140.587
N4255 X40.933 Y139.915
N4260 X39.987 Y139.034
N4265 X39.19 Y138.017
N4270 X38.526 Y136.909
N4275 X37.977 Y135.74
N4280 X37.524 Y134.529
N4285 X37.153 Y133.292
N4290 X36.85 Y132.036
N4295 X36.604 Y130.767
N4300 X36.403 Y129.491
N4305 X36.241 Y128.209
N4310 X36.109 Y126.924
N4315 X36.002 Y125.636
N4320 X35.916 Y124.347
N4325 X35.847 Y123.057
N4330 X35.791 Y121.766
N4335 X35.746 Y120.475
N4340 X35.709 Y119.183
N4345 X35.68 Y117.891
N4350 X35.656 Y116.6
N4355 X35.637 Y115.308
N4360 X35.622 Y114.016
N4365 X35.61 Y112.724
N4370 X35.6 Y111.432
N4375 X35.592 Y110.14
N4380 X35.586 Y108.848
N4385 X35.581 Y107.556
N4390 X35.573 Y104.972
N4395 X35.567 Y101.095
N4400 X35.563 Y95.927
N4405 X35.56 Y85.591
N4410 Y84.299
N4415 Y33.909
N4420 Y17.112
N4425 X35.563 Y15.82
N4430 X35.579 Y14.528
N4435 X35.644 Y13.237
N4440 X35.857 Y11.963
N4445 X36.332 Y10.761
N4450 X37.033 Y9.676
N4455 X37.905 Y8.723
N4460 X38.901 Y7.9
N4465 X39.987 Y7.2
N4470 X41.137 Y6.61
N4475 X42.33 Y6.115
N4480 X43.555 Y5.703
N4485 X44.801 Y5.361
N4490 X46.062 Y5.079
N4495 X47.333 Y4.846
N4500 X48.61 Y4.655
N4505 X49.893 Y4.498
N4510 X51.179 Y4.37
N4515 X52.466 Y4.265
N4520 X53.756 Y4.179
N4525 X55.046 Y4.11
N4530 X56.337 Y4.053
N4535 X57.628 Y4.007
N4540 X58.919 Y3.969
N4545 X60.211 Y3.939
N4550 X61.503 Y3.914
N4555 X62.795 Y3.894
N4560 X64.087 Y3.878
N4565 X65.379 Y3.865
N4570 X66.671 Y3.854
N4575 X67.963 Y3.846
N4580 X69.255 Y3.839
N4585 X70.547 Y3.833
N4590 X73.131 Y3.825
N4595 X75.715 Y3.82
N4600 X79.591 Y3.815
N4605 X86.051 Y3.812
N4610 X101.556 Y3.81
N4615 X111.893
N4620 X162.283
N4625 X212.673
N4630 X263.063
N4635 X306.993
N4640 X308.285 Y3.813
N4645 X309.577 Y3.836
N4650 X310.866 Y3.917
N4655 X312.131 Y4.181
N4660 X313.313 Y4.704
N4665 X314.372 Y5.443
N4670 X315.3 Y6.343
N4675 X316.097 Y7.359
N4680 X316.774 Y8.46
N4685 X317.345 Y9.619
N4690 X317.822 Y10.819
N4695 X318.22 Y12.049
N4700 X318.549 Y13.298
N4705 X318.821 Y14.561
N4710 X319.045 Y15.834
N4715 X319.229 Y17.113
N4720 X319.379 Y18.396
N4725 X319.503 Y19.682
N4730 X319.603 Y20.97
N4735 X319.686 Y22.26
N4740 X319.752 Y23.55
N4745 X319.807 Y24.841
N4750 X319.851 Y26.132
N4755 X319.887 Y27.424
N4760 X319.916 Y28.716
N4765 X319.94 Y30.007
N4770 X319.959 Y31.299
N4775 X319.975 Y32.591
N4780 X319.987 Y33.883
N4785 X319.997 Y35.175
N4790 X320.006 Y36.467
N4795 X320.012 Y37.759
N4800 X320.018 Y39.051
N4805 X320.025 Y41.635
N4810 X320.031 Y44.22
N4815 X320.035 Y48.096
N4820 X320.038 Y53.264
N4825 X320.04 Y66.185
N4830 Y103.654
N4835 Y123.035
N4840 X320.035 Y124.327
N4845 X320.008 Y125.619
N4850 X319.912 Y126.907
N4855 X319.611 Y128.164
N4860 X319.053 Y129.329
N4865 X318.287 Y130.369
N4870 X317.367 Y131.277
N4875 X316.336 Y132.056
N4880 X315.226 Y132.716
N4885 X314.059 Y133.272
N4890 X312.854 Y133.736
N4895 X311.621 Y134.123
N4900 X310.369 Y134.443
N4905 X309.104 Y134.707
N4910 X307.83 Y134.925
N4915 X306.551 Y135.103
N4920 X305.267 Y135.249
N4925 X303.981 Y135.369
N4930 X302.692 Y135.467
N4935 X301.403 Y135.546
N4940 X300.112 Y135.611
N4945 X298.821 Y135.664
N4950 X297.53 Y135.707
N4955 X296.238 Y135.742
N4960 X294.947 Y135.77
N4965 X293.655 Y135.793
N4970 X292.363 Y135.812
N4975 X291.071 Y135.827
N4980 X289.779 Y135.839
N4985 X288.487 Y135.849
N4990 X287.195 Y135.857
N4995 X285.903 Y135.863
N5000 X284.611 Y135.868
N5005 X282.027 Y135.876
N5010 X278.15 Y135.883
N5015 X272.982 Y135.887
N5020 X263.938 Y135.889
N5025 X245.849 Y135.89
N5030 X195.459
N5035 X145.069
N5040 X94.679
N5045 X50.749
N5050 X49.457 Y135.876
N5055 X48.207 Y135.549
N5060 X47.06 Y134.954
N5065 X46.043 Y134.157
N5070 X45.159 Y133.215
N5075 X44.402 Y132.167
N5080 X43.761 Y131.046
N5085 X43.221 Y129.872
N5090 X42.769 Y128.662
N5095 X42.393 Y127.426
N5100 X42.08 Y126.172
N5105 X41.822 Y124.906
N5110 X41.608 Y123.632
N5115 X41.433 Y122.352
N5120 X41.288 Y121.068
N5125 X41.169 Y119.781
N5130 X41.072 Y118.493
N5135 X40.992 Y117.203
N5140 X40.927 Y115.913
N5145 X40.874 Y114.622
N5150 X40.831 Y113.33
N5155 X40.795 Y112.039
N5160 X40.766 Y110.747
N5165 X40.743 Y109.455
N5170 X40.723 Y108.163
N5175 X40.708 Y106.871
N5180 X40.695 Y105.579
N5185 X40.685 Y104.287
N5190 X40.676 Y102.995
N5195 X40.669 Y101.703
N5200 X40.664 Y100.411
N5205 X40.656 Y97.827
N5210 X40.65 Y95.243
N5215 X40.645 Y91.367
N5220 X40.642 Y84.907
N5225 Y83.615
N5230 X40.64 Y65.526
N5235 Y33.224
N5240 Y21.596
N5245 X40.642 Y20.304
N5250 X40.652 Y19.012
N5255 X40.817 Y17.73
N5260 X41.241 Y16.51
N5265 X41.889 Y15.392
N5270 X42.714 Y14.398
N5275 X43.669 Y13.528
N5280 X44.721 Y12.777
N5285 X45.843 Y12.136
N5290 X47.015 Y11.593
N5295 X48.223 Y11.135
N5300 X49.457 Y10.75
N5305 X50.708 Y10.429
N5310 X51.972 Y10.161
N5315 X53.245 Y9.938
N5320 X54.524 Y9.754
N5325 X55.807 Y9.601
N5330 X57.093 Y9.474
N5335 X58.38 Y9.37
N5340 X59.67 Y9.284
N5345 X60.96 Y9.213
N5350 X62.25 Y9.155
N5355 X63.542 Y9.107
N5360 X64.833 Y9.067
N5365 X66.125 Y9.035
N5370 X67.416 Y9.009
N5375 X68.708 Y8.987
N5380 X70. Y8.969
N5385 X71.292 Y8.955
N5390 X72.584 Y8.943
N5395 X73.876 Y8.933
N5400 X75.168 Y8.925
N5405 X76.46 Y8.919
N5410 X79.044 Y8.909
N5415 X81.629 Y8.903
N5420 X85.505 Y8.897
N5425 X90.673 Y8.893
N5430 X101.009 Y8.891
N5435 X122.974 Y8.89
N5440 X173.364
N5445 X223.755
N5450 X274.145
N5455 X302.57
N5460 X303.862 Y8.893
N5465 X305.154 Y8.908
N5470 X306.425 Y9.14
N5475 X307.623 Y9.624
N5480 X308.711 Y10.32
N5485 X309.675 Y11.181
N5490 X310.515 Y12.162
N5495 X311.238 Y13.233
N5500 X311.854 Y14.369
N5505 X312.375 Y15.551
N5510 X312.815 Y16.766
N5515 X313.183 Y18.005
N5520 X313.49 Y19.26
N5525 X313.747 Y20.526
N5530 X313.96 Y21.801
N5535 X314.136 Y23.08
N5540 X314.282 Y24.364
N5545 X314.403 Y25.651
N5550 X314.503 Y26.939
N5555 X314.585 Y28.228
N5560 X314.652 Y29.519
N5565 X314.708 Y30.809
N5570 X314.754 Y32.101
N5575 X314.791 Y33.392
N5580 X314.822 Y34.684
N5585 X314.847 Y35.976
N5590 X314.868 Y37.268
N5595 X314.885 Y38.559
N5600 X314.898 Y39.851
N5605 X314.91 Y41.143
N5610 X314.919 Y42.435
N5615 X314.927 Y43.728
N5620 X314.933 Y45.02
N5625 X314.942 Y47.604
N5630 X314.948 Y50.188
N5635 X314.954 Y54.064
N5640 X314.957 Y59.232
N5645 X314.959 Y69.569
N5650 X314.96 Y74.737
N5655 Y117.375
N5660 X314.959 Y118.667
N5665 X314.956 Y119.959
N5670 X314.92 Y121.25
N5675 X314.64 Y122.512
N5680 X314.111 Y123.691
N5685 X313.38 Y124.756
N5690 X312.494 Y125.696
N5695 X311.493 Y126.513
N5700 X310.408 Y127.214
N5705 X309.262 Y127.811
N5710 X308.072 Y128.316
N5715 X306.852 Y128.74
N5720 X305.61 Y129.096
N5725 X304.352 Y129.393
N5730 X303.084 Y129.641
N5735 X301.809 Y129.846
N5740 X300.528 Y130.016
N5745 X299.243 Y130.157
N5750 X297.957 Y130.274
N5755 X296.668 Y130.37
N5760 X295.379 Y130.449
N5765 X294.088 Y130.514
N5770 X292.797 Y130.567
N5775 X291.506 Y130.611
N5780 X290.214 Y130.647
N5785 X288.923 Y130.677
N5790 X287.631 Y130.701
N5795 X286.339 Y130.721
N5800 X285.047 Y130.738
N5805 X283.755 Y130.751
N5810 X282.463 Y130.762
N5815 X281.171 Y130.771
N5820 X279.879 Y130.778
N5825 X278.587 Y130.784
N5830 X276.003 Y130.793
N5835 X273.419 Y130.799
N5840 X269.543 Y130.804
N5845 X264.374 Y130.807
N5850 X254.038 Y130.809
N5855 X213.984 Y130.81
N5860 X163.594
N5865 X113.204
N5870 X62.814
N5875 X56.354
N5880 X55.062 Y130.759
N5885 X53.81 Y130.44
N5890 X52.649 Y129.875
N5895 X51.606 Y129.112
N5900 X50.688 Y128.202
N5905 X49.894 Y127.183
N5910 X49.789 Y127.014
N5915 X49.564 Y126.699
N5920 X49.299 Y126.415
N5925 X48.999 Y126.169
N5930 X48.67 Y125.963
N5935 X48.644 Y125.949
N5940 X48.499 Y125.855
N5945 X47.882 Y125.433
N5950 X47.501 Y125.088
N5955 X47.1 Y124.712
N5960 X46.739 Y124.35
N5965 X46.358 Y123.945
N5970 X46.021 Y123.569
N5975 X45.596 Y122.953
N5980 X45.503 Y122.807
N5985 X45.215 Y122.274
N5990 X45.096 Y122.045
N5995 X44.834 Y121.504
N6000 X44.728 Y121.283
N6005 X44.57 Y120.902
N6010 X44.439 Y120.521
N6015 X44.316 Y120.14
N6020 X44.24 Y119.759
N6025 X44.166 Y119.378
N6030 X44.046 Y118.616
N6035 X44.005 Y118.235
N6040 X43.973 Y117.854
N6045 X43.952 Y117.473
N6050 X43.95 Y116.711
N6055 Y22.989
N6060 X43.952 Y22.227
N6065 X43.973 Y21.846
N6070 X44.005 Y21.465
N6075 X44.046 Y21.084
N6080 X44.166 Y20.322
N6085 X44.24 Y19.941
N6090 X44.316 Y19.56
N6095 X44.439 Y19.179
N6100 X44.57 Y18.798
N6105 X44.728 Y18.417
N6110 X44.911 Y18.036
N6115 X45.096 Y17.655
N6120 X45.215 Y17.426
N6125 X45.503 Y16.893
N6130 X45.596 Y16.747
N6135 X46.02 Y16.131
N6140 X46.362 Y15.75
N6145 X46.739 Y15.35
N6150 X47.1 Y14.988
N6155 X47.507 Y14.607
N6160 X47.882 Y14.267
N6165 X48.5 Y13.845
N6170 X48.644 Y13.751
N6175 X49.179 Y13.464
N6180 X49.406 Y13.346
N6185 X49.787 Y13.161
N6190 X50.168 Y12.978
N6195 X50.549 Y12.819
N6200 X50.93 Y12.69
N6205 X51.311 Y12.567
N6210 X51.692 Y12.488
N6215 X52.073 Y12.416
N6220 X52.835 Y12.296
N6225 X53.216 Y12.254
N6230 X53.597 Y12.223
N6235 X53.978 Y12.201
N6240 X55.121 Y12.2
N6245 X300.86
N6250 X301.622 Y12.201
N6255 X302.003 Y12.223
N6260 X302.384 Y12.254
N6265 X302.765 Y12.296
N6270 X303.527 Y12.416
N6275 X303.908 Y12.488
N6280 X304.289 Y12.567
N6285 X304.67 Y12.69
N6290 X305.051 Y12.819
N6295 X305.432 Y12.978
N6300 X305.813 Y13.161
N6305 X306.194 Y13.346
N6310 X306.42 Y13.464
N6315 X306.956 Y13.751
N6320 X307.1 Y13.845
N6325 X307.718 Y14.267
N6330 X308.099 Y14.613
N6335 X308.5 Y14.988
N6340 X308.861 Y15.349
N6345 X309.242 Y15.754
N6350 X309.58 Y16.131
N6355 X310.004 Y16.746
N6360 X310.098 Y16.893
N6365 X310.385 Y17.425
N6370 X310.504 Y17.655
N6375 X310.766 Y18.195
N6380 X310.873 Y18.417
N6385 X311.031 Y18.798
N6390 X311.161 Y19.179
N6395 X311.284 Y19.56
N6400 X311.36 Y19.941
N6405 X311.434 Y20.322
N6410 X311.554 Y21.084
N6415 X311.595 Y21.465
N6420 X311.627 Y21.846
N6425 X311.648 Y22.227
N6430 X311.65 Y22.989
N6435 Y116.711
N6440 X311.648 Y117.473
N6445 X311.627 Y117.854
N6450 X311.595 Y118.235
N6455 X311.554 Y118.616
N6460 X311.434 Y119.378
N6465 X311.36 Y119.759
N6470 X311.284 Y120.14
N6475 X311.161 Y120.521
N6480 X311.031 Y120.902
N6485 X310.873 Y121.283
N6490 X310.689 Y121.664
N6495 X310.504 Y122.045
N6500 X310.385 Y122.274
N6505 X310.098 Y122.807
N6510 X310.004 Y122.954
N6515 X309.58 Y123.569
N6520 X309.238 Y123.95
N6525 X308.861 Y124.351
N6530 X308.5 Y124.712
N6535 X308.093 Y125.093
N6540 X307.718 Y125.433
N6545 X307.101 Y125.855
N6550 X306.956 Y125.949
N6555 X306.421 Y126.236
N6560 X306.194 Y126.355
N6565 X305.813 Y126.54
N6570 X305.432 Y126.722
N6575 X305.051 Y126.882
N6580 X304.67 Y127.011
N6585 X304.289 Y127.134
N6590 X303.908 Y127.212
N6595 X303.527 Y127.284
N6600 X302.765 Y127.404
N6605 X302.384 Y127.446
N6610 X302.003 Y127.477
N6615 X301.622 Y127.499
N6620 X300.479 Y127.5
N6625 X54.74
N6630 X53.978 Y127.499
N6635 X53.597 Y127.477
N6640 X53.216 Y127.446
N6645 X52.835 Y127.404
N6650 X52.073 Y127.284
N6655 X51.692 Y127.212
N6660 X51.311 Y127.134
N6665 X50.93 Y127.011
N6670 X50.549 Y126.882
N6675 X50.168 Y126.722
N6680 X49.787 Y126.54
N6685 X49.406 Y126.355
N6690 X49.179 Y126.236
N6695 X48.67 Y125.963
N6700 X48.567 Y125.928 Z-7.992
N6705 X48.467 Y125.893 Z-7.97
N6710 X48.37 Y125.86 Z-7.933
N6715 X48.275 Y125.85 Z-7.882
N6720 X48.188 Y125.841 Z-7.819
N6725 X48.11 Y125.833 Z-7.744
N6730 X48.049 Y125.838 Z-7.669
N6735 X47.999 Y125.842 Z-7.586
N6740 X47.958 Y125.845 Z-7.498
N6745 X47.929 Y125.848 Z-7.406
N6750 X47.911 Y125.849 Z-7.311
N6755 X47.906 Y125.85 Z-7.215
N6760 G0 Z5.
N6765 X30.441 Y152.546
N6770 Z-9.46
N6775 G1 Z-10.73 F3500.
N6780 X30.443 Y152.538 Z-10.872
N6785 X30.448 Y152.515 Z-11.013
N6790 X30.458 Y152.477 Z-11.149
N6795 X30.472 Y152.424 Z-11.281
N6800 X30.489 Y152.358 Z-11.406
N6805 X30.509 Y152.278 Z-11.522
N6810 X30.533 Y152.186 Z-11.628
N6815 X30.559 Y152.083 Z-11.723
N6820 X30.588 Y151.97 Z-11.805
N6825 X30.619 Y151.85 Z-11.874
N6830 X30.652 Y151.722 Z-11.929
N6835 X30.686 Y151.59 Z-11.968
N6840 X30.72 Y151.454 Z-11.992
N6845 X30.756 Y151.316 Z-12.
N6850 G2 X31.75 Y144.402 I-31.409 J-8.045
N6855 G1 Y144.079
N6860 X31.802 Y143.606
N6865 X31.819 Y143.001
N6870 X31.764 Y141.942
N6875 X31.594 Y140.661
N6880 X31.389 Y139.386
N6885 X31.203 Y138.107
N6890 X31.055 Y136.824
N6895 X30.936 Y135.537
N6900 X30.842 Y134.248
N6905 X30.767 Y132.959
N6910 X30.708 Y131.668
N6915 X30.661 Y130.377
N6920 X30.623 Y129.085
N6925 X30.594 Y127.793
N6930 X30.57 Y126.502
N6935 X30.551 Y125.21
N6940 X30.537 Y123.918
N6945 X30.525 Y122.626
N6950 X30.516 Y121.334
N6955 X30.508 Y120.042
N6960 X30.502 Y118.75
N6965 X30.494 Y116.165
N6970 X30.489 Y113.581
N6975 X30.484 Y109.705
N6980 X30.481 Y103.245
N6985 X30.48 Y94.201
N6990 Y43.81
N6995 Y11.509
N7000 X30.504 Y10.217
N7005 X30.594 Y8.928
N7010 X30.786 Y7.651
N7015 X31.111 Y6.4
N7020 X31.591 Y5.2
N7025 X32.241 Y4.084
N7030 X33.065 Y3.089
N7035 X34.046 Y2.247
N7040 X35.138 Y1.558
N7045 X36.302 Y0.997
N7050 X37.512 Y0.543
N7055 X38.751 Y0.177
N7060 X40.009 Y-0.117
N7065 X41.28 Y-0.352
N7070 X42.558 Y-0.54
N7075 X43.841 Y-0.69
N7080 X45.128 Y-0.809
N7085 X46.416 Y-0.904
N7090 X47.706 Y-0.98
N7095 X48.997 Y-1.04
N7100 X50.288 Y-1.087
N7105 X51.58 Y-1.125
N7110 X52.871 Y-1.155
N7115 X54.163 Y-1.179
N7120 X55.455 Y-1.198
N7125 X56.747 Y-1.213
N7130 X58.039 Y-1.225
N7135 X59.331 Y-1.234
N7140 X60.623 Y-1.242
N7145 X61.915 Y-1.247
N7150 X64.499 Y-1.256
N7155 X67.083 Y-1.261
N7160 X70.959 Y-1.266
N7165 X77.42 Y-1.269
N7170 X91.632 Y-1.27
N7175 X142.022
N7180 X192.413
N7185 X242.803
N7190 X293.193
N7195 X312.574
N7200 X313.865 Y-1.24
N7205 X315.153 Y-1.136
N7210 X316.427 Y-0.922
N7215 X317.671 Y-0.57
N7220 X318.857 Y-0.059
N7225 X319.955 Y0.623
N7230 X320.923 Y1.479
N7235 X321.736 Y2.483
N7240 X322.401 Y3.59
N7245 X322.941 Y4.764
N7250 X323.378 Y5.98
N7255 X323.73 Y7.223
N7260 X324.012 Y8.484
N7265 X324.238 Y9.756
N7270 X324.419 Y11.036
N7275 X324.563 Y12.32
N7280 X324.677 Y13.607
N7285 X324.769 Y14.895
N7290 X324.841 Y16.185
N7295 X324.899 Y17.476
N7300 X324.945 Y18.767
N7305 X324.981 Y20.059
N7310 X325.01 Y21.351
N7315 X325.033 Y22.643
N7320 X325.051 Y23.934
N7325 X325.065 Y25.226
N7330 X325.076 Y26.518
N7335 X325.086 Y27.81
N7340 X325.093 Y29.103
N7345 X325.098 Y30.395
N7350 X325.106 Y32.979
N7355 X325.111 Y35.563
N7360 X325.116 Y39.439
N7365 X325.119 Y45.899
N7370 X325.12 Y65.28
N7375 Y73.032
N7380 Y123.422
N7385 Y127.299
N7390 X325.116 Y128.591
N7395 X325.083 Y129.882
N7400 X324.969 Y131.169
N7405 X324.74 Y132.441
N7410 X324.369 Y133.679
N7415 X323.837 Y134.856
N7420 X323.132 Y135.939
N7425 X322.255 Y136.888
N7430 X321.234 Y137.68
N7435 X320.116 Y138.328
N7440 X318.936 Y138.854
N7445 X317.716 Y139.278
N7450 X316.47 Y139.62
N7455 X315.207 Y139.895
N7460 X313.934 Y140.114
N7465 X312.654 Y140.289
N7470 X311.37 Y140.429
N7475 X310.082 Y140.541
N7480 X308.793 Y140.629
N7485 X307.503 Y140.7
N7490 X306.212 Y140.755
N7495 X304.921 Y140.8
N7500 X303.629 Y140.835
N7505 X302.338 Y140.863
N7510 X301.046 Y140.885
N7515 X299.754 Y140.903
N7520 X298.462 Y140.917
N7525 X297.17 Y140.928
N7530 X295.878 Y140.937
N7535 X294.586 Y140.943
N7540 X293.294 Y140.949
N7545 X290.71 Y140.957
N7550 X288.126 Y140.962
N7555 X286.834 Y140.963
N7560 X281.665 Y140.967
N7565 X271.329 Y140.97
N7570 X236.443
N7575 X186.053
N7580 X135.663
N7585 X85.273
N7590 X43.927
N7595 X43.283 Y140.927
N7600 X42.036 Y140.587
N7605 X40.933 Y139.915
N7610 X39.987 Y139.034
N7615 X39.19 Y138.017
N7620 X38.526 Y136.909
N7625 X37.977 Y135.74
N7630 X37.524 Y134.529
N7635 X37.153 Y133.292
N7640 X36.85 Y132.036
N7645 X36.604 Y130.767
N7650 X36.403 Y129.491
N7655 X36.241 Y128.209
N7660 X36.109 Y126.924
N7665 X36.002 Y125.636
N7670 X35.916 Y124.347
N7675 X35.847 Y123.057
N7680 X35.791 Y121.766
N7685 X35.746 Y120.475
N7690 X35.709 Y119.183
N7695 X35.68 Y117.891
N7700 X35.656 Y116.6
N7705 X35.637 Y115.308
N7710 X35.622 Y114.016
N7715 X35.61 Y112.724
N7720 X35.6 Y111.432
N7725 X35.592 Y110.14
N7730 X35.586 Y108.848
N7735 X35.581 Y107.556
N7740 X35.573 Y104.972
N7745 X35.567 Y101.095
N7750 X35.563 Y95.927
N7755 X35.56 Y85.591
N7760 Y84.299
N7765 Y33.909
N7770 Y17.112
N7775 X35.563 Y15.82
N7780 X35.579 Y14.528
N7785 X35.644 Y13.237
N7790 X35.857 Y11.963
N7795 X36.332 Y10.761
N7800 X37.033 Y9.676
N7805 X37.905 Y8.723
N7810 X38.901 Y7.9
N7815 X39.987 Y7.2
N7820 X41.137 Y6.61
N7825 X42.33 Y6.115
N7830 X43.555 Y5.703
N7835 X44.801 Y5.361
N7840 X46.062 Y5.079
N7845 X47.333 Y4.846
N7850 X48.61 Y4.655
N7855 X49.893 Y4.498
N7860 X51.179 Y4.37
N7865 X52.466 Y4.265
N7870 X53.756 Y4.179
N7875 X55.046 Y4.11
N7880 X56.337 Y4.053
N7885 X57.628 Y4.007
N7890 X58.919 Y3.969
N7895 X60.211 Y3.939
N7900 X61.503 Y3.914
N7905 X62.795 Y3.894
N7910 X64.087 Y3.878
N7915 X65.379 Y3.865
N7920 X66.671 Y3.854
N7925 X67.963 Y3.846
N7930 X69.255 Y3.839
N7935 X70.547 Y3.833
N7940 X73.131 Y3.825
N7945 X75.715 Y3.82
N7950 X79.591 Y3.815
N7955 X86.051 Y3.812
N7960 X101.556 Y3.81
N7965 X111.893
N7970 X162.283
N7975 X212.673
N7980 X263.063
N7985 X306.993
N7990 X308.285 Y3.813
N7995 X309.577 Y3.836
N8000 X310.866 Y3.917
N8005 X312.131 Y4.181
N8010 X313.313 Y4.704
N8015 X314.372 Y5.443
N8020 X315.3 Y6.343
N8025 X316.097 Y7.359
N8030 X316.774 Y8.46
N8035 X317.345 Y9.619
N8040 X317.822 Y10.819
N8045 X318.22 Y12.049
N8050 X318.549 Y13.298
N8055 X318.821 Y14.561
N8060 X319.045 Y15.834
N8065 X319.229 Y17.113
N8070 X319.379 Y18.396
N8075 X319.503 Y19.682
N8080 X319.603 Y20.97
N8085 X319.686 Y22.26
N8090 X319.752 Y23.55
N8095 X319.807 Y24.841
N8100 X319.851 Y26.132
N8105 X319.887 Y27.424
N8110 X319.916 Y28.716
N8115 X319.94 Y30.007
N8120 X319.959 Y31.299
N8125 X319.975 Y32.591
N8130 X319.987 Y33.883
N8135 X319.997 Y35.175
N8140 X320.006 Y36.467
N8145 X320.012 Y37.759
N8150 X320.018 Y39.051
N8155 X320.025 Y41.635
N8160 X320.031 Y44.22
N8165 X320.035 Y48.096
N8170 X320.038 Y53.264
N8175 X320.04 Y66.185
N8180 Y103.654
N8185 Y123.035
N8190 X320.035 Y124.327
N8195 X320.008 Y125.619
N8200 X319.912 Y126.907
N8205 X319.611 Y128.164
N8210 X319.053 Y129.329
N8215 X318.287 Y130.369
N8220 X317.367 Y131.277
N8225 X316.336 Y132.056
N8230 X315.226 Y132.716
N8235 X314.059 Y133.272
N8240 X312.854 Y133.736
N8245 X311.621 Y134.123
N8250 X310.369 Y134.443
N8255 X309.104 Y134.707
N8260 X307.83 Y134.925
N8265 X306.551 Y135.103
N8270 X305.267 Y135.249
N8275 X303.981 Y135.369
N8280 X302.692 Y135.467
N8285 X301.403 Y135.546
N8290 X300.112 Y135.611
N8295 X298.821 Y135.664
N8300 X297.53 Y135.707
N8305 X296.238 Y135.742
N8310 X294.947 Y135.77
N8315 X293.655 Y135.793
N8320 X292.363 Y135.812
N8325 X291.071 Y135.827
N8330 X289.779 Y135.839
N8335 X288.487 Y135.849
N8340 X287.195 Y135.857
N8345 X285.903 Y135.863
N8350 X284.611 Y135.868
N8355 X282.027 Y135.876
N8360 X278.15 Y135.883
N8365 X272.982 Y135.887
N8370 X263.938 Y135.889
N8375 X245.849 Y135.89
N8380 X195.459
N8385 X145.069
N8390 X94.679
N8395 X50.749
N8400 X49.457 Y135.876
N8405 X48.207 Y135.549
N8410 X47.06 Y134.954
N8415 X46.043 Y134.157
N8420 X45.159 Y133.215
N8425 X44.402 Y132.167
N8430 X43.761 Y131.046
N8435 X43.221 Y129.872
N8440 X42.769 Y128.662
N8445 X42.393 Y127.426
N8450 X42.08 Y126.172
N8455 X41.822 Y124.906
N8460 X41.608 Y123.632
N8465 X41.433 Y122.352
N8470 X41.288 Y121.068
N8475 X41.169 Y119.781
N8480 X41.072 Y118.493
N8485 X40.992 Y117.203
N8490 X40.927 Y115.913
N8495 X40.874 Y114.622
N8500 X40.831 Y113.33
N8505 X40.795 Y112.039
N8510 X40.766 Y110.747
N8515 X40.743 Y109.455
N8520 X40.723 Y108.163
N8525 X40.708 Y106.871
N8530 X40.695 Y105.579
N8535 X40.685 Y104.287
N8540 X40.676 Y102.995
N8545 X40.669 Y101.703
N8550 X40.664 Y100.411
N8555 X40.656 Y97.827
N8560 X40.65 Y95.243
N8565 X40.645 Y91.367
N8570 X40.642 Y84.907
N8575 Y83.615
N8580 X40.64 Y65.526
N8585 Y33.224
N8590 Y21.596
N8595 X40.642 Y20.304
N8600 X40.652 Y19.012
N8605 X40.817 Y17.73
N8610 X41.241 Y16.51
N8615 X41.889 Y15.392
N8620 X42.714 Y14.398
N8625 X43.669 Y13.528
N8630 X44.721 Y12.777
N8635 X45.843 Y12.136
N8640 X47.015 Y11.593
N8645 X48.223 Y11.135
N8650 X49.457 Y10.75
N8655 X50.708 Y10.429
N8660 X51.972 Y10.161
N8665 X53.245 Y9.938
N8670 X54.524 Y9.754
N8675 X55.807 Y9.601
N8680 X57.093 Y9.474
N8685 X58.38 Y9.37
N8690 X59.67 Y9.284
N8695 X60.96 Y9.213
N8700 X62.25 Y9.155
N8705 X63.542 Y9.107
N8710 X64.833 Y9.067
N8715 X66.125 Y9.035
N8720 X67.416 Y9.009
N8725 X68.708 Y8.987
N8730 X70. Y8.969
N8735 X71.292 Y8.955
N8740 X72.584 Y8.943
N8745 X73.876 Y8.933
N8750 X75.168 Y8.925
N8755 X76.46 Y8.919
N8760 X79.044 Y8.909
N8765 X81.629 Y8.903
N8770 X85.505 Y8.897
N8775 X90.673 Y8.893
N8780 X101.009 Y8.891
N8785 X122.974 Y8.89
N8790 X173.364
N8795 X223.755
N8800 X274.145
N8805 X302.57
N8810 X303.862 Y8.893
N8815 X305.154 Y8.908
N8820 X306.425 Y9.14
N8825 X307.623 Y9.624
N8830 X308.711 Y10.32
N8835 X309.675 Y11.181
N8840 X310.515 Y12.162
N8845 X311.238 Y13.233
N8850 X311.854 Y14.369
N8855 X312.375 Y15.551
N8860 X312.815 Y16.766
N8865 X313.183 Y18.005
N8870 X313.49 Y19.26
N8875 X313.747 Y20.526
N8880 X313.96 Y21.801
N8885 X314.136 Y23.08
N8890 X314.282 Y24.364
N8895 X314.403 Y25.651
N8900 X314.503 Y26.939
N8905 X314.585 Y28.228
N8910 X314.652 Y29.519
N8915 X314.708 Y30.809
N8920 X314.754 Y32.101
N8925 X314.791 Y33.392
N8930 X314.822 Y34.684
N8935 X314.847 Y35.976
N8940 X314.868 Y37.268
N8945 X314.885 Y38.559
N8950 X314.898 Y39.851
N8955 X314.91 Y41.143
N8960 X314.919 Y42.435
N8965 X314.927 Y43.728
N8970 X314.933 Y45.02
N8975 X314.942 Y47.604
N8980 X314.948 Y50.188
N8985 X314.954 Y54.064
N8990 X314.957 Y59.232
N8995 X314.959 Y69.569
N9000 X314.96 Y74.737
N9005 Y117.375
N9010 X314.959 Y118.667
N9015 X314.956 Y119.959
N9020 X314.92 Y121.25
N9025 X314.64 Y122.512
N9030 X314.111 Y123.691
N9035 X313.38 Y124.756
N9040 X312.494 Y125.696
N9045 X311.493 Y126.513
N9050 X310.408 Y127.214
N9055 X309.262 Y127.811
N9060 X308.072 Y128.316
N9065 X306.852 Y128.74
N9070 X305.61 Y129.096
N9075 X304.352 Y129.393
N9080 X303.084 Y129.641
N9085 X301.809 Y129.846
N9090 X300.528 Y130.016
N9095 X299.243 Y130.157
N9100 X297.957 Y130.274
N9105 X296.668 Y130.37
N9110 X295.379 Y130.449
N9115 X294.088 Y130.514
N9120 X292.797 Y130.567
N9125 X291.506 Y130.611
N9130 X290.214 Y130.647
N9135 X288.923 Y130.677
N9140 X287.631 Y130.701
N9145 X286.339 Y130.721
N9150 X285.047 Y130.738
N9155 X283.755 Y130.751
N9160 X282.463 Y130.762
N9165 X281.171 Y130.771
N9170 X279.879 Y130.778
N9175 X278.587 Y130.784
N9180 X276.003 Y130.793
N9185 X273.419 Y130.799
N9190 X269.543 Y130.804
N9195 X264.374 Y130.807
N9200 X254.038 Y130.809
N9205 X213.984 Y130.81
N9210 X163.594
N9215 X113.204
N9220 X62.814
N9225 X56.354
N9230 X55.062 Y130.759
N9235 X53.81 Y130.44
N9240 X52.649 Y129.875
N9245 X51.606 Y129.112
N9250 X50.688 Y128.202
N9255 X49.894 Y127.183
N9260 X49.789 Y127.014
N9265 X49.564 Y126.699
N9270 X49.299 Y126.415
N9275 X48.999 Y126.169
N9280 X48.67 Y125.963
N9285 X48.644 Y125.949
N9290 X48.499 Y125.855
N9295 X47.882 Y125.433
N9300 X47.501 Y125.088
N9305 X47.1 Y124.712
N9310 X46.739 Y124.35
N9315 X46.358 Y123.945
N9320 X46.021 Y123.569
N9325 X45.596 Y122.953
N9330 X45.503 Y122.807
N9335 X45.215 Y122.274
N9340 X45.096 Y122.045
N9345 X44.834 Y121.504
N9350 X44.728 Y121.283
N9355 X44.57 Y120.902
N9360 X44.439 Y120.521
N9365 X44.316 Y120.14
N9370 X44.24 Y119.759
N9375 X44.166 Y119.378
N9380 X44.046 Y118.616
N9385 X44.005 Y118.235
N9390 X43.973 Y117.854
N9395 X43.952 Y117.473
N9400 X43.95 Y116.711
N9405 Y22.989
N9410 X43.952 Y22.227
N9415 X43.973 Y21.846
N9420 X44.005 Y21.465
N9425 X44.046 Y21.084
N9430 X44.166 Y20.322
N9435 X44.24 Y19.941
N9440 X44.316 Y19.56
N9445 X44.439 Y19.179
N9450 X44.57 Y18.798
N9455 X44.728 Y18.417
N9460 X44.911 Y18.036
N9465 X45.096 Y17.655
N9470 X45.215 Y17.426
N9475 X45.503 Y16.893
N9480 X45.596 Y16.747
N9485 X46.02 Y16.131
N9490 X46.362 Y15.75
N9495 X46.739 Y15.35
N9500 X47.1 Y14.988
N9505 X47.507 Y14.607
N9510 X47.882 Y14.267
N9515 X48.5 Y13.845
N9520 X48.644 Y13.751
N9525 X49.179 Y13.464
N9530 X49.406 Y13.346
N9535 X49.787 Y13.161
N9540 X50.168 Y12.978
N9545 X50.549 Y12.819
N9550 X50.93 Y12.69
N9555 X51.311 Y12.567
N9560 X51.692 Y12.488
N9565 X52.073 Y12.416
N9570 X52.835 Y12.296
N9575 X53.216 Y12.254
N9580 X53.597 Y12.223
N9585 X53.978 Y12.201
N9590 X55.121 Y12.2
N9595 X300.86
N9600 X301.622 Y12.201
N9605 X302.003 Y12.223
N9610 X302.384 Y12.254
N9615 X302.765 Y12.296
N9620 X303.527 Y12.416
N9625 X303.908 Y12.488
N9630 X304.289 Y12.567
N9635 X304.67 Y12.69
N9640 X305.051 Y12.819
N9645 X305.432 Y12.978
N9650 X305.813 Y13.161
N9655 X306.194 Y13.346
N9660 X306.42 Y13.464
N9665 X306.956 Y13.751
N9670 X307.1 Y13.845
N9675 X307.718 Y14.267
N9680 X308.099 Y14.613
N9685 X308.5 Y14.988
N9690 X308.861 Y15.349
N9695 X309.242 Y15.754
N9700 X309.58 Y16.131
N9705 X310.004 Y16.746
N9710 X310.098 Y16.893
N9715 X310.385 Y17.425
N9720 X310.504 Y17.655
N9725 X310.766 Y18.195
N9730 X310.873 Y18.417
N9735 X311.031 Y18.798
N9740 X311.161 Y19.179
N9745 X311.284 Y19.56
N9750 X311.36 Y19.941
N9755 X311.434 Y20.322
N9760 X311.554 Y21.084
N9765 X311.595 Y21.465
N9770 X311.627 Y21.846
N9775 X311.648 Y22.227
N9780 X311.65 Y22.989
N9785 Y116.711
N9790 X311.648 Y117.473
N9795 X311.627 Y117.854
N9800 X311.595 Y118.235
N9805 X311.554 Y118.616
N9810 X311.434 Y119.378
N9815 X311.36 Y119.759
N9820 X311.284 Y120.14
N9825 X311.161 Y120.521
N9830 X311.031 Y120.902
N9835 X310.873 Y121.283
N9840 X310.689 Y121.664
N9845 X310.504 Y122.045
N9850 X310.385 Y122.274
N9855 X310.098 Y122.807
N9860 X310.004 Y122.954
N9865 X309.58 Y123.569
N9870 X309.238 Y123.95
N9875 X308.861 Y124.351
N9880 X308.5 Y124.712
N9885 X308.093 Y125.093
N9890 X307.718 Y125.433
N9895 X307.101 Y125.855
N9900 X306.956 Y125.949
N9905 X306.421 Y126.236
N9910 X306.194 Y126.355
N9915 X305.813 Y126.54
N9920 X305.432 Y126.722
N9925 X305.051 Y126.882
N9930 X304.67 Y127.011
N9935 X304.289 Y127.134
N9940 X303.908 Y127.212
N9945 X303.527 Y127.284
N9950 X302.765 Y127.404
N9955 X302.384 Y127.446
N9960 X302.003 Y127.477
N9965 X301.622 Y127.499
N9970 X300.479 Y127.5
N9975 X54.74
N9980 X53.978 Y127.499
N9985 X53.597 Y127.477
N9990 X53.216 Y127.446
N9995 X52.835 Y127.404
N10000 X52.073 Y127.284
N10005 X51.692 Y127.212
N10010 X51.311 Y127.134
N10015 X50.93 Y127.011
N10020 X50.549 Y126.882
N10025 X50.168 Y126.722
N10030 X49.787 Y126.54
N10035 X49.406 Y126.355
N10040 X49.179 Y126.236
N10045 X48.67 Y125.963
N10050 X48.567 Y125.928 Z-11.992
N10055 X48.467 Y125.893 Z-11.97
N10060 X48.37 Y125.86 Z-11.933
N10065 X48.275 Y125.85 Z-11.882
N10070 X48.188 Y125.841 Z-11.819
N10075 X48.11 Y125.833 Z-11.744
N10080 X48.049 Y125.838 Z-11.669
N10085 X47.999 Y125.842 Z-11.586
N10090 X47.958 Y125.845 Z-11.498
N10095 X47.929 Y125.848 Z-11.406
N10100 X47.911 Y125.849 Z-11.311
N10105 X47.906 Y125.85 Z-11.215
N10110 G0 Z5.
N10115 X30.441 Y152.546
N10120 Z-9.66
N10125 G1 Z-10.93 F3500.
N10130 X30.443 Y152.538 Z-11.072
N10135 X30.448 Y152.515 Z-11.213
N10140 X30.458 Y152.477 Z-11.349
N10145 X30.472 Y152.424 Z-11.481
N10150 X30.489 Y152.358 Z-11.606
N10155 X30.509 Y152.278 Z-11.722
N10160 X30.533 Y152.186 Z-11.828
N10165 X30.559 Y152.083 Z-11.923
N10170 X30.588 Y151.97 Z-12.005
N10175 X30.619 Y151.85 Z-12.074
N10180 X30.652 Y151.722 Z-12.129
N10185 X30.686 Y151.59 Z-12.168
N10190 X30.72 Y151.454 Z-12.192
N10195 X30.756 Y151.316 Z-12.2
N10200 G2 X31.75 Y144.402 I-31.409 J-8.045
N10205 G1 Y144.079
N10210 X31.802 Y143.606
N10215 X31.819 Y143.001
N10220 X31.764 Y141.942
N10225 X31.594 Y140.661
N10230 X31.389 Y139.386
N10235 X31.203 Y138.107
N10240 X31.055 Y136.824
N10245 X30.936 Y135.537
N10250 X30.842 Y134.248
N10255 X30.767 Y132.959
N10260 X30.708 Y131.668
N10265 X30.661 Y130.377
N10270 X30.623 Y129.085
N10275 X30.594 Y127.793
N10280 X30.57 Y126.502
N10285 X30.551 Y125.21
N10290 X30.537 Y123.918
N10295 X30.525 Y122.626
N10300 X30.516 Y121.334
N10305 X30.508 Y120.042
N10310 X30.502 Y118.75
N10315 X30.494 Y116.165
N10320 X30.489 Y113.581
N10325 X30.484 Y109.705
N10330 X30.481 Y103.245
N10335 X30.48 Y94.201
N10340 Y43.81
N10345 Y11.509
N10350 X30.504 Y10.217
N10355 X30.594 Y8.928
N10360 X30.786 Y7.651
N10365 X31.111 Y6.4
N10370 X31.591 Y5.2
N10375 X32.241 Y4.084
N10380 X33.065 Y3.089
N10385 X34.046 Y2.247
N10390 X35.138 Y1.558
N10395 X36.302 Y0.997
N10400 X37.512 Y0.543
N10405 X38.751 Y0.177
N10410 X40.009 Y-0.117
N10415 X41.28 Y-0.352
N10420 X42.558 Y-0.54
N10425 X43.841 Y-0.69
N10430 X45.128 Y-0.809
N10435 X46.416 Y-0.904
N10440 X47.706 Y-0.98
N10445 X48.997 Y-1.04
N10450 X50.288 Y-1.087
N10455 X51.58 Y-1.125
N10460 X52.871 Y-1.155
N10465 X54.163 Y-1.179
N10470 X55.455 Y-1.198
N10475 X56.747 Y-1.213
N10480 X58.039 Y-1.225
N10485 X59.331 Y-1.234
N10490 X60.623 Y-1.242
N10495 X61.915 Y-1.247
N10500 X64.499 Y-1.256
N10505 X67.083 Y-1.261
N10510 X70.959 Y-1.266
N10515 X77.42 Y-1.269
N10520 X91.632 Y-1.27
N10525 X142.022
N10530 X192.413
N10535 X242.803
N10540 X293.193
N10545 X312.574
N10550 X313.865 Y-1.24
N10555 X315.153 Y-1.136
N10560 X316.427 Y-0.922
N10565 X317.671 Y-0.57
N10570 X318.857 Y-0.059
N10575 X319.955 Y0.623
N10580 X320.923 Y1.479
N10585 X321.736 Y2.483
N10590 X322.401 Y3.59
N10595 X322.941 Y4.764
N10600 X323.378 Y5.98
N10605 X323.73 Y7.223
N10610 X324.012 Y8.484
N10615 X324.238 Y9.756
N10620 X324.419 Y11.036
N10625 X324.563 Y12.32
N10630 X324.677 Y13.607
N10635 X324.769 Y14.895
N10640 X324.841 Y16.185
N10645 X324.899 Y17.476
N10650 X324.945 Y18.767
N10655 X324.981 Y20.059
N10660 X325.01 Y21.351
N10665 X325.033 Y22.643
N10670 X325.051 Y23.934
N10675 X325.065 Y25.226
N10680 X325.076 Y26.518
N10685 X325.086 Y27.81
N10690 X325.093 Y29.103
N10695 X325.098 Y30.395
N10700 X325.106 Y32.979
N10705 X325.111 Y35.563
N10710 X325.116 Y39.439
N10715 X325.119 Y45.899
N10720 X325.12 Y65.28
N10725 Y73.032
N10730 Y123.422
N10735 Y127.299
N10740 X325.116 Y128.591
N10745 X325.083 Y129.882
N10750 X324.969 Y131.169
N10755 X324.74 Y132.441
N10760 X324.369 Y133.679
N10765 X323.837 Y134.856
N10770 X323.132 Y135.939
N10775 X322.255 Y136.888
N10780 X321.234 Y137.68
N10785 X320.116 Y138.328
N10790 X318.936 Y138.854
N10795 X317.716 Y139.278
N10800 X316.47 Y139.62
N10805 X315.207 Y139.895
N10810 X313.934 Y140.114
N10815 X312.654 Y140.289
N10820 X311.37 Y140.429
N10825 X310.082 Y140.541
N10830 X308.793 Y140.629
N10835 X307.503 Y140.7
N10840 X306.212 Y140.755
N10845 X304.921 Y140.8
N10850 X303.629 Y140.835
N10855 X302.338 Y140.863
N10860 X301.046 Y140.885
N10865 X299.754 Y140.903
N10870 X298.462 Y140.917
N10875 X297.17 Y140.928
N10880 X295.878 Y140.937
N10885 X294.586 Y140.943
N10890 X293.294 Y140.949
N10895 X290.71 Y140.957
N10900 X288.126 Y140.962
N10905 X286.834 Y140.963
N10910 X281.665 Y140.967
N10915 X271.329 Y140.97
N10920 X236.443
N10925 X186.053
N10930 X135.663
N10935 X85.273
N10940 X43.927
N10945 X43.283 Y140.927
N10950 X42.036 Y140.587
N10955 X40.933 Y139.915
N10960 X39.987 Y139.034
N10965 X39.19 Y138.017
N10970 X38.526 Y136.909
N10975 X37.977 Y135.74
N10980 X37.524 Y134.529
N10985 X37.153 Y133.292
N10990 X36.85 Y132.036
N10995 X36.604 Y130.767
N11000 X36.403 Y129.491
N11005 X36.241 Y128.209
N11010 X36.109 Y126.924
N11015 X36.002 Y125.636
N11020 X35.916 Y124.347
N11025 X35.847 Y123.057
N11030 X35.791 Y121.766
N11035 X35.746 Y120.475
N11040 X35.709 Y119.183
N11045 X35.68 Y117.891
N11050 X35.656 Y116.6
N11055 X35.637 Y115.308
N11060 X35.622 Y114.016
N11065 X35.61 Y112.724
N11070 X35.6 Y111.432
N11075 X35.592 Y110.14
N11080 X35.586 Y108.848
N11085 X35.581 Y107.556
N11090 X35.573 Y104.972
N11095 X35.567 Y101.095
N11100 X35.563 Y95.927
N11105 X35.56 Y85.591
N11110 Y84.299
N11115 Y33.909
N11120 Y17.112
N11125 X35.563 Y15.82
N11130 X35.579 Y14.528
N11135 X35.644 Y13.237
N11140 X35.857 Y11.963
N11145 X36.332 Y10.761
N11150 X37.033 Y9.676
N11155 X37.905 Y8.723
N11160 X38.901 Y7.9
N11165 X39.987 Y7.2
N11170 X41.137 Y6.61
N11175 X42.33 Y6.115
N11180 X43.555 Y5.703
N11185 X44.801 Y5.361
N11190 X46.062 Y5.079
N11195 X47.333 Y4.846
N11200 X48.61 Y4.655
N11205 X49.893 Y4.498
N11210 X51.179 Y4.37
N11215 X52.466 Y4.265
N11220 X53.756 Y4.179
N11225 X55.046 Y4.11
N11230 X56.337 Y4.053
N11235 X57.628 Y4.007
N11240 X58.919 Y3.969
N11245 X60.211 Y3.939
N11250 X61.503 Y3.914
N11255 X62.795 Y3.894
N11260 X64.087 Y3.878
N11265 X65.379 Y3.865
N11270 X66.671 Y3.854
N11275 X67.963 Y3.846
N11280 X69.255 Y3.839
N11285 X70.547 Y3.833
N11290 X73.131 Y3.825
N11295 X75.715 Y3.82
N11300 X79.591 Y3.815
N11305 X86.051 Y3.812
N11310 X101.556 Y3.81
N11315 X111.893
N11320 X162.283
N11325 X212.673
N11330 X263.063
N11335 X306.993
N11340 X308.285 Y3.813
N11345 X309.577 Y3.836
N11350 X310.866 Y3.917
N11355 X312.131 Y4.181
N11360 X313.313 Y4.704
N11365 X314.372 Y5.443
N11370 X315.3 Y6.343
N11375 X316.097 Y7.359
N11380 X316.774 Y8.46
N11385 X317.345 Y9.619
N11390 X317.822 Y10.819
N11395 X318.22 Y12.049
N11400 X318.549 Y13.298
N11405 X318.821 Y14.561
N11410 X319.045 Y15.834
N11415 X319.229 Y17.113
N11420 X319.379 Y18.396
N11425 X319.503 Y19.682
N11430 X319.603 Y20.97
N11435 X319.686 Y22.26
N11440 X319.752 Y23.55
N11445 X319.807 Y24.841
N11450 X319.851 Y26.132
N11455 X319.887 Y27.424
N11460 X319.916 Y28.716
N11465 X319.94 Y30.007
N11470 X319.959 Y31.299
N11475 X319.975 Y32.591
N11480 X319.987 Y33.883
N11485 X319.997 Y35.175
N11490 X320.006 Y36.467
N11495 X320.012 Y37.759
N11500 X320.018 Y39.051
N11505 X320.025 Y41.635
N11510 X320.031 Y44.22
N11515 X320.035 Y48.096
N11520 X320.038 Y53.264
N11525 X320.04 Y66.185
N11530 Y103.654
N11535 Y123.035
N11540 X320.035 Y124.327
N11545 X320.008 Y125.619
N11550 X319.912 Y126.907
N11555 X319.611 Y128.164
N11560 X319.053 Y129.329
N11565 X318.287 Y130.369
N11570 X317.367 Y131.277
N11575 X316.336 Y132.056
N11580 X315.226 Y132.716
N11585 X314.059 Y133.272
N11590 X312.854 Y133.736
N11595 X311.621 Y134.123
N11600 X310.369 Y134.443
N11605 X309.104 Y134.707
N11610 X307.83 Y134.925
N11615 X306.551 Y135.103
N11620 X305.267 Y135.249
N11625 X303.981 Y135.369
N11630 X302.692 Y135.467
N11635 X301.403 Y135.546
N11640 X300.112 Y135.611
N11645 X298.821 Y135.664
N11650 X297.53 Y135.707
N11655 X296.238 Y135.742
N11660 X294.947 Y135.77
N11665 X293.655 Y135.793
N11670 X292.363 Y135.812
N11675 X291.071 Y135.827
N11680 X289.779 Y135.839
N11685 X288.487 Y135.849
N11690 X287.195 Y135.857
N11695 X285.903 Y135.863
N11700 X284.611 Y135.868
N11705 X282.027 Y135.876
N11710 X278.15 Y135.883
N11715 X272.982 Y135.887
N11720 X263.938 Y135.889
N11725 X245.849 Y135.89
N11730 X195.459
N11735 X145.069
N11740 X94.679
N11745 X50.749
N11750 X49.457 Y135.876
N11755 X48.207 Y135.549
N11760 X47.06 Y134.954
N11765 X46.043 Y134.157
N11770 X45.159 Y133.215
N11775 X44.402 Y132.167
N11780 X43.761 Y131.046
N11785 X43.221 Y129.872
N11790 X42.769 Y128.662
N11795 X42.393 Y127.426
N11800 X42.08 Y126.172
N11805 X41.822 Y124.906
N11810 X41.608 Y123.632
N11815 X41.433 Y122.352
N11820 X41.288 Y121.068
N11825 X41.169 Y119.781
N11830 X41.072 Y118.493
N11835 X40.992 Y117.203
N11840 X40.927 Y115.913
N11845 X40.874 Y114.622
N11850 X40.831 Y113.33
N11855 X40.795 Y112.039
N11860 X40.766 Y110.747
N11865 X40.743 Y109.455
N11870 X40.723 Y108.163
N11875 X40.708 Y106.871
N11880 X40.695 Y105.579
N11885 X40.685 Y104.287
N11890 X40.676 Y102.995
N11895 X40.669 Y101.703
N11900 X40.664 Y100.411
N11905 X40.656 Y97.827
N11910 X40.65 Y95.243
N11915 X40.645 Y91.367
N11920 X40.642 Y84.907
N11925 Y83.615
N11930 X40.64 Y65.526
N11935 Y33.224
N11940 Y21.596
N11945 X40.642 Y20.304
N11950 X40.652 Y19.012
N11955 X40.817 Y17.73
N11960 X41.241 Y16.51
N11965 X41.889 Y15.392
N11970 X42.714 Y14.398
N11975 X43.669 Y13.528
N11980 X44.721 Y12.777
N11985 X45.843 Y12.136
N11990 X47.015 Y11.593
N11995 X48.223 Y11.135
N12000 X49.457 Y10.75
N12005 X50.708 Y10.429
N12010 X51.972 Y10.161
N12015 X53.245 Y9.938
N12020 X54.524 Y9.754
N12025 X55.807 Y9.601
N12030 X57.093 Y9.474
N12035 X58.38 Y9.37
N12040 X59.67 Y9.284
N12045 X60.96 Y9.213
N12050 X62.25 Y9.155
N12055 X63.542 Y9.107
N12060 X64.833 Y9.067
N12065 X66.125 Y9.035
N12070 X67.416 Y9.009
N12075 X68.708 Y8.987
N12080 X70. Y8.969
N12085 X71.292 Y8.955
N12090 X72.584 Y8.943
N12095 X73.876 Y8.933
N12100 X75.168 Y8.925
N12105 X76.46 Y8.919
N12110 X79.044 Y8.909
N12115 X81.629 Y8.903
N12120 X85.505 Y8.897
N12125 X90.673 Y8.893
N12130 X101.009 Y8.891
N12135 X122.974 Y8.89
N12140 X173.364
N12145 X223.755
N12150 X274.145
N12155 X302.57
N12160 X303.862 Y8.893
N12165 X305.154 Y8.908
N12170 X306.425 Y9.14
N12175 X307.623 Y9.624
N12180 X308.711 Y10.32
N12185 X309.675 Y11.181
N12190 X310.515 Y12.162
N12195 X311.238 Y13.233
N12200 X311.854 Y14.369
N12205 X312.375 Y15.551
N12210 X312.815 Y16.766
N12215 X313.183 Y18.005
N12220 X313.49 Y19.26
N12225 X313.747 Y20.526
N12230 X313.96 Y21.801
N12235 X314.136 Y23.08
N12240 X314.282 Y24.364
N12245 X314.403 Y25.651
N12250 X314.503 Y26.939
N12255 X314.585 Y28.228
N12260 X314.652 Y29.519
N12265 X314.708 Y30.809
N12270 X314.754 Y32.101
N12275 X314.791 Y33.392
N12280 X314.822 Y34.684
N12285 X314.847 Y35.976
N12290 X314.868 Y37.268
N12295 X314.885 Y38.559
N12300 X314.898 Y39.851
N12305 X314.91 Y41.143
N12310 X314.919 Y42.435
N12315 X314.927 Y43.728
N12320 X314.933 Y45.02
N12325 X314.942 Y47.604
N12330 X314.948 Y50.188
N12335 X314.954 Y54.064
N12340 X314.957 Y59.232
N12345 X314.959 Y69.569
N12350 X314.96 Y74.737
N12355 Y117.375
N12360 X314.959 Y118.667
N12365 X314.956 Y119.959
N12370 X314.92 Y121.25
N12375 X314.64 Y122.512
N12380 X314.111 Y123.691
N12385 X313.38 Y124.756
N12390 X312.494 Y125.696
N12395 X311.493 Y126.513
N12400 X310.408 Y127.214
N12405 X309.262 Y127.811
N12410 X308.072 Y128.316
N12415 X306.852 Y128.74
N12420 X305.61 Y129.096
N12425 X304.352 Y129.393
N12430 X303.084 Y129.641
N12435 X301.809 Y129.846
N12440 X300.528 Y130.016
N12445 X299.243 Y130.157
N12450 X297.957 Y130.274
N12455 X296.668 Y130.37
N12460 X295.379 Y130.449
N12465 X294.088 Y130.514
N12470 X292.797 Y130.567
N12475 X291.506 Y130.611
N12480 X290.214 Y130.647
N12485 X288.923 Y130.677
N12490 X287.631 Y130.701
N12495 X286.339 Y130.721
N12500 X285.047 Y130.738
N12505 X283.755 Y130.751
N12510 X282.463 Y130.762
N12515 X281.171 Y130.771
N12520 X279.879 Y130.778
N12525 X278.587 Y130.784
N12530 X276.003 Y130.793
N12535 X273.419 Y130.799
N12540 X269.543 Y130.804
N12545 X264.374 Y130.807
N12550 X254.038 Y130.809
N12555 X213.984 Y130.81
N12560 X163.594
N12565 X113.204
N12570 X62.814
N12575 X56.354
N12580 X55.062 Y130.759
N12585 X53.81 Y130.44
N12590 X52.649 Y129.875
N12595 X51.606 Y129.112
N12600 X50.688 Y128.202
N12605 X49.894 Y127.183
N12610 X49.789 Y127.014
N12615 X49.564 Y126.699
N12620 X49.299 Y126.415
N12625 X48.999 Y126.169
N12630 X48.67 Y125.963
N12635 X48.644 Y125.949
N12640 X48.499 Y125.855
N12645 X47.882 Y125.433
N12650 X47.501 Y125.088
N12655 X47.1 Y124.712
N12660 X46.739 Y124.35
N12665 X46.358 Y123.945
N12670 X46.021 Y123.569
N12675 X45.596 Y122.953
N12680 X45.503 Y122.807
N12685 X45.215 Y122.274
N12690 X45.096 Y122.045
N12695 X44.834 Y121.504
N12700 X44.728 Y121.283
N12705 X44.57 Y120.902
N12710 X44.439 Y120.521
N12715 X44.316 Y120.14
N12720 X44.24 Y119.759
N12725 X44.166 Y119.378
N12730 X44.046 Y118.616
N12735 X44.005 Y118.235
N12740 X43.973 Y117.854
N12745 X43.952 Y117.473
N12750 X43.95 Y116.711
N12755 Y22.989
N12760 X43.952 Y22.227
N12765 X43.973 Y21.846
N12770 X44.005 Y21.465
N12775 X44.046 Y21.084
N12780 X44.166 Y20.322
N12785 X44.24 Y19.941
N12790 X44.316 Y19.56
N12795 X44.439 Y19.179
N12800 X44.57 Y18.798
N12805 X44.728 Y18.417
N12810 X44.911 Y18.036
N12815 X45.096 Y17.655
N12820 X45.215 Y17.426
N12825 X45.503 Y16.893
N12830 X45.596 Y16.747
N12835 X46.02 Y16.131
N12840 X46.362 Y15.75
N12845 X46.739 Y15.35
N12850 X47.1 Y14.988
N12855 X47.507 Y14.607
N12860 X47.882 Y14.267
N12865 X48.5 Y13.845
N12870 X48.644 Y13.751
N12875 X49.179 Y13.464
N12880 X49.406 Y13.346
N12885 X49.787 Y13.161
N12890 X50.168 Y12.978
N12895 X50.549 Y12.819
N12900 X50.93 Y12.69
N12905 X51.311 Y12.567
N12910 X51.692 Y12.488
N12915 X52.073 Y12.416
N12920 X52.835 Y12.296
N12925 X53.216 Y12.254
N12930 X53.597 Y12.223
N12935 X53.978 Y12.201
N12940 X55.121 Y12.2
N12945 X300.86
N12950 X301.622 Y12.201
N12955 X302.003 Y12.223
N12960 X302.384 Y12.254
N12965 X302.765 Y12.296
N12970 X303.527 Y12.416
N12975 X303.908 Y12.488
N12980 X304.289 Y12.567
N12985 X304.67 Y12.69
N12990 X305.051 Y12.819
N12995 X305.432 Y12.978
N13000 X305.813 Y13.161
N13005 X306.194 Y13.346
N13010 X306.42 Y13.464
N13015 X306.956 Y13.751
N13020 X307.1 Y13.845
N13025 X307.718 Y14.267
N13030 X308.099 Y14.613
N13035 X308.5 Y14.988
N13040 X308.861 Y15.349
N13045 X309.242 Y15.754
N13050 X309.58 Y16.131
N13055 X310.004 Y16.746
N13060 X310.098 Y16.893
N13065 X310.385 Y17.425
N13070 X310.504 Y17.655
N13075 X310.766 Y18.195
N13080 X310.873 Y18.417
N13085 X311.031 Y18.798
N13090 X311.161 Y19.179
N13095 X311.284 Y19.56
N13100 X311.36 Y19.941
N13105 X311.434 Y20.322
N13110 X311.554 Y21.084
N13115 X311.595 Y21.465
N13120 X311.627 Y21.846
N13125 X311.648 Y22.227
N13130 X311.65 Y22.989
N13135 Y116.711
N13140 X311.648 Y117.473
N13145 X311.627 Y117.854
N13150 X311.595 Y118.235
N13155 X311.554 Y118.616
N13160 X311.434 Y119.378
N13165 X311.36 Y119.759
N13170 X311.284 Y120.14
N13175 X311.161 Y120.521
N13180 X311.031 Y120.902
N13185 X310.873 Y121.283
N13190 X310.689 Y121.664
N13195 X310.504 Y122.045
N13200 X310.385 Y122.274
N13205 X310.098 Y122.807
N13210 X310.004 Y122.954
N13215 X309.58 Y123.569
N13220 X309.238 Y123.95
N13225 X308.861 Y124.351
N13230 X308.5 Y124.712
N13235 X308.093 Y125.093
N13240 X307.718 Y125.433
N13245 X307.101 Y125.855
N13250 X306.956 Y125.949
N13255 X306.421 Y126.236
N13260 X306.194 Y126.355
N13265 X305.813 Y126.54
N13270 X305.432 Y126.722
N13275 X305.051 Y126.882
N13280 X304.67 Y127.011
N13285 X304.289 Y127.134
N13290 X303.908 Y127.212
N13295 X303.527 Y127.284
N13300 X302.765 Y127.404
N13305 X302.384 Y127.446
N13310 X302.003 Y127.477
N13315 X301.622 Y127.499
N13320 X300.479 Y127.5
N13325 X54.74
N13330 X53.978 Y127.499
N13335 X53.597 Y127.477
N13340 X53.216 Y127.446
N13345 X52.835 Y127.404
N13350 X52.073 Y127.284
N13355 X51.692 Y127.212
N13360 X51.311 Y127.134
N13365 X50.93 Y127.011
N13370 X50.549 Y126.882
N13375 X50.168 Y126.722
N13380 X49.787 Y126.54
N13385 X49.406 Y126.355
N13390 X49.179 Y126.236
N13395 X48.67 Y125.963
N13400 G2 X48.11 Y125.833 I-0.56 J1.14
N13405 G1 X48.007 Y125.837
N13410 X47.906 Y125.85
N13415 X47.765 Y125.872 Z-12.192
N13420 X47.627 Y125.895 Z-12.168
N13425 X47.492 Y125.917 Z-12.129
N13430 X47.362 Y125.938 Z-12.074
N13435 X47.239 Y125.958 Z-12.005
N13440 X47.124 Y125.977 Z-11.923
N13445 X47.019 Y125.994 Z-11.828
N13450 X46.926 Y126.009 Z-11.722
N13455 X46.844 Y126.023 Z-11.606
N13460 X46.776 Y126.034 Z-11.481
N13465 X46.722 Y126.042 Z-11.349
N13470 X46.683 Y126.049 Z-11.213
N13475 X46.66 Y126.053 Z-11.072
N13480 X46.652 Y126.054 Z-10.93
N13485 G0 Z15.
(OUTSIDEFACEFINISH)
N13490 G0 X47.164 Y146.33
N13495 Z15.
N13500 Z-5.7
N13505 G1 Z-9.7 F333.33
N13510 Z-11.43 F2500.
N13515 X47.156 Y146.328 Z-11.572
N13520 X47.133 Y146.321 Z-11.713
N13525 X47.095 Y146.31 Z-11.849
N13530 X47.043 Y146.295 Z-11.981
N13535 X46.977 Y146.276 Z-12.106
N13540 X46.897 Y146.254 Z-12.222
N13545 X46.806 Y146.228 Z-12.328
N13550 X46.704 Y146.198 Z-12.423
N13555 X46.592 Y146.166 Z-12.505
N13560 X46.473 Y146.132 Z-12.574
N13565 X46.346 Y146.096 Z-12.629
N13570 X46.215 Y146.058 Z-12.668
N13575 X46.08 Y146.019 Z-12.692
N13580 X45.943 Y145.98 Z-12.7
N13585 X45.821 Y145.945
N13590 G3 X25.501 Y125.618 I8.154 J-28.47
N13595 G1 X25.488 Y125.57
N13600 X25.449 Y125.433 Z-12.692
N13605 X25.41 Y125.298 Z-12.668
N13610 X25.372 Y125.167 Z-12.629
N13615 X25.336 Y125.04 Z-12.574
N13620 X25.302 Y124.92 Z-12.505
N13625 X25.27 Y124.809 Z-12.423
N13630 X25.241 Y124.707 Z-12.328
N13635 X25.215 Y124.615 Z-12.222
N13640 X25.192 Y124.536 Z-12.106
N13645 X25.173 Y124.47 Z-11.981
N13650 X25.158 Y124.418 Z-11.849
N13655 X25.147 Y124.38 Z-11.713
N13660 X25.141 Y124.357 Z-11.572
N13665 X25.139 Y124.349 Z-11.43
N13670 G0 Z5.
N13675 X25.12 Y15.414
N13680 Z-5.7
N13685 G1 Z-9.7 F333.33
N13690 Z-11.43 F2500.
N13695 X25.122 Y15.406 Z-11.572
N13700 X25.129 Y15.383 Z-11.713
N13705 X25.14 Y15.345 Z-11.849
N13710 X25.155 Y15.293 Z-11.981
N13715 X25.174 Y15.227 Z-12.106
N13720 X25.196 Y15.147 Z-12.222
N13725 X25.222 Y15.056 Z-12.328
N13730 X25.252 Y14.954 Z-12.423
N13735 X25.284 Y14.842 Z-12.505
N13740 X25.318 Y14.723 Z-12.574
N13745 X25.354 Y14.596 Z-12.629
N13750 X25.392 Y14.465 Z-12.668
N13755 X25.431 Y14.33 Z-12.692
N13760 X25.47 Y14.193 Z-12.7
N13765 X25.505 Y14.071
N13770 G3 X45.832 Y-6.249 I28.47 J8.154
N13775 G1 X45.88 Y-6.262
N13780 X46.017 Y-6.301 Z-12.692
N13785 X46.152 Y-6.34 Z-12.668
N13790 X46.283 Y-6.378 Z-12.629
N13795 X46.41 Y-6.414 Z-12.574
N13800 X46.53 Y-6.448 Z-12.505
N13805 X46.641 Y-6.48 Z-12.423
N13810 X46.743 Y-6.509 Z-12.328
N13815 X46.835 Y-6.535 Z-12.222
N13820 X46.914 Y-6.558 Z-12.106
N13825 X46.98 Y-6.577 Z-11.981
N13830 X47.032 Y-6.592 Z-11.849
N13835 X47.07 Y-6.603 Z-11.713
N13840 X47.093 Y-6.609 Z-11.572
N13845 X47.101 Y-6.611 Z-11.43
N13850 G0 Z5.
N13855 X308.436 Y-6.63
N13860 Z-5.7
N13865 G1 Z-9.7 F333.33
N13870 Z-11.43 F2500.
N13875 X308.444 Y-6.628 Z-11.572
N13880 X308.467 Y-6.621 Z-11.713
N13885 X308.505 Y-6.61 Z-11.849
N13890 X308.557 Y-6.595 Z-11.981
N13895 X308.623 Y-6.576 Z-12.106
N13900 X308.703 Y-6.554 Z-12.222
N13905 X308.794 Y-6.528 Z-12.328
N13910 X308.896 Y-6.498 Z-12.423
N13915 X309.008 Y-6.466 Z-12.505
N13920 X309.127 Y-6.432 Z-12.574
N13925 X309.254 Y-6.396 Z-12.629
N13930 X309.385 Y-6.358 Z-12.668
N13935 X309.52 Y-6.319 Z-12.692
N13940 X309.657 Y-6.28 Z-12.7
N13945 X309.779 Y-6.245
N13950 G3 X330.099 Y14.082 I-8.154 J28.47
N13955 G1 X330.112 Y14.13
N13960 X330.151 Y14.267 Z-12.692
N13965 X330.19 Y14.402 Z-12.668
N13970 X330.228 Y14.533 Z-12.629
N13975 X330.264 Y14.66 Z-12.574
N13980 X330.298 Y14.78 Z-12.505
N13985 X330.33 Y14.891 Z-12.423
N13990 X330.359 Y14.993 Z-12.328
N13995 X330.385 Y15.085 Z-12.222
N14000 X330.408 Y15.164 Z-12.106
N14005 X330.427 Y15.23 Z-11.981
N14010 X330.442 Y15.282 Z-11.849
N14015 X330.453 Y15.32 Z-11.713
N14020 X330.459 Y15.343 Z-11.572
N14025 X330.461 Y15.351 Z-11.43
N14030 G0 Z5.
N14035 X330.48 Y124.286
N14040 Z-5.7
N14045 G1 Z-9.7 F333.33
N14050 Z-11.43 F2500.
N14055 X330.478 Y124.294 Z-11.572
N14060 X330.471 Y124.317 Z-11.713
N14065 X330.46 Y124.355 Z-11.849
N14070 X330.445 Y124.407 Z-11.981
N14075 X330.426 Y124.473 Z-12.106
N14080 X330.404 Y124.553 Z-12.222
N14085 X330.378 Y124.644 Z-12.328
N14090 X330.348 Y124.746 Z-12.423
N14095 X330.316 Y124.858 Z-12.505
N14100 X330.282 Y124.977 Z-12.574
N14105 X330.246 Y125.104 Z-12.629
N14110 X330.208 Y125.235 Z-12.668
N14115 X330.169 Y125.37 Z-12.692
N14120 X330.13 Y125.507 Z-12.7
N14125 X330.095 Y125.629
N14130 G3 X309.768 Y145.949 I-28.47 J-8.154
N14135 X302.911 Y143.222 I-1.661 J-5.808
N14140 G2 X296.499 Y139.57 I-6.412 J3.802
N14145 G1 X53.975
N14150 G3 X31.88 Y117.475 I0. J-22.095
N14155 G1 Y22.225
N14160 G3 X53.975 Y0.13 I22.095 J0.
N14165 G1 X301.625
N14170 G3 X323.72 Y22.225 I0. J22.095
N14175 G1 Y117.475
N14180 G3 X301.625 Y139.57 I-22.095 J0.
N14185 G1 X296.499
N14190 G3 X290.822 Y135.785 I0. J-6.151
N14195 G2 X285.144 Y132. I-5.677 J2.366
N14200 G1 X53.975
N14205 G3 X39.45 Y117.475 I0. J-14.525
N14210 G1 Y22.225
N14215 G3 X53.975 Y7.7 I14.525 J0.
N14220 G1 X301.625
N14225 G3 X316.15 Y22.225 I0. J14.525
N14230 G1 Y117.475
N14235 G3 X301.625 Y132. I-14.525 J0.
N14240 G1 X285.144
N14245 G3 X281.394 Y129.5 I0. J-4.063
N14250 G2 X277.644 Y127. I-3.75 J1.563
N14255 G1 X53.975
N14260 G3 X44.45 Y117.475 I0. J-9.525
N14265 G1 Y22.225
N14270 G3 X53.975 Y12.7 I9.525 J0.
N14275 G1 X301.625
N14280 G3 X311.15 Y22.225 I0. J9.525
N14285 G1 Y117.475
N14290 G3 X301.625 Y127. I-9.525 J0.
N14295 G1 X277.644
N14300 G2 X277.365 Y127.039 Z-12.668 I0.032 J1.238
N14305 X277.115 Y127.134 Z-12.574 I0.311 J1.199
N14310 G1 X277.01 Y127.194 Z-12.499
N14315 X276.912 Y127.263 Z-12.423
N14320 X276.835 Y127.329 Z-12.322
N14325 X276.764 Y127.4 Z-12.222
N14330 X276.715 Y127.457 Z-12.101
N14335 X276.669 Y127.517 Z-11.981
N14340 X276.617 Y127.596 Z-11.713
N14345 X276.601 Y127.623 Z-11.43
N14350 G0 Z15.
(INSIDECLEARING)
N14355 G0 X253.792 Y69.85
N14360 Z15.
N14365 Z5.
N14370 Z2.5
N14375 G1 Z-4. F333.33
N14380 Y69.813 F3500.
N14385 X253.755 Y69.82
N14390 X253.738 Y69.853
N14395 X253.748 Y69.889
N14400 X253.778 Y69.912
N14405 X253.816
N14410 X253.849 Y69.896
N14415 X253.875 Y69.869
N14420 X253.89 Y69.835
N14425 Y69.797
N14430 X253.877 Y69.762
N14435 X253.854 Y69.732
N14440 X253.823 Y69.71
N14445 X253.753 Y69.685
N14450 X253.678 Y69.694
N14455 X253.615 Y69.734
N14460 X253.57 Y69.794
N14465 X253.548 Y69.866
N14470 X253.55 Y69.941
N14475 X253.574 Y70.012
N14480 X253.66 Y70.135
N14485 X253.795 Y70.2
N14490 X253.945 Y70.203
N14495 X254.085 Y70.149
N14500 X254.197 Y70.049
N14505 X254.27 Y69.918
N14510 X254.299 Y69.771
N14515 X254.286 Y69.621
N14520 X254.233 Y69.481
N14525 X254.146 Y69.359
N14530 X254.031 Y69.262
N14535 X253.898 Y69.194
N14540 X253.752 Y69.157
N14545 X253.602 Y69.153
N14550 X253.455 Y69.181
N14555 X253.316 Y69.237
N14560 X253.19 Y69.319
N14565 X253.083 Y69.424
N14570 X252.996 Y69.546
N14575 X252.93 Y69.681
N14580 X252.888 Y69.825
N14585 X252.871 Y69.974
N14590 X252.876 Y70.124
N14595 X252.905 Y70.271
N14600 X252.956 Y70.412
N14605 X253.027 Y70.544
N14610 X253.115 Y70.665
N14615 X253.221 Y70.772
N14620 X253.339 Y70.864
N14625 X253.469 Y70.939
N14630 X253.607 Y70.997
N14635 X253.752 Y71.037
N14640 X253.901 Y71.057
N14645 X254.051 Y71.06
N14650 X254.2 Y71.044
N14655 X254.346 Y71.011
N14660 X254.488 Y70.961
N14665 X254.622 Y70.895
N14670 X254.749 Y70.815
N14675 X254.867 Y70.722
N14680 X254.973 Y70.616
N14685 X255.068 Y70.5
N14690 X255.15 Y70.374
N14695 X255.219 Y70.241
N14700 X255.274 Y70.101
N14705 X255.315 Y69.957
N14710 X255.341 Y69.809
N14715 X255.354 Y69.66
N14720 X255.352 Y69.51
N14725 X255.336 Y69.361
N14730 X255.307 Y69.214
N14735 X255.264 Y69.07
N14740 X255.209 Y68.931
N14745 X255.141 Y68.797
N14750 X255.062 Y68.669
N14755 X254.972 Y68.549
N14760 X254.873 Y68.437
N14765 X254.764 Y68.333
N14770 X254.647 Y68.239
N14775 X254.523 Y68.155
N14780 X254.389 Y68.08
N14785 X254.253 Y68.018
N14790 X254.108 Y67.965
N14795 X253.959 Y67.923
N14800 X253.807 Y67.894
N14805 X253.648 Y67.877
N14810 X253.49 Y67.872
N14815 X253.324 Y67.881
N14820 X253.165 Y67.902
N14825 X252.999 Y67.937
N14830 X252.841 Y67.985
N14835 X252.68 Y68.048
N14840 X252.528 Y68.122
N14845 X252.376 Y68.212
N14850 X252.234 Y68.311
N14855 X252.095 Y68.427
N14860 X251.968 Y68.551
N14865 X251.848 Y68.689
N14870 X251.74 Y68.835
N14875 X251.641 Y68.996
N14880 X251.556 Y69.16
N14885 X251.482 Y69.338
N14890 X251.423 Y69.519
N14895 X251.378 Y69.709
N14900 X251.348 Y69.903
N14905 X251.333 Y70.1
N14910 X251.335 Y70.302
N14915 X251.352 Y70.501
N14920 X251.387 Y70.705
N14925 X251.437 Y70.905
N14930 X251.505 Y71.102
N14935 X251.589 Y71.297
N14940 X251.688 Y71.484
N14945 X251.805 Y71.667
N14950 X251.938 Y71.841
N14955 X252.083 Y72.003
N14960 X252.245 Y72.158
N14965 X252.42 Y72.3
N14970 X252.606 Y72.426
N14975 X252.807 Y72.541
N14980 X253.017 Y72.64
N14985 X253.235 Y72.722
N14990 X253.462 Y72.787
N14995 X253.698 Y72.834
N15000 X253.937 Y72.862
N15005 X254.179 Y72.871
N15010 X254.426 Y72.86
N15015 X254.674 Y72.83
N15020 X254.919 Y72.779
N15025 X255.161 Y72.708
N15030 X255.4 Y72.617
N15035 X255.635 Y72.505
N15040 X255.861 Y72.374
N15045 X256.078 Y72.224
N15050 X256.283 Y72.056
N15055 X256.476 Y71.87
N15060 X256.657 Y71.667
N15065 X256.822 Y71.447
N15070 X256.97 Y71.213
N15075 X257.099 Y70.966
N15080 X257.21 Y70.707
N15085 X257.299 Y70.438
N15090 X257.368 Y70.16
N15095 X257.415 Y69.875
N15100 X257.439 Y69.583
N15105 Y69.288
N15110 X257.415 Y68.991
N15115 X257.368 Y68.695
N15120 X257.296 Y68.4
N15125 X257.2 Y68.11
N15130 X257.079 Y67.826
N15135 X256.936 Y67.551
N15140 X256.769 Y67.285
N15145 X256.579 Y67.032
N15150 X256.368 Y66.792
N15155 X256.137 Y66.568
N15160 X255.886 Y66.362
N15165 X255.617 Y66.175
N15170 X255.332 Y66.008
N15175 X255.031 Y65.864
N15180 X254.717 Y65.744
N15185 X254.392 Y65.648
N15190 X254.058 Y65.578
N15195 X253.715 Y65.534
N15200 X253.368 Y65.519
N15205 X253.017 Y65.531
N15210 X252.665 Y65.571
N15215 X252.315 Y65.641
N15220 X251.969 Y65.739
N15225 X251.628 Y65.866
N15230 X251.296 Y66.02
N15235 X250.976 Y66.203
N15240 X250.668 Y66.412
N15245 X250.376 Y66.647
N15250 X250.101 Y66.907
N15255 X249.847 Y67.19
N15260 X249.614 Y67.495
N15265 X249.404 Y67.82
N15270 X249.22 Y68.164
N15275 X249.063 Y68.524
N15280 X248.934 Y68.899
N15285 X248.836 Y69.285
N15290 X248.767 Y69.682
N15295 X248.731 Y70.085
N15300 X248.727 Y70.493
N15305 X248.756 Y70.903
N15310 X248.819 Y71.313
N15315 X248.915 Y71.72
N15320 X249.044 Y72.12
N15325 X249.206 Y72.513
N15330 X249.401 Y72.893
N15335 X249.627 Y73.26
N15340 X249.884 Y73.61
N15345 X250.17 Y73.941
N15350 X250.485 Y74.25
N15355 X250.825 Y74.535
N15360 X251.19 Y74.793
N15365 X251.578 Y75.023
N15370 X251.985 Y75.223
N15375 X252.41 Y75.39
N15380 X252.85 Y75.524
N15385 X253.303 Y75.622
N15390 X253.766 Y75.685
N15395 X254.235 Y75.71
N15400 X254.708 Y75.698
N15405 X255.182 Y75.647
N15410 X255.653 Y75.557
N15415 X256.119 Y75.43
N15420 X256.577 Y75.264
N15425 X257.023 Y75.06
N15430 X257.453 Y74.82
N15435 X257.866 Y74.544
N15440 X258.258 Y74.234
N15445 X258.627 Y73.891
N15450 X258.969 Y73.517
N15455 X259.282 Y73.113
N15460 X259.564 Y72.683
N15465 X259.812 Y72.229
N15470 X260.025 Y71.753
N15475 X260.199 Y71.258
N15480 X260.335 Y70.747
N15485 X260.429 Y70.223
N15490 X260.481 Y69.69
N15495 X260.491 Y69.151
N15500 X260.457 Y68.61
N15505 X260.379 Y68.07
N15510 X260.258 Y67.535
N15515 X260.092 Y67.007
N15520 X259.884 Y66.492
N15525 X259.633 Y65.991
N15530 X259.342 Y65.51
N15535 X259.01 Y65.051
N15540 X258.641 Y64.617
N15545 X258.235 Y64.211
N15550 X257.796 Y63.837
N15555 X257.324 Y63.498
N15560 X256.825 Y63.196
N15565 X256.299 Y62.933
N15570 X255.75 Y62.711
N15575 X255.182 Y62.534
N15580 X254.599 Y62.402
N15585 X254.002 Y62.316
N15590 X253.397 Y62.279
N15595 X252.787 Y62.29
N15600 X252.176 Y62.35
N15605 X251.568 Y62.46
N15610 X250.967 Y62.62
N15615 X250.378 Y62.828
N15620 X249.803 Y63.085
N15625 X249.248 Y63.388
N15630 X248.716 Y63.737
N15635 X248.211 Y64.131
N15640 X247.736 Y64.565
N15645 X247.295 Y65.04
N15650 X246.891 Y65.551
N15655 X246.527 Y66.096
N15660 X246.207 Y66.671
N15665 X245.932 Y67.274
N15670 X245.705 Y67.9
N15675 X245.529 Y68.546
N15680 X245.404 Y69.208
N15685 X245.332 Y69.881
N15690 X245.314 Y70.562
N15695 X245.352 Y71.245
N15700 X245.444 Y71.928
N15705 X245.592 Y72.604
N15710 X245.795 Y73.27
N15715 X246.051 Y73.921
N15720 X246.361 Y74.553
N15725 X246.723 Y75.161
N15730 X247.134 Y75.741
N15735 X247.594 Y76.289
N15740 X248.098 Y76.802
N15745 X248.645 Y77.274
N15750 X249.231 Y77.704
N15755 X249.853 Y78.087
N15760 X250.507 Y78.421
N15765 X251.19 Y78.703
N15770 X251.897 Y78.931
N15775 X252.624 Y79.102
N15780 X253.366 Y79.214
N15785 X254.118 Y79.267
N15790 X254.877 Y79.259
N15795 X255.636 Y79.19
N15800 X256.391 Y79.06
N15805 X257.137 Y78.869
N15810 X257.869 Y78.617
N15815 X258.582 Y78.305
N15820 X259.271 Y77.936
N15825 X259.932 Y77.51
N15830 X260.56 Y77.03
N15835 X261.15 Y76.498
N15840 X261.698 Y75.918
N15845 X262.201 Y75.292
N15850 X262.654 Y74.625
N15855 X263.054 Y73.921
N15860 X263.398 Y73.183
N15865 X263.682 Y72.416
N15870 X263.906 Y71.625
N15875 X264.066 Y70.814
N15880 X264.161 Y69.99
N15885 X264.189 Y69.156
N15890 X264.15 Y68.32
N15895 X264.044 Y67.485
N15900 X263.87 Y66.657
N15905 X263.63 Y65.842
N15910 X263.323 Y65.046
N15915 X262.952 Y64.273
N15920 X262.518 Y63.529
N15925 X262.023 Y62.819
N15930 X261.47 Y62.147
N15935 X260.862 Y61.52
N15940 X260.203 Y60.941
N15945 X259.497 Y60.413
N15950 X258.747 Y59.943
N15955 X257.957 Y59.532
N15960 X257.134 Y59.183
N15965 X256.281 Y58.901
N15970 X255.403 Y58.687
N15975 X254.508 Y58.544
N15980 X253.599 Y58.473
N15985 X252.684 Y58.474
N15990 X251.767 Y58.55
N15995 X250.856 Y58.7
N16000 X249.955 Y58.923
N16005 X249.071 Y59.219
N16010 X248.209 Y59.587
N16015 X247.377 Y60.024
N16020 X246.578 Y60.53
N16025 X245.82 Y61.1
N16030 X245.106 Y61.732
N16035 X244.443 Y62.422
N16040 X243.835 Y63.167
N16045 X243.286 Y63.961
N16050 X242.8 Y64.801
N16055 X242.382 Y65.68
N16060 X242.034 Y66.594
N16065 X241.759 Y67.537
N16070 X241.56 Y68.503
N16075 X241.439 Y69.486
N16080 X241.397 Y70.479
N16085 X241.435 Y71.478
N16090 X241.553 Y72.474
N16095 X241.752 Y73.461
N16100 X242.03 Y74.433
N16105 X242.387 Y75.383
N16110 X242.821 Y76.306
N16115 X243.33 Y77.194
N16120 X243.911 Y78.042
N16125 X244.56 Y78.844
N16130 X245.275 Y79.595
N16135 X246.05 Y80.288
N16140 X246.883 Y80.92
N16145 X247.767 Y81.485
N16150 X248.697 Y81.979
N16155 X249.668 Y82.399
N16160 X250.673 Y82.74
N16165 X251.707 Y83.001
N16170 X252.763 Y83.179
N16175 X253.833 Y83.272
N16180 X254.912 Y83.279
N16185 X255.993 Y83.199
N16190 X257.067 Y83.032
N16195 X258.129 Y82.778
N16200 X259.172 Y82.438
N16205 X260.188 Y82.014
N16210 X261.17 Y81.508
N16215 X262.113 Y80.922
N16220 X263.009 Y80.26
N16225 X263.852 Y79.525
N16230 X264.637 Y78.722
N16235 X265.357 Y77.855
N16240 X266.008 Y76.929
N16245 X266.585 Y75.951
N16250 X267.083 Y74.925
N16255 X267.499 Y73.859
N16260 X267.83 Y72.759
N16265 X268.072 Y71.632
N16270 X268.223 Y70.484
N16275 X268.281 Y69.324
N16280 X268.247 Y68.159
N16285 X268.118 Y66.996
N16290 X267.896 Y65.843
N16295 X267.581 Y64.707
N16300 X267.174 Y63.597
N16305 X266.677 Y62.518
N16310 X266.094 Y61.48
N16315 X265.427 Y60.487
N16320 X264.679 Y59.549
N16325 X263.856 Y58.67
N16330 X262.961 Y57.857
N16335 X262.001 Y57.116
N16340 X260.98 Y56.451
N16345 X259.906 Y55.869
N16350 X258.784 Y55.373
N16355 X257.621 Y54.967
N16360 X256.426 Y54.655
N16365 X255.204 Y54.439
N16370 X253.965 Y54.321
N16375 X252.716 Y54.302
N16380 X251.465 Y54.385
N16385 X250.22 Y54.568
N16390 X248.989 Y54.852
N16395 X247.781 Y55.235
N16400 X246.604 Y55.715
N16405 X245.464 Y56.29
N16410 X244.371 Y56.957
N16415 X243.331 Y57.712
N16420 X242.352 Y58.552
N16425 X241.441 Y59.468
N16430 X240.607 Y60.455
N16435 X239.855 Y61.505
N16440 X239.188 Y62.612
N16445 X238.611 Y63.768
N16450 X238.127 Y64.966
N16455 X237.739 Y66.199
N16460 X237.449 Y67.458
N16465 X237.258 Y68.735
N16470 X237.168 Y70.024
N16475 X237.178 Y71.316
N16480 X237.289 Y72.604
N16485 X237.499 Y73.879
N16490 X237.807 Y75.133
N16495 X238.21 Y76.361
N16500 X238.706 Y77.554
N16505 X239.291 Y78.706
N16510 X239.962 Y79.81
N16515 X240.715 Y80.86
N16520 X241.545 Y81.851
N16525 X242.446 Y82.776
N16530 X243.415 Y83.631
N16535 X244.444 Y84.412
N16540 X245.529 Y85.114
N16545 X246.663 Y85.734
N16550 X247.84 Y86.267
N16555 X249.053 Y86.71
N16560 X250.296 Y87.062
N16565 X251.562 Y87.322
N16570 X252.843 Y87.488
N16575 X254.134 Y87.56
N16580 X255.425 Y87.538
N16585 X256.712 Y87.423
N16590 X257.988 Y87.216
N16595 X259.245 Y86.917
N16600 X260.477 Y86.528
N16605 X261.677 Y86.05
N16610 X262.84 Y85.487
N16615 X263.96 Y84.842
N16620 X265.03 Y84.119
N16625 X266.047 Y83.322
N16630 X267.006 Y82.456
N16635 X267.902 Y81.524
N16640 X268.729 Y80.532
N16645 X269.484 Y79.483
N16650 X270.162 Y78.383
N16655 X270.761 Y77.239
N16660 X271.28 Y76.055
N16665 X271.715 Y74.839
N16670 X272.067 Y73.596
N16675 X272.332 Y72.331
N16680 X272.507 Y71.051
N16685 X272.593 Y69.762
N16690 X272.589 Y68.47
N16695 X272.498 Y67.181
N16700 X272.319 Y65.901
N16705 X272.055 Y64.636
N16710 X271.705 Y63.393
N16715 X271.27 Y62.176
N16720 X270.753 Y60.992
N16725 X270.157 Y59.845
N16730 X269.487 Y58.741
N16735 X268.745 Y57.683
N16740 X267.933 Y56.678
N16745 X267.054 Y55.731
N16750 X266.114 Y54.845
N16755 X265.117 Y54.023
N16760 X264.069 Y53.267
N16765 X262.974 Y52.582
N16770 X261.834 Y51.972
N16775 X260.657 Y51.44
N16780 X259.447 Y50.987
N16785 X258.211 Y50.612
N16790 X256.953 Y50.318
N16795 X255.678 Y50.107
N16800 X254.392 Y49.982
N16805 X253.1 Y49.941
N16810 X251.809 Y49.982
N16815 X250.523 Y50.105
N16820 X249.247 Y50.312
N16825 X247.988 Y50.602
N16830 X246.751 Y50.973
N16835 X245.539 Y51.421
N16840 X244.357 Y51.943
N16845 X243.212 Y52.542
N16850 X242.108 Y53.213
N16855 X241.049 Y53.954
N16860 X240.038 Y54.758
N16865 X239.079 Y55.624
N16870 X238.178 Y56.55
N16875 X237.338 Y57.532
N16880 X236.561 Y58.564
N16885 X235.849 Y59.642
N16890 X235.205 Y60.763
N16895 X234.635 Y61.922
N16900 X234.138 Y63.114
N16905 X233.715 Y64.336
N16910 X233.368 Y65.58
N16915 X233.098 Y66.844
N16920 X232.91 Y68.122
N16925 X232.801 Y69.409
N16930 X232.77 Y70.701
N16935 X232.817 Y71.992
N16940 X232.944 Y73.278
N16945 X233.151 Y74.553
N16950 X233.436 Y75.813
N16955 X233.796 Y77.054
N16960 X234.229 Y78.272
N16965 X234.737 Y79.46
N16970 X235.316 Y80.615
N16975 X235.965 Y81.732
N16980 X236.678 Y82.81
N16985 X237.453 Y83.843
N16990 X238.291 Y84.827
N16995 X239.186 Y85.758
N17000 X240.136 Y86.635
N17005 X241.135 Y87.454
N17010 X242.18 Y88.214
N17015 X243.27 Y88.908
N17020 X244.399 Y89.535
N17025 X245.564 Y90.094
N17030 X246.759 Y90.585
N17035 X247.981 Y91.005
N17040 X249.226 Y91.35
N17045 X250.49 Y91.621
N17050 X251.767 Y91.817
N17055 X253.053 Y91.94
N17060 X254.344 Y91.989
N17065 X255.636 Y91.961
N17070 X256.924 Y91.857
N17075 X258.203 Y91.678
N17080 X259.471 Y91.427
N17085 X260.722 Y91.103
N17090 X261.951 Y90.706
N17095 X263.155 Y90.238
N17100 X264.33 Y89.701
N17105 X265.473 Y89.098
N17110 X266.581 Y88.433
N17115 X267.648 Y87.704
N17120 X268.67 Y86.914
N17125 X269.646 Y86.068
N17130 X270.573 Y85.168
N17135 X271.449 Y84.217
N17140 X272.267 Y83.218
N17145 X273.027 Y82.172
N17150 X273.726 Y81.086
N17155 X274.364 Y79.962
N17160 X274.939 Y78.805
N17165 X275.448 Y77.617
N17170 X275.887 Y76.402
N17175 X276.258 Y75.165
N17180 X276.559 Y73.908
N17185 X276.79 Y72.637
N17190 X276.95 Y71.355
N17195 X277.038 Y70.066
N17200 X277.053 Y68.774
N17205 X276.997 Y67.483
N17210 X276.871 Y66.197
N17215 X276.674 Y64.92
N17220 X276.406 Y63.656
N17225 X276.067 Y62.409
N17230 X275.661 Y61.183
N17235 X275.188 Y59.98
N17240 X274.652 Y58.805
N17245 X274.052 Y57.66
N17250 X273.389 Y56.552
N17255 X272.666 Y55.481
N17260 X271.886 Y54.451
N17265 X271.052 Y53.464
N17270 X270.166 Y52.523
N17275 X269.229 Y51.633
N17280 X268.245 Y50.796
N17285 X267.218 Y50.012
N17290 X266.15 Y49.285
N17295 X265.045 Y48.615
N17300 X263.905 Y48.007
N17305 X262.734 Y47.461
N17310 X261.535 Y46.979
N17315 X260.313 Y46.561
N17320 X259.07 Y46.208
N17325 X257.81 Y45.922
N17330 X256.536 Y45.705
N17335 X255.253 Y45.557
N17340 X253.963 Y45.476
N17345 X252.671 Y45.462
N17350 X251.38 Y45.516
N17355 X250.094 Y45.64
N17360 X248.816 Y45.832
N17365 X247.551 Y46.092
N17370 X246.3 Y46.416
N17375 X245.068 Y46.804
N17380 X243.858 Y47.257
N17385 X242.674 Y47.774
N17390 X241.518 Y48.353
N17395 X240.395 Y48.99
N17400 X239.305 Y49.684
N17405 X238.252 Y50.434
N17410 X237.241 Y51.238
N17415 X236.273 Y52.094
N17420 X235.351 Y52.999
N17425 X234.477 Y53.95
N17430 X233.651 Y54.944
N17435 X232.878 Y55.98
N17440 X232.161 Y57.055
N17445 X231.501 Y58.165
N17450 X230.898 Y59.308
N17455 X230.353 Y60.479
N17460 X229.868 Y61.677
N17465 X229.446 Y62.898
N17470 X229.088 Y64.14
N17475 X228.794 Y65.398
N17480 X228.564 Y66.669
N17485 X228.398 Y67.951
N17490 X228.296 Y69.239
N17495 X228.261 Y70.53
N17500 X228.293 Y71.822
N17505 X228.39 Y73.11
N17510 X228.551 Y74.392
N17515 X228.775 Y75.665
N17520 X229.063 Y76.924
N17525 X229.415 Y78.167
N17530 X229.83 Y79.391
N17535 X230.306 Y80.592
N17540 X230.84 Y81.769
N17545 X231.43 Y82.918
N17550 X232.078 Y84.036
N17555 X232.782 Y85.12
N17560 X233.539 Y86.166
N17565 X234.347 Y87.175
N17570 X235.203 Y88.142
N17575 X236.105 Y89.067
N17580 X237.053 Y89.946
N17585 X238.043 Y90.776
N17590 X239.074 Y91.555
N17595 X240.141 Y92.283
N17600 X241.242 Y92.959
N17605 X242.375 Y93.58
N17610 X243.538 Y94.144
N17615 X244.727 Y94.649
N17620 X245.939 Y95.096
N17625 X247.172 Y95.482
N17630 X248.422 Y95.81
N17635 X249.686 Y96.077
N17640 X250.962 Y96.281
N17645 X252.247 Y96.421
N17650 X253.536 Y96.5
N17655 X254.828 Y96.516
N17660 X256.119 Y96.47
N17665 X257.407 Y96.363
N17670 X258.688 Y96.193
N17675 X259.959 Y95.96
N17680 X261.217 Y95.665
N17685 X262.459 Y95.312
N17690 X263.684 Y94.899
N17695 X264.888 Y94.43
N17700 X266.067 Y93.902
N17705 X267.219 Y93.317
N17710 X268.342 Y92.678
N17715 X269.434 Y91.987
N17720 X270.492 Y91.245
N17725 X271.513 Y90.454
N17730 X272.496 Y89.615
N17735 X273.436 Y88.729
N17740 X274.334 Y87.8
N17745 X275.186 Y86.829
N17750 X275.993 Y85.82
N17755 X276.752 Y84.774
N17760 X277.46 Y83.693
N17765 X278.115 Y82.579
N17770 X278.717 Y81.436
N17775 X279.265 Y80.266
N17780 X279.758 Y79.072
N17785 X280.195 Y77.856
N17790 X280.574 Y76.621
N17795 X280.894 Y75.369
N17800 X281.155 Y74.103
N17805 X281.357 Y72.827
N17810 X281.5 Y71.543
N17815 X281.584 Y70.254
N17820 X281.608 Y68.962
N17825 X281.57 Y67.67
N17830 X281.472 Y66.382
N17835 X281.315 Y65.1
N17840 X281.099 Y63.826
N17845 X280.826 Y62.563
N17850 X280.494 Y61.314
N17855 X280.104 Y60.082
N17860 X279.657 Y58.87
N17865 X279.156 Y57.679
N17870 X278.6 Y56.513
N17875 X277.993 Y55.372
N17880 X277.333 Y54.261
N17885 X276.623 Y53.182
N17890 X275.864 Y52.137
N17895 X275.057 Y51.127
N17900 X274.206 Y50.155
N17905 X273.313 Y49.222
N17910 X272.377 Y48.33
N17915 X271.402 Y47.483
N17920 X270.389 Y46.681
N17925 X269.34 Y45.926
N17930 X268.259 Y45.219
N17935 X267.147 Y44.561
N17940 X266.006 Y43.954
N17945 X264.84 Y43.399
N17950 X263.649 Y42.898
N17955 X262.436 Y42.451
N17960 X261.205 Y42.06
N17965 X259.958 Y41.723
N17970 X258.696 Y41.442
N17975 X257.424 Y41.218
N17980 X256.143 Y41.052
N17985 X254.855 Y40.943
N17990 X253.564 Y40.893
N17995 X252.272 Y40.899
N18000 X250.982 Y40.962
N18005 X249.695 Y41.083
N18010 X248.415 Y41.262
N18015 X247.145 Y41.497
N18020 X245.886 Y41.789
N18025 X244.642 Y42.136
N18030 X243.413 Y42.537
N18035 X242.204 Y42.991
N18040 X241.016 Y43.499
N18045 X239.852 Y44.06
N18050 X238.714 Y44.671
N18055 X237.603 Y45.332
N18060 X236.523 Y46.04
N18065 X235.474 Y46.795
N18070 X234.46 Y47.595
N18075 X233.482 Y48.44
N18080 X232.542 Y49.327
N18085 X231.642 Y50.253
N18090 X230.783 Y51.218
N18095 X229.966 Y52.22
N18100 X229.194 Y53.255
N18105 X228.468 Y54.324
N18110 X227.789 Y55.424
N18115 X227.159 Y56.552
N18120 X226.579 Y57.706
N18125 X226.048 Y58.884
N18130 X225.569 Y60.084
N18135 X225.142 Y61.304
N18140 X224.77 Y62.541
N18145 X224.451 Y63.793
N18150 X224.186 Y65.058
N18155 X223.976 Y66.333
N18160 X223.82 Y67.615
N18165 X223.72 Y68.903
N18170 X223.675 Y70.195
N18175 X223.687 Y71.487
N18180 X223.754 Y72.777
N18185 X223.876 Y74.063
N18190 X224.052 Y75.343
N18195 X224.283 Y76.615
N18200 X224.567 Y77.875
N18205 X224.906 Y79.122
N18210 X225.298 Y80.353
N18215 X225.742 Y81.566
N18220 X226.237 Y82.76
N18225 X226.781 Y83.932
N18230 X227.374 Y85.079
N18235 X228.016 Y86.201
N18240 X228.706 Y87.294
N18245 X229.441 Y88.356
N18250 X230.22 Y89.387
N18255 X231.041 Y90.384
N18260 X231.903 Y91.347
N18265 X232.805 Y92.272
N18270 X233.746 Y93.158
N18275 X234.723 Y94.003
N18280 X235.735 Y94.806
N18285 X236.78 Y95.566
N18290 X237.855 Y96.283
N18295 X238.959 Y96.954
N18300 X240.09 Y97.578
N18305 X241.247 Y98.154
N18310 X242.427 Y98.68
N18315 X243.628 Y99.157
N18320 X244.848 Y99.584
N18325 X246.084 Y99.96
N18330 X247.334 Y100.285
N18335 X248.597 Y100.557
N18340 X249.871 Y100.776
N18345 X251.152 Y100.942
N18350 X252.439 Y101.054
N18355 X253.73 Y101.114
N18360 X255.022 Y101.121
N18365 X256.313 Y101.075
N18370 X257.601 Y100.975
N18375 X258.884 Y100.821
N18380 X260.159 Y100.615
N18385 X261.425 Y100.356
N18390 X262.68 Y100.046
N18395 X263.92 Y99.686
N18400 X265.145 Y99.275
N18405 X266.352 Y98.813
N18410 X267.539 Y98.302
N18415 X268.704 Y97.742
N18420 X269.845 Y97.136
N18425 X270.96 Y96.485
N18430 X272.049 Y95.789
N18435 X273.108 Y95.049
N18440 X274.136 Y94.266
N18445 X275.13 Y93.441
N18450 X276.091 Y92.576
N18455 X277.015 Y91.674
N18460 X277.903 Y90.735
N18465 X278.752 Y89.762
N18470 X279.562 Y88.755
N18475 X280.329 Y87.715
N18480 X281.053 Y86.645
N18485 X281.734 Y85.547
N18490 X282.369 Y84.422
N18495 X282.96 Y83.273
N18500 X283.504 Y82.101
N18505 X284.001 Y80.908
N18510 X284.449 Y79.696
N18515 X284.847 Y78.467
N18520 X285.195 Y77.223
N18525 X285.494 Y75.966
N18530 X285.743 Y74.698
N18535 X285.941 Y73.421
N18540 X286.089 Y72.137
N18545 X286.184 Y70.849
N18550 X286.227 Y69.558
N18555 X286.218 Y68.265
N18560 X286.159 Y66.975
N18565 X286.048 Y65.687
N18570 X285.887 Y64.405
N18575 X285.676 Y63.131
N18580 X285.414 Y61.866
N18585 X285.1 Y60.612
N18590 X284.737 Y59.372
N18595 X284.326 Y58.147
N18600 X283.867 Y56.939
N18605 X283.362 Y55.75
N18610 X282.81 Y54.582
N18615 X282.212 Y53.437
N18620 X281.569 Y52.316
N18625 X280.881 Y51.222
N18630 X280.152 Y50.156
N18635 X279.381 Y49.119
N18640 X278.572 Y48.112
N18645 X277.723 Y47.137
N18650 X276.837 Y46.198
N18655 X275.913 Y45.294
N18660 X274.955 Y44.427
N18665 X273.964 Y43.598
N18670 X272.942 Y42.808
N18675 X271.89 Y42.058
N18680 X270.809 Y41.349
N18685 X269.702 Y40.683
N18690 X268.569 Y40.061
N18695 X267.413 Y39.485
N18700 X266.236 Y38.953
N18705 X265.038 Y38.468
N18710 X263.823 Y38.028
N18715 X262.592 Y37.635
N18720 X261.347 Y37.29
N18725 X260.089 Y36.995
N18730 X258.821 Y36.749
N18735 X257.544 Y36.552
N18740 X256.26 Y36.404
N18745 X254.972 Y36.306
N18750 X253.681 Y36.256
N18755 X252.389 Y36.255
N18760 X251.098 Y36.306
N18765 X249.81 Y36.406
N18770 X248.526 Y36.556
N18775 X247.25 Y36.755
N18780 X245.981 Y37.002
N18785 X244.723 Y37.296
N18790 X243.478 Y37.638
N18795 X242.246 Y38.029
N18800 X241.03 Y38.466
N18805 X239.832 Y38.95
N18810 X238.653 Y39.48
N18815 X237.496 Y40.053
N18820 X236.36 Y40.669
N18825 X235.248 Y41.327
N18830 X234.163 Y42.028
N18835 X233.105 Y42.77
N18840 X232.076 Y43.552
N18845 X231.078 Y44.372
N18850 X230.111 Y45.229
N18855 X229.177 Y46.122
N18860 X228.277 Y47.049
N18865 X227.413 Y48.009
N18870 X226.586 Y49.002
N18875 X225.797 Y50.026
N18880 X225.048 Y51.078
N18885 X224.339 Y52.158
N18890 X223.67 Y53.264
N18895 X223.043 Y54.394
N18900 X222.458 Y55.546
N18905 X221.918 Y56.72
N18910 X221.423 Y57.913
N18915 X220.973 Y59.124
N18920 X220.569 Y60.351
N18925 X220.21 Y61.593
N18930 X219.898 Y62.846
N18935 X219.632 Y64.111
N18940 X219.413 Y65.384
N18945 X219.243 Y66.665
N18950 X219.122 Y67.951
N18955 X219.048 Y69.241
N18960 X219.023 Y70.533
N18965 X219.045 Y71.825
N18970 X219.114 Y73.115
N18975 X219.23 Y74.402
N18980 X219.395 Y75.683
N18985 X219.608 Y76.958
N18990 X219.868 Y78.223
N18995 X220.175 Y79.478
N19000 X220.528 Y80.721
N19005 X220.926 Y81.951
N19010 X221.368 Y83.165
N19015 X221.855 Y84.362
N19020 X222.386 Y85.539
N19025 X222.961 Y86.697
N19030 X223.578 Y87.832
N19035 X224.236 Y88.944
N19040 X224.934 Y90.031
N19045 X225.671 Y91.092
N19050 X226.446 Y92.126
N19055 X227.259 Y93.13
N19060 X228.108 Y94.104
N19065 X228.993 Y95.045
N19070 X229.912 Y95.954
N19075 X230.863 Y96.828
N19080 X231.845 Y97.668
N19085 X232.857 Y98.472
N19090 X233.897 Y99.239
N19095 X234.964 Y99.966
N19100 X236.058 Y100.654
N19105 X237.177 Y101.301
N19110 X238.318 Y101.907
N19115 X239.48 Y102.472
N19120 X240.662 Y102.994
N19125 X241.861 Y103.474
N19130 X243.077 Y103.911
N19135 X244.309 Y104.302
N19140 X245.554 Y104.648
N19145 X246.81 Y104.948
N19150 X248.077 Y105.203
N19155 X249.352 Y105.413
N19160 X250.633 Y105.577
N19165 X251.92 Y105.696
N19170 X253.21 Y105.767
N19175 X254.502 Y105.792
N19180 X255.794 Y105.769
N19185 X257.084 Y105.7
N19190 X258.371 Y105.585
N19195 X259.653 Y105.424
N19200 X260.928 Y105.218
N19205 X262.196 Y104.967
N19210 X263.453 Y104.67
N19215 X264.699 Y104.328
N19220 X265.932 Y103.941
N19225 X267.15 Y103.51
N19230 X268.352 Y103.037
N19235 X269.537 Y102.521
N19240 X270.703 Y101.964
N19245 X271.848 Y101.366
N19250 X272.971 Y100.727
N19255 X274.07 Y100.048
N19260 X275.145 Y99.33
N19265 X276.193 Y98.575
N19270 X277.214 Y97.783
N19275 X278.206 Y96.955
N19280 X279.169 Y96.094
N19285 X280.101 Y95.199
N19290 X281. Y94.271
N19295 X281.866 Y93.312
N19300 X282.696 Y92.322
N19305 X283.492 Y91.304
N19310 X284.251 Y90.259
N19315 X284.973 Y89.188
N19320 X285.658 Y88.092
N19325 X286.304 Y86.973
N19330 X286.91 Y85.831
N19335 X287.474 Y84.669
N19340 X287.997 Y83.488
N19345 X288.478 Y82.289
N19350 X288.918 Y81.073
N19355 X289.314 Y79.844
N19360 X289.669 Y78.601
N19365 X289.979 Y77.347
N19370 X290.245 Y76.083
N19375 X290.466 Y74.81
N19380 X290.642 Y73.53
N19385 X290.773 Y72.244
N19390 X290.86 Y70.955
N19395 X290.903 Y69.664
N19400 X290.901 Y68.372
N19405 X290.854 Y67.081
N19410 X290.761 Y65.792
N19415 X290.623 Y64.507
N19420 X290.441 Y63.228
N19425 X290.214 Y61.956
N19430 X289.944 Y60.693
N19435 X289.63 Y59.439
N19440 X289.274 Y58.197
N19445 X288.875 Y56.968
N19450 X288.433 Y55.754
N19455 X287.949 Y54.556
N19460 X287.424 Y53.376
N19465 X286.858 Y52.214
N19470 X286.253 Y51.073
N19475 X285.609 Y49.952
N19480 X284.928 Y48.855
N19485 X284.209 Y47.781
N19490 X283.453 Y46.733
N19495 X282.661 Y45.712
N19500 X281.835 Y44.719
N19505 X280.974 Y43.755
N19510 X280.082 Y42.821
N19515 X279.158 Y41.917
N19520 X278.205 Y41.045
N19525 X277.222 Y40.207
N19530 X276.21 Y39.403
N19535 X275.172 Y38.634
N19540 X274.107 Y37.902
N19545 X273.018 Y37.206
N19550 X271.907 Y36.548
N19555 X270.773 Y35.927
N19560 X269.62 Y35.345
N19565 X268.447 Y34.803
N19570 X267.257 Y34.301
N19575 X266.049 Y33.84
N19580 X264.827 Y33.421
N19585 X263.591 Y33.044
N19590 X262.344 Y32.709
N19595 X261.085 Y32.415
N19600 X260.535 Y32.306
N19605 X260.345 Y32.275
N19610 X260.152 Y32.256
N19615 X259.959 Y32.25
N19620 X249.983
N19625 X248.692 Y32.315
N19630 X247.402 Y32.377
N19635 X246.116 Y32.506
N19640 X244.838 Y32.697
N19645 X243.57 Y32.945
N19650 X242.314 Y33.246
N19655 X241.071 Y33.598
N19660 X239.842 Y33.999
N19665 X238.63 Y34.446
N19670 X237.435 Y34.937
N19675 X236.259 Y35.472
N19680 X235.102 Y36.047
N19685 X233.966 Y36.662
N19690 X232.852 Y37.317
N19695 X231.761 Y38.008
N19700 X230.694 Y38.737
N19705 X229.653 Y39.503
N19710 X228.638 Y40.303
N19715 X227.651 Y41.137
N19720 X226.692 Y42.003
N19725 X225.763 Y42.9
N19730 X224.864 Y43.829
N19735 X223.997 Y44.786
N19740 X223.161 Y45.772
N19745 X222.36 Y46.785
N19750 X221.593 Y47.825
N19755 X220.86 Y48.889
N19760 X220.164 Y49.977
N19765 X219.503 Y51.088
N19770 X218.879 Y52.219
N19775 X218.293 Y53.371
N19780 X217.745 Y54.541
N19785 X217.237 Y55.729
N19790 X216.768 Y56.933
N19795 X216.34 Y58.152
N19800 X215.952 Y59.384
N19805 X215.604 Y60.628
N19810 X215.297 Y61.884
N19815 X215.031 Y63.148
N19820 X214.807 Y64.42
N19825 X214.625 Y65.7
N19830 X214.486 Y66.984
N19835 X214.389 Y68.273
N19840 X214.335 Y69.563
N19845 X214.322 Y70.855
N19850 X214.352 Y72.147
N19855 X214.423 Y73.437
N19860 X214.536 Y74.724
N19865 X214.692 Y76.007
N19870 X214.89 Y77.284
N19875 X215.129 Y78.553
N19880 X215.41 Y79.815
N19885 X215.732 Y81.066
N19890 X216.094 Y82.306
N19895 X216.496 Y83.534
N19900 X216.938 Y84.748
N19905 X217.418 Y85.948
N19910 X217.938 Y87.131
N19915 X218.496 Y88.296
N19920 X219.092 Y89.442
N19925 X219.725 Y90.569
N19930 X220.393 Y91.675
N19935 X221.097 Y92.758
N19940 X221.836 Y93.818
N19945 X222.607 Y94.855
N19950 X223.413 Y95.865
N19955 X224.25 Y96.849
N19960 X225.12 Y97.804
N19965 X226.02 Y98.732
N19970 X226.949 Y99.629
N19975 X227.906 Y100.497
N19980 X228.891 Y101.334
N19985 X229.902 Y102.138
N19990 X230.938 Y102.91
N19995 X231.999 Y103.648
N20000 X233.083 Y104.351
N20005 X234.189 Y105.018
N20010 X235.316 Y105.65
N20015 X236.463 Y106.245
N20020 X237.628 Y106.804
N20025 X238.523 Y107.198
N20030 X238.909 Y107.337
N20035 X239.31 Y107.422
N20040 X239.718 Y107.45
N20045 X265.219
N20050 X266.51 Y107.385
N20055 X267.779 Y107.249
N20060 X269.048 Y107.009
N20065 X270.298 Y106.681
N20070 X271.526 Y106.278
N20075 X272.73 Y105.809
N20080 X273.909 Y105.282
N20085 X275.064 Y104.702
N20090 X276.194 Y104.075
N20095 X277.297 Y103.402
N20100 X278.374 Y102.688
N20105 X279.424 Y101.935
N20110 X280.447 Y101.146
N20115 X281.442 Y100.322
N20120 X282.408 Y99.464
N20125 X283.346 Y98.576
N20130 X284.255 Y97.657
N20135 X285.133 Y96.709
N20140 X285.979 Y95.733
N20145 X286.794 Y94.73
N20150 X287.576 Y93.702
N20155 X288.326 Y92.65
N20160 X289.042 Y91.574
N20165 X289.724 Y90.477
N20170 X290.371 Y89.358
N20175 X290.983 Y88.221
N20180 X291.289 Y87.607
N20185 X291.46 Y87.184
N20190 X291.565 Y86.74
N20195 X291.6 Y86.286
N20200 Y56.031
N20205 X291.535 Y54.741
N20210 X291.393 Y53.593
N20215 X291.131 Y52.328
N20220 X290.773 Y51.086
N20225 X290.335 Y49.871
N20230 X289.827 Y48.683
N20235 X289.259 Y47.522
N20240 X288.638 Y46.389
N20245 X287.968 Y45.284
N20250 X287.255 Y44.207
N20255 X286.501 Y43.158
N20260 X285.708 Y42.137
N20265 X284.88 Y41.146
N20270 X284.019 Y40.183
N20275 X283.126 Y39.249
N20280 X282.202 Y38.345
N20285 X281.251 Y37.471
N20290 X280.272 Y36.628
N20295 X279.267 Y35.816
N20300 X278.237 Y35.035
N20305 X277.184 Y34.287
N20310 X276.107 Y33.573
N20315 X275.009 Y32.892
N20320 X274.589 Y32.649
N20325 X274.241 Y32.476
N20330 X273.873 Y32.351
N20335 X273.492 Y32.275
N20340 X273.105 Y32.25
N20345 X259.959
N20350 G2 X258.883 Y32.922 Z-3.867 I0.044 J1.269
N20355 X258.713 Y33.559 Z-3.8 I1.284 J0.684
N20360 X259.1 Y34.595 I1.454 J0.047
N20365 X271.691 Y33.495 I5.869 J-5.436
N20370 X272.028 Y32.922 Z-3.867 I-6.723 J-4.337
N20375 G3 X273.105 Y32.25 Z-4. I1.121 J0.597
N20380 G1 X277.409 F3150.
N20385 X278.102 Y32.285
N20390 X278.782 Y32.374
N20395 X279.565 Y32.541
N20400 X280.466 Y32.811
N20405 X281.487 Y33.209
N20410 X282.634 Y33.765
N20415 X283.747 Y34.421
N20420 X284.813 Y35.152
N20425 X285.832 Y35.945
N20430 X286.808 Y36.792
N20435 X287.741 Y37.686
N20440 X288.633 Y38.621
N20445 X289.483 Y39.593
N20450 X290.294 Y40.6
N20455 X291.063 Y41.638
N20460 X291.086 Y41.673
N20465 X291.307 Y42.056
N20470 X291.469 Y42.468
N20475 X291.567 Y42.899
N20480 X291.6 Y43.34
N20485 Y56.031
N20490 G3 X290.928 Y57.108 Z-3.867 I-1.269 J-0.044 F3500.
N20495 X290.299 Y57.312 Z-3.8 I-0.888 J-1.666
N20500 X288.604 Y56.667 I-0.258 J-1.87
N20505 X290.355 Y44.753 I6.087 J-5.191
N20510 X290.928 Y44.416 Z-3.867 I4.337 J6.723
N20515 G2 X291.6 Y43.34 Z-4. I-0.597 J-1.121
N20520 G1 Y40.048
N20525 X291.564 Y39.32
N20530 X291.493 Y38.78
N20535 X291.362 Y38.168
N20540 X291.157 Y37.485
N20545 X290.87 Y36.747
N20550 X290.47 Y35.924
N20555 X289.966 Y35.067
N20560 X289.344 Y34.182
N20565 X288.586 Y33.268
N20570 X288.465 Y33.144
N20575 X288.109 Y32.833
N20580 X287.708 Y32.583
N20585 X287.273 Y32.4
N20590 X286.814 Y32.288
N20595 X286.344 Y32.25
N20600 X277.409
N20605 G2 X276.332 Y32.922 Z-3.867 I0.044 J1.269
N20610 X276.134 Y33.553 Z-3.8 I1.585 J0.845
N20615 X277.039 Y35.333 I1.783 J0.214
N20620 X284.922 Y33.49 I2.933 J-5.234
N20625 X285.267 Y32.922 Z-3.867 I-4.95 J-3.391
N20630 G3 X286.344 Y32.25 Z-4. I1.121 J0.597
N20635 G1 X288.836 F3150.
N20640 X289.084 Y32.262
N20645 X289.393 Y32.303
N20650 X289.756 Y32.381
N20655 X290.141 Y32.53
N20660 X290.498 Y32.74
N20665 X290.816 Y33.003
N20670 X291.088 Y33.314
N20675 X291.308 Y33.664
N20680 X291.469 Y34.044
N20685 X291.567 Y34.446
N20690 X291.6 Y34.858
N20695 Y40.048
N20700 G3 X290.287 Y41.273 Z-3.8 I-1.269 J-0.044 F3500.
N20705 X289.091 Y40.281 I0.043 J-1.269
N20710 G1 X287.641 Y33.796
N20715 X287.621 Y33.68
N20720 X287.611 Y33.563
N20725 G3 X288.836 Y32.25 Z-4. I1.269 J-0.043
N20730 G1 X290.36 Y32.251 F3150.
N20735 X290.55 Y32.271
N20740 X290.741 Y32.322
N20745 X290.862 Y32.372
N20750 X290.984 Y32.438
N20755 X291.121 Y32.535
N20760 X291.27 Y32.677
N20765 X291.381 Y32.818
N20770 X291.449 Y32.93
N20775 X291.502 Y33.042
N20780 X291.556 Y33.199
N20785 X291.592 Y33.389
N20790 X291.6 Y33.579
N20795 Y34.858
N20800 G3 X290.331 Y36.083 Z-3.804 I-1.269 J-0.044 F3500.
N20805 G1 X290.287 Z-3.8
N20810 G3 X289.07 Y34.664 I0.043 J-1.269
N20815 X290.585 Y33.569 I1.261 J0.149
N20820 X291.456 Y35.113 I-0.235 J1.15
N20825 X251.369 Y33.446 I-19.786 J-7.038
N20830 G1 X251.318 Y33.25 Z-3.82
N20835 G2 X250.736 Y32.471 Z-3.92 I-1.231 J0.313
N20840 G1 X250.726 Y32.465 Z-3.922
N20845 G2 X249.983 Y32.25 Z-4. I-0.798 J1.366
N20850 G1 X237.032
N20855 X235.948 Y32.304
N20860 X234.948 Y32.435
N20865 X233.791 Y32.683
N20870 X232.554 Y33.054
N20875 X231.347 Y33.516
N20880 X230.173 Y34.055
N20885 X229.031 Y34.659
N20890 X227.92 Y35.32
N20895 X226.841 Y36.031
N20900 X225.793 Y36.786
N20905 X224.775 Y37.582
N20910 X223.788 Y38.415
N20915 X222.831 Y39.283
N20920 X221.905 Y40.184
N20925 X221.01 Y41.116
N20930 X220.145 Y42.076
N20935 X219.312 Y43.064
N20940 X218.51 Y44.077
N20945 X217.74 Y45.114
N20950 X217.001 Y46.174
N20955 X216.295 Y47.256
N20960 X215.622 Y48.359
N20965 X214.982 Y49.482
N20970 X214.377 Y50.623
N20975 X213.807 Y51.783
N20980 X213.271 Y52.958
N20985 X212.77 Y54.149
N20990 X212.305 Y55.355
N20995 X211.875 Y56.573
N21000 X211.48 Y57.803
N21005 X211.122 Y59.045
N21010 X210.801 Y60.296
N21015 X210.517 Y61.557
N21020 X210.271 Y62.825
N21025 X210.062 Y64.1
N21030 X209.891 Y65.381
N21035 X209.757 Y66.666
N21040 X209.661 Y67.955
N21045 X209.602 Y69.245
N21050 X209.58 Y70.537
N21055 X209.596 Y71.829
N21060 X209.651 Y73.12
N21065 X209.744 Y74.409
N21070 X209.874 Y75.694
N21075 X210.042 Y76.975
N21080 X210.247 Y78.251
N21085 X210.489 Y79.52
N21090 X210.767 Y80.782
N21095 X211.081 Y82.035
N21100 X211.432 Y83.279
N21105 X211.819 Y84.511
N21110 X212.243 Y85.732
N21115 X212.701 Y86.94
N21120 X213.195 Y88.134
N21125 X213.723 Y89.313
N21130 X214.285 Y90.477
N21135 X214.88 Y91.623
N21140 X215.508 Y92.753
N21145 X216.168 Y93.864
N21150 X216.86 Y94.955
N21155 X217.583 Y96.025
N21160 X218.338 Y97.074
N21165 X219.123 Y98.101
N21170 X219.937 Y99.104
N21175 X220.779 Y100.083
N21180 X221.65 Y101.038
N21185 X222.547 Y101.968
N21190 X223.47 Y102.872
N21195 X224.419 Y103.749
N21200 X225.393 Y104.598
N21205 X226.392 Y105.418
N21210 X227.414 Y106.208
N21215 X228.338 Y106.882
N21220 X228.735 Y107.126
N21225 X229.165 Y107.304
N21230 X229.618 Y107.413
N21235 X230.083 Y107.45
N21240 X239.718
N21245 G2 X240.795 Y106.778 Z-3.867 I-0.044 J-1.269
N21250 X240.949 Y106.138 Z-3.8 I-1.16 J-0.618
N21255 X240.527 Y105.195 I-1.314 J0.022
N21260 X231.504 Y106.21 I-4.073 J4.405
N21265 X231.159 Y106.778 Z-3.867 I4.95 J3.391
N21270 G3 X230.083 Y107.45 Z-4. I-1.121 J-0.597
N21275 G1 X226.366 F3150.
N21280 X225.862 Y107.425
N21285 X225.251 Y107.345
N21290 X224.553 Y107.195
N21295 X223.759 Y106.957
