%
(FLOORVENTNEW)
(MACHINE)
(  VENDOR AUTODESK)
(  MODEL GENERIC 3-AXIS ROUTER)
(  DESCRIPTION THIS MACHINE HAS XYZ AXIS ON THE HEAD)
(T20 D=6.35 CR=0. - ZMIN=-19.05 - FLAT END MILL)
(T21 D=12.7 CR=0. - ZMIN=-12.7 - FLAT END MILL)
N10 G90 G94 G17 G91.1
N15 G21
N20 G53 G0 Z0.
(OUTSIDECLEARING)
N25 M0
(MANUAL TOOL CHANGE TO T21)
N30 S18500 M3
N35 G4 P3.0
N40 G17 G90 G94
N45 G54
N50 G0 X29.782 Y165.502
N55 G43 Z15. H21
N60 G0 Z5.
N65 Z-0.73
N70 G1 Z-2. F3500.
N75 Z-4.
N80 G2 X31.75 Y158.801 I-12.098 J-7.193
N85 G1 Y158.651
N90 X31.492 Y157.385
N95 X31.285 Y156.109
N100 X31.12 Y154.828
N105 X30.988 Y153.542
N110 X30.884 Y152.255
N115 X30.8 Y150.965
N120 X30.734 Y149.675
N125 X30.682 Y148.384
N130 X30.64 Y147.092
N135 X30.607 Y145.801
N140 X30.581 Y144.509
N145 X30.56 Y143.217
N150 X30.543 Y141.925
N155 X30.53 Y140.633
N160 X30.52 Y139.341
N165 X30.511 Y138.049
N170 X30.505 Y136.757
N175 X30.5 Y135.465
N180 X30.492 Y132.881
N185 X30.486 Y129.005
N190 X30.482 Y123.837
N195 X30.48 Y113.5
N200 Y108.332
N205 Y57.942
N210 Y18.534
N215 X30.611 Y17.902
N220 X31.126 Y16.716
N225 X31.943 Y15.716
N230 X32.934 Y14.887
N235 X34.034 Y14.208
N240 X35.202 Y13.657
N245 X36.415 Y13.21
N250 X37.656 Y12.851
N255 X38.915 Y12.563
N260 X40.186 Y12.332
N265 X41.465 Y12.147
N270 X42.749 Y12.
N275 X44.035 Y11.883
N280 X45.324 Y11.789
N285 X46.614 Y11.715
N290 X47.905 Y11.656
N295 X49.196 Y11.609
N300 X50.487 Y11.572
N305 X51.779 Y11.543
N310 X53.071 Y11.519
N315 X54.363 Y11.501
N320 X55.655 Y11.486
N325 X56.947 Y11.475
N330 X58.239 Y11.465
N335 X59.531 Y11.458
N340 X60.823 Y11.452
N345 X63.407 Y11.444
N350 X65.991 Y11.439
N355 X69.867 Y11.434
N360 X76.328 Y11.431
N365 X89.248 Y11.43
N370 X139.638
N375 X190.028
N380 X240.419
N385 X290.809
N390 X317.942
N395 X318.578 Y11.542
N400 X319.773 Y12.033
N405 X320.784 Y12.838
N410 X321.622 Y13.821
N415 X322.308 Y14.916
N420 X322.866 Y16.082
N425 X323.317 Y17.292
N430 X323.681 Y18.532
N435 X323.973 Y19.791
N440 X324.207 Y21.061
N445 X324.394 Y22.34
N450 X324.543 Y23.623
N455 X324.662 Y24.91
N460 X324.756 Y26.198
N465 X324.831 Y27.488
N470 X324.891 Y28.779
N475 X324.938 Y30.07
N480 X324.976 Y31.362
N485 X325.006 Y32.653
N490 X325.029 Y33.945
N495 X325.048 Y35.237
N500 X325.063 Y36.529
N505 X325.075 Y37.821
N510 X325.084 Y39.113
N515 X325.092 Y40.405
N520 X325.098 Y41.697
N525 X325.106 Y44.281
N530 X325.111 Y46.865
N535 X325.116 Y50.742
N540 X325.119 Y57.202
N545 X325.12 Y75.291
N550 Y83.043
N555 Y133.433
N560 Y146.354
N565 X325.085 Y146.675
N570 X325.015 Y146.99
N575 X324.6 Y148.214
N580 X323.818 Y149.242
N585 X322.848 Y150.096
N590 X321.762 Y150.796
N595 X320.603 Y151.366
N600 X319.396 Y151.827
N605 X318.158 Y152.199
N610 X316.901 Y152.497
N615 X315.631 Y152.736
N620 X314.354 Y152.927
N625 X313.071 Y153.08
N630 X311.784 Y153.201
N635 X310.496 Y153.298
N640 X309.206 Y153.375
N645 X307.915 Y153.436
N650 X306.624 Y153.484
N655 X305.333 Y153.523
N660 X304.041 Y153.553
N665 X302.749 Y153.577
N670 X301.457 Y153.597
N675 X300.165 Y153.612
N680 X298.873 Y153.624
N685 X297.581 Y153.633
N690 X296.289 Y153.641
N695 X294.997 Y153.647
N700 X292.413 Y153.656
N705 X289.829 Y153.661
N710 X285.953 Y153.665
N715 X279.493 Y153.669
N720 X261.404 Y153.67
N725 X239.439
N730 X189.049
N735 X138.659
N740 X88.269
N745 X43.047
N750 X41.778 Y153.424
N755 X40.666 Y152.766
N760 X39.726 Y151.88
N765 X38.943 Y150.852
N770 X38.298 Y149.732
N775 X37.77 Y148.553
N780 X37.341 Y147.335
N785 X36.992 Y146.091
N790 X36.71 Y144.83
N795 X36.482 Y143.558
N800 X36.299 Y142.279
N805 X36.152 Y140.995
N810 X36.034 Y139.709
N815 X35.939 Y138.42
N820 X35.863 Y137.13
N825 X35.802 Y135.84
N830 X35.753 Y134.548
N835 X35.715 Y133.257
N840 X35.683 Y131.965
N845 X35.659 Y130.673
N850 X35.639 Y129.382
N855 X35.623 Y128.09
N860 X35.61 Y126.798
N865 X35.6 Y125.506
N870 X35.592 Y124.214
N875 X35.585 Y122.921
N880 X35.58 Y121.629
N885 X35.573 Y119.045
N890 X35.567 Y115.169
N895 X35.563 Y110.001
N900 X35.561 Y100.957
N905 X35.56 Y50.566
N910 Y26.017
N915 X35.597 Y24.726
N920 X35.983 Y23.493
N925 X36.639 Y22.38
N930 X37.489 Y21.407
N935 X38.475 Y20.572
N940 X39.557 Y19.864
N945 X40.704 Y19.27
N950 X41.897 Y18.775
N955 X43.122 Y18.364
N960 X44.369 Y18.024
N965 X45.63 Y17.745
N970 X46.902 Y17.516
N975 X48.18 Y17.328
N980 X49.463 Y17.174
N985 X50.749 Y17.049
N990 X52.037 Y16.947
N995 X53.326 Y16.864
N1000 X54.617 Y16.797
N1005 X55.908 Y16.742
N1010 X57.199 Y16.698
N1015 X58.49 Y16.662
N1020 X59.782 Y16.632
N1025 X61.074 Y16.609
N1030 X62.366 Y16.59
N1035 X63.658 Y16.574
N1040 X64.95 Y16.562
N1045 X66.242 Y16.552
N1050 X67.534 Y16.544
N1055 X68.826 Y16.537
N1060 X70.118 Y16.532
N1065 X72.702 Y16.524
N1070 X75.286 Y16.519
N1075 X79.162 Y16.515
N1080 X85.623 Y16.512
N1085 X102.419 Y16.51
N1090 X107.588
N1095 X157.978
N1100 X208.368
N1105 X258.758
N1110 X309.148
N1115 X310.44
N1120 X311.732 Y16.523
N1125 X312.972 Y16.887
N1130 X314.095 Y17.526
N1135 X315.078 Y18.364
N1140 X315.922 Y19.342
N1145 X316.638 Y20.418
N1150 X317.24 Y21.561
N1155 X317.742 Y22.752
N1160 X318.159 Y23.975
N1165 X318.503 Y25.22
N1170 X318.787 Y26.481
N1175 X319.019 Y27.752
N1180 X319.21 Y29.03
N1185 X319.366 Y30.312
N1190 X319.493 Y31.598
N1195 X319.596 Y32.886
N1200 X319.681 Y34.175
N1205 X319.749 Y35.465
N1210 X319.805 Y36.756
N1215 X319.85 Y38.048
N1220 X319.886 Y39.339
N1225 X319.916 Y40.631
N1230 X319.94 Y41.923
N1235 X319.959 Y43.214
N1240 X319.975 Y44.506
N1245 X319.987 Y45.798
N1250 X319.997 Y47.09
N1255 X320.006 Y48.382
N1260 X320.012 Y49.675
N1265 X320.018 Y50.967
N1270 X320.026 Y53.551
N1275 X320.031 Y56.135
N1280 X320.035 Y60.011
N1285 X320.036 Y61.303
N1290 X320.039 Y69.055
N1295 X320.04 Y97.481
N1300 Y111.693
N1305 Y140.118
N1310 X319.721 Y141.37
N1315 X319.113 Y142.51
N1320 X318.297 Y143.512
N1325 X317.334 Y144.374
N1330 X316.269 Y145.105
N1335 X315.133 Y145.721
N1340 X313.948 Y146.235
N1345 X312.728 Y146.661
N1350 X311.485 Y147.014
N1355 X310.226 Y147.305
N1360 X308.956 Y147.543
N1365 X307.679 Y147.739
N1370 X306.397 Y147.898
N1375 X305.111 Y148.029
N1380 X303.824 Y148.135
N1385 X302.535 Y148.221
N1390 X301.244 Y148.291
N1395 X299.954 Y148.348
N1400 X298.662 Y148.395
N1405 X297.371 Y148.432
N1410 X296.079 Y148.462
N1415 X294.787 Y148.487
N1420 X293.495 Y148.507
N1425 X292.204 Y148.523
N1430 X290.912 Y148.536
N1435 X289.62 Y148.546
N1440 X288.327 Y148.555
N1445 X287.035 Y148.562
N1450 X285.743 Y148.567
N1455 X283.159 Y148.575
N1460 X280.575 Y148.58
N1465 X276.699 Y148.585
N1470 X270.239 Y148.588
N1475 X254.734 Y148.59
N1480 X250.858
N1485 X200.468
N1490 X150.078
N1495 X99.688
N1500 X49.297
N1505 X48.043 Y148.282
N1510 X46.895 Y147.689
N1515 X45.881 Y146.887
N1520 X45.005 Y145.938
N1525 X44.259 Y144.883
N1530 X43.629 Y143.755
N1535 X43.102 Y142.575
N1540 X42.663 Y141.36
N1545 X42.298 Y140.12
N1550 X41.997 Y138.864
N1555 X41.749 Y137.596
N1560 X41.545 Y136.32
N1565 X41.378 Y135.039
N1570 X41.241 Y133.754
N1575 X41.129 Y132.467
N1580 X41.037 Y131.178
N1585 X40.963 Y129.888
N1590 X40.902 Y128.598
N1595 X40.853 Y127.306
N1600 X40.812 Y126.015
N1605 X40.78 Y124.723
N1610 X40.753 Y123.432
N1615 X40.732 Y122.14
N1620 X40.714 Y120.848
N1625 X40.7 Y119.556
N1630 X40.689 Y118.264
N1635 X40.679 Y116.972
N1640 X40.672 Y115.68
N1645 X40.666 Y114.388
N1650 X40.657 Y111.804
N1655 X40.651 Y109.22
N1660 X40.646 Y105.343
N1665 X40.643 Y101.467
N1670 X40.641 Y92.423
N1675 X40.64 Y51.077
N1680 Y31.696
N1685 X40.742 Y30.408
N1690 X41.129 Y29.176
N1695 X41.759 Y28.047
N1700 X42.573 Y27.044
N1705 X43.525 Y26.17
N1710 X44.576 Y25.419
N1715 X45.699 Y24.779
N1720 X46.872 Y24.239
N1725 X48.082 Y23.784
N1730 X49.316 Y23.404
N1735 X50.569 Y23.087
N1740 X51.834 Y22.823
N1745 X53.107 Y22.605
N1750 X54.387 Y22.424
N1755 X55.67 Y22.275
N1760 X56.956 Y22.152
N1765 X58.244 Y22.05
N1770 X59.534 Y21.967
N1775 X60.824 Y21.898
N1780 X62.115 Y21.842
N1785 X63.406 Y21.796
N1790 X64.697 Y21.758
N1795 X65.989 Y21.727
N1800 X67.281 Y21.702
N1805 X68.573 Y21.681
N1810 X69.865 Y21.665
N1815 X71.157 Y21.651
N1820 X72.449 Y21.64
N1825 X73.741 Y21.63
N1830 X75.033 Y21.623
N1835 X76.325 Y21.617
N1840 X78.909 Y21.608
N1845 X81.493 Y21.602
N1850 X85.369 Y21.596
N1855 X90.537 Y21.593
N1860 X100.874 Y21.591
N1865 X117.67 Y21.59
N1870 X168.061
N1875 X218.451
N1880 X268.841
N1885 X305.018
N1890 X306.303 Y21.727
N1895 X307.525 Y22.146
N1900 X308.639 Y22.802
N1905 X309.625 Y23.636
N1910 X310.483 Y24.603
N1915 X311.219 Y25.664
N1920 X311.845 Y26.794
N1925 X312.374 Y27.973
N1930 X312.819 Y29.186
N1935 X313.191 Y30.424
N1940 X313.5 Y31.678
N1945 X313.758 Y32.944
N1950 X313.971 Y34.219
N1955 X314.147 Y35.499
N1960 X314.293 Y36.783
N1965 X314.413 Y38.069
N1970 X314.512 Y39.357
N1975 X314.593 Y40.647
N1980 X314.66 Y41.937
N1985 X314.715 Y43.228
N1990 X314.759 Y44.519
N1995 X314.796 Y45.811
N2000 X314.826 Y47.103
N2005 X314.851 Y48.394
N2010 X314.871 Y49.686
N2015 X314.887 Y50.978
N2020 X314.901 Y52.27
N2025 X314.912 Y53.562
N2030 X314.921 Y54.854
N2035 X314.928 Y56.146
N2040 X314.934 Y57.438
N2045 X314.943 Y60.022
N2050 X314.949 Y62.606
N2055 X314.954 Y66.483
N2060 X314.958 Y72.943
N2065 X314.96 Y81.987
N2070 Y132.377
N2075 Y133.669
N2080 X314.802 Y134.952
N2085 X314.361 Y136.166
N2090 X313.69 Y137.27
N2095 X312.843 Y138.247
N2100 X311.868 Y139.094
N2105 X310.801 Y139.822
N2110 X309.666 Y140.44
N2115 X308.484 Y140.962
N2120 X307.269 Y141.401
N2125 X306.03 Y141.767
N2130 X304.775 Y142.073
N2135 X303.508 Y142.326
N2140 X302.233 Y142.537
N2145 X300.952 Y142.71
N2150 X299.668 Y142.854
N2155 X298.382 Y142.972
N2160 X297.093 Y143.069
N2165 X295.804 Y143.149
N2170 X294.513 Y143.215
N2175 X293.222 Y143.269
N2180 X291.931 Y143.313
N2185 X290.64 Y143.349
N2190 X289.348 Y143.379
N2195 X288.056 Y143.403
N2200 X286.764 Y143.423
N2205 X285.472 Y143.439
N2210 X284.18 Y143.452
N2215 X282.888 Y143.463
N2220 X281.596 Y143.471
N2225 X280.304 Y143.479
N2230 X279.012 Y143.484
N2235 X276.428 Y143.493
N2240 X273.844 Y143.499
N2245 X269.968 Y143.504
N2250 X263.507 Y143.508
N2255 X250.587 Y143.51
N2260 X219.578
N2265 X169.188
N2270 X118.797
N2275 X68.407
N2280 X55.487
N2285 X54.21 Y143.312
N2290 X53.006 Y142.843
N2295 X51.914 Y142.152
N2300 X50.95 Y141.292
N2305 X50.112 Y140.309
N2310 X49.549 Y139.469
N2315 X49.293 Y139.148
N2320 X48.989 Y138.872
N2325 X48.644 Y138.649
N2330 X48.499 Y138.555
N2335 X47.882 Y138.133
N2340 X47.501 Y137.788
N2345 X47.1 Y137.412
N2350 X46.739 Y137.05
N2355 X46.358 Y136.645
N2360 X46.021 Y136.269
N2365 X45.596 Y135.653
N2370 X45.503 Y135.507
N2375 X45.215 Y134.974
N2380 X45.096 Y134.745
N2385 X44.834 Y134.204
N2390 X44.728 Y133.983
N2395 X44.57 Y133.602
N2400 X44.439 Y133.221
N2405 X44.316 Y132.84
N2410 X44.24 Y132.459
N2415 X44.166 Y132.078
N2420 X44.046 Y131.316
N2425 X44.005 Y130.935
N2430 X43.973 Y130.554
N2435 X43.952 Y130.173
N2440 X43.95 Y129.411
N2445 Y35.689
N2450 X43.952 Y34.927
N2455 X43.973 Y34.546
N2460 X44.005 Y34.165
N2465 X44.046 Y33.784
N2470 X44.166 Y33.022
N2475 X44.24 Y32.641
N2480 X44.316 Y32.26
N2485 X44.439 Y31.879
N2490 X44.57 Y31.498
N2495 X44.728 Y31.117
N2500 X44.911 Y30.736
N2505 X45.096 Y30.355
N2510 X45.215 Y30.126
N2515 X45.503 Y29.593
N2520 X45.596 Y29.447
N2525 X46.02 Y28.831
N2530 X46.362 Y28.45
N2535 X46.739 Y28.05
N2540 X47.1 Y27.688
N2545 X47.507 Y27.307
N2550 X47.882 Y26.967
N2555 X48.5 Y26.545
N2560 X48.644 Y26.451
N2565 X49.179 Y26.164
N2570 X49.406 Y26.046
N2575 X49.787 Y25.861
N2580 X50.168 Y25.678
N2585 X50.549 Y25.519
N2590 X50.93 Y25.39
N2595 X51.311 Y25.267
N2600 X51.692 Y25.188
N2605 X52.073 Y25.116
N2610 X52.835 Y24.996
N2615 X53.216 Y24.954
N2620 X53.597 Y24.923
N2625 X53.978 Y24.901
N2630 X55.121 Y24.9
N2635 X300.86
N2640 X301.622 Y24.901
N2645 X302.003 Y24.923
N2650 X302.384 Y24.954
N2655 X302.765 Y24.996
N2660 X303.527 Y25.116
N2665 X303.908 Y25.188
N2670 X304.289 Y25.267
N2675 X304.67 Y25.39
N2680 X305.051 Y25.519
N2685 X305.432 Y25.678
N2690 X305.813 Y25.861
N2695 X306.194 Y26.046
N2700 X306.42 Y26.164
N2705 X306.956 Y26.451
N2710 X307.1 Y26.545
N2715 X307.718 Y26.967
N2720 X308.099 Y27.313
N2725 X308.5 Y27.688
N2730 X308.861 Y28.049
N2735 X309.242 Y28.454
N2740 X309.58 Y28.831
N2745 X310.004 Y29.446
N2750 X310.098 Y29.593
N2755 X310.385 Y30.125
N2760 X310.504 Y30.355
N2765 X310.766 Y30.895
N2770 X310.873 Y31.117
N2775 X311.031 Y31.498
N2780 X311.161 Y31.879
N2785 X311.284 Y32.26
N2790 X311.36 Y32.641
N2795 X311.434 Y33.022
N2800 X311.554 Y33.784
N2805 X311.595 Y34.165
N2810 X311.627 Y34.546
N2815 X311.648 Y34.927
N2820 X311.65 Y35.689
N2825 Y129.411
N2830 X311.648 Y130.173
N2835 X311.627 Y130.554
N2840 X311.595 Y130.935
N2845 X311.554 Y131.316
N2850 X311.434 Y132.078
N2855 X311.36 Y132.459
N2860 X311.284 Y132.84
N2865 X311.161 Y133.221
N2870 X311.031 Y133.602
N2875 X310.873 Y133.983
N2880 X310.689 Y134.364
N2885 X310.504 Y134.745
N2890 X310.385 Y134.974
N2895 X310.098 Y135.507
N2900 X310.004 Y135.654
N2905 X309.58 Y136.269
N2910 X309.238 Y136.65
N2915 X308.861 Y137.051
N2920 X308.5 Y137.412
N2925 X308.093 Y137.793
N2930 X307.718 Y138.133
N2935 X307.101 Y138.555
N2940 X306.956 Y138.649
N2945 X306.421 Y138.936
N2950 X306.194 Y139.055
N2955 X305.813 Y139.24
N2960 X305.432 Y139.422
N2965 X305.051 Y139.582
N2970 X304.67 Y139.711
N2975 X304.289 Y139.834
N2980 X303.908 Y139.912
N2985 X303.527 Y139.984
N2990 X302.765 Y140.104
N2995 X302.384 Y140.146
N3000 X302.003 Y140.177
N3005 X301.622 Y140.199
N3010 X300.479 Y140.2
N3015 X54.74
N3020 X53.978 Y140.199
N3025 X53.597 Y140.177
N3030 X53.216 Y140.146
N3035 X52.835 Y140.104
N3040 X52.073 Y139.984
N3045 X51.692 Y139.912
N3050 X51.311 Y139.834
N3055 X50.93 Y139.711
N3060 X50.549 Y139.582
N3065 X50.168 Y139.422
N3070 X49.787 Y139.24
N3075 X49.406 Y139.055
N3080 X49.179 Y138.936
N3085 X48.644 Y138.649
N3090 X48.541 Y138.614 Z-3.992
N3095 X48.441 Y138.579 Z-3.97
N3100 X48.344 Y138.546 Z-3.933
N3105 X48.249 Y138.536 Z-3.882
N3110 X48.162 Y138.527 Z-3.819
N3115 X48.084 Y138.519 Z-3.744
N3120 X48.023 Y138.524 Z-3.669
N3125 X47.973 Y138.528 Z-3.586
N3130 X47.932 Y138.531 Z-3.498
N3135 X47.903 Y138.534 Z-3.406
N3140 X47.885 Y138.535 Z-3.311
N3145 X47.879 Y138.536 Z-3.215
N3150 G0 Z5.
N3155 X29.782 Y165.502
N3160 Z-4.73
N3165 G1 Z-6. F3500.
N3170 Z-8.
N3175 G2 X31.75 Y158.801 I-12.098 J-7.193
N3180 G1 Y158.651
N3185 X31.492 Y157.385
N3190 X31.285 Y156.109
N3195 X31.12 Y154.828
N3200 X30.988 Y153.542
N3205 X30.884 Y152.255
N3210 X30.8 Y150.965
N3215 X30.734 Y149.675
N3220 X30.682 Y148.384
N3225 X30.64 Y147.092
N3230 X30.607 Y145.801
N3235 X30.581 Y144.509
N3240 X30.56 Y143.217
N3245 X30.543 Y141.925
N3250 X30.53 Y140.633
N3255 X30.52 Y139.341
N3260 X30.511 Y138.049
N3265 X30.505 Y136.757
N3270 X30.5 Y135.465
N3275 X30.492 Y132.881
N3280 X30.486 Y129.005
N3285 X30.482 Y123.837
N3290 X30.48 Y113.5
N3295 Y108.332
N3300 Y57.942
N3305 Y18.534
N3310 X30.611 Y17.902
N3315 X31.126 Y16.716
N3320 X31.943 Y15.716
N3325 X32.934 Y14.887
N3330 X34.034 Y14.208
N3335 X35.202 Y13.657
N3340 X36.415 Y13.21
N3345 X37.656 Y12.851
N3350 X38.915 Y12.563
N3355 X40.186 Y12.332
N3360 X41.465 Y12.147
N3365 X42.749 Y12.
N3370 X44.035 Y11.883
N3375 X45.324 Y11.789
N3380 X46.614 Y11.715
N3385 X47.905 Y11.656
N3390 X49.196 Y11.609
N3395 X50.487 Y11.572
N3400 X51.779 Y11.543
N3405 X53.071 Y11.519
N3410 X54.363 Y11.501
N3415 X55.655 Y11.486
N3420 X56.947 Y11.475
N3425 X58.239 Y11.465
N3430 X59.531 Y11.458
N3435 X60.823 Y11.452
N3440 X63.407 Y11.444
N3445 X65.991 Y11.439
N3450 X69.867 Y11.434
N3455 X76.328 Y11.431
N3460 X89.248 Y11.43
N3465 X139.638
N3470 X190.028
N3475 X240.419
N3480 X290.809
N3485 X317.942
N3490 X318.578 Y11.542
N3495 X319.773 Y12.033
N3500 X320.784 Y12.838
N3505 X321.622 Y13.821
N3510 X322.308 Y14.916
N3515 X322.866 Y16.082
N3520 X323.317 Y17.292
N3525 X323.681 Y18.532
N3530 X323.973 Y19.791
N3535 X324.207 Y21.061
N3540 X324.394 Y22.34
N3545 X324.543 Y23.623
N3550 X324.662 Y24.91
N3555 X324.756 Y26.198
N3560 X324.831 Y27.488
N3565 X324.891 Y28.779
N3570 X324.938 Y30.07
N3575 X324.976 Y31.362
N3580 X325.006 Y32.653
N3585 X325.029 Y33.945
N3590 X325.048 Y35.237
N3595 X325.063 Y36.529
N3600 X325.075 Y37.821
N3605 X325.084 Y39.113
N3610 X325.092 Y40.405
N3615 X325.098 Y41.697
N3620 X325.106 Y44.281
N3625 X325.111 Y46.865
N3630 X325.116 Y50.742
N3635 X325.119 Y57.202
N3640 X325.12 Y75.291
N3645 Y83.043
N3650 Y133.433
N3655 Y146.354
N3660 X325.085 Y146.675
N3665 X325.015 Y146.99
N3670 X324.6 Y148.214
N3675 X323.818 Y149.242
N3680 X322.848 Y150.096
N3685 X321.762 Y150.796
N3690 X320.603 Y151.366
N3695 X319.396 Y151.827
N3700 X318.158 Y152.199
N3705 X316.901 Y152.497
N3710 X315.631 Y152.736
N3715 X314.354 Y152.927
N3720 X313.071 Y153.08
N3725 X311.784 Y153.201
N3730 X310.496 Y153.298
N3735 X309.206 Y153.375
N3740 X307.915 Y153.436
N3745 X306.624 Y153.484
N3750 X305.333 Y153.523
N3755 X304.041 Y153.553
N3760 X302.749 Y153.577
N3765 X301.457 Y153.597
N3770 X300.165 Y153.612
N3775 X298.873 Y153.624
N3780 X297.581 Y153.633
N3785 X296.289 Y153.641
N3790 X294.997 Y153.647
N3795 X292.413 Y153.656
N3800 X289.829 Y153.661
N3805 X285.953 Y153.665
N3810 X279.493 Y153.669
N3815 X261.404 Y153.67
N3820 X239.439
N3825 X189.049
N3830 X138.659
N3835 X88.269
N3840 X43.047
N3845 X41.778 Y153.424
N3850 X40.666 Y152.766
N3855 X39.726 Y151.88
N3860 X38.943 Y150.852
N3865 X38.298 Y149.732
N3870 X37.77 Y148.553
N3875 X37.341 Y147.335
N3880 X36.992 Y146.091
N3885 X36.71 Y144.83
N3890 X36.482 Y143.558
N3895 X36.299 Y142.279
N3900 X36.152 Y140.995
N3905 X36.034 Y139.709
N3910 X35.939 Y138.42
N3915 X35.863 Y137.13
N3920 X35.802 Y135.84
N3925 X35.753 Y134.548
N3930 X35.715 Y133.257
N3935 X35.683 Y131.965
N3940 X35.659 Y130.673
N3945 X35.639 Y129.382
N3950 X35.623 Y128.09
N3955 X35.61 Y126.798
N3960 X35.6 Y125.506
N3965 X35.592 Y124.214
N3970 X35.585 Y122.921
N3975 X35.58 Y121.629
N3980 X35.573 Y119.045
N3985 X35.567 Y115.169
N3990 X35.563 Y110.001
N3995 X35.561 Y100.957
N4000 X35.56 Y50.566
N4005 Y26.017
N4010 X35.597 Y24.726
N4015 X35.983 Y23.493
N4020 X36.639 Y22.38
N4025 X37.489 Y21.407
N4030 X38.475 Y20.572
N4035 X39.557 Y19.864
N4040 X40.704 Y19.27
N4045 X41.897 Y18.775
N4050 X43.122 Y18.364
N4055 X44.369 Y18.024
N4060 X45.63 Y17.745
N4065 X46.902 Y17.516
N4070 X48.18 Y17.328
N4075 X49.463 Y17.174
N4080 X50.749 Y17.049
N4085 X52.037 Y16.947
N4090 X53.326 Y16.864
N4095 X54.617 Y16.797
N4100 X55.908 Y16.742
N4105 X57.199 Y16.698
N4110 X58.49 Y16.662
N4115 X59.782 Y16.632
N4120 X61.074 Y16.609
N4125 X62.366 Y16.59
N4130 X63.658 Y16.574
N4135 X64.95 Y16.562
N4140 X66.242 Y16.552
N4145 X67.534 Y16.544
N4150 X68.826 Y16.537
N4155 X70.118 Y16.532
N4160 X72.702 Y16.524
N4165 X75.286 Y16.519
N4170 X79.162 Y16.515
N4175 X85.623 Y16.512
N4180 X102.419 Y16.51
N4185 X107.588
N4190 X157.978
N4195 X208.368
N4200 X258.758
N4205 X309.148
N4210 X310.44
N4215 X311.732 Y16.523
N4220 X312.972 Y16.887
N4225 X314.095 Y17.526
N4230 X315.078 Y18.364
N4235 X315.922 Y19.342
N4240 X316.638 Y20.418
N4245 X317.24 Y21.561
N4250 X317.742 Y22.752
N4255 X318.159 Y23.975
N4260 X318.503 Y25.22
N4265 X318.787 Y26.481
N4270 X319.019 Y27.752
N4275 X319.21 Y29.03
N4280 X319.366 Y30.312
N4285 X319.493 Y31.598
N4290 X319.596 Y32.886
N4295 X319.681 Y34.175
N4300 X319.749 Y35.465
N4305 X319.805 Y36.756
N4310 X319.85 Y38.048
N4315 X319.886 Y39.339
N4320 X319.916 Y40.631
N4325 X319.94 Y41.923
N4330 X319.959 Y43.214
N4335 X319.975 Y44.506
N4340 X319.987 Y45.798
N4345 X319.997 Y47.09
N4350 X320.006 Y48.382
N4355 X320.012 Y49.675
N4360 X320.018 Y50.967
N4365 X320.026 Y53.551
N4370 X320.031 Y56.135
N4375 X320.035 Y60.011
N4380 X320.036 Y61.303
N4385 X320.039 Y69.055
N4390 X320.04 Y97.481
N4395 Y111.693
N4400 Y140.118
N4405 X319.721 Y141.37
N4410 X319.113 Y142.51
N4415 X318.297 Y143.512
N4420 X317.334 Y144.374
N4425 X316.269 Y145.105
N4430 X315.133 Y145.721
N4435 X313.948 Y146.235
N4440 X312.728 Y146.661
N4445 X311.485 Y147.014
N4450 X310.226 Y147.305
N4455 X308.956 Y147.543
N4460 X307.679 Y147.739
N4465 X306.397 Y147.898
N4470 X305.111 Y148.029
N4475 X303.824 Y148.135
N4480 X302.535 Y148.221
N4485 X301.244 Y148.291
N4490 X299.954 Y148.348
N4495 X298.662 Y148.395
N4500 X297.371 Y148.432
N4505 X296.079 Y148.462
N4510 X294.787 Y148.487
N4515 X293.495 Y148.507
N4520 X292.204 Y148.523
N4525 X290.912 Y148.536
N4530 X289.62 Y148.546
N4535 X288.327 Y148.555
N4540 X287.035 Y148.562
N4545 X285.743 Y148.567
N4550 X283.159 Y148.575
N4555 X280.575 Y148.58
N4560 X276.699 Y148.585
N4565 X270.239 Y148.588
N4570 X254.734 Y148.59
N4575 X250.858
N4580 X200.468
N4585 X150.078
N4590 X99.688
N4595 X49.297
N4600 X48.043 Y148.282
N4605 X46.895 Y147.689
N4610 X45.881 Y146.887
N4615 X45.005 Y145.938
N4620 X44.259 Y144.883
N4625 X43.629 Y143.755
N4630 X43.102 Y142.575
N4635 X42.663 Y141.36
N4640 X42.298 Y140.12
N4645 X41.997 Y138.864
N4650 X41.749 Y137.596
N4655 X41.545 Y136.32
N4660 X41.378 Y135.039
N4665 X41.241 Y133.754
N4670 X41.129 Y132.467
N4675 X41.037 Y131.178
N4680 X40.963 Y129.888
N4685 X40.902 Y128.598
N4690 X40.853 Y127.306
N4695 X40.812 Y126.015
N4700 X40.78 Y124.723
N4705 X40.753 Y123.432
N4710 X40.732 Y122.14
N4715 X40.714 Y120.848
N4720 X40.7 Y119.556
N4725 X40.689 Y118.264
N4730 X40.679 Y116.972
N4735 X40.672 Y115.68
N4740 X40.666 Y114.388
N4745 X40.657 Y111.804
N4750 X40.651 Y109.22
N4755 X40.646 Y105.343
N4760 X40.643 Y101.467
N4765 X40.641 Y92.423
N4770 X40.64 Y51.077
N4775 Y31.696
N4780 X40.742 Y30.408
N4785 X41.129 Y29.176
N4790 X41.759 Y28.047
N4795 X42.573 Y27.044
N4800 X43.525 Y26.17
N4805 X44.576 Y25.419
N4810 X45.699 Y24.779
N4815 X46.872 Y24.239
N4820 X48.082 Y23.784
N4825 X49.316 Y23.404
N4830 X50.569 Y23.087
N4835 X51.834 Y22.823
N4840 X53.107 Y22.605
N4845 X54.387 Y22.424
N4850 X55.67 Y22.275
N4855 X56.956 Y22.152
N4860 X58.244 Y22.05
N4865 X59.534 Y21.967
N4870 X60.824 Y21.898
N4875 X62.115 Y21.842
N4880 X63.406 Y21.796
N4885 X64.697 Y21.758
N4890 X65.989 Y21.727
N4895 X67.281 Y21.702
N4900 X68.573 Y21.681
N4905 X69.865 Y21.665
N4910 X71.157 Y21.651
N4915 X72.449 Y21.64
N4920 X73.741 Y21.63
N4925 X75.033 Y21.623
N4930 X76.325 Y21.617
N4935 X78.909 Y21.608
N4940 X81.493 Y21.602
N4945 X85.369 Y21.596
N4950 X90.537 Y21.593
N4955 X100.874 Y21.591
N4960 X117.67 Y21.59
N4965 X168.061
N4970 X218.451
N4975 X268.841
N4980 X305.018
N4985 X306.303 Y21.727
N4990 X307.525 Y22.146
N4995 X308.639 Y22.802
N5000 X309.625 Y23.636
N5005 X310.483 Y24.603
N5010 X311.219 Y25.664
N5015 X311.845 Y26.794
N5020 X312.374 Y27.973
N5025 X312.819 Y29.186
N5030 X313.191 Y30.424
N5035 X313.5 Y31.678
N5040 X313.758 Y32.944
N5045 X313.971 Y34.219
N5050 X314.147 Y35.499
N5055 X314.293 Y36.783
N5060 X314.413 Y38.069
N5065 X314.512 Y39.357
N5070 X314.593 Y40.647
N5075 X314.66 Y41.937
N5080 X314.715 Y43.228
N5085 X314.759 Y44.519
N5090 X314.796 Y45.811
N5095 X314.826 Y47.103
N5100 X314.851 Y48.394
N5105 X314.871 Y49.686
N5110 X314.887 Y50.978
N5115 X314.901 Y52.27
N5120 X314.912 Y53.562
N5125 X314.921 Y54.854
N5130 X314.928 Y56.146
N5135 X314.934 Y57.438
N5140 X314.943 Y60.022
N5145 X314.949 Y62.606
N5150 X314.954 Y66.483
N5155 X314.958 Y72.943
N5160 X314.96 Y81.987
N5165 Y132.377
N5170 Y133.669
N5175 X314.802 Y134.952
N5180 X314.361 Y136.166
N5185 X313.69 Y137.27
N5190 X312.843 Y138.247
N5195 X311.868 Y139.094
N5200 X310.801 Y139.822
N5205 X309.666 Y140.44
N5210 X308.484 Y140.962
N5215 X307.269 Y141.401
N5220 X306.03 Y141.767
N5225 X304.775 Y142.073
N5230 X303.508 Y142.326
N5235 X302.233 Y142.537
N5240 X300.952 Y142.71
N5245 X299.668 Y142.854
N5250 X298.382 Y142.972
N5255 X297.093 Y143.069
N5260 X295.804 Y143.149
N5265 X294.513 Y143.215
N5270 X293.222 Y143.269
N5275 X291.931 Y143.313
N5280 X290.64 Y143.349
N5285 X289.348 Y143.379
N5290 X288.056 Y143.403
N5295 X286.764 Y143.423
N5300 X285.472 Y143.439
N5305 X284.18 Y143.452
N5310 X282.888 Y143.463
N5315 X281.596 Y143.471
N5320 X280.304 Y143.479
N5325 X279.012 Y143.484
N5330 X276.428 Y143.493
N5335 X273.844 Y143.499
N5340 X269.968 Y143.504
N5345 X263.507 Y143.508
N5350 X250.587 Y143.51
N5355 X219.578
N5360 X169.188
N5365 X118.797
N5370 X68.407
N5375 X55.487
N5380 X54.21 Y143.312
N5385 X53.006 Y142.843
N5390 X51.914 Y142.152
N5395 X50.95 Y141.292
N5400 X50.112 Y140.309
N5405 X49.549 Y139.469
N5410 X49.293 Y139.148
N5415 X48.989 Y138.872
N5420 X48.644 Y138.649
N5425 X48.499 Y138.555
N5430 X47.882 Y138.133
N5435 X47.501 Y137.788
N5440 X47.1 Y137.412
N5445 X46.739 Y137.05
N5450 X46.358 Y136.645
N5455 X46.021 Y136.269
N5460 X45.596 Y135.653
N5465 X45.503 Y135.507
N5470 X45.215 Y134.974
N5475 X45.096 Y134.745
N5480 X44.834 Y134.204
N5485 X44.728 Y133.983
N5490 X44.57 Y133.602
N5495 X44.439 Y133.221
N5500 X44.316 Y132.84
N5505 X44.24 Y132.459
N5510 X44.166 Y132.078
N5515 X44.046 Y131.316
N5520 X44.005 Y130.935
N5525 X43.973 Y130.554
N5530 X43.952 Y130.173
N5535 X43.95 Y129.411
N5540 Y35.689
N5545 X43.952 Y34.927
N5550 X43.973 Y34.546
N5555 X44.005 Y34.165
N5560 X44.046 Y33.784
N5565 X44.166 Y33.022
N5570 X44.24 Y32.641
N5575 X44.316 Y32.26
N5580 X44.439 Y31.879
N5585 X44.57 Y31.498
N5590 X44.728 Y31.117
N5595 X44.911 Y30.736
N5600 X45.096 Y30.355
N5605 X45.215 Y30.126
N5610 X45.503 Y29.593
N5615 X45.596 Y29.447
N5620 X46.02 Y28.831
N5625 X46.362 Y28.45
N5630 X46.739 Y28.05
N5635 X47.1 Y27.688
N5640 X47.507 Y27.307
N5645 X47.882 Y26.967
N5650 X48.5 Y26.545
N5655 X48.644 Y26.451
N5660 X49.179 Y26.164
N5665 X49.406 Y26.046
N5670 X49.787 Y25.861
N5675 X50.168 Y25.678
N5680 X50.549 Y25.519
N5685 X50.93 Y25.39
N5690 X51.311 Y25.267
N5695 X51.692 Y25.188
N5700 X52.073 Y25.116
N5705 X52.835 Y24.996
N5710 X53.216 Y24.954
N5715 X53.597 Y24.923
N5720 X53.978 Y24.901
N5725 X55.121 Y24.9
N5730 X300.86
N5735 X301.622 Y24.901
N5740 X302.003 Y24.923
N5745 X302.384 Y24.954
N5750 X302.765 Y24.996
N5755 X303.527 Y25.116
N5760 X303.908 Y25.188
N5765 X304.289 Y25.267
N5770 X304.67 Y25.39
N5775 X305.051 Y25.519
N5780 X305.432 Y25.678
N5785 X305.813 Y25.861
N5790 X306.194 Y26.046
N5795 X306.42 Y26.164
N5800 X306.956 Y26.451
N5805 X307.1 Y26.545
N5810 X307.718 Y26.967
N5815 X308.099 Y27.313
N5820 X308.5 Y27.688
N5825 X308.861 Y28.049
N5830 X309.242 Y28.454
N5835 X309.58 Y28.831
N5840 X310.004 Y29.446
N5845 X310.098 Y29.593
N5850 X310.385 Y30.125
N5855 X310.504 Y30.355
N5860 X310.766 Y30.895
N5865 X310.873 Y31.117
N5870 X311.031 Y31.498
N5875 X311.161 Y31.879
N5880 X311.284 Y32.26
N5885 X311.36 Y32.641
N5890 X311.434 Y33.022
N5895 X311.554 Y33.784
N5900 X311.595 Y34.165
N5905 X311.627 Y34.546
N5910 X311.648 Y34.927
N5915 X311.65 Y35.689
N5920 Y129.411
N5925 X311.648 Y130.173
N5930 X311.627 Y130.554
N5935 X311.595 Y130.935
N5940 X311.554 Y131.316
N5945 X311.434 Y132.078
N5950 X311.36 Y132.459
N5955 X311.284 Y132.84
N5960 X311.161 Y133.221
N5965 X311.031 Y133.602
N5970 X310.873 Y133.983
N5975 X310.689 Y134.364
N5980 X310.504 Y134.745
N5985 X310.385 Y134.974
N5990 X310.098 Y135.507
N5995 X310.004 Y135.654
N6000 X309.58 Y136.269
N6005 X309.238 Y136.65
N6010 X308.861 Y137.051
N6015 X308.5 Y137.412
N6020 X308.093 Y137.793
N6025 X307.718 Y138.133
N6030 X307.101 Y138.555
N6035 X306.956 Y138.649
N6040 X306.421 Y138.936
N6045 X306.194 Y139.055
N6050 X305.813 Y139.24
N6055 X305.432 Y139.422
N6060 X305.051 Y139.582
N6065 X304.67 Y139.711
N6070 X304.289 Y139.834
N6075 X303.908 Y139.912
N6080 X303.527 Y139.984
N6085 X302.765 Y140.104
N6090 X302.384 Y140.146
N6095 X302.003 Y140.177
N6100 X301.622 Y140.199
N6105 X300.479 Y140.2
N6110 X54.74
N6115 X53.978 Y140.199
N6120 X53.597 Y140.177
N6125 X53.216 Y140.146
N6130 X52.835 Y140.104
N6135 X52.073 Y139.984
N6140 X51.692 Y139.912
N6145 X51.311 Y139.834
N6150 X50.93 Y139.711
N6155 X50.549 Y139.582
N6160 X50.168 Y139.422
N6165 X49.787 Y139.24
N6170 X49.406 Y139.055
N6175 X49.179 Y138.936
N6180 X48.644 Y138.649
N6185 X48.541 Y138.614 Z-7.992
N6190 X48.441 Y138.579 Z-7.97
N6195 X48.344 Y138.546 Z-7.933
N6200 X48.249 Y138.536 Z-7.882
N6205 X48.162 Y138.527 Z-7.819
N6210 X48.084 Y138.519 Z-7.744
N6215 X48.023 Y138.524 Z-7.669
N6220 X47.973 Y138.528 Z-7.586
N6225 X47.932 Y138.531 Z-7.498
N6230 X47.903 Y138.534 Z-7.406
N6235 X47.885 Y138.535 Z-7.311
N6240 X47.879 Y138.536 Z-7.215
N6245 G0 Z5.
N6250 X29.782 Y165.502
N6255 Z-8.73
N6260 G1 Z-10. F3500.
N6265 Z-12.
N6270 G2 X31.75 Y158.801 I-12.098 J-7.193
N6275 G1 Y158.651
N6280 X31.492 Y157.385
N6285 X31.285 Y156.109
N6290 X31.12 Y154.828
N6295 X30.988 Y153.542
N6300 X30.884 Y152.255
N6305 X30.8 Y150.965
N6310 X30.734 Y149.675
N6315 X30.682 Y148.384
N6320 X30.64 Y147.092
N6325 X30.607 Y145.801
N6330 X30.581 Y144.509
N6335 X30.56 Y143.217
N6340 X30.543 Y141.925
N6345 X30.53 Y140.633
N6350 X30.52 Y139.341
N6355 X30.511 Y138.049
N6360 X30.505 Y136.757
N6365 X30.5 Y135.465
N6370 X30.492 Y132.881
N6375 X30.486 Y129.005
N6380 X30.482 Y123.837
N6385 X30.48 Y113.5
N6390 Y108.332
N6395 Y57.942
N6400 Y18.534
N6405 X30.611 Y17.902
N6410 X31.126 Y16.716
N6415 X31.943 Y15.716
N6420 X32.934 Y14.887
N6425 X34.034 Y14.208
N6430 X35.202 Y13.657
N6435 X36.415 Y13.21
N6440 X37.656 Y12.851
N6445 X38.915 Y12.563
N6450 X40.186 Y12.332
N6455 X41.465 Y12.147
N6460 X42.749 Y12.
N6465 X44.035 Y11.883
N6470 X45.324 Y11.789
N6475 X46.614 Y11.715
N6480 X47.905 Y11.656
N6485 X49.196 Y11.609
N6490 X50.487 Y11.572
N6495 X51.779 Y11.543
N6500 X53.071 Y11.519
N6505 X54.363 Y11.501
N6510 X55.655 Y11.486
N6515 X56.947 Y11.475
N6520 X58.239 Y11.465
N6525 X59.531 Y11.458
N6530 X60.823 Y11.452
N6535 X63.407 Y11.444
N6540 X65.991 Y11.439
N6545 X69.867 Y11.434
N6550 X76.328 Y11.431
N6555 X89.248 Y11.43
N6560 X139.638
N6565 X190.028
N6570 X240.419
N6575 X290.809
N6580 X317.942
N6585 X318.578 Y11.542
N6590 X319.773 Y12.033
N6595 X320.784 Y12.838
N6600 X321.622 Y13.821
N6605 X322.308 Y14.916
N6610 X322.866 Y16.082
N6615 X323.317 Y17.292
N6620 X323.681 Y18.532
N6625 X323.973 Y19.791
N6630 X324.207 Y21.061
N6635 X324.394 Y22.34
N6640 X324.543 Y23.623
N6645 X324.662 Y24.91
N6650 X324.756 Y26.198
N6655 X324.831 Y27.488
N6660 X324.891 Y28.779
N6665 X324.938 Y30.07
N6670 X324.976 Y31.362
N6675 X325.006 Y32.653
N6680 X325.029 Y33.945
N6685 X325.048 Y35.237
N6690 X325.063 Y36.529
N6695 X325.075 Y37.821
N6700 X325.084 Y39.113
N6705 X325.092 Y40.405
N6710 X325.098 Y41.697
N6715 X325.106 Y44.281
N6720 X325.111 Y46.865
N6725 X325.116 Y50.742
N6730 X325.119 Y57.202
N6735 X325.12 Y75.291
N6740 Y83.043
N6745 Y133.433
N6750 Y146.354
N6755 X325.085 Y146.675
N6760 X325.015 Y146.99
N6765 X324.6 Y148.214
N6770 X323.818 Y149.242
N6775 X322.848 Y150.096
N6780 X321.762 Y150.796
N6785 X320.603 Y151.366
N6790 X319.396 Y151.827
N6795 X318.158 Y152.199
N6800 X316.901 Y152.497
N6805 X315.631 Y152.736
N6810 X314.354 Y152.927
N6815 X313.071 Y153.08
N6820 X311.784 Y153.201
N6825 X310.496 Y153.298
N6830 X309.206 Y153.375
N6835 X307.915 Y153.436
N6840 X306.624 Y153.484
N6845 X305.333 Y153.523
N6850 X304.041 Y153.553
N6855 X302.749 Y153.577
N6860 X301.457 Y153.597
N6865 X300.165 Y153.612
N6870 X298.873 Y153.624
N6875 X297.581 Y153.633
N6880 X296.289 Y153.641
N6885 X294.997 Y153.647
N6890 X292.413 Y153.656
N6895 X289.829 Y153.661
N6900 X285.953 Y153.665
N6905 X279.493 Y153.669
N6910 X261.404 Y153.67
N6915 X239.439
N6920 X189.049
N6925 X138.659
N6930 X88.269
N6935 X43.047
N6940 X41.778 Y153.424
N6945 X40.666 Y152.766
N6950 X39.726 Y151.88
N6955 X38.943 Y150.852
N6960 X38.298 Y149.732
N6965 X37.77 Y148.553
N6970 X37.341 Y147.335
N6975 X36.992 Y146.091
N6980 X36.71 Y144.83
N6985 X36.482 Y143.558
N6990 X36.299 Y142.279
N6995 X36.152 Y140.995
N7000 X36.034 Y139.709
N7005 X35.939 Y138.42
N7010 X35.863 Y137.13
N7015 X35.802 Y135.84
N7020 X35.753 Y134.548
N7025 X35.715 Y133.257
N7030 X35.683 Y131.965
N7035 X35.659 Y130.673
N7040 X35.639 Y129.382
N7045 X35.623 Y128.09
N7050 X35.61 Y126.798
N7055 X35.6 Y125.506
N7060 X35.592 Y124.214
N7065 X35.585 Y122.921
N7070 X35.58 Y121.629
N7075 X35.573 Y119.045
N7080 X35.567 Y115.169
N7085 X35.563 Y110.001
N7090 X35.561 Y100.957
N7095 X35.56 Y50.566
N7100 Y26.017
N7105 X35.597 Y24.726
N7110 X35.983 Y23.493
N7115 X36.639 Y22.38
N7120 X37.489 Y21.407
N7125 X38.475 Y20.572
N7130 X39.557 Y19.864
N7135 X40.704 Y19.27
N7140 X41.897 Y18.775
N7145 X43.122 Y18.364
N7150 X44.369 Y18.024
N7155 X45.63 Y17.745
N7160 X46.902 Y17.516
N7165 X48.18 Y17.328
N7170 X49.463 Y17.174
N7175 X50.749 Y17.049
N7180 X52.037 Y16.947
N7185 X53.326 Y16.864
N7190 X54.617 Y16.797
N7195 X55.908 Y16.742
N7200 X57.199 Y16.698
N7205 X58.49 Y16.662
N7210 X59.782 Y16.632
N7215 X61.074 Y16.609
N7220 X62.366 Y16.59
N7225 X63.658 Y16.574
N7230 X64.95 Y16.562
N7235 X66.242 Y16.552
N7240 X67.534 Y16.544
N7245 X68.826 Y16.537
N7250 X70.118 Y16.532
N7255 X72.702 Y16.524
N7260 X75.286 Y16.519
N7265 X79.162 Y16.515
N7270 X85.623 Y16.512
N7275 X102.419 Y16.51
N7280 X107.588
N7285 X157.978
N7290 X208.368
N7295 X258.758
N7300 X309.148
N7305 X310.44
N7310 X311.732 Y16.523
N7315 X312.972 Y16.887
N7320 X314.095 Y17.526
N7325 X315.078 Y18.364
N7330 X315.922 Y19.342
N7335 X316.638 Y20.418
N7340 X317.24 Y21.561
N7345 X317.742 Y22.752
N7350 X318.159 Y23.975
N7355 X318.503 Y25.22
N7360 X318.787 Y26.481
N7365 X319.019 Y27.752
N7370 X319.21 Y29.03
N7375 X319.366 Y30.312
N7380 X319.493 Y31.598
N7385 X319.596 Y32.886
N7390 X319.681 Y34.175
N7395 X319.749 Y35.465
N7400 X319.805 Y36.756
N7405 X319.85 Y38.048
N7410 X319.886 Y39.339
N7415 X319.916 Y40.631
N7420 X319.94 Y41.923
N7425 X319.959 Y43.214
N7430 X319.975 Y44.506
N7435 X319.987 Y45.798
N7440 X319.997 Y47.09
N7445 X320.006 Y48.382
N7450 X320.012 Y49.675
N7455 X320.018 Y50.967
N7460 X320.026 Y53.551
N7465 X320.031 Y56.135
N7470 X320.035 Y60.011
N7475 X320.036 Y61.303
N7480 X320.039 Y69.055
N7485 X320.04 Y97.481
N7490 Y111.693
N7495 Y140.118
N7500 X319.721 Y141.37
N7505 X319.113 Y142.51
N7510 X318.297 Y143.512
N7515 X317.334 Y144.374
N7520 X316.269 Y145.105
N7525 X315.133 Y145.721
N7530 X313.948 Y146.235
N7535 X312.728 Y146.661
N7540 X311.485 Y147.014
N7545 X310.226 Y147.305
N7550 X308.956 Y147.543
N7555 X307.679 Y147.739
N7560 X306.397 Y147.898
N7565 X305.111 Y148.029
N7570 X303.824 Y148.135
N7575 X302.535 Y148.221
N7580 X301.244 Y148.291
N7585 X299.954 Y148.348
N7590 X298.662 Y148.395
N7595 X297.371 Y148.432
N7600 X296.079 Y148.462
N7605 X294.787 Y148.487
N7610 X293.495 Y148.507
N7615 X292.204 Y148.523
N7620 X290.912 Y148.536
N7625 X289.62 Y148.546
N7630 X288.327 Y148.555
N7635 X287.035 Y148.562
N7640 X285.743 Y148.567
N7645 X283.159 Y148.575
N7650 X280.575 Y148.58
N7655 X276.699 Y148.585
N7660 X270.239 Y148.588
N7665 X254.734 Y148.59
N7670 X250.858
N7675 X200.468
N7680 X150.078
N7685 X99.688
N7690 X49.297
N7695 X48.043 Y148.282
N7700 X46.895 Y147.689
N7705 X45.881 Y146.887
N7710 X45.005 Y145.938
N7715 X44.259 Y144.883
N7720 X43.629 Y143.755
N7725 X43.102 Y142.575
N7730 X42.663 Y141.36
N7735 X42.298 Y140.12
N7740 X41.997 Y138.864
N7745 X41.749 Y137.596
N7750 X41.545 Y136.32
N7755 X41.378 Y135.039
N7760 X41.241 Y133.754
N7765 X41.129 Y132.467
N7770 X41.037 Y131.178
N7775 X40.963 Y129.888
N7780 X40.902 Y128.598
N7785 X40.853 Y127.306
N7790 X40.812 Y126.015
N7795 X40.78 Y124.723
N7800 X40.753 Y123.432
N7805 X40.732 Y122.14
N7810 X40.714 Y120.848
N7815 X40.7 Y119.556
N7820 X40.689 Y118.264
N7825 X40.679 Y116.972
N7830 X40.672 Y115.68
N7835 X40.666 Y114.388
N7840 X40.657 Y111.804
N7845 X40.651 Y109.22
N7850 X40.646 Y105.343
N7855 X40.643 Y101.467
N7860 X40.641 Y92.423
N7865 X40.64 Y51.077
N7870 Y31.696
N7875 X40.742 Y30.408
N7880 X41.129 Y29.176
N7885 X41.759 Y28.047
N7890 X42.573 Y27.044
N7895 X43.525 Y26.17
N7900 X44.576 Y25.419
N7905 X45.699 Y24.779
N7910 X46.872 Y24.239
N7915 X48.082 Y23.784
N7920 X49.316 Y23.404
N7925 X50.569 Y23.087
N7930 X51.834 Y22.823
N7935 X53.107 Y22.605
N7940 X54.387 Y22.424
N7945 X55.67 Y22.275
N7950 X56.956 Y22.152
N7955 X58.244 Y22.05
N7960 X59.534 Y21.967
N7965 X60.824 Y21.898
N7970 X62.115 Y21.842
N7975 X63.406 Y21.796
N7980 X64.697 Y21.758
N7985 X65.989 Y21.727
N7990 X67.281 Y21.702
N7995 X68.573 Y21.681
N8000 X69.865 Y21.665
N8005 X71.157 Y21.651
N8010 X72.449 Y21.64
N8015 X73.741 Y21.63
N8020 X75.033 Y21.623
N8025 X76.325 Y21.617
N8030 X78.909 Y21.608
N8035 X81.493 Y21.602
N8040 X85.369 Y21.596
N8045 X90.537 Y21.593
N8050 X100.874 Y21.591
N8055 X117.67 Y21.59
N8060 X168.061
N8065 X218.451
N8070 X268.841
N8075 X305.018
N8080 X306.303 Y21.727
N8085 X307.525 Y22.146
N8090 X308.639 Y22.802
N8095 X309.625 Y23.636
N8100 X310.483 Y24.603
N8105 X311.219 Y25.664
N8110 X311.845 Y26.794
N8115 X312.374 Y27.973
N8120 X312.819 Y29.186
N8125 X313.191 Y30.424
N8130 X313.5 Y31.678
N8135 X313.758 Y32.944
N8140 X313.971 Y34.219
N8145 X314.147 Y35.499
N8150 X314.293 Y36.783
N8155 X314.413 Y38.069
N8160 X314.512 Y39.357
N8165 X314.593 Y40.647
N8170 X314.66 Y41.937
N8175 X314.715 Y43.228
N8180 X314.759 Y44.519
N8185 X314.796 Y45.811
N8190 X314.826 Y47.103
N8195 X314.851 Y48.394
N8200 X314.871 Y49.686
N8205 X314.887 Y50.978
N8210 X314.901 Y52.27
N8215 X314.912 Y53.562
N8220 X314.921 Y54.854
N8225 X314.928 Y56.146
N8230 X314.934 Y57.438
N8235 X314.943 Y60.022
N8240 X314.949 Y62.606
N8245 X314.954 Y66.483
N8250 X314.958 Y72.943
N8255 X314.96 Y81.987
N8260 Y132.377
N8265 Y133.669
N8270 X314.802 Y134.952
N8275 X314.361 Y136.166
N8280 X313.69 Y137.27
N8285 X312.843 Y138.247
N8290 X311.868 Y139.094
N8295 X310.801 Y139.822
N8300 X309.666 Y140.44
N8305 X308.484 Y140.962
N8310 X307.269 Y141.401
N8315 X306.03 Y141.767
N8320 X304.775 Y142.073
N8325 X303.508 Y142.326
N8330 X302.233 Y142.537
N8335 X300.952 Y142.71
N8340 X299.668 Y142.854
N8345 X298.382 Y142.972
N8350 X297.093 Y143.069
N8355 X295.804 Y143.149
N8360 X294.513 Y143.215
N8365 X293.222 Y143.269
N8370 X291.931 Y143.313
N8375 X290.64 Y143.349
N8380 X289.348 Y143.379
N8385 X288.056 Y143.403
N8390 X286.764 Y143.423
N8395 X285.472 Y143.439
N8400 X284.18 Y143.452
N8405 X282.888 Y143.463
N8410 X281.596 Y143.471
N8415 X280.304 Y143.479
N8420 X279.012 Y143.484
N8425 X276.428 Y143.493
N8430 X273.844 Y143.499
N8435 X269.968 Y143.504
N8440 X263.507 Y143.508
N8445 X250.587 Y143.51
N8450 X219.578
N8455 X169.188
N8460 X118.797
N8465 X68.407
N8470 X55.487
N8475 X54.21 Y143.312
N8480 X53.006 Y142.843
N8485 X51.914 Y142.152
N8490 X50.95 Y141.292
N8495 X50.112 Y140.309
N8500 X49.549 Y139.469
N8505 X49.293 Y139.148
N8510 X48.989 Y138.872
N8515 X48.644 Y138.649
N8520 X48.499 Y138.555
N8525 X47.882 Y138.133
N8530 X47.501 Y137.788
N8535 X47.1 Y137.412
N8540 X46.739 Y137.05
N8545 X46.358 Y136.645
N8550 X46.021 Y136.269
N8555 X45.596 Y135.653
N8560 X45.503 Y135.507
N8565 X45.215 Y134.974
N8570 X45.096 Y134.745
N8575 X44.834 Y134.204
N8580 X44.728 Y133.983
N8585 X44.57 Y133.602
N8590 X44.439 Y133.221
N8595 X44.316 Y132.84
N8600 X44.24 Y132.459
N8605 X44.166 Y132.078
N8610 X44.046 Y131.316
N8615 X44.005 Y130.935
N8620 X43.973 Y130.554
N8625 X43.952 Y130.173
N8630 X43.95 Y129.411
N8635 Y35.689
N8640 X43.952 Y34.927
N8645 X43.973 Y34.546
N8650 X44.005 Y34.165
N8655 X44.046 Y33.784
N8660 X44.166 Y33.022
N8665 X44.24 Y32.641
N8670 X44.316 Y32.26
N8675 X44.439 Y31.879
N8680 X44.57 Y31.498
N8685 X44.728 Y31.117
N8690 X44.911 Y30.736
N8695 X45.096 Y30.355
N8700 X45.215 Y30.126
N8705 X45.503 Y29.593
N8710 X45.596 Y29.447
N8715 X46.02 Y28.831
N8720 X46.362 Y28.45
N8725 X46.739 Y28.05
N8730 X47.1 Y27.688
N8735 X47.507 Y27.307
N8740 X47.882 Y26.967
N8745 X48.5 Y26.545
N8750 X48.644 Y26.451
N8755 X49.179 Y26.164
N8760 X49.406 Y26.046
N8765 X49.787 Y25.861
N8770 X50.168 Y25.678
N8775 X50.549 Y25.519
N8780 X50.93 Y25.39
N8785 X51.311 Y25.267
N8790 X51.692 Y25.188
N8795 X52.073 Y25.116
N8800 X52.835 Y24.996
N8805 X53.216 Y24.954
N8810 X53.597 Y24.923
N8815 X53.978 Y24.901
N8820 X55.121 Y24.9
N8825 X300.86
N8830 X301.622 Y24.901
N8835 X302.003 Y24.923
N8840 X302.384 Y24.954
N8845 X302.765 Y24.996
N8850 X303.527 Y25.116
N8855 X303.908 Y25.188
N8860 X304.289 Y25.267
N8865 X304.67 Y25.39
N8870 X305.051 Y25.519
N8875 X305.432 Y25.678
N8880 X305.813 Y25.861
N8885 X306.194 Y26.046
N8890 X306.42 Y26.164
N8895 X306.956 Y26.451
N8900 X307.1 Y26.545
N8905 X307.718 Y26.967
N8910 X308.099 Y27.313
N8915 X308.5 Y27.688
N8920 X308.861 Y28.049
N8925 X309.242 Y28.454
N8930 X309.58 Y28.831
N8935 X310.004 Y29.446
N8940 X310.098 Y29.593
N8945 X310.385 Y30.125
N8950 X310.504 Y30.355
N8955 X310.766 Y30.895
N8960 X310.873 Y31.117
N8965 X311.031 Y31.498
N8970 X311.161 Y31.879
N8975 X311.284 Y32.26
N8980 X311.36 Y32.641
N8985 X311.434 Y33.022
N8990 X311.554 Y33.784
N8995 X311.595 Y34.165
N9000 X311.627 Y34.546
N9005 X311.648 Y34.927
N9010 X311.65 Y35.689
N9015 Y129.411
N9020 X311.648 Y130.173
N9025 X311.627 Y130.554
N9030 X311.595 Y130.935
N9035 X311.554 Y131.316
N9040 X311.434 Y132.078
N9045 X311.36 Y132.459
N9050 X311.284 Y132.84
N9055 X311.161 Y133.221
N9060 X311.031 Y133.602
N9065 X310.873 Y133.983
N9070 X310.689 Y134.364
N9075 X310.504 Y134.745
N9080 X310.385 Y134.974
N9085 X310.098 Y135.507
N9090 X310.004 Y135.654
N9095 X309.58 Y136.269
N9100 X309.238 Y136.65
N9105 X308.861 Y137.051
N9110 X308.5 Y137.412
N9115 X308.093 Y137.793
N9120 X307.718 Y138.133
N9125 X307.101 Y138.555
N9130 X306.956 Y138.649
N9135 X306.421 Y138.936
N9140 X306.194 Y139.055
N9145 X305.813 Y139.24
N9150 X305.432 Y139.422
N9155 X305.051 Y139.582
N9160 X304.67 Y139.711
N9165 X304.289 Y139.834
N9170 X303.908 Y139.912
N9175 X303.527 Y139.984
N9180 X302.765 Y140.104
N9185 X302.384 Y140.146
N9190 X302.003 Y140.177
N9195 X301.622 Y140.199
N9200 X300.479 Y140.2
N9205 X54.74
N9210 X53.978 Y140.199
N9215 X53.597 Y140.177
N9220 X53.216 Y140.146
N9225 X52.835 Y140.104
N9230 X52.073 Y139.984
N9235 X51.692 Y139.912
N9240 X51.311 Y139.834
N9245 X50.93 Y139.711
N9250 X50.549 Y139.582
N9255 X50.168 Y139.422
N9260 X49.787 Y139.24
N9265 X49.406 Y139.055
N9270 X49.179 Y138.936
N9275 X48.644 Y138.649
N9280 X48.541 Y138.614 Z-11.992
N9285 X48.441 Y138.579 Z-11.97
N9290 X48.344 Y138.546 Z-11.933
N9295 X48.249 Y138.536 Z-11.882
N9300 X48.162 Y138.527 Z-11.819
N9305 X48.084 Y138.519 Z-11.744
N9310 X48.023 Y138.524 Z-11.669
N9315 X47.973 Y138.528 Z-11.586
N9320 X47.932 Y138.531 Z-11.498
N9325 X47.903 Y138.534 Z-11.406
N9330 X47.885 Y138.535 Z-11.311
N9335 X47.879 Y138.536 Z-11.215
N9340 G0 Z5.
N9345 X29.782 Y165.502
N9350 Z-8.93
N9355 G1 Z-10.2 F3500.
N9360 Z-12.2
N9365 G2 X31.75 Y158.801 I-12.098 J-7.193
N9370 G1 Y158.651
N9375 X31.492 Y157.385
N9380 X31.285 Y156.109
N9385 X31.12 Y154.828
N9390 X30.988 Y153.542
N9395 X30.884 Y152.255
N9400 X30.8 Y150.965
N9405 X30.734 Y149.675
N9410 X30.682 Y148.384
N9415 X30.64 Y147.092
N9420 X30.607 Y145.801
N9425 X30.581 Y144.509
N9430 X30.56 Y143.217
N9435 X30.543 Y141.925
N9440 X30.53 Y140.633
N9445 X30.52 Y139.341
N9450 X30.511 Y138.049
N9455 X30.505 Y136.757
N9460 X30.5 Y135.465
N9465 X30.492 Y132.881
N9470 X30.486 Y129.005
N9475 X30.482 Y123.837
N9480 X30.48 Y113.5
N9485 Y108.332
N9490 Y57.942
N9495 Y18.534
N9500 X30.611 Y17.902
N9505 X31.126 Y16.716
N9510 X31.943 Y15.716
N9515 X32.934 Y14.887
N9520 X34.034 Y14.208
N9525 X35.202 Y13.657
N9530 X36.415 Y13.21
N9535 X37.656 Y12.851
N9540 X38.915 Y12.563
N9545 X40.186 Y12.332
N9550 X41.465 Y12.147
N9555 X42.749 Y12.
N9560 X44.035 Y11.883
N9565 X45.324 Y11.789
N9570 X46.614 Y11.715
N9575 X47.905 Y11.656
N9580 X49.196 Y11.609
N9585 X50.487 Y11.572
N9590 X51.779 Y11.543
N9595 X53.071 Y11.519
N9600 X54.363 Y11.501
N9605 X55.655 Y11.486
N9610 X56.947 Y11.475
N9615 X58.239 Y11.465
N9620 X59.531 Y11.458
N9625 X60.823 Y11.452
N9630 X63.407 Y11.444
N9635 X65.991 Y11.439
N9640 X69.867 Y11.434
N9645 X76.328 Y11.431
N9650 X89.248 Y11.43
N9655 X139.638
N9660 X190.028
N9665 X240.419
N9670 X290.809
N9675 X317.942
N9680 X318.578 Y11.542
N9685 X319.773 Y12.033
N9690 X320.784 Y12.838
N9695 X321.622 Y13.821
N9700 X322.308 Y14.916
N9705 X322.866 Y16.082
N9710 X323.317 Y17.292
N9715 X323.681 Y18.532
N9720 X323.973 Y19.791
N9725 X324.207 Y21.061
N9730 X324.394 Y22.34
N9735 X324.543 Y23.623
N9740 X324.662 Y24.91
N9745 X324.756 Y26.198
N9750 X324.831 Y27.488
N9755 X324.891 Y28.779
N9760 X324.938 Y30.07
N9765 X324.976 Y31.362
N9770 X325.006 Y32.653
N9775 X325.029 Y33.945
N9780 X325.048 Y35.237
N9785 X325.063 Y36.529
N9790 X325.075 Y37.821
N9795 X325.084 Y39.113
N9800 X325.092 Y40.405
N9805 X325.098 Y41.697
N9810 X325.106 Y44.281
N9815 X325.111 Y46.865
N9820 X325.116 Y50.742
N9825 X325.119 Y57.202
N9830 X325.12 Y75.291
N9835 Y83.043
N9840 Y133.433
N9845 Y146.354
N9850 X325.085 Y146.675
N9855 X325.015 Y146.99
N9860 X324.6 Y148.214
N9865 X323.818 Y149.242
N9870 X322.848 Y150.096
N9875 X321.762 Y150.796
N9880 X320.603 Y151.366
N9885 X319.396 Y151.827
N9890 X318.158 Y152.199
N9895 X316.901 Y152.497
N9900 X315.631 Y152.736
N9905 X314.354 Y152.927
N9910 X313.071 Y153.08
N9915 X311.784 Y153.201
N9920 X310.496 Y153.298
N9925 X309.206 Y153.375
N9930 X307.915 Y153.436
N9935 X306.624 Y153.484
N9940 X305.333 Y153.523
N9945 X304.041 Y153.553
N9950 X302.749 Y153.577
N9955 X301.457 Y153.597
N9960 X300.165 Y153.612
N9965 X298.873 Y153.624
N9970 X297.581 Y153.633
N9975 X296.289 Y153.641
N9980 X294.997 Y153.647
N9985 X292.413 Y153.656
N9990 X289.829 Y153.661
N9995 X285.953 Y153.665
N10000 X279.493 Y153.669
N10005 X261.404 Y153.67
N10010 X239.439
N10015 X189.049
N10020 X138.659
N10025 X88.269
N10030 X43.047
N10035 X41.778 Y153.424
N10040 X40.666 Y152.766
N10045 X39.726 Y151.88
N10050 X38.943 Y150.852
N10055 X38.298 Y149.732
N10060 X37.77 Y148.553
N10065 X37.341 Y147.335
N10070 X36.992 Y146.091
N10075 X36.71 Y144.83
N10080 X36.482 Y143.558
N10085 X36.299 Y142.279
N10090 X36.152 Y140.995
N10095 X36.034 Y139.709
N10100 X35.939 Y138.42
N10105 X35.863 Y137.13
N10110 X35.802 Y135.84
N10115 X35.753 Y134.548
N10120 X35.715 Y133.257
N10125 X35.683 Y131.965
N10130 X35.659 Y130.673
N10135 X35.639 Y129.382
N10140 X35.623 Y128.09
N10145 X35.61 Y126.798
N10150 X35.6 Y125.506
N10155 X35.592 Y124.214
N10160 X35.585 Y122.921
N10165 X35.58 Y121.629
N10170 X35.573 Y119.045
N10175 X35.567 Y115.169
N10180 X35.563 Y110.001
N10185 X35.561 Y100.957
N10190 X35.56 Y50.566
N10195 Y26.017
N10200 X35.597 Y24.726
N10205 X35.983 Y23.493
N10210 X36.639 Y22.38
N10215 X37.489 Y21.407
N10220 X38.475 Y20.572
N10225 X39.557 Y19.864
N10230 X40.704 Y19.27
N10235 X41.897 Y18.775
N10240 X43.122 Y18.364
N10245 X44.369 Y18.024
N10250 X45.63 Y17.745
N10255 X46.902 Y17.516
N10260 X48.18 Y17.328
N10265 X49.463 Y17.174
N10270 X50.749 Y17.049
N10275 X52.037 Y16.947
N10280 X53.326 Y16.864
N10285 X54.617 Y16.797
N10290 X55.908 Y16.742
N10295 X57.199 Y16.698
N10300 X58.49 Y16.662
N10305 X59.782 Y16.632
N10310 X61.074 Y16.609
N10315 X62.366 Y16.59
N10320 X63.658 Y16.574
N10325 X64.95 Y16.562
N10330 X66.242 Y16.552
N10335 X67.534 Y16.544
N10340 X68.826 Y16.537
N10345 X70.118 Y16.532
N10350 X72.702 Y16.524
N10355 X75.286 Y16.519
N10360 X79.162 Y16.515
N10365 X85.623 Y16.512
N10370 X102.419 Y16.51
N10375 X107.588
N10380 X157.978
N10385 X208.368
N10390 X258.758
N10395 X309.148
N10400 X310.44
N10405 X311.732 Y16.523
N10410 X312.972 Y16.887
N10415 X314.095 Y17.526
N10420 X315.078 Y18.364
N10425 X315.922 Y19.342
N10430 X316.638 Y20.418
N10435 X317.24 Y21.561
N10440 X317.742 Y22.752
N10445 X318.159 Y23.975
N10450 X318.503 Y25.22
N10455 X318.787 Y26.481
N10460 X319.019 Y27.752
N10465 X319.21 Y29.03
N10470 X319.366 Y30.312
N10475 X319.493 Y31.598
N10480 X319.596 Y32.886
N10485 X319.681 Y34.175
N10490 X319.749 Y35.465
N10495 X319.805 Y36.756
N10500 X319.85 Y38.048
N10505 X319.886 Y39.339
N10510 X319.916 Y40.631
N10515 X319.94 Y41.923
N10520 X319.959 Y43.214
N10525 X319.975 Y44.506
N10530 X319.987 Y45.798
N10535 X319.997 Y47.09
N10540 X320.006 Y48.382
N10545 X320.012 Y49.675
N10550 X320.018 Y50.967
N10555 X320.026 Y53.551
N10560 X320.031 Y56.135
N10565 X320.035 Y60.011
N10570 X320.036 Y61.303
N10575 X320.039 Y69.055
N10580 X320.04 Y97.481
N10585 Y111.693
N10590 Y140.118
N10595 X319.721 Y141.37
N10600 X319.113 Y142.51
N10605 X318.297 Y143.512
N10610 X317.334 Y144.374
N10615 X316.269 Y145.105
N10620 X315.133 Y145.721
N10625 X313.948 Y146.235
N10630 X312.728 Y146.661
N10635 X311.485 Y147.014
N10640 X310.226 Y147.305
N10645 X308.956 Y147.543
N10650 X307.679 Y147.739
N10655 X306.397 Y147.898
N10660 X305.111 Y148.029
N10665 X303.824 Y148.135
N10670 X302.535 Y148.221
N10675 X301.244 Y148.291
N10680 X299.954 Y148.348
N10685 X298.662 Y148.395
N10690 X297.371 Y148.432
N10695 X296.079 Y148.462
N10700 X294.787 Y148.487
N10705 X293.495 Y148.507
N10710 X292.204 Y148.523
N10715 X290.912 Y148.536
N10720 X289.62 Y148.546
N10725 X288.327 Y148.555
N10730 X287.035 Y148.562
N10735 X285.743 Y148.567
N10740 X283.159 Y148.575
N10745 X280.575 Y148.58
N10750 X276.699 Y148.585
N10755 X270.239 Y148.588
N10760 X254.734 Y148.59
N10765 X250.858
N10770 X200.468
N10775 X150.078
N10780 X99.688
N10785 X49.297
N10790 X48.043 Y148.282
N10795 X46.895 Y147.689
N10800 X45.881 Y146.887
N10805 X45.005 Y145.938
N10810 X44.259 Y144.883
N10815 X43.629 Y143.755
N10820 X43.102 Y142.575
N10825 X42.663 Y141.36
N10830 X42.298 Y140.12
N10835 X41.997 Y138.864
N10840 X41.749 Y137.596
N10845 X41.545 Y136.32
N10850 X41.378 Y135.039
N10855 X41.241 Y133.754
N10860 X41.129 Y132.467
N10865 X41.037 Y131.178
N10870 X40.963 Y129.888
N10875 X40.902 Y128.598
N10880 X40.853 Y127.306
N10885 X40.812 Y126.015
N10890 X40.78 Y124.723
N10895 X40.753 Y123.432
N10900 X40.732 Y122.14
N10905 X40.714 Y120.848
N10910 X40.7 Y119.556
N10915 X40.689 Y118.264
N10920 X40.679 Y116.972
N10925 X40.672 Y115.68
N10930 X40.666 Y114.388
N10935 X40.657 Y111.804
N10940 X40.651 Y109.22
N10945 X40.646 Y105.343
N10950 X40.643 Y101.467
N10955 X40.641 Y92.423
N10960 X40.64 Y51.077
N10965 Y31.696
N10970 X40.742 Y30.408
N10975 X41.129 Y29.176
N10980 X41.759 Y28.047
N10985 X42.573 Y27.044
N10990 X43.525 Y26.17
N10995 X44.576 Y25.419
N11000 X45.699 Y24.779
N11005 X46.872 Y24.239
N11010 X48.082 Y23.784
N11015 X49.316 Y23.404
N11020 X50.569 Y23.087
N11025 X51.834 Y22.823
N11030 X53.107 Y22.605
N11035 X54.387 Y22.424
N11040 X55.67 Y22.275
N11045 X56.956 Y22.152
N11050 X58.244 Y22.05
N11055 X59.534 Y21.967
N11060 X60.824 Y21.898
N11065 X62.115 Y21.842
N11070 X63.406 Y21.796
N11075 X64.697 Y21.758
N11080 X65.989 Y21.727
N11085 X67.281 Y21.702
N11090 X68.573 Y21.681
N11095 X69.865 Y21.665
N11100 X71.157 Y21.651
N11105 X72.449 Y21.64
N11110 X73.741 Y21.63
N11115 X75.033 Y21.623
N11120 X76.325 Y21.617
N11125 X78.909 Y21.608
N11130 X81.493 Y21.602
N11135 X85.369 Y21.596
N11140 X90.537 Y21.593
N11145 X100.874 Y21.591
N11150 X117.67 Y21.59
N11155 X168.061
N11160 X218.451
N11165 X268.841
N11170 X305.018
N11175 X306.303 Y21.727
N11180 X307.525 Y22.146
N11185 X308.639 Y22.802
N11190 X309.625 Y23.636
N11195 X310.483 Y24.603
N11200 X311.219 Y25.664
N11205 X311.845 Y26.794
N11210 X312.374 Y27.973
N11215 X312.819 Y29.186
N11220 X313.191 Y30.424
N11225 X313.5 Y31.678
N11230 X313.758 Y32.944
N11235 X313.971 Y34.219
N11240 X314.147 Y35.499
N11245 X314.293 Y36.783
N11250 X314.413 Y38.069
N11255 X314.512 Y39.357
N11260 X314.593 Y40.647
N11265 X314.66 Y41.937
N11270 X314.715 Y43.228
N11275 X314.759 Y44.519
N11280 X314.796 Y45.811
N11285 X314.826 Y47.103
N11290 X314.851 Y48.394
N11295 X314.871 Y49.686
N11300 X314.887 Y50.978
N11305 X314.901 Y52.27
N11310 X314.912 Y53.562
N11315 X314.921 Y54.854
N11320 X314.928 Y56.146
N11325 X314.934 Y57.438
N11330 X314.943 Y60.022
N11335 X314.949 Y62.606
N11340 X314.954 Y66.483
N11345 X314.958 Y72.943
N11350 X314.96 Y81.987
N11355 Y132.377
N11360 Y133.669
N11365 X314.802 Y134.952
N11370 X314.361 Y136.166
N11375 X313.69 Y137.27
N11380 X312.843 Y138.247
N11385 X311.868 Y139.094
N11390 X310.801 Y139.822
N11395 X309.666 Y140.44
N11400 X308.484 Y140.962
N11405 X307.269 Y141.401
N11410 X306.03 Y141.767
N11415 X304.775 Y142.073
N11420 X303.508 Y142.326
N11425 X302.233 Y142.537
N11430 X300.952 Y142.71
N11435 X299.668 Y142.854
N11440 X298.382 Y142.972
N11445 X297.093 Y143.069
N11450 X295.804 Y143.149
N11455 X294.513 Y143.215
N11460 X293.222 Y143.269
N11465 X291.931 Y143.313
N11470 X290.64 Y143.349
N11475 X289.348 Y143.379
N11480 X288.056 Y143.403
N11485 X286.764 Y143.423
N11490 X285.472 Y143.439
N11495 X284.18 Y143.452
N11500 X282.888 Y143.463
N11505 X281.596 Y143.471
N11510 X280.304 Y143.479
N11515 X279.012 Y143.484
N11520 X276.428 Y143.493
N11525 X273.844 Y143.499
N11530 X269.968 Y143.504
N11535 X263.507 Y143.508
N11540 X250.587 Y143.51
N11545 X219.578
N11550 X169.188
N11555 X118.797
N11560 X68.407
N11565 X55.487
N11570 X54.21 Y143.312
N11575 X53.006 Y142.843
N11580 X51.914 Y142.152
N11585 X50.95 Y141.292
N11590 X50.112 Y140.309
N11595 X49.549 Y139.469
N11600 X49.293 Y139.148
N11605 X48.989 Y138.872
N11610 X48.644 Y138.649
N11615 X48.499 Y138.555
N11620 X47.882 Y138.133
N11625 X47.501 Y137.788
N11630 X47.1 Y137.412
N11635 X46.739 Y137.05
N11640 X46.358 Y136.645
N11645 X46.021 Y136.269
N11650 X45.596 Y135.653
N11655 X45.503 Y135.507
N11660 X45.215 Y134.974
N11665 X45.096 Y134.745
N11670 X44.834 Y134.204
N11675 X44.728 Y133.983
N11680 X44.57 Y133.602
N11685 X44.439 Y133.221
N11690 X44.316 Y132.84
N11695 X44.24 Y132.459
N11700 X44.166 Y132.078
N11705 X44.046 Y131.316
N11710 X44.005 Y130.935
N11715 X43.973 Y130.554
N11720 X43.952 Y130.173
N11725 X43.95 Y129.411
N11730 Y35.689
N11735 X43.952 Y34.927
N11740 X43.973 Y34.546
N11745 X44.005 Y34.165
N11750 X44.046 Y33.784
N11755 X44.166 Y33.022
N11760 X44.24 Y32.641
N11765 X44.316 Y32.26
N11770 X44.439 Y31.879
N11775 X44.57 Y31.498
N11780 X44.728 Y31.117
N11785 X44.911 Y30.736
N11790 X45.096 Y30.355
N11795 X45.215 Y30.126
N11800 X45.503 Y29.593
N11805 X45.596 Y29.447
N11810 X46.02 Y28.831
N11815 X46.362 Y28.45
N11820 X46.739 Y28.05
N11825 X47.1 Y27.688
N11830 X47.507 Y27.307
N11835 X47.882 Y26.967
N11840 X48.5 Y26.545
N11845 X48.644 Y26.451
N11850 X49.179 Y26.164
N11855 X49.406 Y26.046
N11860 X49.787 Y25.861
N11865 X50.168 Y25.678
N11870 X50.549 Y25.519
N11875 X50.93 Y25.39
N11880 X51.311 Y25.267
N11885 X51.692 Y25.188
N11890 X52.073 Y25.116
N11895 X52.835 Y24.996
N11900 X53.216 Y24.954
N11905 X53.597 Y24.923
N11910 X53.978 Y24.901
N11915 X55.121 Y24.9
N11920 X300.86
N11925 X301.622 Y24.901
N11930 X302.003 Y24.923
N11935 X302.384 Y24.954
N11940 X302.765 Y24.996
N11945 X303.527 Y25.116
N11950 X303.908 Y25.188
N11955 X304.289 Y25.267
N11960 X304.67 Y25.39
N11965 X305.051 Y25.519
N11970 X305.432 Y25.678
N11975 X305.813 Y25.861
N11980 X306.194 Y26.046
N11985 X306.42 Y26.164
N11990 X306.956 Y26.451
N11995 X307.1 Y26.545
N12000 X307.718 Y26.967
N12005 X308.099 Y27.313
N12010 X308.5 Y27.688
N12015 X308.861 Y28.049
N12020 X309.242 Y28.454
N12025 X309.58 Y28.831
N12030 X310.004 Y29.446
N12035 X310.098 Y29.593
N12040 X310.385 Y30.125
N12045 X310.504 Y30.355
N12050 X310.766 Y30.895
N12055 X310.873 Y31.117
N12060 X311.031 Y31.498
N12065 X311.161 Y31.879
N12070 X311.284 Y32.26
N12075 X311.36 Y32.641
N12080 X311.434 Y33.022
N12085 X311.554 Y33.784
N12090 X311.595 Y34.165
N12095 X311.627 Y34.546
N12100 X311.648 Y34.927
N12105 X311.65 Y35.689
N12110 Y129.411
N12115 X311.648 Y130.173
N12120 X311.627 Y130.554
N12125 X311.595 Y130.935
N12130 X311.554 Y131.316
N12135 X311.434 Y132.078
N12140 X311.36 Y132.459
N12145 X311.284 Y132.84
N12150 X311.161 Y133.221
N12155 X311.031 Y133.602
N12160 X310.873 Y133.983
N12165 X310.689 Y134.364
N12170 X310.504 Y134.745
N12175 X310.385 Y134.974
N12180 X310.098 Y135.507
N12185 X310.004 Y135.654
N12190 X309.58 Y136.269
N12195 X309.238 Y136.65
N12200 X308.861 Y137.051
N12205 X308.5 Y137.412
N12210 X308.093 Y137.793
N12215 X307.718 Y138.133
N12220 X307.101 Y138.555
N12225 X306.956 Y138.649
N12230 X306.421 Y138.936
N12235 X306.194 Y139.055
N12240 X305.813 Y139.24
N12245 X305.432 Y139.422
N12250 X305.051 Y139.582
N12255 X304.67 Y139.711
N12260 X304.289 Y139.834
N12265 X303.908 Y139.912
N12270 X303.527 Y139.984
N12275 X302.765 Y140.104
N12280 X302.384 Y140.146
N12285 X302.003 Y140.177
N12290 X301.622 Y140.199
N12295 X300.479 Y140.2
N12300 X54.74
N12305 X53.978 Y140.199
N12310 X53.597 Y140.177
N12315 X53.216 Y140.146
N12320 X52.835 Y140.104
N12325 X52.073 Y139.984
N12330 X51.692 Y139.912
N12335 X51.311 Y139.834
N12340 X50.93 Y139.711
N12345 X50.549 Y139.582
N12350 X50.168 Y139.422
N12355 X49.787 Y139.24
N12360 X49.406 Y139.055
N12365 X49.179 Y138.936
N12370 X48.644 Y138.649
N12375 G2 X48.084 Y138.519 I-0.56 J1.14
N12380 G1 X47.981 Y138.523
N12385 X47.879 Y138.536
N12390 X47.739 Y138.558 Z-12.192
N12395 X47.601 Y138.581 Z-12.168
N12400 X47.465 Y138.603 Z-12.129
N12405 X47.336 Y138.624 Z-12.074
N12410 X47.213 Y138.644 Z-12.005
N12415 X47.098 Y138.663 Z-11.923
N12420 X46.993 Y138.68 Z-11.828
N12425 X46.899 Y138.695 Z-11.722
N12430 X46.818 Y138.709 Z-11.606
N12435 X46.75 Y138.72 Z-11.481
N12440 X46.696 Y138.728 Z-11.349
N12445 X46.657 Y138.735 Z-11.213
N12450 X46.634 Y138.739 Z-11.072
N12455 X46.626 Y138.74 Z-10.93
N12460 G0 Z15.
(OUTSIDEFACEFINISH)
N12465 G0 X324.446 Y5.567
N12470 Z15.
N12475 Z-5.7
N12480 G1 Z-11.43 F333.33
N12485 X324.452 Y5.573 Z-11.572 F2500.
N12490 X324.47 Y5.588 Z-11.713
N12495 X324.5 Y5.614 Z-11.849
N12500 X324.541 Y5.65 Z-11.981
N12505 X324.593 Y5.695 Z-12.106
N12510 X324.656 Y5.749 Z-12.222
N12515 X324.728 Y5.811 Z-12.328
N12520 X324.808 Y5.88 Z-12.423
N12525 X324.896 Y5.956 Z-12.505
N12530 X324.99 Y6.037 Z-12.574
N12535 X325.09 Y6.123 Z-12.629
N12540 X325.193 Y6.213 Z-12.668
N12545 X325.3 Y6.304 Z-12.692
N12550 X325.407 Y6.397 Z-12.7
N12555 X325.894 Y6.817
N12560 G3 X329.735 Y10.659 I-24.269 J28.108
N12565 G2 X332.768 Y8.46 I1.423 J-1.229
N12570 G1 X331.821 Y6.889
N12575 G2 X330.543 Y6.009 I-1.61 J0.971
N12580 G1 X327.122 Y5.394
N12585 X310.589 Y2.79
N12590 G2 X309.779 Y6.455 I-0.292 J1.857
N12595 G3 X330.099 Y26.782 I-8.154 J28.47
N12600 G1 X330.112 Y26.83
N12605 X330.151 Y26.967 Z-12.692
N12610 X330.19 Y27.102 Z-12.668
N12615 X330.228 Y27.233 Z-12.629
N12620 X330.264 Y27.36 Z-12.574
N12625 X330.298 Y27.48 Z-12.505
N12630 X330.33 Y27.591 Z-12.423
N12635 X330.359 Y27.693 Z-12.328
N12640 X330.385 Y27.785 Z-12.222
N12645 X330.408 Y27.864 Z-12.106
N12650 X330.427 Y27.93 Z-11.981
N12655 X330.442 Y27.982 Z-11.849
N12660 X330.453 Y28.02 Z-11.713
N12665 X330.459 Y28.043 Z-11.572
N12670 X330.461 Y28.051 Z-11.43
N12675 G0 Z5.
N12680 X331.029 Y152.943
N12685 Z-5.7
N12690 G1 Z-11.43 F333.33
N12695 X331.023 Y152.949 Z-11.572 F2500.
N12700 X331.008 Y152.967 Z-11.713
N12705 X330.982 Y152.997 Z-11.849
N12710 X330.946 Y153.038 Z-11.981
N12715 X330.901 Y153.09 Z-12.106
N12720 X330.847 Y153.153 Z-12.222
N12725 X330.785 Y153.224 Z-12.328
N12730 X330.716 Y153.305 Z-12.423
N12735 X330.64 Y153.393 Z-12.505
N12740 X330.559 Y153.487 Z-12.574
N12745 X330.473 Y153.587 Z-12.629
N12750 X330.383 Y153.69 Z-12.668
N12755 X330.291 Y153.796 Z-12.692
N12760 X330.199 Y153.904 Z-12.7
N12765 X329.733 Y154.444
N12770 G3 X325.891 Y158.285 I-28.108 J-24.269
N12775 G2 X328.09 Y161.318 I1.228 J1.423
N12780 G1 X329.661 Y160.371
N12785 G2 X330.541 Y159.093 I-0.971 J-1.61
N12790 G1 X331.156 Y155.672
N12795 X333.76 Y139.139
N12800 G2 X330.095 Y138.329 I-1.857 J-0.292
N12805 G3 X309.768 Y158.649 I-28.47 J-8.154
N12810 G1 X309.72 Y158.662
N12815 X309.583 Y158.701 Z-12.692
N12820 X309.448 Y158.74 Z-12.668
N12825 X309.317 Y158.778 Z-12.629
N12830 X309.19 Y158.814 Z-12.574
N12835 X309.07 Y158.848 Z-12.505
N12840 X308.959 Y158.88 Z-12.423
N12845 X308.857 Y158.909 Z-12.328
N12850 X308.765 Y158.935 Z-12.222
N12855 X308.686 Y158.958 Z-12.106
N12860 X308.62 Y158.977 Z-11.981
N12865 X308.568 Y158.992 Z-11.849
N12870 X308.53 Y159.003 Z-11.713
N12875 X308.507 Y159.009 Z-11.572
N12880 X308.499 Y159.011 Z-11.43
N12885 G0 Z5.
N12890 X31.195 Y159.568
N12895 Z-5.7
N12900 G1 Z-11.43 F333.33
N12905 X31.189 Y159.563 Z-11.572 F2500.
N12910 X31.171 Y159.547 Z-11.713
N12915 X31.141 Y159.522 Z-11.849
N12920 X31.1 Y159.486 Z-11.981
N12925 X31.048 Y159.441 Z-12.106
N12930 X30.986 Y159.387 Z-12.222
N12935 X30.914 Y159.325 Z-12.328
N12940 X30.833 Y159.256 Z-12.423
N12945 X30.745 Y159.18 Z-12.505
N12950 X30.651 Y159.098 Z-12.574
N12955 X30.552 Y159.012 Z-12.629
N12960 X30.448 Y158.923 Z-12.668
N12965 X30.342 Y158.831 Z-12.692
N12970 X30.234 Y158.738 Z-12.7
N12975 X29.706 Y158.283
N12980 G3 X25.865 Y154.441 I24.269 J-28.108
N12985 G2 X22.832 Y156.64 I-1.423 J1.229
N12990 G1 X23.779 Y158.211
N12995 G2 X25.057 Y159.091 I1.61 J-0.971
N13000 G1 X28.478 Y159.706
N13005 X45.011 Y162.31
N13010 G2 X45.821 Y158.645 I0.292 J-1.857
N13015 G3 X25.501 Y138.318 I8.154 J-28.47
N13020 G1 X25.488 Y138.27
N13025 X25.449 Y138.133 Z-12.692
N13030 X25.41 Y137.998 Z-12.668
N13035 X25.372 Y137.867 Z-12.629
N13040 X25.336 Y137.74 Z-12.574
N13045 X25.302 Y137.62 Z-12.505
N13050 X25.27 Y137.509 Z-12.423
N13055 X25.241 Y137.407 Z-12.328
N13060 X25.215 Y137.315 Z-12.222
N13065 X25.192 Y137.236 Z-12.106
N13070 X25.173 Y137.17 Z-11.981
N13075 X25.158 Y137.118 Z-11.849
N13080 X25.147 Y137.08 Z-11.713
N13085 X25.141 Y137.057 Z-11.572
N13090 X25.139 Y137.049 Z-11.43
N13095 G0 Z5.
N13100 X24.587 Y12.139
N13105 Z-5.7
N13110 G1 Z-11.43 F333.33
N13115 X24.592 Y12.133 Z-11.572 F2500.
N13120 X24.608 Y12.115 Z-11.713
N13125 X24.633 Y12.085 Z-11.849
N13130 X24.669 Y12.044 Z-11.981
N13135 X24.714 Y11.992 Z-12.106
N13140 X24.768 Y11.93 Z-12.222
N13145 X24.83 Y11.858 Z-12.328
N13150 X24.899 Y11.778 Z-12.423
N13155 X24.975 Y11.69 Z-12.505
N13160 X25.057 Y11.595 Z-12.574
N13165 X25.143 Y11.496 Z-12.629
N13170 X25.232 Y11.392 Z-12.668
N13175 X25.324 Y11.286 Z-12.692
N13180 X25.417 Y11.178 Z-12.7
N13185 X25.867 Y10.656
N13190 G3 X29.709 Y6.815 I28.108 J24.269
N13195 G2 X27.51 Y3.782 I-1.229 J-1.423
N13200 G1 X25.939 Y4.729
N13205 G2 X25.059 Y6.007 I0.971 J1.61
N13210 G1 X24.444 Y9.428
N13215 X21.84 Y25.961
N13220 G2 X25.505 Y26.771 I1.857 J0.292
N13225 G3 X45.832 Y6.451 I28.47 J8.154
N13230 X52.689 Y9.178 I1.661 J5.808
N13235 G2 X59.101 Y12.83 I6.412 J-3.802
N13240 G1 X301.625
N13245 G3 X323.72 Y34.925 I0. J22.095
N13250 G1 Y130.175
N13255 G3 X301.625 Y152.27 I-22.095 J0.
N13260 G1 X53.975
N13265 G3 X31.88 Y130.175 I0. J-22.095
N13270 G1 Y34.925
N13275 G3 X53.975 Y12.83 I22.095 J0.
N13280 G1 X59.101
N13285 G3 X64.778 Y16.615 I0. J6.151
N13290 G2 X70.456 Y20.4 I5.677 J-2.366
N13295 G1 X301.625
N13300 G3 X316.15 Y34.925 I0. J14.525
N13305 G1 Y130.175
N13310 G3 X301.625 Y144.7 I-14.525 J0.
N13315 G1 X53.975
N13320 G3 X39.45 Y130.175 I0. J-14.525
N13325 G1 Y34.925
N13330 G3 X53.975 Y20.4 I14.525 J0.
N13335 G1 X70.456
N13340 G3 X74.206 Y22.9 I0. J4.063
N13345 G2 X77.956 Y25.4 I3.75 J-1.563
N13350 G1 X301.625
N13355 G3 X311.15 Y34.925 I0. J9.525
N13360 G1 Y130.175
N13365 G3 X301.625 Y139.7 I-9.525 J0.
N13370 G1 X53.975
N13375 G3 X44.45 Y130.175 I0. J-9.525
N13380 G1 Y34.925
N13385 G3 X53.975 Y25.4 I9.525 J0.
N13390 G1 X77.956
N13395 G2 X78.235 Y25.361 Z-12.668 I-0.032 J-1.238
N13400 X78.485 Y25.266 Z-12.574 I-0.311 J-1.199
N13405 G1 X78.59 Y25.206 Z-12.499
N13410 X78.688 Y25.137 Z-12.423
N13415 X78.765 Y25.071 Z-12.322
N13420 X78.836 Y25. Z-12.222
N13425 X78.885 Y24.943 Z-12.101
N13430 X78.931 Y24.883 Z-11.981
N13435 X78.983 Y24.804 Z-11.713
N13440 X78.999 Y24.777 Z-11.43
N13445 G0 Z15.
(INSIDECLEARING)
N13450 G0 X253.792 Y82.55
N13455 Z15.
N13460 Z5.
N13465 Z2.5
N13470 G1 Z-4. F333.33
N13475 Y82.512 F3500.
N13480 X253.755 Y82.52
N13485 X253.738 Y82.553
N13490 X253.748 Y82.589
N13495 X253.778 Y82.612
N13500 X253.816
N13505 X253.849 Y82.596
N13510 X253.875 Y82.569
N13515 X253.89 Y82.535
N13520 Y82.497
N13525 X253.877 Y82.462
N13530 X253.854 Y82.432
N13535 X253.823 Y82.41
N13540 X253.753 Y82.385
N13545 X253.678 Y82.394
N13550 X253.615 Y82.434
N13555 X253.57 Y82.494
N13560 X253.548 Y82.566
N13565 X253.55 Y82.641
N13570 X253.574 Y82.712
N13575 X253.66 Y82.835
N13580 X253.795 Y82.9
N13585 X253.945 Y82.903
N13590 X254.085 Y82.849
N13595 X254.197 Y82.749
N13600 X254.27 Y82.618
N13605 X254.299 Y82.471
N13610 X254.286 Y82.321
N13615 X254.233 Y82.181
N13620 X254.146 Y82.059
N13625 X254.031 Y81.962
N13630 X253.898 Y81.894
N13635 X253.752 Y81.857
N13640 X253.602 Y81.853
N13645 X253.455 Y81.881
N13650 X253.316 Y81.937
N13655 X253.19 Y82.019
N13660 X253.083 Y82.124
N13665 X252.996 Y82.246
N13670 X252.93 Y82.381
N13675 X252.888 Y82.525
N13680 X252.871 Y82.674
N13685 X252.876 Y82.824
N13690 X252.905 Y82.971
N13695 X252.956 Y83.112
N13700 X253.027 Y83.244
N13705 X253.115 Y83.365
N13710 X253.221 Y83.472
N13715 X253.339 Y83.564
N13720 X253.469 Y83.639
N13725 X253.607 Y83.697
N13730 X253.752 Y83.737
N13735 X253.901 Y83.757
N13740 X254.051 Y83.76
N13745 X254.2 Y83.744
N13750 X254.346 Y83.711
N13755 X254.488 Y83.661
N13760 X254.622 Y83.595
N13765 X254.749 Y83.515
N13770 X254.867 Y83.422
N13775 X254.973 Y83.316
N13780 X255.068 Y83.2
N13785 X255.15 Y83.074
N13790 X255.219 Y82.941
N13795 X255.274 Y82.801
N13800 X255.315 Y82.657
N13805 X255.341 Y82.509
N13810 X255.354 Y82.36
N13815 X255.352 Y82.21
N13820 X255.336 Y82.061
N13825 X255.307 Y81.914
N13830 X255.264 Y81.77
N13835 X255.209 Y81.631
N13840 X255.141 Y81.497
N13845 X255.062 Y81.369
N13850 X254.972 Y81.249
N13855 X254.873 Y81.137
N13860 X254.764 Y81.033
N13865 X254.647 Y80.939
N13870 X254.523 Y80.855
N13875 X254.389 Y80.78
N13880 X254.253 Y80.718
N13885 X254.108 Y80.665
N13890 X253.959 Y80.623
N13895 X253.807 Y80.594
N13900 X253.648 Y80.577
N13905 X253.49 Y80.572
N13910 X253.324 Y80.581
N13915 X253.165 Y80.602
N13920 X252.999 Y80.637
N13925 X252.841 Y80.685
N13930 X252.68 Y80.748
N13935 X252.528 Y80.822
N13940 X252.376 Y80.912
N13945 X252.234 Y81.011
N13950 X252.095 Y81.127
N13955 X251.968 Y81.251
N13960 X251.848 Y81.389
N13965 X251.74 Y81.535
N13970 X251.641 Y81.696
N13975 X251.556 Y81.86
N13980 X251.482 Y82.038
N13985 X251.423 Y82.219
N13990 X251.378 Y82.409
N13995 X251.348 Y82.603
N14000 X251.333 Y82.8
N14005 X251.335 Y83.002
N14010 X251.352 Y83.201
N14015 X251.387 Y83.405
N14020 X251.437 Y83.605
N14025 X251.505 Y83.802
N14030 X251.589 Y83.997
N14035 X251.688 Y84.184
N14040 X251.805 Y84.367
N14045 X251.938 Y84.541
N14050 X252.083 Y84.703
N14055 X252.245 Y84.858
N14060 X252.42 Y85.
N14065 X252.606 Y85.126
N14070 X252.807 Y85.241
N14075 X253.017 Y85.34
N14080 X253.235 Y85.422
N14085 X253.462 Y85.487
N14090 X253.698 Y85.534
N14095 X253.937 Y85.562
N14100 X254.179 Y85.571
N14105 X254.426 Y85.56
N14110 X254.674 Y85.53
N14115 X254.919 Y85.479
N14120 X255.161 Y85.408
N14125 X255.4 Y85.317
N14130 X255.635 Y85.205
N14135 X255.861 Y85.074
N14140 X256.078 Y84.924
N14145 X256.283 Y84.756
N14150 X256.476 Y84.57
N14155 X256.657 Y84.367
N14160 X256.822 Y84.147
N14165 X256.97 Y83.913
N14170 X257.099 Y83.666
N14175 X257.21 Y83.407
N14180 X257.299 Y83.138
N14185 X257.368 Y82.86
N14190 X257.415 Y82.575
N14195 X257.439 Y82.283
N14200 Y81.988
N14205 X257.415 Y81.691
N14210 X257.368 Y81.395
N14215 X257.296 Y81.1
N14220 X257.2 Y80.81
N14225 X257.079 Y80.526
N14230 X256.936 Y80.251
N14235 X256.769 Y79.985
N14240 X256.579 Y79.732
N14245 X256.368 Y79.492
N14250 X256.137 Y79.268
N14255 X255.886 Y79.062
N14260 X255.617 Y78.875
N14265 X255.332 Y78.708
N14270 X255.031 Y78.564
N14275 X254.717 Y78.444
N14280 X254.392 Y78.348
N14285 X254.058 Y78.278
N14290 X253.715 Y78.234
N14295 X253.368 Y78.219
N14300 X253.017 Y78.231
N14305 X252.665 Y78.271
N14310 X252.315 Y78.341
N14315 X251.969 Y78.439
N14320 X251.628 Y78.566
N14325 X251.296 Y78.72
N14330 X250.976 Y78.903
N14335 X250.668 Y79.112
N14340 X250.376 Y79.347
N14345 X250.101 Y79.607
N14350 X249.847 Y79.89
N14355 X249.614 Y80.195
N14360 X249.404 Y80.52
N14365 X249.22 Y80.864
N14370 X249.063 Y81.224
N14375 X248.934 Y81.599
N14380 X248.836 Y81.985
N14385 X248.767 Y82.382
N14390 X248.731 Y82.785
N14395 X248.727 Y83.193
N14400 X248.756 Y83.603
N14405 X248.819 Y84.013
N14410 X248.915 Y84.42
N14415 X249.044 Y84.82
N14420 X249.206 Y85.213
N14425 X249.401 Y85.593
N14430 X249.627 Y85.96
N14435 X249.884 Y86.31
N14440 X250.17 Y86.641
N14445 X250.485 Y86.95
N14450 X250.825 Y87.235
N14455 X251.19 Y87.493
N14460 X251.578 Y87.723
N14465 X251.985 Y87.923
N14470 X252.41 Y88.09
N14475 X252.85 Y88.224
N14480 X253.303 Y88.322
N14485 X253.766 Y88.385
N14490 X254.235 Y88.41
N14495 X254.708 Y88.398
N14500 X255.182 Y88.347
N14505 X255.653 Y88.257
N14510 X256.119 Y88.13
N14515 X256.577 Y87.964
N14520 X257.023 Y87.76
N14525 X257.453 Y87.52
N14530 X257.866 Y87.244
N14535 X258.258 Y86.934
N14540 X258.627 Y86.591
N14545 X258.969 Y86.217
N14550 X259.282 Y85.813
N14555 X259.564 Y85.383
N14560 X259.812 Y84.929
N14565 X260.025 Y84.453
N14570 X260.199 Y83.958
N14575 X260.335 Y83.447
N14580 X260.429 Y82.923
N14585 X260.481 Y82.39
N14590 X260.491 Y81.851
N14595 X260.457 Y81.31
N14600 X260.379 Y80.77
N14605 X260.258 Y80.235
N14610 X260.092 Y79.707
N14615 X259.884 Y79.192
N14620 X259.633 Y78.691
N14625 X259.342 Y78.21
N14630 X259.01 Y77.751
N14635 X258.641 Y77.317
N14640 X258.235 Y76.911
N14645 X257.796 Y76.537
N14650 X257.324 Y76.198
N14655 X256.825 Y75.896
N14660 X256.299 Y75.633
N14665 X255.75 Y75.411
N14670 X255.182 Y75.234
N14675 X254.599 Y75.102
N14680 X254.002 Y75.016
N14685 X253.397 Y74.979
N14690 X252.787 Y74.99
N14695 X252.176 Y75.05
N14700 X251.568 Y75.16
N14705 X250.967 Y75.32
N14710 X250.378 Y75.528
N14715 X249.803 Y75.785
N14720 X249.248 Y76.088
N14725 X248.716 Y76.437
N14730 X248.211 Y76.831
N14735 X247.736 Y77.265
N14740 X247.295 Y77.74
N14745 X246.891 Y78.251
N14750 X246.527 Y78.796
N14755 X246.207 Y79.371
N14760 X245.932 Y79.974
N14765 X245.705 Y80.6
N14770 X245.529 Y81.246
N14775 X245.404 Y81.908
N14780 X245.332 Y82.581
N14785 X245.314 Y83.262
N14790 X245.352 Y83.945
N14795 X245.444 Y84.628
N14800 X245.592 Y85.304
N14805 X245.795 Y85.97
N14810 X246.051 Y86.621
N14815 X246.361 Y87.253
N14820 X246.723 Y87.861
N14825 X247.134 Y88.441
N14830 X247.594 Y88.989
N14835 X248.098 Y89.502
N14840 X248.645 Y89.974
N14845 X249.231 Y90.404
N14850 X249.853 Y90.787
N14855 X250.507 Y91.121
N14860 X251.19 Y91.403
N14865 X251.897 Y91.631
N14870 X252.624 Y91.802
N14875 X253.366 Y91.914
N14880 X254.118 Y91.967
N14885 X254.877 Y91.959
N14890 X255.636 Y91.89
N14895 X256.391 Y91.76
N14900 X257.137 Y91.569
N14905 X257.869 Y91.317
N14910 X258.582 Y91.005
N14915 X259.271 Y90.636
N14920 X259.932 Y90.21
N14925 X260.56 Y89.73
N14930 X261.15 Y89.198
N14935 X261.698 Y88.618
N14940 X262.201 Y87.992
N14945 X262.654 Y87.325
N14950 X263.054 Y86.621
N14955 X263.398 Y85.883
N14960 X263.682 Y85.116
N14965 X263.906 Y84.325
N14970 X264.066 Y83.514
N14975 X264.161 Y82.69
N14980 X264.189 Y81.856
N14985 X264.15 Y81.02
N14990 X264.044 Y80.185
N14995 X263.87 Y79.357
N15000 X263.63 Y78.542
N15005 X263.323 Y77.746
N15010 X262.952 Y76.973
N15015 X262.518 Y76.229
N15020 X262.023 Y75.519
N15025 X261.47 Y74.847
N15030 X260.862 Y74.22
N15035 X260.203 Y73.641
N15040 X259.497 Y73.113
N15045 X258.747 Y72.643
N15050 X257.957 Y72.232
N15055 X257.134 Y71.883
N15060 X256.281 Y71.601
N15065 X255.403 Y71.387
N15070 X254.508 Y71.244
N15075 X253.599 Y71.173
N15080 X252.684 Y71.174
N15085 X251.767 Y71.25
N15090 X250.856 Y71.4
N15095 X249.955 Y71.623
N15100 X249.071 Y71.919
N15105 X248.209 Y72.287
N15110 X247.377 Y72.724
N15115 X246.578 Y73.23
N15120 X245.82 Y73.8
N15125 X245.106 Y74.432
N15130 X244.443 Y75.122
N15135 X243.835 Y75.867
N15140 X243.286 Y76.661
N15145 X242.8 Y77.501
N15150 X242.382 Y78.38
N15155 X242.034 Y79.294
N15160 X241.759 Y80.237
N15165 X241.56 Y81.203
N15170 X241.439 Y82.186
N15175 X241.397 Y83.179
N15180 X241.435 Y84.178
N15185 X241.553 Y85.174
N15190 X241.752 Y86.161
N15195 X242.03 Y87.133
N15200 X242.387 Y88.083
N15205 X242.821 Y89.006
N15210 X243.33 Y89.894
N15215 X243.911 Y90.742
N15220 X244.56 Y91.544
N15225 X245.275 Y92.295
N15230 X246.05 Y92.988
N15235 X246.883 Y93.62
N15240 X247.767 Y94.185
N15245 X248.697 Y94.679
N15250 X249.668 Y95.099
N15255 X250.673 Y95.44
N15260 X251.707 Y95.701
N15265 X252.763 Y95.879
N15270 X253.833 Y95.972
N15275 X254.912 Y95.979
N15280 X255.993 Y95.899
N15285 X257.067 Y95.732
N15290 X258.129 Y95.478
N15295 X259.172 Y95.138
N15300 X260.188 Y94.714
N15305 X261.17 Y94.208
N15310 X262.113 Y93.622
N15315 X263.009 Y92.96
N15320 X263.852 Y92.225
N15325 X264.637 Y91.422
N15330 X265.357 Y90.555
N15335 X266.008 Y89.629
N15340 X266.585 Y88.651
N15345 X267.083 Y87.625
N15350 X267.499 Y86.559
N15355 X267.83 Y85.459
N15360 X268.072 Y84.332
N15365 X268.223 Y83.184
N15370 X268.281 Y82.024
N15375 X268.247 Y80.859
N15380 X268.118 Y79.696
N15385 X267.896 Y78.543
N15390 X267.581 Y77.407
N15395 X267.174 Y76.297
N15400 X266.677 Y75.218
N15405 X266.094 Y74.18
N15410 X265.427 Y73.187
N15415 X264.679 Y72.249
N15420 X263.856 Y71.37
N15425 X262.961 Y70.557
N15430 X262.001 Y69.816
N15435 X260.98 Y69.151
N15440 X259.906 Y68.569
N15445 X258.784 Y68.073
N15450 X257.621 Y67.667
N15455 X256.426 Y67.355
N15460 X255.204 Y67.139
N15465 X253.965 Y67.021
N15470 X252.716 Y67.002
N15475 X251.465 Y67.085
N15480 X250.22 Y67.268
N15485 X248.989 Y67.552
N15490 X247.781 Y67.935
N15495 X246.604 Y68.415
N15500 X245.464 Y68.99
N15505 X244.371 Y69.657
N15510 X243.331 Y70.412
N15515 X242.352 Y71.252
N15520 X241.441 Y72.168
N15525 X240.607 Y73.155
N15530 X239.855 Y74.205
N15535 X239.188 Y75.312
N15540 X238.611 Y76.468
N15545 X238.127 Y77.666
N15550 X237.739 Y78.899
N15555 X237.449 Y80.158
N15560 X237.258 Y81.436
N15565 X237.168 Y82.724
N15570 X237.178 Y84.016
N15575 X237.289 Y85.304
N15580 X237.499 Y86.579
N15585 X237.807 Y87.833
N15590 X238.21 Y89.061
N15595 X238.706 Y90.254
N15600 X239.291 Y91.406
N15605 X239.962 Y92.51
N15610 X240.715 Y93.56
N15615 X241.545 Y94.551
N15620 X242.446 Y95.476
N15625 X243.415 Y96.331
N15630 X244.444 Y97.112
N15635 X245.529 Y97.814
N15640 X246.663 Y98.434
N15645 X247.84 Y98.967
N15650 X249.053 Y99.41
N15655 X250.296 Y99.762
N15660 X251.562 Y100.022
N15665 X252.843 Y100.188
N15670 X254.134 Y100.26
N15675 X255.425 Y100.238
N15680 X256.712 Y100.123
N15685 X257.988 Y99.916
N15690 X259.245 Y99.617
N15695 X260.477 Y99.228
N15700 X261.677 Y98.75
N15705 X262.84 Y98.187
N15710 X263.96 Y97.542
N15715 X265.03 Y96.819
N15720 X266.047 Y96.022
N15725 X267.006 Y95.156
N15730 X267.902 Y94.224
N15735 X268.729 Y93.232
N15740 X269.484 Y92.183
N15745 X270.162 Y91.083
N15750 X270.761 Y89.939
N15755 X271.28 Y88.755
N15760 X271.715 Y87.539
N15765 X272.067 Y86.296
N15770 X272.332 Y85.031
N15775 X272.507 Y83.751
N15780 X272.593 Y82.462
N15785 X272.589 Y81.17
N15790 X272.498 Y79.881
N15795 X272.319 Y78.601
N15800 X272.055 Y77.336
N15805 X271.705 Y76.093
N15810 X271.27 Y74.876
N15815 X270.753 Y73.692
N15820 X270.157 Y72.545
N15825 X269.487 Y71.441
N15830 X268.745 Y70.383
N15835 X267.933 Y69.378
N15840 X267.054 Y68.431
N15845 X266.114 Y67.545
N15850 X265.117 Y66.723
N15855 X264.069 Y65.967
N15860 X262.974 Y65.282
N15865 X261.834 Y64.672
N15870 X260.657 Y64.14
N15875 X259.447 Y63.687
N15880 X258.211 Y63.312
N15885 X256.953 Y63.018
N15890 X255.678 Y62.807
N15895 X254.392 Y62.682
N15900 X253.1 Y62.641
N15905 X251.809 Y62.682
N15910 X250.523 Y62.805
N15915 X249.247 Y63.012
N15920 X247.988 Y63.302
N15925 X246.751 Y63.673
N15930 X245.539 Y64.121
N15935 X244.357 Y64.643
N15940 X243.212 Y65.242
N15945 X242.108 Y65.913
N15950 X241.049 Y66.654
N15955 X240.038 Y67.458
N15960 X239.079 Y68.324
N15965 X238.178 Y69.25
N15970 X237.338 Y70.232
N15975 X236.561 Y71.264
N15980 X235.849 Y72.342
N15985 X235.205 Y73.463
N15990 X234.635 Y74.622
N15995 X234.138 Y75.814
N16000 X233.715 Y77.036
N16005 X233.368 Y78.28
N16010 X233.098 Y79.544
N16015 X232.91 Y80.822
N16020 X232.801 Y82.109
N16025 X232.77 Y83.401
N16030 X232.817 Y84.692
N16035 X232.944 Y85.978
N16040 X233.151 Y87.253
N16045 X233.436 Y88.513
N16050 X233.796 Y89.754
N16055 X234.229 Y90.972
N16060 X234.737 Y92.16
N16065 X235.316 Y93.315
N16070 X235.965 Y94.432
N16075 X236.678 Y95.51
N16080 X237.453 Y96.543
N16085 X238.291 Y97.527
N16090 X239.186 Y98.458
N16095 X240.136 Y99.335
N16100 X241.135 Y100.154
N16105 X242.18 Y100.914
N16110 X243.27 Y101.608
N16115 X244.399 Y102.235
N16120 X245.564 Y102.794
N16125 X246.759 Y103.285
N16130 X247.981 Y103.705
N16135 X249.226 Y104.05
N16140 X250.49 Y104.321
N16145 X251.767 Y104.517
N16150 X253.053 Y104.64
N16155 X254.344 Y104.689
N16160 X255.636 Y104.661
N16165 X256.924 Y104.557
N16170 X258.203 Y104.378
N16175 X259.471 Y104.127
N16180 X260.722 Y103.803
N16185 X261.951 Y103.406
N16190 X263.155 Y102.938
N16195 X264.33 Y102.401
N16200 X265.473 Y101.798
N16205 X266.581 Y101.133
N16210 X267.648 Y100.404
N16215 X268.67 Y99.614
N16220 X269.646 Y98.768
N16225 X270.573 Y97.868
N16230 X271.449 Y96.917
N16235 X272.267 Y95.918
N16240 X273.027 Y94.872
N16245 X273.726 Y93.786
N16250 X274.364 Y92.662
N16255 X274.939 Y91.505
N16260 X275.448 Y90.317
N16265 X275.887 Y89.102
N16270 X276.258 Y87.865
N16275 X276.559 Y86.608
N16280 X276.79 Y85.337
N16285 X276.95 Y84.055
N16290 X277.038 Y82.766
N16295 X277.053 Y81.474
N16300 X276.997 Y80.183
N16305 X276.871 Y78.897
N16310 X276.674 Y77.62
N16315 X276.406 Y76.356
N16320 X276.067 Y75.109
N16325 X275.661 Y73.883
N16330 X275.188 Y72.68
N16335 X274.652 Y71.505
N16340 X274.052 Y70.36
N16345 X273.389 Y69.252
N16350 X272.666 Y68.181
N16355 X271.886 Y67.151
N16360 X271.052 Y66.164
N16365 X270.166 Y65.223
N16370 X269.229 Y64.333
N16375 X268.245 Y63.496
N16380 X267.218 Y62.712
N16385 X266.15 Y61.985
N16390 X265.045 Y61.315
N16395 X263.905 Y60.707
N16400 X262.734 Y60.161
N16405 X261.535 Y59.679
N16410 X260.313 Y59.261
N16415 X259.07 Y58.908
N16420 X257.81 Y58.622
N16425 X256.536 Y58.405
N16430 X255.253 Y58.257
N16435 X253.963 Y58.176
N16440 X252.671 Y58.162
N16445 X251.38 Y58.216
N16450 X250.094 Y58.34
N16455 X248.816 Y58.532
N16460 X247.551 Y58.792
N16465 X246.3 Y59.116
N16470 X245.068 Y59.504
N16475 X243.858 Y59.957
N16480 X242.674 Y60.474
N16485 X241.518 Y61.053
N16490 X240.395 Y61.69
N16495 X239.305 Y62.384
N16500 X238.252 Y63.134
N16505 X237.241 Y63.938
N16510 X236.273 Y64.794
N16515 X235.351 Y65.699
N16520 X234.477 Y66.65
N16525 X233.651 Y67.644
N16530 X232.878 Y68.68
N16535 X232.161 Y69.755
N16540 X231.501 Y70.865
N16545 X230.898 Y72.008
N16550 X230.353 Y73.179
N16555 X229.868 Y74.377
N16560 X229.446 Y75.598
N16565 X229.088 Y76.84
N16570 X228.794 Y78.098
N16575 X228.564 Y79.369
N16580 X228.398 Y80.651
N16585 X228.296 Y81.939
N16590 X228.261 Y83.23
N16595 X228.293 Y84.522
N16600 X228.39 Y85.81
N16605 X228.551 Y87.092
N16610 X228.775 Y88.365
N16615 X229.063 Y89.624
N16620 X229.415 Y90.867
N16625 X229.83 Y92.091
N16630 X230.306 Y93.292
N16635 X230.84 Y94.469
N16640 X231.43 Y95.618
N16645 X232.078 Y96.736
N16650 X232.782 Y97.82
N16655 X233.539 Y98.866
N16660 X234.347 Y99.875
N16665 X235.203 Y100.842
N16670 X236.105 Y101.767
N16675 X237.053 Y102.646
N16680 X238.043 Y103.476
N16685 X239.074 Y104.255
N16690 X240.141 Y104.983
N16695 X241.242 Y105.659
N16700 X242.375 Y106.28
N16705 X243.538 Y106.844
N16710 X244.727 Y107.349
N16715 X245.939 Y107.796
N16720 X247.172 Y108.182
N16725 X248.422 Y108.51
N16730 X249.686 Y108.777
N16735 X250.962 Y108.981
N16740 X252.247 Y109.121
N16745 X253.536 Y109.2
N16750 X254.828 Y109.216
N16755 X256.119 Y109.17
N16760 X257.407 Y109.063
N16765 X258.688 Y108.893
N16770 X259.959 Y108.66
N16775 X261.217 Y108.365
N16780 X262.459 Y108.012
N16785 X263.684 Y107.599
N16790 X264.888 Y107.13
N16795 X266.067 Y106.602
N16800 X267.219 Y106.017
N16805 X268.342 Y105.378
N16810 X269.434 Y104.687
N16815 X270.492 Y103.945
N16820 X271.513 Y103.154
N16825 X272.496 Y102.315
N16830 X273.436 Y101.429
N16835 X274.334 Y100.5
N16840 X275.186 Y99.529
N16845 X275.993 Y98.52
N16850 X276.752 Y97.474
N16855 X277.46 Y96.393
N16860 X278.115 Y95.279
N16865 X278.717 Y94.136
N16870 X279.265 Y92.966
N16875 X279.758 Y91.772
N16880 X280.195 Y90.556
N16885 X280.574 Y89.321
N16890 X280.894 Y88.069
N16895 X281.155 Y86.803
N16900 X281.357 Y85.527
N16905 X281.5 Y84.243
N16910 X281.584 Y82.954
N16915 X281.608 Y81.662
N16920 X281.57 Y80.37
N16925 X281.472 Y79.082
N16930 X281.315 Y77.8
N16935 X281.099 Y76.526
N16940 X280.826 Y75.263
N16945 X280.494 Y74.014
N16950 X280.104 Y72.782
N16955 X279.657 Y71.57
N16960 X279.156 Y70.379
N16965 X278.6 Y69.213
N16970 X277.993 Y68.072
N16975 X277.333 Y66.961
N16980 X276.623 Y65.882
N16985 X275.864 Y64.837
N16990 X275.057 Y63.827
N16995 X274.206 Y62.855
N17000 X273.313 Y61.922
N17005 X272.377 Y61.03
N17010 X271.402 Y60.183
N17015 X270.389 Y59.381
N17020 X269.34 Y58.626
N17025 X268.259 Y57.919
N17030 X267.147 Y57.261
N17035 X266.006 Y56.654
N17040 X264.84 Y56.099
N17045 X263.649 Y55.598
N17050 X262.436 Y55.151
N17055 X261.205 Y54.76
N17060 X259.958 Y54.423
N17065 X258.696 Y54.142
N17070 X257.424 Y53.918
N17075 X256.143 Y53.752
N17080 X254.855 Y53.643
N17085 X253.564 Y53.593
N17090 X252.272 Y53.599
N17095 X250.982 Y53.662
N17100 X249.695 Y53.783
N17105 X248.415 Y53.962
N17110 X247.145 Y54.197
N17115 X245.886 Y54.489
N17120 X244.642 Y54.836
N17125 X243.413 Y55.237
N17130 X242.204 Y55.691
N17135 X241.016 Y56.199
N17140 X239.852 Y56.76
N17145 X238.714 Y57.371
N17150 X237.603 Y58.032
N17155 X236.523 Y58.74
N17160 X235.474 Y59.495
N17165 X234.46 Y60.295
N17170 X233.482 Y61.14
N17175 X232.542 Y62.027
N17180 X231.642 Y62.953
N17185 X230.783 Y63.918
N17190 X229.966 Y64.92
N17195 X229.194 Y65.955
N17200 X228.468 Y67.024
N17205 X227.789 Y68.124
N17210 X227.159 Y69.252
N17215 X226.579 Y70.406
N17220 X226.048 Y71.584
N17225 X225.569 Y72.784
N17230 X225.142 Y74.004
N17235 X224.77 Y75.241
N17240 X224.451 Y76.493
N17245 X224.186 Y77.758
N17250 X223.976 Y79.033
N17255 X223.82 Y80.315
N17260 X223.72 Y81.603
N17265 X223.675 Y82.895
N17270 X223.687 Y84.187
N17275 X223.754 Y85.477
N17280 X223.876 Y86.763
N17285 X224.052 Y88.043
N17290 X224.283 Y89.315
N17295 X224.567 Y90.575
N17300 X224.906 Y91.822
N17305 X225.298 Y93.053
N17310 X225.742 Y94.266
N17315 X226.237 Y95.46
N17320 X226.781 Y96.632
N17325 X227.374 Y97.779
N17330 X228.016 Y98.901
N17335 X228.706 Y99.994
N17340 X229.441 Y101.056
N17345 X230.22 Y102.087
N17350 X231.041 Y103.084
N17355 X231.903 Y104.047
N17360 X232.805 Y104.972
N17365 X233.746 Y105.858
N17370 X234.723 Y106.703
N17375 X235.735 Y107.506
N17380 X236.78 Y108.266
N17385 X237.855 Y108.983
N17390 X238.959 Y109.654
N17395 X240.09 Y110.278
N17400 X241.247 Y110.854
N17405 X242.427 Y111.38
N17410 X243.628 Y111.857
N17415 X244.848 Y112.284
N17420 X246.084 Y112.66
N17425 X247.334 Y112.985
N17430 X248.597 Y113.257
N17435 X249.871 Y113.476
N17440 X251.152 Y113.642
N17445 X252.439 Y113.754
N17450 X253.73 Y113.814
N17455 X255.022 Y113.821
N17460 X256.313 Y113.775
N17465 X257.601 Y113.675
N17470 X258.884 Y113.521
N17475 X260.159 Y113.315
N17480 X261.425 Y113.056
N17485 X262.68 Y112.746
N17490 X263.92 Y112.386
N17495 X265.145 Y111.975
N17500 X266.352 Y111.513
N17505 X267.539 Y111.002
N17510 X268.704 Y110.442
N17515 X269.845 Y109.836
N17520 X270.96 Y109.185
N17525 X272.049 Y108.489
N17530 X273.108 Y107.749
N17535 X274.136 Y106.966
N17540 X275.13 Y106.141
N17545 X276.091 Y105.276
N17550 X277.015 Y104.374
N17555 X277.903 Y103.435
N17560 X278.752 Y102.462
N17565 X279.562 Y101.455
N17570 X280.329 Y100.415
N17575 X281.053 Y99.345
N17580 X281.734 Y98.246
N17585 X282.369 Y97.122
N17590 X282.96 Y95.973
N17595 X283.504 Y94.801
N17600 X284.001 Y93.608
N17605 X284.449 Y92.396
N17610 X284.847 Y91.167
N17615 X285.195 Y89.923
N17620 X285.494 Y88.666
N17625 X285.743 Y87.398
N17630 X285.941 Y86.121
N17635 X286.089 Y84.837
N17640 X286.184 Y83.549
N17645 X286.227 Y82.258
N17650 X286.218 Y80.965
N17655 X286.159 Y79.675
N17660 X286.048 Y78.387
N17665 X285.887 Y77.105
N17670 X285.676 Y75.831
N17675 X285.414 Y74.566
N17680 X285.1 Y73.312
N17685 X284.737 Y72.072
N17690 X284.326 Y70.847
N17695 X283.867 Y69.639
N17700 X283.362 Y68.45
N17705 X282.81 Y67.282
N17710 X282.212 Y66.137
N17715 X281.569 Y65.016
N17720 X280.881 Y63.922
N17725 X280.152 Y62.856
N17730 X279.381 Y61.819
N17735 X278.572 Y60.812
N17740 X277.723 Y59.837
N17745 X276.837 Y58.898
N17750 X275.913 Y57.994
N17755 X274.955 Y57.127
N17760 X273.964 Y56.298
N17765 X272.942 Y55.508
N17770 X271.89 Y54.758
N17775 X270.809 Y54.049
N17780 X269.702 Y53.383
N17785 X268.569 Y52.761
N17790 X267.413 Y52.185
N17795 X266.236 Y51.653
N17800 X265.038 Y51.168
N17805 X263.823 Y50.728
N17810 X262.592 Y50.335
N17815 X261.347 Y49.99
N17820 X260.089 Y49.695
N17825 X258.821 Y49.449
N17830 X257.544 Y49.252
N17835 X256.26 Y49.104
N17840 X254.972 Y49.006
N17845 X253.681 Y48.956
N17850 X252.389 Y48.955
N17855 X251.098 Y49.006
N17860 X249.81 Y49.106
N17865 X248.526 Y49.256
N17870 X247.25 Y49.455
N17875 X245.981 Y49.702
N17880 X244.723 Y49.996
N17885 X243.478 Y50.338
N17890 X242.246 Y50.729
N17895 X241.03 Y51.166
N17900 X239.832 Y51.65
N17905 X238.653 Y52.18
N17910 X237.496 Y52.753
N17915 X236.36 Y53.369
N17920 X235.248 Y54.027
N17925 X234.163 Y54.728
N17930 X233.105 Y55.47
N17935 X232.076 Y56.252
N17940 X231.078 Y57.072
N17945 X230.111 Y57.929
N17950 X229.177 Y58.822
N17955 X228.277 Y59.749
N17960 X227.413 Y60.709
N17965 X226.586 Y61.702
N17970 X225.797 Y62.726
N17975 X225.048 Y63.778
N17980 X224.339 Y64.858
N17985 X223.67 Y65.964
N17990 X223.043 Y67.094
N17995 X222.458 Y68.246
N18000 X221.918 Y69.42
N18005 X221.423 Y70.613
N18010 X220.973 Y71.824
N18015 X220.569 Y73.051
N18020 X220.21 Y74.293
N18025 X219.898 Y75.546
N18030 X219.632 Y76.811
N18035 X219.413 Y78.084
N18040 X219.243 Y79.365
N18045 X219.122 Y80.651
N18050 X219.048 Y81.941
N18055 X219.023 Y83.233
N18060 X219.045 Y84.525
N18065 X219.114 Y85.815
N18070 X219.23 Y87.102
N18075 X219.395 Y88.383
N18080 X219.608 Y89.658
N18085 X219.868 Y90.923
N18090 X220.175 Y92.178
N18095 X220.528 Y93.421
N18100 X220.926 Y94.651
N18105 X221.368 Y95.865
N18110 X221.855 Y97.062
N18115 X222.386 Y98.239
N18120 X222.961 Y99.397
N18125 X223.578 Y100.532
N18130 X224.236 Y101.644
N18135 X224.934 Y102.731
N18140 X225.671 Y103.792
N18145 X226.446 Y104.826
N18150 X227.259 Y105.83
N18155 X228.108 Y106.804
N18160 X228.993 Y107.745
N18165 X229.912 Y108.654
N18170 X230.863 Y109.528
N18175 X231.845 Y110.368
N18180 X232.857 Y111.172
N18185 X233.897 Y111.939
N18190 X234.964 Y112.666
N18195 X236.058 Y113.354
N18200 X237.177 Y114.001
N18205 X238.318 Y114.607
N18210 X239.48 Y115.172
N18215 X240.662 Y115.694
N18220 X241.861 Y116.174
N18225 X243.077 Y116.611
N18230 X244.309 Y117.002
N18235 X245.554 Y117.348
N18240 X246.81 Y117.648
N18245 X248.077 Y117.903
N18250 X249.352 Y118.113
N18255 X250.633 Y118.277
N18260 X251.92 Y118.396
N18265 X253.21 Y118.467
N18270 X254.502 Y118.492
N18275 X255.794 Y118.469
N18280 X257.084 Y118.4
N18285 X258.371 Y118.285
N18290 X259.653 Y118.124
N18295 X260.928 Y117.918
N18300 X262.196 Y117.667
N18305 X263.453 Y117.37
N18310 X264.699 Y117.028
N18315 X265.932 Y116.641
N18320 X267.15 Y116.21
N18325 X268.352 Y115.737
N18330 X269.537 Y115.221
N18335 X270.703 Y114.664
N18340 X271.848 Y114.066
N18345 X272.971 Y113.427
N18350 X274.07 Y112.748
N18355 X275.145 Y112.03
N18360 X276.193 Y111.275
N18365 X277.214 Y110.483
N18370 X278.206 Y109.655
N18375 X279.169 Y108.794
N18380 X280.101 Y107.899
N18385 X281. Y106.971
N18390 X281.866 Y106.012
N18395 X282.696 Y105.022
N18400 X283.492 Y104.004
N18405 X284.251 Y102.959
N18410 X284.973 Y101.888
N18415 X285.658 Y100.792
N18420 X286.304 Y99.673
N18425 X286.91 Y98.531
N18430 X287.474 Y97.369
N18435 X287.997 Y96.188
N18440 X288.478 Y94.989
N18445 X288.918 Y93.773
N18450 X289.314 Y92.544
N18455 X289.669 Y91.301
N18460 X289.979 Y90.047
N18465 X290.245 Y88.783
N18470 X290.466 Y87.51
N18475 X290.642 Y86.23
N18480 X290.773 Y84.944
N18485 X290.86 Y83.655
N18490 X290.903 Y82.364
N18495 X290.901 Y81.072
N18500 X290.854 Y79.781
N18505 X290.761 Y78.492
N18510 X290.623 Y77.207
N18515 X290.441 Y75.928
N18520 X290.214 Y74.656
N18525 X289.944 Y73.393
N18530 X289.63 Y72.139
N18535 X289.274 Y70.897
N18540 X288.875 Y69.668
N18545 X288.433 Y68.454
N18550 X287.949 Y67.256
N18555 X287.424 Y66.076
N18560 X286.858 Y64.914
N18565 X286.253 Y63.773
N18570 X285.609 Y62.652
N18575 X284.928 Y61.555
N18580 X284.209 Y60.481
N18585 X283.453 Y59.433
N18590 X282.661 Y58.412
N18595 X281.835 Y57.419
N18600 X280.974 Y56.455
N18605 X280.082 Y55.521
N18610 X279.158 Y54.617
N18615 X278.205 Y53.745
N18620 X277.222 Y52.907
N18625 X276.21 Y52.103
N18630 X275.172 Y51.334
N18635 X274.107 Y50.602
N18640 X273.018 Y49.906
N18645 X271.907 Y49.248
N18650 X270.773 Y48.627
N18655 X269.62 Y48.045
N18660 X268.447 Y47.503
N18665 X267.257 Y47.001
N18670 X266.049 Y46.54
N18675 X264.827 Y46.121
N18680 X263.591 Y45.744
N18685 X262.344 Y45.409
N18690 X261.085 Y45.115
N18695 X260.535 Y45.006
N18700 X260.345 Y44.975
N18705 X260.152 Y44.956
N18710 X259.959 Y44.95
N18715 X249.983
N18720 X248.692 Y45.015
N18725 X247.402 Y45.077
N18730 X246.116 Y45.206
N18735 X244.838 Y45.397
N18740 X243.57 Y45.645
N18745 X242.314 Y45.946
N18750 X241.071 Y46.298
N18755 X239.842 Y46.699
N18760 X238.63 Y47.146
N18765 X237.435 Y47.637
N18770 X236.259 Y48.172
N18775 X235.102 Y48.747
N18780 X233.966 Y49.362
N18785 X232.852 Y50.017
N18790 X231.761 Y50.708
N18795 X230.694 Y51.437
N18800 X229.653 Y52.203
N18805 X228.638 Y53.003
N18810 X227.651 Y53.837
N18815 X226.692 Y54.703
N18820 X225.763 Y55.6
N18825 X224.864 Y56.529
N18830 X223.997 Y57.486
N18835 X223.161 Y58.472
N18840 X222.36 Y59.485
N18845 X221.593 Y60.525
N18850 X220.86 Y61.589
N18855 X220.164 Y62.677
N18860 X219.503 Y63.788
N18865 X218.879 Y64.919
N18870 X218.293 Y66.071
N18875 X217.745 Y67.241
N18880 X217.237 Y68.429
N18885 X216.768 Y69.633
N18890 X216.34 Y70.852
N18895 X215.952 Y72.084
N18900 X215.604 Y73.328
N18905 X215.297 Y74.584
N18910 X215.031 Y75.848
N18915 X214.807 Y77.12
N18920 X214.625 Y78.4
N18925 X214.486 Y79.684
N18930 X214.389 Y80.973
N18935 X214.335 Y82.263
N18940 X214.322 Y83.555
N18945 X214.352 Y84.847
N18950 X214.423 Y86.137
N18955 X214.536 Y87.424
N18960 X214.692 Y88.707
N18965 X214.89 Y89.984
N18970 X215.129 Y91.253
N18975 X215.41 Y92.515
N18980 X215.732 Y93.766
N18985 X216.094 Y95.006
N18990 X216.496 Y96.234
N18995 X216.938 Y97.448
N19000 X217.418 Y98.648
N19005 X217.938 Y99.831
N19010 X218.496 Y100.996
N19015 X219.092 Y102.142
N19020 X219.725 Y103.269
N19025 X220.393 Y104.375
N19030 X221.097 Y105.458
N19035 X221.836 Y106.518
N19040 X222.607 Y107.555
N19045 X223.413 Y108.565
N19050 X224.25 Y109.549
N19055 X225.12 Y110.504
N19060 X226.02 Y111.432
N19065 X226.949 Y112.329
N19070 X227.906 Y113.197
N19075 X228.891 Y114.034
N19080 X229.902 Y114.838
N19085 X230.938 Y115.61
N19090 X231.999 Y116.348
N19095 X233.083 Y117.051
N19100 X234.189 Y117.718
N19105 X235.316 Y118.35
N19110 X236.463 Y118.945
N19115 X237.628 Y119.504
N19120 X238.523 Y119.898
N19125 X238.909 Y120.037
N19130 X239.31 Y120.122
N19135 X239.718 Y120.15
N19140 X265.219
N19145 X266.51 Y120.085
N19150 X267.779 Y119.949
N19155 X269.048 Y119.709
N19160 X270.298 Y119.381
N19165 X271.526 Y118.978
N19170 X272.73 Y118.509
N19175 X273.909 Y117.982
N19180 X275.064 Y117.402
N19185 X276.194 Y116.775
N19190 X277.297 Y116.102
N19195 X278.374 Y115.388
N19200 X279.424 Y114.635
N19205 X280.447 Y113.846
N19210 X281.442 Y113.022
N19215 X282.408 Y112.164
N19220 X283.346 Y111.276
N19225 X284.255 Y110.357
N19230 X285.133 Y109.409
N19235 X285.979 Y108.433
N19240 X286.794 Y107.43
N19245 X287.576 Y106.402
N19250 X288.326 Y105.35
N19255 X289.042 Y104.274
N19260 X289.724 Y103.177
N19265 X290.371 Y102.058
N19270 X290.983 Y100.921
N19275 X291.289 Y100.307
N19280 X291.46 Y99.884
N19285 X291.565 Y99.44
N19290 X291.6 Y98.986
N19295 Y68.65
N19300 X291.536 Y67.365
N19305 X291.383 Y66.202
N19310 X291.113 Y64.939
N19315 X290.748 Y63.699
N19320 X290.304 Y62.486
N19325 X289.791 Y61.3
N19330 X289.219 Y60.142
N19335 X288.594 Y59.011
N19340 X287.921 Y57.908
N19345 X287.204 Y56.833
N19350 X286.447 Y55.786
N19355 X285.652 Y54.767
N19360 X284.822 Y53.778
N19365 X283.958 Y52.817
N19370 X283.063 Y51.885
N19375 X282.138 Y50.983
N19380 X281.184 Y50.112
N19385 X280.203 Y49.271
N19390 X279.196 Y48.461
N19395 X278.165 Y47.683
N19400 X277.11 Y46.937
N19405 X276.032 Y46.224
N19410 X274.932 Y45.545
N19415 X274.585 Y45.345
N19420 X274.238 Y45.175
N19425 X273.872 Y45.051
N19430 X273.492 Y44.975
N19435 X273.106 Y44.95
N19440 X259.959
N19445 G2 X258.883 Y45.622 Z-3.867 I0.044 J1.269
N19450 X258.713 Y46.259 Z-3.8 I1.282 J0.684
N19455 X259.099 Y47.292 I1.452 J0.046
N19460 X271.693 Y46.195 I5.871 J-5.434
N19465 X272.03 Y45.622 Z-3.867 I-6.723 J-4.337
N19470 G3 X273.106 Y44.95 Z-4. I1.121 J0.597
N19475 G1 X277.409 F3150.
N19480 X278.1 Y44.985
N19485 X278.784 Y45.074
N19490 X279.565 Y45.241
N19495 X280.465 Y45.511
N19500 X281.487 Y45.909
N19505 X282.636 Y46.466
N19510 X283.749 Y47.122
N19515 X284.815 Y47.853
N19520 X285.834 Y48.646
N19525 X286.81 Y49.493
N19530 X287.743 Y50.387
N19535 X288.635 Y51.322
N19540 X289.485 Y52.294
N19545 X290.296 Y53.301
N19550 X291.064 Y54.339
N19555 X291.087 Y54.371
N19560 X291.307 Y54.755
N19565 X291.469 Y55.166
N19570 X291.567 Y55.598
N19575 X291.6 Y56.039
N19580 Y68.65
N19585 G3 X290.928 Y69.726 Z-3.867 I-1.269 J-0.044 F3500.
N19590 X290.3 Y69.934 Z-3.8 I-0.918 J-1.723
N19595 X288.499 Y69.239 I-0.29 J-1.931
N19600 X290.355 Y57.452 I6.193 J-5.065
N19605 X290.928 Y57.115 Z-3.867 I4.337 J6.723
N19610 G2 X291.6 Y56.039 Z-4. I-0.597 J-1.121
N19615 G1 Y52.655
N19620 X291.568 Y52.023
N19625 X291.498 Y51.483
N19630 X291.367 Y50.871
N19635 X291.162 Y50.188
N19640 X290.875 Y49.45
N19645 X290.475 Y48.626
N19650 X289.971 Y47.77
N19655 X289.349 Y46.884
N19660 X288.59 Y45.97
N19665 X288.467 Y45.844
N19670 X288.111 Y45.533
N19675 X287.71 Y45.283
N19680 X287.275 Y45.1
N19685 X286.816 Y44.988
N19690 X286.346 Y44.95
N19695 X277.409
N19700 G2 X276.332 Y45.622 Z-3.867 I0.044 J1.269
N19705 X276.134 Y46.253 Z-3.8 I1.584 J0.844
N19710 X277.038 Y48.032 I1.782 J0.213
N19715 X284.924 Y46.19 I2.937 J-5.232
N19720 X285.269 Y45.622 Z-3.867 I-4.95 J-3.391
N19725 G3 X286.346 Y44.95 Z-4. I1.121 J0.597
N19730 G1 X288.836 F3150.
N19735 X289.087 Y44.963
N19740 X289.396 Y45.003
N19745 X289.76 Y45.081
N19750 X290.144 Y45.23
N19755 X290.5 Y45.439
N19760 X290.817 Y45.702
N19765 X291.089 Y46.012
N19770 X291.308 Y46.362
N19775 X291.469 Y46.742
N19780 X291.567 Y47.142
N19785 X291.6 Y47.553
N19790 Y52.655
N19795 G3 X290.287 Y53.88 Z-3.8 I-1.269 J-0.044 F3500.
N19800 X289.092 Y52.892 I0.043 J-1.269
N19805 G1 X287.642 Y46.5
N19810 X287.621 Y46.382
N19815 X287.611 Y46.263
N19820 G3 X288.836 Y44.95 Z-4. I1.269 J-0.043
N19825 G1 X290.36 Y44.951 F3150.
N19830 X290.55 Y44.971
N19835 X290.741 Y45.022
N19840 X290.786 Y45.039
N19845 X290.954 Y45.12
N19850 X291.121 Y45.235
N19855 X291.214 Y45.318
N19860 X291.307 Y45.419
N19865 X291.421 Y45.581
N19870 X291.502 Y45.742
N19875 X291.525 Y45.8
N19880 X291.577 Y45.991
N19885 X291.599 Y46.181
N19890 X291.6 Y46.943
N19895 Y47.553
N19900 G3 X290.331 Y48.779 Z-3.804 I-1.269 J-0.044 F3500.
N19905 G1 X290.287 Y48.778 Z-3.8
N19910 G3 X289.07 Y47.36 I0.043 J-1.269
N19915 X290.585 Y46.265 I1.261 J0.149
N19920 X291.457 Y47.81 I-0.236 J1.152
N19925 X251.369 Y46.146 I-19.787 J-7.035
N19930 G1 X251.318 Y45.95 Z-3.82
N19935 G2 X250.736 Y45.171 Z-3.92 I-1.231 J0.313
N19940 G1 X250.726 Y45.165 Z-3.922
N19945 G2 X249.983 Y44.95 Z-4. I-0.798 J1.366
N19950 G1 X237.032
N19955 X235.948 Y45.004
N19960 X234.948 Y45.135
N19965 X233.791 Y45.383
N19970 X232.554 Y45.754
N19975 X231.347 Y46.216
N19980 X230.173 Y46.755
N19985 X229.031 Y47.359
N19990 X227.92 Y48.02
N19995 X226.841 Y48.731
N20000 X225.793 Y49.486
N20005 X224.775 Y50.282
N20010 X223.788 Y51.115
N20015 X222.831 Y51.983
N20020 X221.905 Y52.884
N20025 X221.01 Y53.816
N20030 X220.145 Y54.776
N20035 X219.312 Y55.764
N20040 X218.51 Y56.777
N20045 X217.74 Y57.814
N20050 X217.001 Y58.874
N20055 X216.295 Y59.956
N20060 X215.622 Y61.059
N20065 X214.982 Y62.182
N20070 X214.377 Y63.323
N20075 X213.807 Y64.483
N20080 X213.271 Y65.658
N20085 X212.77 Y66.849
N20090 X212.305 Y68.055
N20095 X211.875 Y69.273
N20100 X211.48 Y70.503
N20105 X211.122 Y71.745
N20110 X210.801 Y72.996
N20115 X210.517 Y74.257
N20120 X210.271 Y75.525
N20125 X210.062 Y76.8
N20130 X209.891 Y78.081
N20135 X209.757 Y79.366
N20140 X209.661 Y80.655
N20145 X209.602 Y81.945
N20150 X209.58 Y83.237
N20155 X209.596 Y84.529
N20160 X209.651 Y85.82
N20165 X209.744 Y87.109
N20170 X209.874 Y88.394
N20175 X210.042 Y89.675
N20180 X210.247 Y90.951
N20185 X210.489 Y92.22
N20190 X210.767 Y93.482
N20195 X211.081 Y94.735
N20200 X211.432 Y95.979
N20205 X211.819 Y97.211
N20210 X212.243 Y98.432
N20215 X212.701 Y99.64
N20220 X213.195 Y100.834
N20225 X213.723 Y102.013
N20230 X214.285 Y103.177
N20235 X214.88 Y104.323
N20240 X215.508 Y105.453
N20245 X216.168 Y106.564
N20250 X216.86 Y107.655
N20255 X217.583 Y108.725
N20260 X218.338 Y109.774
N20265 X219.123 Y110.801
N20270 X219.937 Y111.804
N20275 X220.779 Y112.783
N20280 X221.65 Y113.738
N20285 X222.547 Y114.668
N20290 X223.47 Y115.572
N20295 X224.419 Y116.449
N20300 X225.393 Y117.298
N20305 X226.392 Y118.118
N20310 X227.414 Y118.908
N20315 X228.338 Y119.582
N20320 X228.735 Y119.826
N20325 X229.165 Y120.004
N20330 X229.618 Y120.113
N20335 X230.083 Y120.15
N20340 X239.718
N20345 G2 X240.795 Y119.478 Z-3.867 I-0.044 J-1.269
N20350 X240.949 Y118.838 Z-3.8 I-1.16 J-0.618
N20355 X240.527 Y117.895 I-1.314 J0.022
N20360 X231.504 Y118.91 I-4.073 J4.405
N20365 X231.159 Y119.478 Z-3.867 I4.95 J3.391
N20370 G3 X230.083 Y120.15 Z-4. I-1.121 J-0.597
N20375 G1 X226.366 F3150.
N20380 X225.862 Y120.125
N20385 X225.251 Y120.045
N20390 X224.553 Y119.895
N20395 X223.759 Y119.657
N20400 X222.847 Y119.302
N20405 X221.81 Y118.799
N20410 X220.697 Y118.144
N20415 X219.637 Y117.406
N20420 X218.626 Y116.601
N20425 X217.66 Y115.742
N20430 X216.738 Y114.837
N20435 X215.856 Y113.893
N20440 X215.013 Y112.914
N20445 X214.206 Y111.905
N20450 X213.436 Y110.868
N20455 X212.699 Y109.806
N20460 X211.996 Y108.722
N20465 X211.326 Y107.618
N20470 X210.688 Y106.494
N20475 X210.083 Y105.353
N20480 X209.509 Y104.195
N20485 X208.968 Y103.021
N20490 X208.459 Y101.834
N20495 X207.983 Y100.633
N20500 X207.54 Y99.419
N20505 X207.13 Y98.194
N20510 X206.753 Y96.958
N20515 X206.409 Y95.712
N20520 X206.098 Y94.458
N20525 X205.819 Y93.197
N20530 X205.574 Y91.928
N20535 X205.363 Y90.653
N20540 X205.185 Y89.374
N20545 X205.041 Y88.09
N20550 X204.932 Y86.802
N20555 X204.857 Y85.512
N20560 X204.817 Y84.221
N20565 X204.81 Y82.929
N20570 X204.837 Y81.637
N20575 X204.898 Y80.347
N20580 X204.993 Y79.058
N20585 X205.122 Y77.772
N20590 X205.285 Y76.491
N20595 X205.481 Y75.214
N20600 X205.712 Y73.942
N20605 X205.977 Y72.678
N20610 X206.276 Y71.421
N20615 X206.607 Y70.172
N20620 X206.972 Y68.932
N20625 X207.369 Y67.703
N20630 X207.799 Y66.484
N20635 X208.26 Y65.278
N20640 X208.754 Y64.083
N20645 X209.279 Y62.903
N20650 X209.837 Y61.737
N20655 X210.425 Y60.587
N20660 X211.045 Y59.454
N20665 X211.696 Y58.337
N20670 X212.376 Y57.239
N20675 X213.086 Y56.159
N20680 X213.825 Y55.1
N20685 X214.593 Y54.061
N20690 X215.39 Y53.043
N20695 X216.216 Y52.049
N20700 X217.07 Y51.08
N20705 X217.953 Y50.137
N20710 X218.864 Y49.221
N20715 X219.803 Y48.333
N20720 X220.769 Y47.475
N20725 X221.763 Y46.65
N20730 X222.784 Y45.858
N20735 X223.274 Y45.506
N20740 X223.668 Y45.267
N20745 X224.094 Y45.092
N20750 X224.543 Y44.986
N20755 X225.002 Y44.95
N20760 X237.032
N20765 G3 X238.257 Y46.263 Z-3.8 I-0.044 J1.269 F3500.
N20770 G1 Y46.264
N20775 G3 X237.338 Y47.637 I-1.567 J-0.055
N20780 X226.601 Y46.047 I-4.138 J-9.103
N20785 X225.886 Y45.353 Z-3.9 I6.599 J-7.514
N20790 G2 X225.002 Y44.95 Z-4. I-0.929 J0.866
N20795 G1 X221.414
N20800 X220.923 Y44.975
N20805 X220.347 Y45.05
N20810 X219.674 Y45.194
N20815 X218.924 Y45.419
N20820 X218.066 Y45.753
N20825 X217.091 Y46.226
N20830 X215.989 Y46.874
N20835 X214.932 Y47.617
N20840 X213.928 Y48.43
N20845 X212.972 Y49.299
N20850 X212.061 Y50.216
N20855 X211.192 Y51.171
N20860 X210.361 Y52.161
N20865 X209.568 Y53.181
N20870 X208.81 Y54.227
N20875 X208.086 Y55.298
N20880 X207.396 Y56.39
N20885 X206.737 Y57.502
N20890 X206.111 Y58.631
N20895 X205.515 Y59.778
N20900 X204.95 Y60.94
N20905 X204.416 Y62.117
N20910 X203.912 Y63.306
N20915 X203.438 Y64.508
N20920 X202.994 Y65.721
N20925 X202.58 Y66.946
N20930 X202.197 Y68.18
N20935 X201.845 Y69.423
N20940 X201.524 Y70.674
N20945 X201.234 Y71.933
N20950 X200.974 Y73.199
N20955 X200.746 Y74.471
N20960 X200.548 Y75.748
N20965 X200.381 Y77.029
N20970 X200.244 Y78.314
N20975 X200.138 Y79.601
N20980 X200.064 Y80.891
N20985 X200.021 Y82.182
N20990 X200.009 Y83.474
N20995 X200.029 Y84.766
N21000 X200.079 Y86.057
N21005 X200.161 Y87.347
N21010 X200.275 Y88.634
N21015 X200.418 Y89.918
N21020 X200.593 Y91.198
N21025 X200.798 Y92.474
N21030 X201.033 Y93.744
N21035 X201.299 Y95.009
N21040 X201.596 Y96.266
N21045 X201.923 Y97.516
N21050 X202.281 Y98.758
N21055 X202.669 Y99.99
N21060 X203.088 Y101.213
N21065 X203.536 Y102.424
N21070 X204.014 Y103.625
N21075 X204.521 Y104.813
N21080 X205.058 Y105.988
N21085 X205.624 Y107.15
N21090 X206.22 Y108.296
N21095 X206.846 Y109.426
N21100 X207.503 Y110.539
N21105 X208.19 Y111.633
N21110 X208.908 Y112.707
N21115 X209.657 Y113.76
N21120 X210.439 Y114.789
N21125 X211.252 Y115.793
N21130 X212.1 Y116.768
N21135 X212.984 Y117.71
N21140 X213.905 Y118.616
N21145 X214.756 Y119.385
N21150 X215.099 Y119.652
N21155 X215.478 Y119.867
N21160 X215.884 Y120.023
N21165 X216.309 Y120.118
N21170 X216.743 Y120.15
N21175 X226.366
