%
(TOPENGRAVING)
(MACHINE)
(  VENDOR AUTODESK)
(  MODEL GENERIC 3-AXIS ROUTER)
(  DESCRIPTION THIS MACHINE HAS XYZ AXIS ON THE HEAD)
(T23 D=6.35 CR=0. TAPER=30DEG - ZMIN=-1.587 - CHAMFER MILL)
N10 G90 G94 G17 G91.1
N15 G21
N20 G53 G0 Z0.
(TRACE1)
N25 G53 G0 X-200 Y0
N30 T23 M6
N35 S18000 M3
N40 G4 P3.0
N45 G17 G90 G94
N50 G54
N55 G0 X44.45 Y12.7
N60 G43 Z15. H23
N65 G0 Z5.
N70 G1 Z-1.587 F333.33
N75 X311.15 F1500.
N80 Y127.
N85 X44.45
N90 Y12.7
N95 Z5.
N100 G0 Z15.
N110 G53 G0 X-200 Y-150
N115 M30
%
