%
(TOPGROOVE)
(MACHINE)
(  VENDOR AUTODESK)
(  MODEL GENERIC 3-AXIS ROUTER)
(  DESCRIPTION THIS MACHINE HAS XYZ AXIS ON THE HEAD)
(T23 D=6.35 CR=0. TAPER=30DEG - ZMIN=-1.587 - CHAMFER MILL)
N10 G90 G94 G17 G91.1
N15 G21
N20 G53 G0 Z0.
(TRACE1)
N25 G53 G0 X-200 Y0
N30 T23 M6
N35 S18000 M3
N40 G4 P3.0
N45 G17 G90 G94
N50 G54
N55 G0 X50.8 Y25.4
N60 G43 Z15. H23
N65 G0 Z5.
N70 G1 Z-1.587 F333.33
N75 X304.8 F1500.
N80 X305.298 Y25.42
N85 X305.793 Y25.478
N90 X306.282 Y25.576
N95 X306.762 Y25.711
N100 X307.23 Y25.883
N105 X307.683 Y26.092
N110 X308.118 Y26.336
N115 X308.532 Y26.613
N120 X308.924 Y26.921
N125 X309.29 Y27.26
N130 X309.629 Y27.626
N135 X309.937 Y28.018
N140 X310.214 Y28.432
N145 X310.458 Y28.867
N150 X310.667 Y29.32
N155 X310.839 Y29.788
N160 X310.975 Y30.268
N165 X311.072 Y30.757
N170 X311.13 Y31.252
N175 X311.15 Y31.75
N180 Y133.35
N185 X311.13 Y133.848
N190 X311.072 Y134.343
N195 X310.975 Y134.832
N200 X310.839 Y135.312
N205 X310.667 Y135.78
N210 X310.458 Y136.233
N215 X310.214 Y136.668
N220 X309.937 Y137.082
N225 X309.629 Y137.474
N230 X309.29 Y137.84
N235 X308.924 Y138.179
N240 X308.532 Y138.487
N245 X308.118 Y138.764
N250 X307.683 Y139.008
N255 X307.23 Y139.217
N260 X306.762 Y139.389
N265 X306.282 Y139.525
N270 X305.793 Y139.622
N275 X305.298 Y139.68
N280 X304.8 Y139.7
N285 X50.8
N290 X50.302 Y139.68
N295 X49.807 Y139.622
N300 X49.318 Y139.525
N305 X48.838 Y139.389
N310 X48.37 Y139.217
N315 X47.917 Y139.008
N320 X47.482 Y138.764
N325 X47.068 Y138.487
N330 X46.676 Y138.179
N335 X46.31 Y137.84
N340 X45.971 Y137.474
N345 X45.663 Y137.082
N350 X45.386 Y136.668
N355 X45.142 Y136.233
N360 X44.933 Y135.78
N365 X44.761 Y135.312
N370 X44.625 Y134.832
N375 X44.528 Y134.343
N380 X44.47 Y133.848
N385 X44.45 Y133.35
N390 Y31.75
N395 X44.47 Y31.252
N400 X44.528 Y30.757
N405 X44.625 Y30.268
N410 X44.761 Y29.788
N415 X44.933 Y29.32
N420 X45.142 Y28.867
N425 X45.386 Y28.432
N430 X45.663 Y28.018
N435 X45.971 Y27.626
N440 X46.31 Y27.26
N445 X46.676 Y26.921
N450 X47.068 Y26.613
N455 X47.482 Y26.336
N460 X47.917 Y26.092
N465 X48.37 Y25.883
N470 X48.838 Y25.711
N475 X49.318 Y25.576
N480 X49.807 Y25.478
N485 X50.302 Y25.42
N490 X50.8 Y25.4
N495 Z5.
N500 G0 Z15.
N510 G53 G0 X-200 Y-150
N515 M30
%
