%
(TOPGROOVE)
(MACHINE)
(  VENDOR AUTODESK)
(  MODEL GENERIC 3-AXIS ROUTER)
(  DESCRIPTION THIS MACHINE HAS XYZ AXIS ON THE HEAD)
(T23 D=6.35 CR=0. TAPER=30DEG - ZMIN=-1.6 - CHAMFER MILL)
N10 G90 G94 G17 G91.1
N15 G21
N20 G53 G0 Z0.
(ENGRAVE1)
N25 G53 G0 X-200 Y0
N30 T23 M6
N35 S18000 M3
N40 G4 P3.0
N45 G17 G90 G94
N50 G54
N55 G0 X12.701 Y12.701
N60 G43 Z15. H23
N65 G0 Z5.
N70 G1 Z-0.001 F333.33
N75 X13.624 Y13.624 Z-1.6 F2032.
N80 Y126.076
N85 X12.701 Y126.999 Z-0.001
N90 X13.624 Y126.076 Z-1.6
N95 X278.476
N100 X279.399 Y126.999 Z-0.001
N105 X278.476 Y126.076 Z-1.6
N110 Y13.624
N115 X279.399 Y12.701 Z-0.001
N120 X278.476 Y13.624 Z-1.6
N125 X13.624
N130 G0 Z15.
N135 G53 G0 Z0.
N140 G53 G0 X-200 Y-150
N145 M30
%
