%
(RVCABNEST1)
(MACHINE)
(  VENDOR AUTODESK)
(  MODEL GENERIC 3-AXIS ROUTER)
(  DESCRIPTION THIS MACHINE HAS XYZ AXIS ON THE HEAD)
(T20 D=6.35 CR=0. - ZMIN=0. - FLAT END MILL)
N10 G90 G94 G17 G91.1
N15 G21
(SLOTS1)
N30 S20000 M3
N35 G17 G90 G94
N40 G54
N45 G0 X91.268 Y500.245
N50 G43 Z25.525 H20
N55 G0 Z15.525
N60 G1 Z11.525 F833.33
N65 Z5.397
N70 G18 G2 X91.902 Z4.762 I0.635 K0. F2500.
N75 G1 X92.537
N80 G17 G3 X93.173 Y500.88 I0. J0.635
N85 G1 Y744.537
N90 Y746.125
N95 X89.997
N100 Y504.825
N105 G2 X86.823 Y501.65 I-3.175 J0.
N110 G1 X64.598
N115 Y498.475
N120 X93.173
N125 Y500.88
N130 G3 X92.537 Y501.515 I-0.635 J0.
N135 G1 X91.902
N140 G18 G3 X91.268 Z5.397 I0. K0.635
N145 G0 Z15.525
N150 X43.643 Y499.427
N155 G1 Z11.525 F833.33
N160 Z5.397
N165 G2 X44.278 Z4.762 I0.635 K0. F2500.
N170 G1 X44.912
N175 G17 G3 X45.548 Y500.063 I0. J0.635
N180 G1 Y736.6
N185 X42.373
N190 Y498.475
N195 X45.548
N200 Y500.063
N205 G3 X44.912 Y500.698 I-0.635 J0.
N210 G1 X44.278
N215 G18 G3 X43.643 Z5.397 I0. K0.635
N220 G0 Z15.525
N225 X697.865 Y40.005
N230 G1 Z11.525 F833.33
N235 Z5.397
N240 G19 G2 Y39.37 Z4.762 J-0.635 K0. F2500.
N245 G1 Y38.735
N250 G17 G3 X698.5 Y38.1 I0.635 J0.
N255 G1 X771.525
N260 Y41.275
N265 X696.912
N270 Y38.1
N275 X698.5
N280 G3 X699.135 Y38.735 I0. J0.635
N285 G1 Y39.37
N290 G19 G3 Y40.005 Z5.397 J0. K0.635
N295 G0 Z25.525
N300 G17
(CUTOUTS)
N305 G0 X198.094 Y487.68
N310 Z25.525
N315 Z15.525
N320 G1 Z11.525 F333.33
N325 Z5.16
N330 G19 G2 Y487.045 Z4.525 J-0.635 K0. F1000.
N335 G1 Y486.41
N340 G17 G3 X198.729 Y485.775 I0.635 J0.
N345 G1 X660.4
N350 G2 X663.575 Y482.6 I0. J-3.175
N355 G1 Y25.4
N360 G2 X660.4 Y22.225 I-3.175 J0.
N365 G1 X25.4
N370 G2 X22.225 Y25.4 I0. J3.175
N375 G1 Y482.6
N380 G2 X25.4 Y485.775 I3.175 J0.
N385 G1 X198.729
N390 G3 X199.364 Y486.41 I0. J0.635
N395 G1 Y487.045
N400 G19 G3 Y487.68 Z5.16 J0. K0.635
N405 G0 Z15.525
N410 X675.284 Y279.718
N415 G1 Z11.525 F333.33
N420 Z5.16
N425 G2 Y279.083 Z4.525 J-0.635 K0. F1000.
N430 G1 Y278.448
N435 G17 G3 X675.919 Y277.813 I0.635 J0.
N440 G1 X774.7
N445 G2 X777.875 Y274.638 I0. J-3.175
N450 G1 Y25.4
N455 G2 X774.7 Y22.225 I-3.175 J0.
N460 G1 X673.1
N465 G2 X669.925 Y25.4 I0. J3.175
N470 G1 Y274.638
N475 G2 X673.1 Y277.813 I3.175 J0.
N480 G1 X675.919
N485 G3 X676.554 Y278.448 I0. J0.635
N490 G1 Y279.083
N495 G19 G3 Y279.718 Z5.16 J0. K0.635
N500 G0 Z15.525
N505 X675.284
N510 G1 Z5.525 F333.33
N515 Z3.
N520 Y279.083 F1000.
N525 Y278.448
N530 G17 G3 X675.919 Y277.813 I0.635 J0.
N535 G1 X682.275
N540 Z0. F333.33
N545 X764.164 F1000.
N550 Z3.
N555 X774.7
N560 G2 X777.875 Y274.638 I0. J-3.175
N565 G1 Y271.463
N570 Z0. F333.33
N575 Y184.934 F1000.
N580 Z3.
N585 Y166.584
N590 Z0. F333.33
N595 Y84.695 F1000.
N600 Z3.
N605 Y66.345
N610 Z0. F333.33
N615 Y25.4 F1000.
N620 G2 X774.7 Y22.225 I-3.175 J0.
N625 G1 X733.755
N630 Z3.
N635 X715.405
N640 Z0. F333.33
N645 X673.1 F1000.
N650 G2 X669.925 Y25.4 I0. J3.175
N655 G1 Y64.984
N660 Z3.
N665 Y83.334
N670 Z0. F333.33
N675 Y165.223 F1000.
N680 Z3.
N685 Y183.573
N690 Z0. F333.33
N695 Y271.463 F1000.
N700 Z3.
N705 Y274.638
N710 G2 X673.1 Y277.813 I3.175 J0.
N715 G1 X675.919
N720 G3 X676.554 Y278.448 I0. J0.635
N725 G1 Y279.718
N730 G0 Z15.525
N735 X246.094 Y491.259
N740 G1 Z11.525 F333.33
N745 Z5.16
N750 X246.099 Y491.264 Z5.061 F1000.
N755 X246.116 Y491.281 Z4.964
N760 X246.143 Y491.308 Z4.872
N765 X246.18 Y491.345 Z4.787
N770 X246.225 Y491.39 Z4.711
N775 X246.279 Y491.444 Z4.646
N780 X246.339 Y491.504 Z4.594
N785 X246.404 Y491.569 Z4.556
N790 X246.473 Y491.638 Z4.533
N795 X246.543 Y491.708 Z4.525
N800 X246.992 Y492.157
N805 G3 Y493.055 I-0.449 J0.449
N810 G1 X183.492 Y556.555
N815 G2 X182.562 Y558.8 I2.245 J2.245
N820 G1 Y576.263
N825 G2 X185.737 Y579.438 I3.175 J0.
N830 G1 X266.7
N835 G2 X269.875 Y576.263 I0. J-3.175
N840 G1 Y495.3
N845 G2 X266.7 Y492.125 I-3.175 J0.
N850 G1 X249.237
N855 G2 X246.992 Y493.055 I0. J3.175
N860 G3 X246.094 I-0.449 J-0.449
N865 G1 X245.645 Y492.606
N870 X245.575 Y492.536 Z4.533
N875 X245.506 Y492.467 Z4.556
N880 X245.441 Y492.402 Z4.594
N885 X245.381 Y492.342 Z4.646
N890 X245.327 Y492.288 Z4.711
N895 X245.282 Y492.243 Z4.787
N900 X245.245 Y492.206 Z4.872
N905 X245.218 Y492.179 Z4.964
N910 X245.201 Y492.162 Z5.061
N915 X245.196 Y492.157 Z5.16
N920 G0 Z15.525
N925 X246.094 Y491.259
N930 G1 Z5.525 F333.33
N935 Z0.635
N940 X246.099 Y491.264 Z0.536 F1000.
N945 X246.116 Y491.281 Z0.439
N950 X246.143 Y491.308 Z0.347
N955 X246.18 Y491.345 Z0.262
N960 X246.225 Y491.39 Z0.186
N965 X246.279 Y491.444 Z0.121
N970 X246.339 Y491.504 Z0.069
N975 X246.404 Y491.569 Z0.031
N980 X246.473 Y491.638 Z0.008
N985 X246.543 Y491.708 Z0.
N990 X246.992 Y492.157
N995 G3 Y493.055 I-0.449 J0.449
N1000 G1 X242.585 Y497.462
N1005 Z3.
N1010 X229.61 Y510.437
N1015 Z0. F333.33
N1020 X202.807 Y537.24 F1000.
N1025 Z3.
N1030 X189.831 Y550.216
N1035 Z0. F333.33
N1040 X183.492 Y556.555 F1000.
N1045 G2 X182.562 Y558.8 I2.245 J2.245
N1050 G1 Y576.263
N1055 G2 X185.737 Y579.438 I3.175 J0.
N1060 G1 X266.7
N1065 G2 X269.875 Y576.263 I0. J-3.175
N1070 G1 Y558.676
N1075 Z3.
N1080 Y540.326
N1085 Z0. F333.33
N1090 Y517.771 F1000.
N1095 Z3.
N1100 Y499.421
N1105 Z0. F333.33
N1110 Y495.3 F1000.
N1115 G2 X266.7 Y492.125 I-3.175 J0.
N1120 G1 X249.237
N1125 G2 X246.992 Y493.055 I0. J3.175
N1130 G3 X246.094 I-0.449 J-0.449
N1135 G1 X245.645 Y492.606
N1140 X245.575 Y492.536 Z0.008
N1145 X245.506 Y492.467 Z0.031
N1150 X245.441 Y492.402 Z0.069
N1155 X245.381 Y492.342 Z0.121
N1160 X245.327 Y492.288 Z0.186
N1165 X245.282 Y492.243 Z0.262
N1170 X245.245 Y492.206 Z0.347
N1175 X245.218 Y492.179 Z0.439
N1180 X245.201 Y492.162 Z0.536
N1185 X245.196 Y492.157 Z0.635
N1190 G0 Z15.525
N1195 X53.167 Y492.76
N1200 G1 Z11.525 F333.33
N1205 Z5.16
N1210 X53.161 Y492.765 Z5.061 F1000.
N1215 X53.143 Y492.779 Z4.964
N1220 X53.112 Y492.802 Z4.872
N1225 X53.07 Y492.833 Z4.787
N1230 X53.019 Y492.872 Z4.711
N1235 X52.958 Y492.917 Z4.646
N1240 X52.89 Y492.968 Z4.594
N1245 X52.816 Y493.023 Z4.556
N1250 X52.739 Y493.081 Z4.533
N1255 X52.66 Y493.141 Z4.525
N1260 X52.152 Y493.522
N1265 G3 X51.263 Y493.395 I-0.381 J-0.508
N1270 G2 X48.722 Y492.125 I-2.54 J1.905
N1275 G1 X25.4
N1280 X13.797
N1285 G2 X10.623 Y495.3 I0. J3.175
N1290 G1 Y739.775
N1295 G2 X13.797 Y742.95 I3.175 J0.
N1300 G1 X48.722
N1305 G2 X51.897 Y739.775 I0. J-3.175
N1310 G1 Y495.3
N1315 G2 X51.263 Y493.395 I-3.175 J0.
N1320 G3 X51.389 Y492.506 I0.508 J-0.381
N1325 G1 X51.897 Y492.125
N1330 X51.977 Y492.065 Z4.533
N1335 X52.054 Y492.007 Z4.556
N1340 X52.128 Y491.952 Z4.594
N1345 X52.196 Y491.901 Z4.646
N1350 X52.257 Y491.856 Z4.711
N1355 X52.308 Y491.817 Z4.787
N1360 X52.35 Y491.786 Z4.872
N1365 X52.381 Y491.763 Z4.964
N1370 X52.399 Y491.749 Z5.061
N1375 X52.405 Y491.744 Z5.16
N1380 G0 Z15.525
N1385 X57.74
N1390 G1 Z11.525 F333.33
N1395 Z5.16
N1400 X57.746 Y491.749 Z5.061 F1000.
N1405 X57.764 Y491.763 Z4.964
N1410 X57.795 Y491.786 Z4.872
N1415 X57.837 Y491.817 Z4.787
N1420 X57.888 Y491.856 Z4.711
N1425 X57.949 Y491.901 Z4.646
N1430 X58.017 Y491.952 Z4.594
N1435 X58.091 Y492.007 Z4.556
N1440 X58.168 Y492.065 Z4.533
N1445 X58.248 Y492.125 Z4.525
N1450 X58.756 Y492.506
N1455 G3 X58.882 Y493.395 I-0.381 J0.508
N1460 G2 X58.248 Y495.3 I2.54 J1.905
N1465 G1 Y749.3
N1470 G2 X61.423 Y752.475 I3.175 J0.
N1475 G1 X172.548
N1480 G2 X175.723 Y749.3 I0. J-3.175
N1485 G1 Y558.8
N1490 Y495.3
N1495 G2 X172.548 Y492.125 I-3.175 J0.
N1500 G1 X61.423
N1505 G2 X58.882 Y493.395 I0. J3.175
N1510 G3 X57.993 Y493.522 I-0.508 J-0.381
N1515 G1 X57.486 Y493.141
N1520 X57.406 Y493.081 Z4.533
N1525 X57.329 Y493.023 Z4.556
N1530 X57.255 Y492.968 Z4.594
N1535 X57.187 Y492.917 Z4.646
N1540 X57.126 Y492.872 Z4.711
N1545 X57.075 Y492.833 Z4.787
N1550 X57.033 Y492.802 Z4.872
N1555 X57.002 Y492.779 Z4.964
N1560 X56.984 Y492.765 Z5.061
N1565 X56.978 Y492.76 Z5.16
N1570 G0 Z15.525
N1575 X54.438 Y487.68
N1580 G1 Z5.525 F333.33
N1585 Z3.
N1590 Y487.045 F1000.
N1595 Y486.41
N1600 G3 X54.505 Y486.125 I0.635 J0.
N1605 G1 Z0. F333.33
N1610 G3 X55.073 Y485.775 I0.567 J0.285 F1000.
N1615 G1 X120.244
N1620 Z3.
N1625 X138.594
N1630 Z0. F333.33
N1635 X224.263 F1000.
N1640 Z3.
N1645 X242.613
N1650 Z0. F333.33
N1655 X328.282 F1000.
N1660 Z3.
N1665 X346.632
N1670 Z0. F333.33
N1675 X432.301 F1000.
N1680 Z3.
N1685 X450.651
N1690 Z0. F333.33
N1695 X536.32 F1000.
N1700 Z3.
N1705 X554.67
N1710 Z0. F333.33
N1715 X640.339 F1000.
N1720 Z3.
N1725 X658.689
N1730 Z0. F333.33
N1735 X660.4 F1000.
N1740 G2 X663.575 Y482.6 I0. J-3.175
N1745 G1 Y398.642
N1750 Z3.
N1755 Y380.292
N1760 Z0. F333.33
N1765 Y294.623 F1000.
N1770 Z3.
N1775 Y276.273
N1780 Z0. F333.33
N1785 Y190.604 F1000.
N1790 Z3.
N1795 Y172.254
N1800 Z0. F333.33
N1805 Y86.585 F1000.
N1810 Z3.
N1815 Y68.234
N1820 Z0. F333.33
N1825 Y25.4 F1000.
N1830 G2 X660.4 Y22.225 I-3.175 J0.
N1835 G1 X617.565
N1840 Z3.
N1845 X599.215
N1850 Z0. F333.33
N1855 X513.546 F1000.
N1860 Z3.
N1865 X495.196
N1870 Z0. F333.33
N1875 X409.527 F1000.
N1880 Z3.
N1885 X391.177
N1890 Z0. F333.33
N1895 X305.508 F1000.
N1900 Z3.
N1905 X287.158
N1910 Z0. F333.33
N1915 X201.489 F1000.
N1920 Z3.
N1925 X183.139
N1930 Z0. F333.33
N1935 X97.47 F1000.
N1940 Z3.
N1945 X79.12
N1950 Z0. F333.33
N1955 X25.4 F1000.
N1960 G2 X22.225 Y25.4 I0. J3.175
N1965 G1 Y57.349
N1970 Z3.
N1975 Y75.699
N1980 Z0. F333.33
N1985 Y161.368 F1000.
N1990 Z3.
N1995 Y179.718
N2000 Z0. F333.33
N2005 Y265.387 F1000.
N2010 Z3.
N2015 Y283.737
N2020 Z0. F333.33
N2025 Y369.406 F1000.
N2030 Z3.
N2035 Y387.756
N2040 Z0. F333.33
N2045 Y479.425 F1000.
N2050 Z3.
N2055 Y482.6
N2060 G2 X25.4 Y485.775 I3.175 J0.
N2065 G1 X34.575
N2070 Z0. F333.33
N2075 X55.073 F1000.
N2080 G3 X55.64 Y486.125 I0. J0.635
N2085 G1 Z3.
N2090 G3 X55.708 Y486.41 I-0.567 J0.285
N2095 G1 Y487.68
N2100 G0 Z15.525
N2105 X53.167 Y492.76
N2110 G1 Z5.525 F333.33
N2115 Z0.635
N2120 X53.161 Y492.765 Z0.536 F1000.
N2125 X53.143 Y492.779 Z0.439
N2130 X53.112 Y492.802 Z0.347
N2135 X53.07 Y492.833 Z0.262
N2140 X53.019 Y492.872 Z0.186
N2145 X52.958 Y492.917 Z0.121
N2150 X52.89 Y492.968 Z0.069
N2155 X52.816 Y493.023 Z0.031
N2160 X52.739 Y493.081 Z0.008
N2165 X52.66 Y493.141 Z0.
N2170 X52.152 Y493.522
N2175 G3 X51.263 Y493.395 I-0.381 J-0.508
N2180 G2 X48.722 Y492.125 I-2.54 J1.905
N2185 G1 X13.797
N2190 G2 X10.623 Y495.3 I0. J3.175
N2195 G1 Y507.08
N2200 Z3.
N2205 Y525.43
N2210 Z0. F333.33
N2215 Y618.84 F1000.
N2220 Z3.
N2225 Y637.19
N2230 Z0. F333.33
N2235 Y736.6 F1000.
N2240 Z3.
N2245 Y739.775
N2250 G2 X13.797 Y742.95 I3.175 J0.
N2255 G1 X22.972
N2260 Z0. F333.33
N2265 X48.722 F1000.
N2270 G2 X51.897 Y739.775 I0. J-3.175
N2275 G1 Y672.115
N2280 Z3.
N2285 Y653.765
N2290 Z0. F333.33
N2295 Y560.355 F1000.
N2300 Z3.
N2305 Y542.005
N2310 Z0. F333.33
N2315 Y495.3 F1000.
N2320 G2 X51.263 Y493.395 I-3.175 J0.
N2325 G3 X51.389 Y492.506 I0.508 J-0.381
N2330 G1 X51.897 Y492.125
N2335 X51.977 Y492.065 Z0.008
N2340 X52.054 Y492.007 Z0.031
N2345 X52.128 Y491.952 Z0.069
N2350 X52.196 Y491.901 Z0.121
N2355 X52.257 Y491.856 Z0.186
N2360 X52.308 Y491.817 Z0.262
N2365 X52.35 Y491.786 Z0.347
N2370 X52.381 Y491.763 Z0.439
N2375 X52.399 Y491.749 Z0.536
N2380 X52.405 Y491.744 Z0.635
N2385 G0 Z15.525
N2390 X57.74
N2395 G1 Z5.525 F333.33
N2400 Z3.
N2405 X58.248 Y492.125 F1000.
N2410 X58.756 Y492.506
N2415 G3 X58.882 Y493.395 I-0.381 J0.508
N2420 G2 X58.248 Y495.3 I2.54 J1.905
N2425 G1 Y504.475
N2430 Z0. F333.33
N2435 Y590.446 F1000.
N2440 Z3.
N2445 Y608.796
N2450 Z0. F333.33
N2455 Y694.768 F1000.
N2460 Z3.
N2465 Y713.118
N2470 Z0. F333.33
N2475 Y749.3 F1000.
N2480 G2 X61.423 Y752.475 I3.175 J0.
N2485 G1 X111.212
N2490 Z3.
N2495 X129.562
N2500 Z0. F333.33
N2505 X172.548 F1000.
N2510 G2 X175.723 Y749.3 I0. J-3.175
N2515 G1 Y706.314
N2520 Z3.
N2525 Y687.964
N2530 Z0. F333.33
N2535 Y601.993 F1000.
N2540 Z3.
N2545 Y583.643
N2550 Z0. F333.33
N2555 Y495.3 F1000.
N2560 G2 X174.919 Y493.188 I-3.175 J0.
N2565 G1 Z3.
N2570 G2 X172.548 Y492.125 I-2.371 J2.112
N2575 G1 X156.569
N2580 Z0. F333.33
N2585 X64.598 F1000.
N2590 Z3.
N2595 X61.423
N2600 G2 X58.882 Y493.395 I0. J3.175
N2605 G3 X57.993 Y493.522 I-0.508 J-0.381
N2610 G1 X56.978 Y492.76
N2615 G0 Z25.525
N2620 G53 G0 Z0.
N2625 G53 G0 X0. Y0.
N2630 M30
%
