%
(RVCABNEST1)
(MACHINE)
(  VENDOR AUTODESK)
(  MODEL GENERIC 3-AXIS ROUTER)
(  DESCRIPTION THIS MACHINE HAS XYZ AXIS ON THE HEAD)
(T20 D=6.35 CR=0. - ZMIN=0. - FLAT END MILL)
N10 G90 G94 G17 G91.1
N15 G21
(2D ADAPTIVE1)
(MANUAL TOOL CHANGE TO T20)
N30 S20000 M3
N35 G17 G90 G94
N40 G54
N45 G0 X781.986 Y40.62
N50 G43 Z25.525 H20
N55 G0 Z15.525
N60 Z6.032
N65 G1 Z5.398 F1000.
N70 X781.978 Y40.622 Z5.298
N75 X781.956 Y40.628 Z5.201
N80 X781.919 Y40.637 Z5.109
N85 X781.869 Y40.65 Z5.024
N90 X781.806 Y40.666 Z4.948
N95 X781.732 Y40.685 Z4.884
N100 X781.65 Y40.706 Z4.832
N105 X781.561 Y40.729 Z4.794
N110 X781.467 Y40.753 Z4.77
N115 X781.371 Y40.778 Z4.762
N120 G3 X777.914 Y41.275 I-4.023 J-15.704
N125 G1 X777.044
N130 X776.894 Y41.268
N135 X776.573 Y41.073
N140 X776.219 Y40.789
N145 X775.839 Y40.39
N150 X775.439 Y39.841
N155 X775.026 Y39.082
N160 X774.981 Y38.962
N165 X774.939 Y38.762
N170 X774.963 Y38.56
N175 X775.05 Y38.375
N180 X775.192 Y38.228
N185 X775.372 Y38.133
N190 X775.574 Y38.1
N195 G3 X776.054 Y38.347 Z4.874 I-0.022 J0.635
N200 G1 X776.184 Y38.515 Z4.917
N205 X776.322 Y38.694 Z4.963
N210 X777.525 Y40.252
N215 G3 X777.657 Y40.619 I-0.503 J0.388
N220 X777.044 Y41.275 Z4.762 I-0.635 J0.022
N225 G1 X775.182
N230 X774.81 Y41.256
N235 X774.504 Y41.2
N240 X774.185 Y41.097
N245 X773.886 Y40.953
N250 X773.603 Y40.768
N255 X773.333 Y40.537
N260 X773.1 Y40.275
N265 X772.895 Y39.974
N270 X772.728 Y39.642
N275 X772.609 Y39.296
N280 X772.532 Y38.916
N285 X772.522 Y38.779
N290 X772.542 Y38.572
N295 X772.627 Y38.383
N300 X772.769 Y38.232
N305 X772.951 Y38.134
N310 X773.156 Y38.1
N315 X774.561
N320 G3 X775.142 Y38.538 Z4.918 I-0.022 J0.635
N325 G1 X775.211 Y38.749 Z4.963
N330 X775.763 Y40.444
N335 X775.785 Y40.53
N340 X775.794 Y40.619
N345 G3 X775.182 Y41.275 Z4.762 I-0.635 J0.022
N350 G1 X772.698
N355 X772.356 Y41.258
N360 X772.067 Y41.205
N365 X771.768 Y41.107
N370 X771.469 Y40.965
N375 X771.182 Y40.777
N380 X770.913 Y40.546
N385 X770.68 Y40.285
N390 X770.473 Y39.98
N395 X770.307 Y39.648
N400 X770.187 Y39.302
N405 X770.109 Y38.92
N410 X770.099 Y38.779
N415 X770.119 Y38.572
N420 X770.204 Y38.383
N425 X770.346 Y38.232
N430 X770.528 Y38.134
N435 X770.733 Y38.1
N440 X773.156
N445 G3 X773.768 Y38.756 Z4.963 I-0.022 J0.635
N450 G1 X773.763 Y38.82
N455 X773.751 Y38.883
N460 X773.333 Y40.622
N465 X773.293 Y40.789 Z4.928
N470 G3 X772.698 Y41.275 Z4.762 I-0.617 J-0.148
N475 G1 X770.215
N480 X769.933 Y41.261
N485 X769.644 Y41.208
N490 X769.345 Y41.111
N495 X769.046 Y40.968
N500 X768.759 Y40.78
N505 X768.489 Y40.548
N510 X768.256 Y40.287
N515 X768.049 Y39.982
N520 X767.882 Y39.65
N525 X767.763 Y39.303
N530 X767.685 Y38.921
N535 X767.675 Y38.779
N540 X767.695 Y38.572
N545 X767.78 Y38.383
N550 X767.921 Y38.232
N555 X768.104 Y38.134
N560 X768.309 Y38.1
N565 X770.733
N570 G3 X771.345 Y38.756 Z4.963 I-0.022 J0.635
N575 G1 X771.339 Y38.829
N580 X771.323 Y38.901
N585 X770.855 Y40.623
N590 X770.805 Y40.807 Z4.924
N595 X770.794 Y40.842 Z4.917
N600 G3 X770.215 Y41.275 Z4.762 I-0.602 J-0.202
N605 G1 X767.731
N610 X767.509 Y41.264
N615 X767.22 Y41.211
N620 X766.921 Y41.113
N625 X766.622 Y40.97
N630 X766.334 Y40.783
N635 X766.064 Y40.551
N640 X765.831 Y40.289
N645 X765.623 Y39.984
N650 X765.457 Y39.651
N655 X765.337 Y39.305
N660 X765.259 Y38.922
N665 X765.249 Y38.779
N670 X765.269 Y38.572
N675 X765.354 Y38.383
N680 X765.496 Y38.232
N685 X765.678 Y38.134
N690 X765.883 Y38.1
N695 X768.309
N700 G3 X768.921 Y38.756 Z4.963 I-0.022 J0.635
N705 G1 X768.913 Y38.838
N710 X768.894 Y38.919
N715 X768.377 Y40.625
N720 X768.317 Y40.825 Z4.921
N725 X768.311 Y40.842 Z4.917
N730 G3 X767.731 Y41.275 Z4.762 I-0.602 J-0.202
N735 G1 X765.247
N740 X765.084 Y41.267
N745 X764.795 Y41.214
N750 X764.495 Y41.116
N755 X764.196 Y40.973
N760 X763.908 Y40.785
N765 X763.638 Y40.553
N770 X763.404 Y40.291
N775 X763.197 Y39.986
N780 X763.03 Y39.653
N785 X762.91 Y39.306
N790 X762.832 Y38.923
N795 X762.822 Y38.779
N800 X762.842 Y38.572
N805 X762.927 Y38.383
N810 X763.068 Y38.232
N815 X763.251 Y38.134
N820 X763.456 Y38.1
N825 X765.883
N830 G3 X766.495 Y38.756 Z4.963 I-0.022 J0.635
N835 G1 X766.486 Y38.847
N840 X766.463 Y38.935
N845 X765.899 Y40.627
N850 X765.828 Y40.841 Z4.917
N855 G3 X765.247 Y41.275 Z4.762 I-0.602 J-0.201
N860 G1 X762.971
N865 X762.655 Y41.259
N870 X762.366 Y41.206
N875 X762.068 Y41.109
N880 X761.769 Y40.966
N885 X761.482 Y40.779
N890 X761.212 Y40.547
N895 X760.979 Y40.286
N900 X760.772 Y39.981
N905 X760.606 Y39.649
N910 X760.486 Y39.303
N915 X760.408 Y38.92
N920 X760.398 Y38.779
N925 X760.418 Y38.572
N930 X760.503 Y38.383
N935 X760.645 Y38.232
N940 X760.827 Y38.134
N945 X761.032 Y38.1
N950 X763.456
N955 G3 X764.068 Y38.756 Z4.963 I-0.022 J0.635
N960 G1 X764.062 Y38.824
N965 X764.049 Y38.891
N970 X763.609 Y40.623
N975 X763.564 Y40.797 Z4.926
N980 X763.551 Y40.842 Z4.917
N985 G3 X762.971 Y41.275 Z4.762 I-0.602 J-0.202
N990 G1 X760.487
N995 X760.232 Y41.262
N1000 X759.944 Y41.209
N1005 X759.644 Y41.112
N1010 X759.345 Y40.969
N1015 X759.057 Y40.781
N1020 X758.788 Y40.549
N1025 X758.555 Y40.288
N1030 X758.347 Y39.983
N1035 X758.181 Y39.651
N1040 X758.061 Y39.304
N1045 X757.983 Y38.921
N1050 X757.973 Y38.779
N1055 X757.993 Y38.572
N1060 X758.078 Y38.383
N1065 X758.22 Y38.232
N1070 X758.402 Y38.134
N1075 X758.607 Y38.1
N1080 X761.032
N1085 G3 X761.644 Y38.756 Z4.963 I-0.022 J0.635
N1090 G1 X761.637 Y38.833
N1095 X761.62 Y38.909
N1100 X761.13 Y40.624
N1105 X761.076 Y40.815 Z4.923
N1110 X761.067 Y40.842 Z4.917
N1115 G3 X760.487 Y41.275 Z4.762 I-0.602 J-0.202
N1120 G1 X758.004
N1125 X757.808 Y41.265
N1130 X757.519 Y41.212
N1135 X757.219 Y41.115
N1140 X756.92 Y40.972
N1145 X756.632 Y40.784
N1150 X756.362 Y40.552
N1155 X756.129 Y40.29
N1160 X755.921 Y39.985
N1165 X755.755 Y39.652
N1170 X755.635 Y39.305
N1175 X755.557 Y38.922
N1180 X755.547 Y38.779
N1185 X755.567 Y38.572
N1190 X755.652 Y38.383
N1195 X755.793 Y38.232
N1200 X755.976 Y38.134
N1205 X756.181 Y38.1
N1210 X758.607
N1215 G3 X759.219 Y38.756 Z4.963 I-0.022 J0.635
N1220 G1 X759.211 Y38.842
N1225 X759.19 Y38.926
N1230 X758.652 Y40.626
N1235 X758.587 Y40.832 Z4.919
N1240 X758.584 Y40.842 Z4.917
N1245 G3 X758.004 Y41.275 Z4.762 I-0.602 J-0.202
N1250 G1 X755.727
N1255 X755.38 Y41.258
N1260 X755.091 Y41.204
N1265 X754.793 Y41.107
N1270 X754.494 Y40.965
N1275 X754.207 Y40.777
N1280 X753.937 Y40.546
N1285 X753.705 Y40.285
N1290 X753.497 Y39.98
N1295 X753.331 Y39.648
N1300 X753.212 Y39.302
N1305 X753.134 Y38.92
N1310 X753.124 Y38.779
N1315 X753.144 Y38.572
N1320 X753.229 Y38.383
N1325 X753.37 Y38.232
N1330 X753.553 Y38.134
N1335 X753.758 Y38.1
N1340 X756.181
N1345 G3 X756.793 Y38.756 Z4.963 I-0.022 J0.635
N1350 G1 X756.788 Y38.819
N1355 X756.776 Y38.882
N1360 X756.362 Y40.622
N1365 X756.323 Y40.787 Z4.928
N1370 X756.307 Y40.842 Z4.917
N1375 G3 X755.727 Y41.275 Z4.762 I-0.602 J-0.202
N1380 G1 X753.244
N1385 X752.958 Y41.261
N1390 X752.669 Y41.208
N1395 X752.37 Y41.11
N1400 X752.071 Y40.967
N1405 X751.783 Y40.78
N1410 X751.514 Y40.548
N1415 X751.281 Y40.287
N1420 X751.073 Y39.982
N1425 X750.907 Y39.65
N1430 X750.787 Y39.303
N1435 X750.71 Y38.921
N1440 X750.7 Y38.779
N1445 X750.72 Y38.572
N1450 X750.805 Y38.383
N1455 X750.946 Y38.232
N1460 X751.129 Y38.134
N1465 X751.333 Y38.1
N1470 X753.758
N1475 G3 X754.37 Y38.756 Z4.963 I-0.022 J0.635
N1480 G1 X754.363 Y38.829
N1485 X754.349 Y38.9
N1490 X753.884 Y40.623
N1495 X753.835 Y40.806 Z4.925
N1500 G3 X753.244 Y41.275 Z4.762 I-0.613 J-0.165
N1505 G1 X750.76
N1510 X750.534 Y41.264
N1515 X750.245 Y41.21
N1520 X749.946 Y41.113
N1525 X749.647 Y40.97
N1530 X749.359 Y40.782
N1535 X749.089 Y40.55
N1540 X748.856 Y40.289
N1545 X748.648 Y39.984
N1550 X748.482 Y39.651
N1555 X748.362 Y39.305
N1560 X748.284 Y38.922
N1565 X748.274 Y38.779
N1570 X748.294 Y38.572
N1575 X748.379 Y38.383
N1580 X748.52 Y38.232
N1585 X748.703 Y38.134
N1590 X748.908 Y38.1
N1595 X751.333
N1600 G3 X751.946 Y38.756 Z4.963 I-0.022 J0.635
N1605 G1 X751.938 Y38.838
N1610 X751.919 Y38.917
N1615 X751.406 Y40.625
N1620 X751.346 Y40.823 Z4.921
N1625 G3 X750.76 Y41.275 Z4.762 I-0.608 J-0.183
N1630 G1 X748.277
N1635 X748.109 Y41.267
N1640 X747.82 Y41.213
N1645 X747.52 Y41.116
N1650 X747.221 Y40.973
N1655 X746.933 Y40.785
N1660 X746.663 Y40.553
N1665 X746.429 Y40.291
N1670 X746.221 Y39.985
N1675 X746.055 Y39.653
N1680 X745.935 Y39.306
N1685 X745.857 Y38.923
N1690 X745.847 Y38.779
N1695 X745.867 Y38.572
N1700 X745.952 Y38.383
N1705 X746.093 Y38.232
N1710 X746.276 Y38.134
N1715 X746.481 Y38.1
N1720 X748.908
N1725 G3 X749.52 Y38.756 Z4.963 I-0.022 J0.635
N1730 G1 X749.511 Y38.846
N1735 X749.488 Y38.934
N1740 X748.928 Y40.627
N1745 X748.857 Y40.84 Z4.917
N1750 G3 X748.277 Y41.275 Z4.762 I-0.603 J-0.2
N1755 G1 X746.
N1760 X745.68 Y41.259
N1765 X745.391 Y41.206
N1770 X745.093 Y41.109
N1775 X744.794 Y40.966
N1780 X744.507 Y40.778
N1785 X744.237 Y40.547
N1790 X744.004 Y40.286
N1795 X743.797 Y39.981
N1800 X743.631 Y39.649
N1805 X743.511 Y39.303
N1810 X743.433 Y38.92
N1815 X743.424 Y38.779
N1820 X743.443 Y38.572
N1825 X743.528 Y38.383
N1830 X743.67 Y38.232
N1835 X743.853 Y38.134
N1840 X744.057 Y38.1
N1845 X746.481
N1850 G3 X747.093 Y38.756 Z4.963 I-0.022 J0.635
N1855 G1 X747.087 Y38.824
N1860 X747.074 Y38.89
N1865 X746.637 Y40.623
N1870 X746.594 Y40.796 Z4.927
N1875 G3 X746. Y41.275 Z4.762 I-0.616 J-0.155
N1880 G1 X743.517
N1885 X743.258 Y41.262
N1890 X742.969 Y41.209
N1895 X742.669 Y41.112
N1900 X742.37 Y40.969
N1905 X742.083 Y40.781
N1910 X741.813 Y40.549
N1915 X741.58 Y40.288
N1920 X741.372 Y39.983
N1925 X741.206 Y39.65
N1930 X741.086 Y39.304
N1935 X741.008 Y38.921
N1940 X740.999 Y38.779
N1945 X741.018 Y38.572
N1950 X741.103 Y38.383
N1955 X741.245 Y38.232
N1960 X741.428 Y38.134
N1965 X741.632 Y38.1
N1970 X744.057
N1975 G3 X744.669 Y38.756 Z4.963 I-0.022 J0.635
N1980 G1 X744.662 Y38.833
N1985 X744.646 Y38.908
N1990 X744.159 Y40.624
N1995 X744.105 Y40.814 Z4.923
N2000 X744.097 Y40.842 Z4.917
N2005 G3 X743.517 Y41.275 Z4.762 I-0.602 J-0.202
N2010 G1 X741.033
N2015 X740.833 Y41.265
N2020 X740.544 Y41.212
N2025 X740.245 Y41.115
N2030 X739.945 Y40.971
N2035 X739.657 Y40.784
N2040 X739.387 Y40.551
N2045 X739.154 Y40.29
N2050 X738.947 Y39.984
N2055 X738.78 Y39.652
N2060 X738.66 Y39.305
N2065 X738.582 Y38.922
N2070 X738.572 Y38.779
N2075 X738.592 Y38.572
N2080 X738.677 Y38.383
N2085 X738.819 Y38.232
N2090 X739.001 Y38.134
N2095 X739.206 Y38.1
N2100 X741.632
N2105 G3 X742.245 Y38.756 Z4.963 I-0.022 J0.635
N2110 G1 X742.236 Y38.842
N2115 X742.216 Y38.925
N2120 X741.681 Y40.626
N2125 X741.617 Y40.831 Z4.919
N2130 X741.613 Y40.842 Z4.917
N2135 G3 X741.033 Y41.275 Z4.762 I-0.602 J-0.202
N2140 G1 X738.757
N2145 X738.405 Y41.257
N2150 X738.116 Y41.204
N2155 X737.818 Y41.107
N2160 X737.519 Y40.965
N2165 X737.232 Y40.777
N2170 X736.963 Y40.546
N2175 X736.73 Y40.285
N2180 X736.523 Y39.98
N2185 X736.357 Y39.648
N2190 X736.237 Y39.302
N2195 X736.159 Y38.92
N2200 X736.149 Y38.779
N2205 X736.169 Y38.572
N2210 X736.254 Y38.383
N2215 X736.396 Y38.232
N2220 X736.578 Y38.134
N2225 X736.783 Y38.1
N2230 X739.206
N2235 G3 X739.818 Y38.756 Z4.963 I-0.022 J0.635
N2240 G1 X739.813 Y38.819
N2245 X739.802 Y38.88
N2250 X739.391 Y40.622
N2255 X739.353 Y40.786 Z4.929
N2260 G3 X738.757 Y41.275 Z4.762 I-0.618 J-0.146
N2265 G1 X736.273
N2270 X735.983 Y41.26
N2275 X735.694 Y41.207
N2280 X735.395 Y41.11
N2285 X735.096 Y40.967
N2290 X734.809 Y40.78
N2295 X734.539 Y40.548
N2300 X734.306 Y40.287
N2305 X734.099 Y39.982
N2310 X733.933 Y39.65
N2315 X733.813 Y39.303
N2320 X733.735 Y38.921
N2325 X733.725 Y38.779
N2330 X733.745 Y38.572
N2335 X733.83 Y38.383
N2340 X733.972 Y38.232
N2345 X734.154 Y38.134
N2350 X734.359 Y38.1
N2355 X736.783
N2360 G3 X737.395 Y38.756 Z4.963 I-0.022 J0.635
N2365 G1 X737.389 Y38.828
N2370 X737.374 Y38.899
N2375 X736.913 Y40.623
N2380 X736.864 Y40.805 Z4.925
N2385 X736.853 Y40.842 Z4.917
N2390 G3 X736.273 Y41.275 Z4.762 I-0.602 J-0.202
N2395 G1 X733.79
N2400 X733.56 Y41.263
N2405 X733.271 Y41.21
N2410 X732.971 Y41.113
N2415 X732.672 Y40.97
N2420 X732.384 Y40.782
N2425 X732.114 Y40.55
N2430 X731.881 Y40.289
N2435 X731.674 Y39.984
N2440 X731.507 Y39.651
N2445 X731.387 Y39.304
N2450 X731.31 Y38.922
N2455 X731.3 Y38.779
N2460 X731.319 Y38.572
N2465 X731.405 Y38.383
N2470 X731.546 Y38.232
N2475 X731.729 Y38.134
N2480 X731.933 Y38.1
N2485 X734.359
N2490 G3 X734.971 Y38.756 Z4.963 I-0.022 J0.635
N2495 G1 X734.963 Y38.837
N2500 X734.945 Y38.916
N2505 X734.435 Y40.625
N2510 X734.376 Y40.822 Z4.921
N2515 X734.37 Y40.842 Z4.917
N2520 G3 X733.79 Y41.275 Z4.762 I-0.602 J-0.202
N2525 G1 X731.306
N2530 X731.134 Y41.266
N2535 X730.845 Y41.213
N2540 X730.546 Y41.116
N2545 X730.246 Y40.973
N2550 X729.958 Y40.785
N2555 X729.688 Y40.553
N2560 X729.455 Y40.291
N2565 X729.247 Y39.985
N2570 X729.08 Y39.653
N2575 X728.961 Y39.306
N2580 X728.883 Y38.923
N2585 X728.873 Y38.779
N2590 X728.893 Y38.572
N2595 X728.978 Y38.383
N2600 X729.119 Y38.232
N2605 X729.302 Y38.134
N2610 X729.506 Y38.1
N2615 X731.933
N2620 G3 X732.546 Y38.756 Z4.963 I-0.022 J0.635
N2625 G1 X732.536 Y38.846
N2630 X732.514 Y38.933
N2635 X731.957 Y40.627
N2640 X731.887 Y40.839 Z4.918
N2645 X731.886 Y40.842 Z4.917
N2650 G3 X731.306 Y41.275 Z4.762 I-0.602 J-0.202
N2655 G1 X729.03
N2660 X728.706 Y41.259
N2665 X728.417 Y41.206
N2670 X728.118 Y41.109
N2675 X727.82 Y40.966
N2680 X727.532 Y40.778
N2685 X727.263 Y40.547
N2690 X727.03 Y40.286
N2695 X726.823 Y39.981
N2700 X726.656 Y39.649
N2705 X726.537 Y39.302
N2710 X726.459 Y38.92
N2715 X726.449 Y38.779
N2720 X726.469 Y38.572
N2725 X726.554 Y38.383
N2730 X726.696 Y38.232
N2735 X726.878 Y38.134
N2740 X727.083 Y38.1
N2745 X729.506
N2750 G3 X730.119 Y38.756 Z4.963 I-0.022 J0.635
N2755 G1 X730.113 Y38.823
N2760 X730.1 Y38.889
N2765 X729.666 Y40.622
N2770 X729.623 Y40.794 Z4.927
N2775 X729.609 Y40.842 Z4.917
N2780 G3 X729.03 Y41.275 Z4.762 I-0.602 J-0.202
N2785 G1 X726.546
N2790 X726.283 Y41.262
N2795 X725.994 Y41.209
N2800 X725.695 Y41.111
N2805 X725.396 Y40.968
N2810 X725.108 Y40.781
N2815 X724.839 Y40.549
N2820 X724.606 Y40.288
N2825 X724.398 Y39.982
N2830 X724.232 Y39.65
N2835 X724.112 Y39.304
N2840 X724.034 Y38.921
N2845 X724.024 Y38.779
N2850 X724.044 Y38.572
N2855 X724.129 Y38.383
N2860 X724.271 Y38.232
N2865 X724.453 Y38.134
N2870 X724.658 Y38.1
N2875 X727.083
N2880 G3 X727.695 Y38.756 Z4.963 I-0.022 J0.635
N2885 G1 X727.688 Y38.832
N2890 X727.672 Y38.907
N2895 X727.188 Y40.624
N2900 X727.135 Y40.813 Z4.923
N2905 G3 X726.546 Y41.275 Z4.762 I-0.611 J-0.172
N2910 G1 X724.063
N2915 X723.859 Y41.265
N2920 X723.57 Y41.212
N2925 X723.27 Y41.114
N2930 X722.971 Y40.971
N2935 X722.683 Y40.783
N2940 X722.413 Y40.551
N2945 X722.18 Y40.29
N2950 X721.972 Y39.984
N2955 X721.806 Y39.652
N2960 X721.686 Y39.305
N2965 X721.608 Y38.922
N2970 X721.598 Y38.779
N2975 X721.618 Y38.572
N2980 X721.703 Y38.383
N2985 X721.845 Y38.232
N2990 X722.027 Y38.134
N2995 X722.232 Y38.1
N3000 X724.658
N3005 G3 X725.27 Y38.756 Z4.963 I-0.022 J0.635
N3010 G1 X725.262 Y38.841
N3015 X725.242 Y38.924
N3020 X724.71 Y40.626
N3025 X724.646 Y40.83 Z4.92
N3030 X724.642 Y40.842 Z4.917
N3035 G3 X724.063 Y41.275 Z4.762 I-0.602 J-0.202
N3040 G1 X721.786
N3045 X721.431 Y41.257
N3050 X721.142 Y41.204
N3055 X720.844 Y41.107
N3060 X720.545 Y40.964
N3065 X720.258 Y40.777
N3070 X719.989 Y40.545
N3075 X719.756 Y40.285
N3080 X719.549 Y39.98
N3085 X719.383 Y39.648
N3090 X719.263 Y39.302
N3095 X719.185 Y38.92
N3100 X719.175 Y38.779
N3105 X719.195 Y38.572
N3110 X719.28 Y38.383
N3115 X719.422 Y38.232
N3120 X719.604 Y38.134
N3125 X719.809 Y38.1
N3130 X722.232
N3135 G3 X722.844 Y38.756 Z4.963 I-0.022 J0.635
N3140 G1 X722.839 Y38.818
N3145 X722.828 Y38.879
N3150 X722.42 Y40.622
N3155 X722.382 Y40.785 Z4.929
N3160 G3 X721.786 Y41.275 Z4.762 I-0.618 J-0.145
N3165 G1 X719.302
N3170 X719.009 Y41.26
N3175 X718.72 Y41.207
N3180 X718.421 Y41.11
N3185 X718.122 Y40.967
N3190 X717.835 Y40.779
N3195 X717.565 Y40.548
N3200 X717.332 Y40.287
N3205 X717.125 Y39.981
N3210 X716.959 Y39.65
N3215 X716.839 Y39.303
N3220 X716.761 Y38.921
N3225 X716.751 Y38.779
N3230 X716.771 Y38.572
N3235 X716.856 Y38.383
N3240 X716.998 Y38.232
N3245 X717.18 Y38.134
N3250 X717.385 Y38.1
N3255 X719.809
N3260 G3 X720.421 Y38.756 Z4.963 I-0.022 J0.635
N3265 G1 X720.415 Y38.828
N3270 X720.401 Y38.898
N3275 X719.942 Y40.623
N3280 X719.894 Y40.804 Z4.925
N3285 X719.882 Y40.842 Z4.917
N3290 G3 X719.302 Y41.275 Z4.762 I-0.602 J-0.202
N3295 G1 X716.819
N3300 X716.586 Y41.263
N3305 X716.297 Y41.21
N3310 X715.997 Y41.113
N3315 X715.698 Y40.97
N3320 X715.41 Y40.782
N3325 X715.141 Y40.55
N3330 X714.907 Y40.289
N3335 X714.7 Y39.983
N3340 X714.533 Y39.651
N3345 X714.414 Y39.304
N3350 X714.336 Y38.922
N3355 X714.326 Y38.779
N3360 X714.346 Y38.572
N3365 X714.431 Y38.383
N3370 X714.572 Y38.232
N3375 X714.755 Y38.134
N3380 X714.959 Y38.1
N3385 X717.385
N3390 G3 X717.997 Y38.756 Z4.963 I-0.022 J0.635
N3395 G1 X717.989 Y38.837
N3400 X717.971 Y38.915
N3405 X717.464 Y40.625
N3410 X717.405 Y40.821 Z4.921
N3415 X717.399 Y40.842 Z4.917
N3420 G3 X716.819 Y41.275 Z4.762 I-0.602 J-0.202
N3425 G1 X714.335
N3430 X714.161 Y41.266
N3435 X713.872 Y41.213
N3440 X713.572 Y41.116
N3445 X713.272 Y40.973
N3450 X712.984 Y40.785
N3455 X712.714 Y40.552
N3460 X712.481 Y40.291
N3465 X712.273 Y39.985
N3470 X712.107 Y39.653
N3475 X711.987 Y39.306
N3480 X711.909 Y38.923
N3485 X711.899 Y38.779
N3490 X711.919 Y38.572
N3495 X712.004 Y38.383
N3500 X712.145 Y38.232
N3505 X712.328 Y38.134
N3510 X712.532 Y38.1
N3515 X714.959
N3520 G3 X715.572 Y38.756 Z4.963 I-0.022 J0.635
N3525 G1 X715.562 Y38.845
N3530 X715.541 Y38.932
N3535 X714.986 Y40.626
N3540 X714.917 Y40.838 Z4.918
N3545 X714.915 Y40.842 Z4.917
N3550 G3 X714.335 Y41.275 Z4.762 I-0.602 J-0.202
N3555 G1 X712.059
N3560 X711.732 Y41.259
N3565 X711.443 Y41.205
N3570 X711.145 Y41.108
N3575 X710.846 Y40.966
N3580 X710.558 Y40.778
N3585 X710.289 Y40.547
N3590 X710.056 Y40.286
N3595 X709.849 Y39.981
N3600 X709.683 Y39.649
N3605 X709.563 Y39.302
N3610 X709.485 Y38.92
N3615 X709.476 Y38.779
N3620 X709.495 Y38.572
N3625 X709.58 Y38.383
N3630 X709.722 Y38.232
N3635 X709.905 Y38.134
N3640 X710.109 Y38.1
N3645 X712.532
N3650 G3 X713.145 Y38.756 Z4.963 I-0.022 J0.635
N3655 G1 X713.139 Y38.823
N3660 X713.127 Y38.888
N3665 X712.695 Y40.622
N3670 X712.653 Y40.794 Z4.927
N3675 X712.639 Y40.842 Z4.917
N3680 G3 X712.059 Y41.275 Z4.762 I-0.602 J-0.202
N3685 G1 X709.575
N3690 X709.31 Y41.262
N3695 X709.021 Y41.209
N3700 X708.721 Y41.111
N3705 X708.422 Y40.968
N3710 X708.135 Y40.781
N3715 X707.865 Y40.549
N3720 X707.632 Y40.288
N3725 X707.425 Y39.982
N3730 X707.258 Y39.65
N3735 X707.138 Y39.304
N3740 X707.061 Y38.921
N3745 X707.051 Y38.779
N3750 X707.071 Y38.572
N3755 X707.156 Y38.383
N3760 X707.297 Y38.232
N3765 X707.48 Y38.134
N3770 X707.684 Y38.1
N3775 X710.109
N3780 G3 X710.722 Y38.756 Z4.963 I-0.022 J0.635
N3785 G1 X710.714 Y38.832
N3790 X710.698 Y38.906
N3795 X710.217 Y40.624
N3800 X710.165 Y40.812 Z4.923
N3805 G3 X709.575 Y41.275 Z4.762 I-0.611 J-0.171
N3810 G1 X707.092
N3815 X706.885 Y41.265
N3820 X706.596 Y41.211
N3825 X706.297 Y41.114
N3830 X705.997 Y40.971
N3835 X705.71 Y40.783
N3840 X705.44 Y40.551
N3845 X705.206 Y40.29
N3850 X704.999 Y39.984
N3855 X704.832 Y39.652
N3860 X704.712 Y39.305
N3865 X704.635 Y38.922
N3870 X704.625 Y38.779
N3875 X704.644 Y38.572
N3880 X704.73 Y38.383
N3885 X704.871 Y38.232
N3890 X705.054 Y38.134
N3895 X705.258 Y38.1
N3900 X707.684
N3905 G3 X708.297 Y38.756 Z4.963 I-0.022 J0.635
N3910 G1 X708.288 Y38.841
N3915 X708.268 Y38.923
N3920 X707.739 Y40.625
N3925 X707.676 Y40.829 Z4.92
N3930 X707.672 Y40.842 Z4.917
N3935 G3 X707.092 Y41.275 Z4.762 I-0.602 J-0.202
N3940 G1 X704.608
N3945 X704.458 Y41.268
N3950 X704.169 Y41.214
N3955 X703.87 Y41.117
N3960 X703.57 Y40.973
N3965 X703.282 Y40.785
N3970 X703.012 Y40.552
N3975 X702.778 Y40.291
N3980 X702.571 Y39.985
N3985 X702.404 Y39.652
N3990 X702.285 Y39.305
N3995 X702.207 Y38.922
N4000 X702.197 Y38.778
N4005 X702.217 Y38.572
N4010 X702.302 Y38.383
N4015 X702.444 Y38.232
N4020 X702.626 Y38.134
N4025 X702.831 Y38.1
N4030 X705.258
N4035 G3 X705.871 Y38.756 Z4.963 I-0.022 J0.635
N4040 G1 X705.861 Y38.849
N4045 X705.837 Y38.94
N4050 X705.261 Y40.627
N4055 X705.188 Y40.842 Z4.917
N4060 X705.187 Y40.845 Z4.916
N4065 G3 X704.608 Y41.275 Z4.762 I-0.601 J-0.205
N4070 G1 X702.332
N4075 X702.03 Y41.26
N4080 X701.742 Y41.207
N4085 X701.443 Y41.11
N4090 X701.144 Y40.967
N4095 X700.857 Y40.779
N4100 X700.587 Y40.548
N4105 X700.354 Y40.286
N4110 X700.147 Y39.981
N4115 X699.98 Y39.649
N4120 X699.861 Y39.303
N4125 X699.783 Y38.921
N4130 X699.773 Y38.779
N4135 X699.793 Y38.572
N4140 X699.878 Y38.383
N4145 X700.019 Y38.232
N4150 X700.202 Y38.134
N4155 X700.407 Y38.1
N4160 X702.831
N4165 G3 X703.443 Y38.756 Z4.963 I-0.022 J0.635
N4170 G1 X703.437 Y38.826
N4175 X703.423 Y38.895
N4180 X702.971 Y40.623
N4185 X702.924 Y40.801 Z4.926
N4190 X702.912 Y40.842 Z4.917
N4195 G3 X702.332 Y41.275 Z4.762 I-0.602 J-0.202
N4200 G1 X699.848
N4205 X699.607 Y41.263
N4210 X699.318 Y41.21
N4215 X699.019 Y41.113
N4220 X698.72 Y40.97
N4225 X698.432 Y40.782
N4230 X698.162 Y40.55
N4235 X697.929 Y40.288
N4240 X697.722 Y39.983
N4245 X697.555 Y39.651
N4250 X697.435 Y39.304
N4255 X697.358 Y38.922
N4260 X697.348 Y38.779
N4265 X697.367 Y38.572
N4270 X697.453 Y38.383
N4275 X697.594 Y38.232
N4280 X697.777 Y38.134
N4285 X697.981 Y38.1
N4290 X700.407
N4295 G3 X701.019 Y38.756 Z4.963 I-0.022 J0.635
N4300 G1 X701.011 Y38.836
N4305 X700.994 Y38.913
N4310 X700.492 Y40.624
N4315 X700.435 Y40.819 Z4.922
N4320 G3 X699.848 Y41.275 Z4.762 I-0.609 J-0.179
N4325 G1 X697.572
N4330 X697.468 Y41.267
N4335 X697.365 Y41.242
N4340 X697.357 Y41.239
N4345 X697.257 Y41.195
N4350 X697.208 Y41.164
N4355 X697.158 Y41.126
N4360 X697.061 Y41.033
N4365 X697.025 Y40.985
N4370 X696.995 Y40.937
N4375 X696.951 Y40.842
N4380 X696.945 Y40.826
N4385 X696.92 Y40.722
N4390 X696.912 Y40.619
N4395 Y38.756
N4400 X696.92 Y38.653
N4405 X696.945 Y38.549
N4410 X696.951 Y38.533
N4415 X696.995 Y38.438
N4420 X697.025 Y38.39
N4425 X697.061 Y38.342
N4430 X697.158 Y38.249
N4435 X697.208 Y38.211
N4440 X697.257 Y38.18
N4445 X697.357 Y38.136
N4450 X697.365 Y38.133
N4455 X697.468 Y38.108
N4460 X697.572 Y38.1
N4465 X697.981
N4470 G3 X698.566 Y38.548 I-0.022 J0.635
N4475 G1 X698.595 Y38.642 Z4.77
N4480 X698.624 Y38.735 Z4.794
N4485 X698.651 Y38.823 Z4.832
N4490 X698.676 Y38.904 Z4.884
N4495 X698.698 Y38.977 Z4.948
N4500 X698.717 Y39.038 Z5.024
N4505 X698.733 Y39.088 Z5.109
N4510 X698.744 Y39.125 Z5.201
N4515 X698.751 Y39.147 Z5.298
N4520 X698.753 Y39.154 Z5.398
N4525 G0 Z25.525
N4530 X43.027 Y747.046
N4535 Z15.525
N4540 Z6.032
N4545 G1 Z5.398 F1000.
N4550 X43.025 Y747.039 Z5.298
N4555 X43.02 Y747.016 Z5.201
N4560 X43.01 Y746.979 Z5.109
N4565 X42.997 Y746.929 Z5.024
N4570 X42.981 Y746.866 Z4.948
N4575 X42.962 Y746.793 Z4.884
N4580 X42.941 Y746.71 Z4.832
N4585 X42.918 Y746.621 Z4.794
N4590 X42.894 Y746.527 Z4.77
N4595 X42.87 Y746.431 Z4.762
N4600 G3 X42.373 Y742.974 I15.704 J-4.023
N4605 G1 Y742.104
N4610 X42.38 Y741.954
N4615 X42.579 Y741.631
N4620 X42.868 Y741.276
N4625 X43.273 Y740.894
N4630 X43.831 Y740.494
N4635 X44.604 Y740.08
N4640 X45.457 Y739.76
N4645 X45.678 Y739.702
N4650 X46.066 Y739.463
N4655 X46.673 Y738.783
N4660 X47.06 Y737.957
N4665 X47.32 Y737.083
N4670 X47.496 Y736.188
N4675 X47.618 Y735.285
N4680 X47.702 Y734.377
N4685 X47.761 Y733.467
N4690 X47.802 Y732.556
N4695 X47.83 Y731.645
N4700 X47.85 Y730.733
N4705 X47.864 Y729.821
N4710 X47.874 Y728.91
N4715 X47.881 Y727.998
N4720 X47.886 Y727.086
N4725 X47.889 Y726.174
N4730 X47.894 Y724.351
N4735 X47.896 Y721.615
N4740 X47.897 Y713.409
N4745 Y694.261
N4750 Y644.111
N4755 Y593.961
N4760 Y543.812
N4765 Y498.335
N4770 X47.872 Y498.224
N4775 X47.823 Y498.121
N4780 X47.538 Y497.765
N4785 X46.799 Y497.231
N4790 X45.956 Y496.883
N4795 X45.075 Y496.65
N4800 X44.177 Y496.49
N4805 X43.272 Y496.38
N4810 X42.954 Y496.353
N4815 X42.771 Y496.309
N4820 X42.609 Y496.214
N4825 X42.482 Y496.076
N4830 X42.4 Y495.906
N4835 X42.373 Y495.72
N4840 Y495.456
N4845 G3 X42.82 Y494.872 I0.635 J0.022
N4850 G1 X42.915 Y494.842 Z4.77
N4855 X43.008 Y494.814 Z4.794
N4860 X43.096 Y494.787 Z4.832
N4865 X43.177 Y494.762 Z4.884
N4870 X43.249 Y494.739 Z4.948
N4875 X43.311 Y494.72 Z5.024
N4880 X43.361 Y494.705 Z5.109
N4885 X43.397 Y494.694 Z5.201
N4890 X43.419 Y494.687 Z5.298
N4895 X43.427 Y494.685 Z5.398
N4900 G0 Z15.525
N4905 X42.918 Y743.403
N4910 Z6.032
N4915 G1 Z5.398 F1000.
N4920 X42.914 Y743.396 Z5.298
N4925 X42.902 Y743.376 Z5.201
N4930 X42.883 Y743.344 Z5.109
N4935 X42.856 Y743.299 Z5.024
N4940 X42.823 Y743.243 Z4.948
N4945 X42.785 Y743.178 Z4.884
N4950 X42.741 Y743.105 Z4.832
N4955 X42.694 Y743.026 Z4.794
N4960 X42.645 Y742.943 Z4.77
N4965 X42.594 Y742.857 Z4.762
N4970 G3 X42.373 Y742.104 I1.36 J-0.809
N4975 G1 Y740.24
N4980 X42.391 Y739.873
N4985 X42.556 Y738.976
N4990 X42.822 Y738.104
N4995 X43.056 Y737.222
N5000 X43.249 Y736.331
N5005 X43.403 Y735.432
N5010 X43.523 Y734.529
N5015 X43.616 Y733.622
N5020 X43.687 Y732.713
N5025 X43.74 Y731.802
N5030 X43.781 Y730.891
N5035 X43.811 Y729.98
N5040 X43.834 Y729.069
N5045 X43.85 Y728.157
N5050 X43.863 Y727.245
N5055 X43.872 Y726.333
N5060 X43.879 Y725.422
N5065 X43.884 Y724.51
N5070 X43.89 Y722.686
N5075 X43.895 Y719.951
N5080 X43.897 Y715.392
N5085 Y689.861
N5090 Y639.711
N5095 Y589.561
N5100 Y539.412
N5105 Y502.825
N5110 X43.847 Y502.603
N5115 X43.382 Y501.818
N5120 X42.678 Y501.24
N5125 X42.63 Y501.204
N5130 X42.492 Y501.064
N5135 X42.403 Y500.888
N5140 X42.373 Y500.694
N5145 Y495.72
N5150 G3 X42.82 Y495.135 I0.635 J0.022
N5155 G1 X42.915 Y495.106 Z4.77
N5160 X43.008 Y495.078 Z4.794
N5165 X43.096 Y495.05 Z4.832
N5170 X43.177 Y495.025 Z4.884
N5175 X43.249 Y495.003 Z4.948
N5180 X43.311 Y494.984 Z5.024
N5185 X43.361 Y494.969 Z5.109
N5190 X43.397 Y494.957 Z5.201
N5195 X43.419 Y494.951 Z5.298
N5200 X43.427 Y494.948 Z5.398
N5205 G0 Z15.525
N5210 X42.918 Y741.539
N5215 Z6.032
N5220 G1 Z5.398 F1000.
N5225 X42.914 Y741.533 Z5.298
N5230 X42.902 Y741.513 Z5.201
N5235 X42.883 Y741.48 Z5.109
N5240 X42.856 Y741.435 Z5.024
N5245 X42.823 Y741.379 Z4.948
N5250 X42.785 Y741.314 Z4.884
N5255 X42.741 Y741.241 Z4.832
N5260 X42.694 Y741.162 Z4.794
N5265 X42.645 Y741.079 Z4.77
N5270 X42.594 Y740.994 Z4.762
N5275 G3 X42.373 Y740.24 I1.36 J-0.809
N5280 G1 Y500.694
N5285 G3 X42.82 Y500.109 I0.635 J0.022
N5290 G1 X42.915 Y500.08 Z4.77
N5295 X43.008 Y500.051 Z4.794
N5300 X43.096 Y500.024 Z4.832
N5305 X43.177 Y499.999 Z4.884
N5310 X43.249 Y499.977 Z4.948
N5315 X43.311 Y499.958 Z5.024
N5320 X43.361 Y499.942 Z5.109
N5325 X43.397 Y499.931 Z5.201
N5330 X43.419 Y499.924 Z5.298
N5335 X43.427 Y499.922 Z5.398
N5340 G0 Z25.525
N5345 X92.518 Y488.029
N5350 Z15.525
N5355 Z6.032
N5360 G1 Z5.398 F1000.
N5365 X92.52 Y488.036 Z5.298
N5370 X92.525 Y488.059 Z5.201
N5375 X92.535 Y488.096 Z5.109
N5380 X92.548 Y488.146 Z5.024
N5385 X92.564 Y488.209 Z4.948
N5390 X92.583 Y488.282 Z4.884
N5395 X92.604 Y488.365 Z4.832
N5400 X92.627 Y488.454 Z4.794
N5405 X92.651 Y488.548 Z4.77
N5410 X92.675 Y488.644 Z4.762
N5415 G3 X93.173 Y492.101 I-15.704 J4.023
N5420 G1 Y492.971
N5425 X93.165 Y493.121
N5430 X92.966 Y493.444
N5435 X92.677 Y493.799
N5440 X92.272 Y494.18
N5445 X91.714 Y494.581
N5450 X90.942 Y494.995
N5455 X90.088 Y495.315
N5460 X89.206 Y495.548
N5465 X88.31 Y495.715
N5470 X87.406 Y495.835
N5475 X86.498 Y495.92
N5480 X85.589 Y495.981
N5485 X84.678 Y496.023
N5490 X83.766 Y496.053
N5495 X82.855 Y496.075
N5500 X81.943 Y496.09
N5505 X81.031 Y496.1
N5510 X80.12 Y496.107
N5515 X79.208 Y496.113
N5520 X78.296 Y496.116
N5525 X76.472 Y496.121
N5530 X73.737 Y496.124
N5535 X65.531 Y496.125
N5540 X64.391
N5545 X64.28 Y496.15
N5550 X64.177 Y496.2
N5555 X63.821 Y496.484
N5560 X63.311 Y497.24
N5565 X62.978 Y498.089
N5570 X62.753 Y498.973
N5575 X62.599 Y499.872
N5580 X62.493 Y500.777
N5585 X62.469 Y501.066
N5590 X62.426 Y501.25
N5595 X62.331 Y501.413
N5600 X62.193 Y501.541
N5605 X62.023 Y501.622
N5610 X61.836 Y501.65
N5615 X61.53
N5620 G3 X60.945 Y501.202 I0.022 J-0.635
N5625 G1 X60.916 Y501.108 Z4.77
N5630 X60.887 Y501.015 Z4.794
N5635 X60.86 Y500.927 Z4.832
N5640 X60.835 Y500.846 Z4.884
N5645 X60.813 Y500.773 Z4.948
N5650 X60.794 Y500.712 Z5.024
N5655 X60.779 Y500.662 Z5.109
N5660 X60.767 Y500.625 Z5.201
N5665 X60.761 Y500.603 Z5.298
N5670 X60.758 Y500.596 Z5.398
N5675 G0 Z15.525
N5680 X92.627 Y491.672
N5685 Z6.032
N5690 G1 Z5.398 F1000.
N5695 X92.631 Y491.678 Z5.298
N5700 X92.643 Y491.698 Z5.201
N5705 X92.662 Y491.731 Z5.109
N5710 X92.689 Y491.776 Z5.024
N5715 X92.722 Y491.832 Z4.948
N5720 X92.76 Y491.897 Z4.884
N5725 X92.804 Y491.97 Z4.832
N5730 X92.851 Y492.049 Z4.794
N5735 X92.9 Y492.132 Z4.77
N5740 X92.951 Y492.218 Z4.762
N5745 G3 X93.173 Y492.971 I-1.36 J0.809
N5750 G1 Y494.835
N5755 X93.154 Y495.202
N5760 X93.086 Y495.57
N5765 X92.954 Y495.978
N5770 X92.75 Y496.404
N5775 X92.442 Y496.876
N5780 X92.031 Y497.354
N5785 X91.468 Y497.857
N5790 X90.714 Y498.369
N5795 X89.899 Y498.778
N5800 X89.045 Y499.099
N5805 X88.168 Y499.348
N5810 X87.277 Y499.54
N5815 X86.377 Y499.687
N5820 X85.472 Y499.798
N5825 X84.564 Y499.882
N5830 X83.654 Y499.945
N5835 X82.744 Y499.992
N5840 X81.832 Y500.027
N5845 X80.921 Y500.053
N5850 X80.009 Y500.072
N5855 X79.098 Y500.086
N5860 X78.186 Y500.097
N5865 X77.274 Y500.104
N5870 X76.362 Y500.11
N5875 X75.451 Y500.114
N5880 X73.627 Y500.119
N5885 X70.891 Y500.123
N5890 X68.954 Y500.124
N5895 X68.732 Y500.175
N5900 X68.337 Y500.403
N5905 X67.672 Y501.026
N5910 X67.371 Y501.408
N5915 X67.232 Y501.538
N5920 X67.06 Y501.621
N5925 X66.872 Y501.65
N5930 X61.836
N5935 G3 X61.252 Y501.202 I0.022 J-0.635
N5940 G1 X61.223 Y501.108 Z4.77
N5945 X61.194 Y501.015 Z4.794
N5950 X61.167 Y500.927 Z4.832
N5955 X61.142 Y500.846 Z4.884
N5960 X61.12 Y500.773 Z4.948
N5965 X61.1 Y500.712 Z5.024
N5970 X61.085 Y500.662 Z5.109
N5975 X61.074 Y500.625 Z5.201
N5980 X61.067 Y500.603 Z5.298
N5985 X61.065 Y500.596 Z5.398
N5990 G0 Z15.525
N5995 X92.627 Y493.536
N6000 Z6.032
N6005 G1 Z5.398 F1000.
N6010 X92.631 Y493.542 Z5.298
N6015 X92.643 Y493.562 Z5.201
N6020 X92.662 Y493.595 Z5.109
N6025 X92.689 Y493.64 Z5.024
N6030 X92.722 Y493.695 Z4.948
N6035 X92.76 Y493.761 Z4.884
N6040 X92.804 Y493.834 Z4.832
N6045 X92.851 Y493.913 Z4.794
N6050 X92.9 Y493.996 Z4.77
N6055 X92.951 Y494.081 Z4.762
N6060 G3 X93.173 Y494.835 I-1.36 J0.809
N6065 G1 Y498.148
N6070 X93.154 Y498.516
N6075 X93.075 Y498.944
N6080 X92.928 Y499.398
N6085 X92.691 Y499.893
N6090 X92.347 Y500.42
N6095 X91.868 Y500.978
N6100 X91.237 Y501.541
N6105 X90.483 Y502.053
N6110 X89.674 Y502.475
N6115 X89.543 Y502.528
N6120 X89.378 Y502.571
N6125 X89.207 Y502.568
N6130 X89.043 Y502.519
N6135 X88.898 Y502.429
N6140 X88.731 Y502.29
N6145 X88.609 Y502.206
N6150 X88.418 Y502.083
N6155 X88.196 Y501.968
N6160 X87.989 Y501.875
N6165 X87.782 Y501.802
N6170 X87.575 Y501.742
N6175 X87.369 Y501.701
N6180 X87.162 Y501.68
N6185 X86.749 Y501.654
N6190 X86.542 Y501.65
N6195 X66.872
N6200 G3 X66.287 Y501.202 I0.022 J-0.635
N6205 G1 X66.258 Y501.108 Z4.77
N6210 X66.23 Y501.015 Z4.794
N6215 X66.202 Y500.927 Z4.832
N6220 X66.177 Y500.846 Z4.884
N6225 X66.155 Y500.773 Z4.948
N6230 X66.136 Y500.712 Z5.024
N6235 X66.121 Y500.662 Z5.109
N6240 X66.109 Y500.625 Z5.201
N6245 X66.103 Y500.603 Z5.298
N6250 X66.1 Y500.596 Z5.398
N6255 G0 Z15.525
N6260 X92.627 Y496.849
N6265 Z6.032
N6270 G1 Z5.398 F1000.
N6275 X92.631 Y496.856 Z5.298
N6280 X92.643 Y496.876 Z5.201
N6285 X92.662 Y496.909 Z5.109
N6290 X92.689 Y496.953 Z5.024
N6295 X92.722 Y497.009 Z4.948
N6300 X92.76 Y497.074 Z4.884
N6305 X92.804 Y497.147 Z4.832
N6310 X92.851 Y497.226 Z4.794
N6315 X92.9 Y497.309 Z4.77
N6320 X92.951 Y497.395 Z4.762
N6325 G3 X93.173 Y498.148 I-1.36 J0.809
N6330 G1 Y501.669
N6335 X93.151 Y502.089
N6340 X93.071 Y502.526
N6345 X92.912 Y503.016
N6350 X92.685 Y503.49
N6355 X92.395 Y503.934
N6360 X92.066 Y504.318
N6365 X91.683 Y504.659
N6370 X91.277 Y504.935
N6375 X90.832 Y505.158
N6380 X90.827 Y505.16
N6385 X90.635 Y505.194
N6390 X90.442 Y505.169
N6395 X90.266 Y505.087
N6400 X90.122 Y504.955
N6405 X90.026 Y504.785
N6410 X89.986 Y504.595
N6415 G3 X90.091 Y504.231 Z4.84 I0.635 J-0.013
N6420 G1 X90.304 Y503.91 Z4.917
N6425 X90.43 Y503.721 Z4.963
N6430 X92.009 Y501.34
N6435 G3 X92.516 Y501.057 I0.529 J0.351
N6440 X93.173 Y501.669 Z4.762 I0.022 J0.635
N6445 G1 Y504.982
N6450 X93.156 Y505.32
N6455 X93.099 Y505.628
N6460 X92.996 Y505.946
N6465 X92.851 Y506.249
N6470 X92.666 Y506.532
N6475 X92.433 Y506.803
N6480 X92.17 Y507.038
N6485 X91.867 Y507.244
N6490 X91.535 Y507.41
N6495 X91.187 Y507.53
N6500 X90.805 Y507.608
N6505 X90.676 Y507.617
N6510 X90.47 Y507.597
N6515 X90.281 Y507.512
N6520 X90.129 Y507.371
N6525 X90.031 Y507.188
N6530 X89.997 Y506.983
N6535 Y504.948
N6540 X89.996 Y504.775
N6545 X89.986 Y504.595
N6550 G3 X90.607 Y503.947 Z4.963 I0.635 J-0.013
N6555 G1 X90.683 Y503.95
N6560 X90.757 Y503.962
N6565 X92.519 Y504.35
N6570 X92.675 Y504.385 Z4.931
N6575 X92.74 Y504.402 Z4.917
N6580 G3 X93.173 Y504.982 Z4.762 I-0.202 J0.602
N6585 G1 Y507.468
N6590 X93.157 Y507.782
N6595 X93.104 Y508.071
N6600 X93.006 Y508.371
N6605 X92.863 Y508.67
N6610 X92.676 Y508.957
N6615 X92.444 Y509.227
N6620 X92.183 Y509.46
N6625 X91.878 Y509.667
N6630 X91.546 Y509.833
N6635 X91.2 Y509.953
N6640 X90.818 Y510.031
N6645 X90.676 Y510.04
N6650 X90.47 Y510.021
N6655 X90.281 Y509.935
N6660 X90.129 Y509.794
N6665 X90.031 Y509.611
N6670 X89.997 Y509.407
N6675 Y506.983
N6680 G3 X90.654 Y506.371 Z4.963 I0.635 J0.022
N6685 G1 X90.722 Y506.377
N6690 X90.788 Y506.39
N6695 X92.52 Y506.83
N6700 X92.694 Y506.874 Z4.926
N6705 G3 X93.173 Y507.468 Z4.762 I-0.156 J0.615
N6710 G1 Y509.953
N6715 X93.16 Y510.206
N6720 X93.107 Y510.495
N6725 X93.009 Y510.794
N6730 X92.866 Y511.093
N6735 X92.679 Y511.381
N6740 X92.447 Y511.651
N6745 X92.186 Y511.884
N6750 X91.88 Y512.091
N6755 X91.548 Y512.258
N6760 X91.201 Y512.378
N6765 X90.819 Y512.456
N6770 X90.676 Y512.465
N6775 X90.47 Y512.446
N6780 X90.281 Y512.361
N6785 X90.129 Y512.219
N6790 X90.031 Y512.036
N6795 X89.997 Y511.832
N6800 Y509.407
N6805 G3 X90.654 Y508.794 Z4.963 I0.635 J0.022
N6810 G1 X90.731 Y508.802
N6815 X90.807 Y508.819
N6820 X92.522 Y509.31
N6825 X92.713 Y509.364 Z4.923
N6830 X92.74 Y509.373 Z4.917
N6835 G3 X93.173 Y509.953 Z4.762 I-0.202 J0.602
N6840 G1 Y512.438
N6845 X93.163 Y512.631
N6850 X93.11 Y512.92
N6855 X93.012 Y513.219
N6860 X92.869 Y513.519
N6865 X92.681 Y513.807
N6870 X92.449 Y514.077
N6875 X92.188 Y514.31
N6880 X91.882 Y514.518
N6885 X91.55 Y514.684
N6890 X91.203 Y514.804
N6895 X90.82 Y514.882
N6900 X90.676 Y514.892
N6905 X90.47 Y514.872
N6910 X90.281 Y514.787
N6915 X90.129 Y514.646
N6920 X90.031 Y514.463
N6925 X89.997 Y514.258
N6930 Y511.832
N6935 G3 X90.654 Y511.219 Z4.963 I0.635 J0.022
N6940 G1 X90.74 Y511.228
N6945 X90.825 Y511.249
N6950 X92.523 Y511.789
N6955 X92.73 Y511.855 Z4.919
N6960 X92.74 Y511.858 Z4.917
N6965 G3 X93.173 Y512.438 Z4.762 I-0.202 J0.602
N6970 G1 Y514.716
N6975 X93.155 Y515.059
N6980 X93.102 Y515.348
N6985 X93.005 Y515.646
N6990 X92.862 Y515.945
N6995 X92.675 Y516.232
N7000 X92.443 Y516.501
N7005 X92.183 Y516.734
N7010 X91.878 Y516.942
N7015 X91.546 Y517.108
N7020 X91.2 Y517.227
N7025 X90.817 Y517.305
N7030 X90.676 Y517.315
N7035 X90.47 Y517.295
N7040 X90.281 Y517.21
N7045 X90.129 Y517.069
N7050 X90.031 Y516.886
N7055 X89.997 Y516.681
N7060 Y514.258
N7065 G3 X90.654 Y513.646 Z4.963 I0.635 J0.022
N7070 G1 X90.717 Y513.651
N7075 X90.78 Y513.663
N7080 X92.52 Y514.081
N7085 X92.686 Y514.12 Z4.928
N7090 X92.74 Y514.136 Z4.917
N7095 G3 X93.173 Y514.716 Z4.762 I-0.202 J0.602
N7100 G1 Y517.201
N7105 X93.158 Y517.481
N7110 X93.105 Y517.77
N7115 X93.008 Y518.069
N7120 X92.865 Y518.368
N7125 X92.678 Y518.656
N7130 X92.446 Y518.925
N7135 X92.185 Y519.158
N7140 X91.879 Y519.366
N7145 X91.547 Y519.532
N7150 X91.201 Y519.652
N7155 X90.818 Y519.729
N7160 X90.676 Y519.739
N7165 X90.47 Y519.72
N7170 X90.281 Y519.634
N7175 X90.129 Y519.493
N7180 X90.031 Y519.31
N7185 X89.997 Y519.106
N7190 Y516.681
N7195 G3 X90.654 Y516.069 Z4.963 I0.635 J0.022
N7200 G1 X90.727 Y516.076
N7205 X90.799 Y516.091
N7210 X92.521 Y516.56
N7215 X92.705 Y516.61 Z4.924
N7220 X92.74 Y516.621 Z4.917
N7225 G3 X93.173 Y517.201 Z4.762 I-0.202 J0.602
N7230 G1 Y519.686
N7235 X93.162 Y519.905
N7240 X93.108 Y520.194
N7245 X93.011 Y520.493
N7250 X92.868 Y520.793
N7255 X92.68 Y521.08
N7260 X92.448 Y521.35
N7265 X92.187 Y521.584
N7270 X91.881 Y521.791
N7275 X91.549 Y521.958
N7280 X91.202 Y522.077
N7285 X90.819 Y522.155
N7290 X90.676 Y522.165
N7295 X90.47 Y522.145
N7300 X90.281 Y522.06
N7305 X90.129 Y521.919
N7310 X90.031 Y521.736
N7315 X89.997 Y521.532
N7320 Y519.106
N7325 G3 X90.654 Y518.493 Z4.963 I0.635 J0.022
N7330 G1 X90.736 Y518.502
N7335 X90.817 Y518.52
N7340 X92.523 Y519.04
N7345 X92.723 Y519.101 Z4.921
N7350 X92.74 Y519.106 Z4.917
N7355 G3 X93.173 Y519.686 Z4.762 I-0.202 J0.602
N7360 G1 Y522.171
N7365 X93.165 Y522.33
N7370 X93.111 Y522.619
N7375 X93.014 Y522.919
N7380 X92.871 Y523.219
N7385 X92.683 Y523.507
N7390 X92.451 Y523.777
N7395 X92.189 Y524.01
N7400 X91.883 Y524.218
N7405 X91.551 Y524.385
N7410 X91.204 Y524.505
N7415 X90.821 Y524.582
N7420 X90.676 Y524.592
N7425 X90.47 Y524.573
N7430 X90.281 Y524.487
N7435 X90.129 Y524.346
N7440 X90.031 Y524.163
N7445 X89.997 Y523.959
N7450 Y521.532
N7455 G3 X90.654 Y520.919 Z4.963 I0.635 J0.022
N7460 G1 X90.745 Y520.929
N7465 X90.834 Y520.952
N7470 X92.524 Y521.519
N7475 X92.74 Y521.591 Z4.917
N7480 G3 X93.173 Y522.171 Z4.762 I-0.202 J0.602
N7485 G1 Y524.449
N7490 X93.157 Y524.759
N7495 X93.104 Y525.048
N7500 X93.007 Y525.347
N7505 X92.864 Y525.645
N7510 X92.676 Y525.933
N7515 X92.445 Y526.202
N7520 X92.184 Y526.435
N7525 X91.879 Y526.643
N7530 X91.547 Y526.809
N7535 X91.2 Y526.929
N7540 X90.818 Y527.006
N7545 X90.676 Y527.016
N7550 X90.47 Y526.996
N7555 X90.281 Y526.911
N7560 X90.129 Y526.77
N7565 X90.031 Y526.587
N7570 X89.997 Y526.383
N7575 Y523.959
N7580 G3 X90.654 Y523.346 Z4.963 I0.635 J0.022
N7585 G1 X90.723 Y523.352
N7590 X90.79 Y523.366
N7595 X92.52 Y523.811
N7600 X92.696 Y523.856 Z4.926
N7605 G3 X93.173 Y524.449 Z4.762 I-0.158 J0.615
N7610 G1 Y526.934
N7615 X93.16 Y527.182
N7620 X93.107 Y527.471
N7625 X93.01 Y527.77
N7630 X92.867 Y528.069
N7635 X92.679 Y528.357
N7640 X92.447 Y528.627
N7645 X92.186 Y528.86
N7650 X91.88 Y529.067
N7655 X91.548 Y529.234
N7660 X91.202 Y529.354
N7665 X90.819 Y529.432
N7670 X90.676 Y529.441
N7675 X90.47 Y529.422
N7680 X90.281 Y529.336
N7685 X90.129 Y529.195
N7690 X90.031 Y529.012
N7695 X89.997 Y528.808
N7700 Y526.383
N7705 G3 X90.654 Y525.77 Z4.963 I0.635 J0.022
N7710 G1 X90.732 Y525.778
N7715 X90.809 Y525.795
N7720 X92.522 Y526.291
N7725 X92.714 Y526.346 Z4.922
N7730 X92.74 Y526.354 Z4.917
N7735 G3 X93.173 Y526.934 Z4.762 I-0.202 J0.602
N7740 G1 Y529.419
N7745 X93.163 Y529.607
N7750 X93.11 Y529.896
N7755 X93.013 Y530.195
N7760 X92.869 Y530.495
N7765 X92.682 Y530.783
N7770 X92.449 Y531.053
N7775 X92.188 Y531.286
N7780 X91.882 Y531.494
N7785 X91.55 Y531.66
N7790 X91.203 Y531.78
N7795 X90.82 Y531.858
N7800 X90.676 Y531.868
N7805 X90.47 Y531.848
N7810 X90.281 Y531.763
N7815 X90.129 Y531.622
N7820 X90.031 Y531.439
N7825 X89.997 Y531.234
N7830 Y528.808
N7835 G3 X90.654 Y528.195 Z4.963 I0.635 J0.022
N7840 G1 X90.741 Y528.204
N7845 X90.826 Y528.225
N7850 X92.524 Y528.77
N7855 X92.732 Y528.837 Z4.919
N7860 X92.74 Y528.839 Z4.917
N7865 G3 X93.173 Y529.419 Z4.762 I-0.202 J0.602
N7870 G1 Y531.697
N7875 X93.156 Y532.035
N7880 X93.102 Y532.324
N7885 X93.005 Y532.622
N7890 X92.863 Y532.921
N7895 X92.675 Y533.208
N7900 X92.444 Y533.478
N7905 X92.183 Y533.711
N7910 X91.878 Y533.918
N7915 X91.546 Y534.084
N7920 X91.2 Y534.204
N7925 X90.817 Y534.281
N7930 X90.676 Y534.291
N7935 X90.47 Y534.271
N7940 X90.281 Y534.186
N7945 X90.129 Y534.045
N7950 X90.031 Y533.862
N7955 X89.997 Y533.658
N7960 Y531.234
N7965 G3 X90.654 Y530.622 Z4.963 I0.635 J0.022
N7970 G1 X90.718 Y530.627
N7975 X90.782 Y530.64
N7980 X92.52 Y531.062
N7985 X92.688 Y531.102 Z4.928
N7990 G3 X93.173 Y531.697 Z4.762 I-0.15 J0.617
N7995 G1 Y534.182
N8000 X93.159 Y534.457
N8005 X93.106 Y534.746
N8010 X93.008 Y535.045
N8015 X92.865 Y535.344
N8020 X92.678 Y535.632
N8025 X92.446 Y535.901
N8030 X92.185 Y536.135
N8035 X91.88 Y536.342
N8040 X91.548 Y536.508
N8045 X91.201 Y536.628
N8050 X90.818 Y536.706
N8055 X90.676 Y536.716
N8060 X90.47 Y536.696
N8065 X90.281 Y536.611
N8070 X90.129 Y536.469
N8075 X90.031 Y536.287
N8080 X89.997 Y536.082
N8085 Y533.658
N8090 G3 X90.654 Y533.045 Z4.963 I0.635 J0.022
N8095 G1 X90.728 Y533.052
N8100 X90.801 Y533.068
N8105 X92.521 Y533.541
N8110 X92.706 Y533.592 Z4.924
N8115 X92.74 Y533.602 Z4.917
N8120 G3 X93.173 Y534.182 Z4.762 I-0.202 J0.602
N8125 G1 Y536.667
N8130 X93.162 Y536.881
N8135 X93.109 Y537.17
N8140 X93.011 Y537.47
N8145 X92.868 Y537.769
N8150 X92.68 Y538.057
N8155 X92.448 Y538.327
N8160 X92.187 Y538.56
N8165 X91.882 Y538.768
N8170 X91.549 Y538.934
N8175 X91.202 Y539.054
N8180 X90.82 Y539.132
N8185 X90.676 Y539.142
N8190 X90.47 Y539.122
N8195 X90.281 Y539.037
N8200 X90.129 Y538.895
N8205 X90.031 Y538.713
N8210 X89.997 Y538.508
N8215 Y536.082
N8220 G3 X90.654 Y535.47 Z4.963 I0.635 J0.022
N8225 G1 X90.737 Y535.478
N8230 X90.819 Y535.497
N8235 X92.523 Y536.021
N8240 X92.724 Y536.083 Z4.92
N8245 X92.74 Y536.088 Z4.917
N8250 G3 X93.173 Y536.667 Z4.762 I-0.202 J0.602
N8255 G1 Y539.153
N8260 X93.165 Y539.307
N8265 X93.112 Y539.596
N8270 X93.014 Y539.895
N8275 X92.871 Y540.195
N8280 X92.683 Y540.483
N8285 X92.451 Y540.753
N8290 X92.189 Y540.987
N8295 X91.883 Y541.194
N8300 X91.551 Y541.361
N8305 X91.204 Y541.481
N8310 X90.821 Y541.559
N8315 X90.676 Y541.569
N8320 X90.47 Y541.549
N8325 X90.281 Y541.464
N8330 X90.129 Y541.323
N8335 X90.031 Y541.14
N8340 X89.997 Y540.935
N8345 Y538.508
N8350 G3 X90.654 Y537.896 Z4.963 I0.635 J0.022
N8355 G1 X90.746 Y537.906
N8360 X90.836 Y537.929
N8365 X92.525 Y538.5
N8370 X92.74 Y538.573 Z4.917
N8375 X92.741
N8380 G3 X93.173 Y539.153 Z4.762 I-0.203 J0.602
N8385 G1 Y541.431
N8390 X93.157 Y541.736
N8395 X93.104 Y542.025
N8400 X93.007 Y542.323
N8405 X92.864 Y542.622
N8410 X92.677 Y542.91
N8415 X92.445 Y543.179
N8420 X92.184 Y543.412
N8425 X91.879 Y543.619
N8430 X91.547 Y543.786
N8435 X91.2 Y543.905
N8440 X90.818 Y543.983
N8445 X90.676 Y543.993
N8450 X90.47 Y543.973
N8455 X90.281 Y543.888
N8460 X90.129 Y543.747
N8465 X90.031 Y543.564
N8470 X89.997 Y543.359
N8475 Y540.935
N8480 G3 X90.654 Y540.323 Z4.963 I0.635 J0.022
N8485 G1 X90.723 Y540.329
N8490 X90.792 Y540.343
N8495 X92.52 Y540.792
N8500 X92.698 Y540.838 Z4.926
N8505 X92.74 Y540.851 Z4.917
N8510 G3 X93.173 Y541.431 Z4.762 I-0.202 J0.602
N8515 G1 Y543.916
N8520 X93.16 Y544.159
N8525 X93.107 Y544.448
N8530 X93.01 Y544.747
N8535 X92.867 Y545.046
N8540 X92.679 Y545.334
N8545 X92.447 Y545.604
N8550 X92.186 Y545.837
N8555 X91.881 Y546.044
N8560 X91.548 Y546.211
N8565 X91.202 Y546.331
N8570 X90.819 Y546.408
N8575 X90.676 Y546.418
N8580 X90.47 Y546.398
N8585 X90.281 Y546.313
N8590 X90.129 Y546.172
N8595 X90.031 Y545.989
N8600 X89.997 Y545.785
N8605 Y543.359
N8610 G3 X90.654 Y542.747 Z4.963 I0.635 J0.022
N8615 G1 X90.733 Y542.755
N8620 X90.81 Y542.772
N8625 X92.522 Y543.272
N8630 X92.716 Y543.328 Z4.922
N8635 X92.74 Y543.336 Z4.917
N8640 G3 X93.173 Y543.916 Z4.762 I-0.202 J0.602
N8645 G1 Y546.401
N8650 X93.163 Y546.583
N8655 X93.11 Y546.873
N8660 X93.013 Y547.172
N8665 X92.87 Y547.471
N8670 X92.682 Y547.759
N8675 X92.45 Y548.03
N8680 X92.188 Y548.263
N8685 X91.883 Y548.471
N8690 X91.55 Y548.637
N8695 X91.203 Y548.757
N8700 X90.82 Y548.835
N8705 X90.676 Y548.845
N8710 X90.47 Y548.825
N8715 X90.281 Y548.74
N8720 X90.129 Y548.599
N8725 X90.031 Y548.416
N8730 X89.997 Y548.211
N8735 Y545.785
N8740 G3 X90.654 Y545.172 Z4.963 I0.635 J0.022
N8745 G1 X90.742 Y545.181
N8750 X90.827 Y545.203
N8755 X92.524 Y545.751
N8760 X92.733 Y545.819 Z4.918
N8765 X92.74 Y545.821 Z4.917
N8770 G3 X93.173 Y546.401 Z4.762 I-0.202 J0.602
N8775 G1 Y548.679
N8780 X93.156 Y549.012
N8785 X93.103 Y549.301
N8790 X93.006 Y549.599
N8795 X92.863 Y549.898
N8800 X92.675 Y550.185
N8805 X92.444 Y550.455
N8810 X92.183 Y550.688
N8815 X91.878 Y550.895
N8820 X91.546 Y551.061
N8825 X91.2 Y551.181
N8830 X90.817 Y551.258
N8835 X90.676 Y551.268
N8840 X90.47 Y551.248
N8845 X90.281 Y551.163
N8850 X90.129 Y551.022
N8855 X90.031 Y550.839
N8860 X89.997 Y550.635
N8865 Y548.211
N8870 G3 X90.654 Y547.599 Z4.963 I0.635 J0.022
N8875 G1 X90.719 Y547.604
N8880 X90.783 Y547.617
N8885 X92.52 Y548.043
N8890 X92.689 Y548.084 Z4.928
N8895 G3 X93.173 Y548.679 Z4.762 I-0.151 J0.617
N8900 G1 Y551.164
N8905 X93.159 Y551.434
N8910 X93.106 Y551.723
N8915 X93.009 Y552.022
N8920 X92.866 Y552.321
N8925 X92.678 Y552.609
N8930 X92.446 Y552.879
N8935 X92.185 Y553.112
N8940 X91.88 Y553.319
N8945 X91.548 Y553.485
N8950 X91.201 Y553.605
N8955 X90.819 Y553.683
N8960 X90.676 Y553.693
N8965 X90.47 Y553.673
N8970 X90.281 Y553.588
N8975 X90.129 Y553.446
N8980 X90.031 Y553.264
N8985 X89.997 Y553.059
N8990 Y550.635
N8995 G3 X90.654 Y550.022 Z4.963 I0.635 J0.022
N9000 G1 X90.729 Y550.029
N9005 X90.802 Y550.045
N9010 X92.521 Y550.522
N9015 X92.708 Y550.574 Z4.924
N9020 X92.74 Y550.584 Z4.917
N9025 G3 X93.173 Y551.164 Z4.762 I-0.202 J0.602
N9030 G1 Y553.649
N9035 X93.162 Y553.858
N9040 X93.109 Y554.147
N9045 X93.012 Y554.447
N9050 X92.868 Y554.746
N9055 X92.681 Y555.034
N9060 X92.449 Y555.304
N9065 X92.187 Y555.537
N9070 X91.882 Y555.745
N9075 X91.549 Y555.911
N9080 X91.202 Y556.031
N9085 X90.82 Y556.109
N9090 X90.676 Y556.119
N9095 X90.47 Y556.099
N9100 X90.281 Y556.014
N9105 X90.129 Y555.872
N9110 X90.031 Y555.69
N9115 X89.997 Y555.485
N9120 Y553.059
N9125 G3 X90.654 Y552.447 Z4.963 I0.635 J0.022
N9130 G1 X90.738 Y552.455
N9135 X90.82 Y552.475
N9140 X92.523 Y553.002
N9145 X92.726 Y553.065 Z4.92
N9150 X92.74 Y553.069 Z4.917
N9155 G3 X93.173 Y553.649 Z4.762 I-0.202 J0.602
N9160 G1 Y556.134
N9165 X93.165 Y556.284
N9170 X93.112 Y556.573
N9175 X93.014 Y556.873
N9180 X92.871 Y557.172
N9185 X92.683 Y557.46
N9190 X92.451 Y557.731
N9195 X92.189 Y557.964
N9200 X91.884 Y558.172
N9205 X91.551 Y558.339
N9210 X91.204 Y558.458
N9215 X90.821 Y558.536
N9220 X90.676 Y558.546
N9225 X90.47 Y558.527
N9230 X90.281 Y558.441
N9235 X90.129 Y558.3
N9240 X90.031 Y558.117
N9245 X89.997 Y557.913
N9250 Y555.485
N9255 G3 X90.654 Y554.873 Z4.963 I0.635 J0.022
N9260 G1 X90.746 Y554.883
N9265 X90.837 Y554.906
N9270 X92.525 Y555.481
N9275 X92.74 Y555.554 Z4.917
N9280 X92.743 Y555.555 Z4.916
N9285 G3 X93.173 Y556.134 Z4.762 I-0.205 J0.601
N9290 G1 Y558.412
N9295 X93.157 Y558.713
N9300 X93.104 Y559.002
N9305 X93.007 Y559.301
N9310 X92.864 Y559.599
N9315 X92.677 Y559.887
N9320 X92.445 Y560.156
N9325 X92.184 Y560.389
N9330 X91.879 Y560.597
N9335 X91.547 Y560.763
N9340 X91.2 Y560.883
N9345 X90.818 Y560.961
N9350 X90.676 Y560.97
N9355 X90.47 Y560.951
N9360 X90.281 Y560.865
N9365 X90.129 Y560.724
N9370 X90.031 Y560.541
N9375 X89.997 Y560.337
N9380 Y557.913
N9385 G3 X90.654 Y557.3 Z4.963 I0.635 J0.022
N9390 G1 X90.724 Y557.307
N9395 X90.793 Y557.321
N9400 X92.52 Y557.773
N9405 X92.699 Y557.82 Z4.926
N9410 G3 X93.173 Y558.412 Z4.762 I-0.161 J0.614
N9415 G1 Y560.897
N9420 X93.161 Y561.136
N9425 X93.107 Y561.425
N9430 X93.01 Y561.724
N9435 X92.867 Y562.023
N9440 X92.679 Y562.311
N9445 X92.447 Y562.581
N9450 X92.186 Y562.814
N9455 X91.881 Y563.022
N9460 X91.549 Y563.188
N9465 X91.202 Y563.308
N9470 X90.819 Y563.386
N9475 X90.676 Y563.396
N9480 X90.47 Y563.376
N9485 X90.281 Y563.291
N9490 X90.129 Y563.149
N9495 X90.031 Y562.967
N9500 X89.997 Y562.762
N9505 Y560.337
N9510 G3 X90.654 Y559.724 Z4.963 I0.635 J0.022
N9515 G1 X90.733 Y559.732
N9520 X90.811 Y559.75
N9525 X92.522 Y560.253
N9530 X92.717 Y560.31 Z4.922
N9535 X92.74 Y560.317 Z4.917
N9540 G3 X93.173 Y560.897 Z4.762 I-0.202 J0.602
N9545 G1 Y563.382
N9550 X93.164 Y563.561
N9555 X93.11 Y563.85
N9560 X93.013 Y564.15
N9565 X92.87 Y564.449
N9570 X92.682 Y564.737
N9575 X92.45 Y565.007
N9580 X92.188 Y565.241
N9585 X91.883 Y565.448
N9590 X91.55 Y565.615
N9595 X91.203 Y565.735
N9600 X90.82 Y565.813
N9605 X90.676 Y565.822
N9610 X90.47 Y565.803
N9615 X90.281 Y565.718
N9620 X90.129 Y565.576
N9625 X90.031 Y565.393
N9630 X89.997 Y565.189
N9635 Y562.762
N9640 G3 X90.654 Y562.15 Z4.963 I0.635 J0.022
N9645 G1 X90.742 Y562.159
N9650 X90.829 Y562.18
N9655 X92.524 Y562.732
N9660 X92.734 Y562.801 Z4.918
N9665 X92.74 Y562.802 Z4.917
N9670 G3 X93.173 Y563.382 Z4.762 I-0.202 J0.602
N9675 G1 Y565.66
N9680 X93.156 Y565.99
N9685 X93.103 Y566.278
N9690 X93.006 Y566.577
N9695 X92.863 Y566.875
N9700 X92.676 Y567.163
N9705 X92.444 Y567.432
N9710 X92.183 Y567.665
N9715 X91.878 Y567.872
N9720 X91.546 Y568.039
N9725 X91.2 Y568.158
N9730 X90.818 Y568.236
N9735 X90.676 Y568.246
N9740 X90.47 Y568.226
N9745 X90.281 Y568.141
N9750 X90.129 Y568.
N9755 X90.031 Y567.817
N9760 X89.997 Y567.612
N9765 Y565.189
N9770 G3 X90.654 Y564.576 Z4.963 I0.635 J0.022
N9775 G1 X90.72 Y564.582
N9780 X90.785 Y564.595
N9785 X92.52 Y565.024
N9790 X92.69 Y565.066 Z4.927
N9795 X92.74 Y565.08 Z4.917
N9800 G3 X93.173 Y565.66 Z4.762 I-0.202 J0.602
N9805 G1 Y568.145
N9810 X93.159 Y568.412
N9815 X93.106 Y568.701
N9820 X93.009 Y569.
N9825 X92.866 Y569.299
N9830 X92.678 Y569.587
N9835 X92.446 Y569.856
N9840 X92.185 Y570.089
N9845 X91.88 Y570.297
N9850 X91.548 Y570.463
N9855 X91.201 Y570.583
N9860 X90.819 Y570.661
N9865 X90.676 Y570.671
N9870 X90.47 Y570.651
N9875 X90.281 Y570.566
N9880 X90.129 Y570.424
N9885 X90.031 Y570.242
N9890 X89.997 Y570.037
N9895 Y567.612
N9900 G3 X90.654 Y567. Z4.963 I0.635 J0.022
N9905 G1 X90.729 Y567.007
N9910 X90.803 Y567.023
N9915 X92.521 Y567.504
N9920 X92.709 Y567.556 Z4.923
N9925 X92.74 Y567.565 Z4.917
N9930 G3 X93.173 Y568.145 Z4.762 I-0.202 J0.602
N9935 G1 Y570.631
N9940 X93.162 Y570.836
N9945 X93.109 Y571.125
N9950 X93.012 Y571.425
N9955 X92.869 Y571.724
N9960 X92.681 Y572.012
N9965 X92.449 Y572.282
N9970 X92.187 Y572.515
N9975 X91.882 Y572.723
N9980 X91.549 Y572.889
N9985 X91.203 Y573.009
N9990 X90.82 Y573.087
N9995 X90.676 Y573.097
N10000 X90.47 Y573.077
N10005 X90.281 Y572.992
N10010 X90.129 Y572.85
N10015 X90.031 Y572.668
N10020 X89.997 Y572.463
N10025 Y570.037
N10030 G3 X90.654 Y569.425 Z4.963 I0.635 J0.022
N10035 G1 X90.738 Y569.433
N10040 X90.821 Y569.453
N10045 X92.523 Y569.983
N10050 X92.727 Y570.046 Z4.92
N10055 X92.74 Y570.051 Z4.917
N10060 G3 X93.173 Y570.631 Z4.762 I-0.202 J0.602
N10065 G1 Y572.909
N10070 X93.155 Y573.264
N10075 X93.102 Y573.553
N10080 X93.005 Y573.851
N10085 X92.862 Y574.15
N10090 X92.674 Y574.437
N10095 X92.443 Y574.706
N10100 X92.182 Y574.939
N10105 X91.877 Y575.146
N10110 X91.546 Y575.312
N10115 X91.199 Y575.432
N10120 X90.817 Y575.51
N10125 X90.676 Y575.519
N10130 X90.47 Y575.5
N10135 X90.281 Y575.415
N10140 X90.129 Y575.273
N10145 X90.031 Y575.09
N10150 X89.997 Y574.886
N10155 Y572.463
N10160 G3 X90.654 Y571.851 Z4.963 I0.635 J0.022
N10165 G1 X90.716 Y571.856
N10170 X90.777 Y571.867
N10175 X92.519 Y572.274
N10180 X92.682 Y572.312 Z4.929
N10185 G3 X93.173 Y572.909 Z4.762 I-0.145 J0.618
N10190 G1 Y575.394
N10195 X93.158 Y575.686
N10200 X93.105 Y575.975
N10205 X93.008 Y576.274
N10210 X92.865 Y576.573
N10215 X92.677 Y576.86
N10220 X92.445 Y577.13
N10225 X92.184 Y577.363
N10230 X91.879 Y577.57
N10235 X91.547 Y577.736
N10240 X91.201 Y577.856
N10245 X90.818 Y577.934
N10250 X90.676 Y577.944
N10255 X90.47 Y577.924
N10260 X90.281 Y577.839
N10265 X90.129 Y577.697
N10270 X90.031 Y577.515
N10275 X89.997 Y577.31
N10280 Y574.886
N10285 G3 X90.654 Y574.273 Z4.963 I0.635 J0.022
N10290 G1 X90.725 Y574.28
N10295 X90.796 Y574.295
N10300 X92.521 Y574.754
N10305 X92.701 Y574.802 Z4.925
N10310 X92.74 Y574.814 Z4.917
N10315 G3 X93.173 Y575.394 Z4.762 I-0.202 J0.602
N10320 G1 Y577.879
N10325 X93.161 Y578.109
N10330 X93.108 Y578.398
N10335 X93.011 Y578.698
N10340 X92.867 Y578.997
N10345 X92.68 Y579.285
N10350 X92.448 Y579.555
N10355 X92.186 Y579.788
N10360 X91.881 Y579.995
N10365 X91.549 Y580.162
N10370 X91.202 Y580.282
N10375 X90.819 Y580.359
N10380 X90.676 Y580.369
N10385 X90.47 Y580.349
N10390 X90.281 Y580.264
N10395 X90.129 Y580.123
N10400 X90.031 Y579.94
N10405 X89.997 Y579.736
N10410 Y577.31
N10415 G3 X90.654 Y576.698 Z4.963 I0.635 J0.022
N10420 G1 X90.735 Y576.706
N10425 X90.814 Y576.724
N10430 X92.522 Y577.234
N10435 X92.719 Y577.292 Z4.921
N10440 X92.74 Y577.299 Z4.917
N10445 G3 X93.173 Y577.879 Z4.762 I-0.202 J0.602
N10450 G1 Y580.364
N10455 X93.164 Y580.534
N10460 X93.111 Y580.823
N10465 X93.013 Y581.123
N10470 X92.87 Y581.423
N10475 X92.682 Y581.711
N10480 X92.45 Y581.981
N10485 X92.188 Y582.214
N10490 X91.883 Y582.422
N10495 X91.55 Y582.589
N10500 X91.203 Y582.708
N10505 X90.82 Y582.786
N10510 X90.676 Y582.796
N10515 X90.47 Y582.776
N10520 X90.281 Y582.691
N10525 X90.129 Y582.55
N10530 X90.031 Y582.367
N10535 X89.997 Y582.163
N10540 Y579.736
N10545 G3 X90.654 Y579.123 Z4.963 I0.635 J0.022
N10550 G1 X90.743 Y579.133
N10555 X90.831 Y579.155
N10560 X92.524 Y579.713
N10565 X92.737 Y579.783 Z4.918
N10570 G3 X93.173 Y580.364 Z4.762 I-0.199 J0.603
N10575 G1 Y582.642
N10580 X93.156 Y582.963
N10585 X93.103 Y583.252
N10590 X93.006 Y583.551
N10595 X92.863 Y583.849
N10600 X92.676 Y584.137
N10605 X92.444 Y584.406
N10610 X92.183 Y584.639
N10615 X91.878 Y584.846
N10620 X91.546 Y585.013
N10625 X91.2 Y585.132
N10630 X90.818 Y585.21
N10635 X90.676 Y585.22
N10640 X90.47 Y585.2
N10645 X90.281 Y585.115
N10650 X90.129 Y584.973
N10655 X90.031 Y584.791
N10660 X89.997 Y584.586
N10665 Y582.163
N10670 G3 X90.654 Y581.55 Z4.963 I0.635 J0.022
N10675 G1 X90.721 Y581.556
N10680 X90.787 Y581.569
N10685 X92.52 Y582.005
N10690 X92.693 Y582.048 Z4.927
N10695 G3 X93.173 Y582.642 Z4.762 I-0.155 J0.616
N10700 G1 Y585.127
N10705 X93.16 Y585.386
N10710 X93.106 Y585.675
N10715 X93.009 Y585.974
N10720 X92.866 Y586.273
N10725 X92.678 Y586.561
N10730 X92.447 Y586.83
N10735 X92.185 Y587.063
N10740 X91.88 Y587.271
N10745 X91.548 Y587.437
N10750 X91.201 Y587.557
N10755 X90.819 Y587.635
N10760 X90.676 Y587.645
N10765 X90.47 Y587.625
N10770 X90.281 Y587.54
N10775 X90.129 Y587.398
N10780 X90.031 Y587.216
N10785 X89.997 Y587.011
N10790 Y584.586
N10795 G3 X90.654 Y583.974 Z4.963 I0.635 J0.022
N10800 G1 X90.73 Y583.981
N10805 X90.805 Y583.997
N10810 X92.521 Y584.484
N10815 X92.711 Y584.538 Z4.923
N10820 X92.74 Y584.547 Z4.917
N10825 G3 X93.173 Y585.127 Z4.762 I-0.202 J0.602
N10830 G1 Y587.612
N10835 X93.163 Y587.81
N10840 X93.109 Y588.099
N10845 X93.012 Y588.399
N10850 X92.869 Y588.698
N10855 X92.681 Y588.986
N10860 X92.449 Y589.256
N10865 X92.187 Y589.489
N10870 X91.882 Y589.697
N10875 X91.55 Y589.863
N10880 X91.203 Y589.983
N10885 X90.82 Y590.061
N10890 X90.676 Y590.071
N10895 X90.47 Y590.051
N10900 X90.281 Y589.966
N10905 X90.129 Y589.825
N10910 X90.031 Y589.642
N10915 X89.997 Y589.437
N10920 Y587.011
N10925 G3 X90.654 Y586.399 Z4.963 I0.635 J0.022
N10930 G1 X90.739 Y586.407
N10935 X90.823 Y586.428
N10940 X92.523 Y586.964
N10945 X92.729 Y587.029 Z4.919
N10950 X92.74 Y587.032 Z4.917
N10955 G3 X93.173 Y587.612 Z4.762 I-0.202 J0.602
N10960 G1 Y589.89
N10965 X93.155 Y590.238
N10970 X93.102 Y590.527
N10975 X93.005 Y590.825
N10980 X92.862 Y591.124
N10985 X92.675 Y591.411
N10990 X92.443 Y591.681
N10995 X92.182 Y591.913
N11000 X91.877 Y592.121
N11005 X91.546 Y592.287
N11010 X91.199 Y592.406
N11015 X90.817 Y592.484
N11020 X90.676 Y592.494
N11025 X90.47 Y592.474
N11030 X90.281 Y592.389
N11035 X90.129 Y592.248
N11040 X90.031 Y592.065
N11045 X89.997 Y591.86
N11050 Y589.437
N11055 G3 X90.654 Y588.825 Z4.963 I0.635 J0.022
N11060 G1 X90.717 Y588.83
N11065 X90.779 Y588.842
N11070 X92.519 Y589.255
N11075 X92.685 Y589.294 Z4.928
N11080 X92.74 Y589.31 Z4.917
N11085 G3 X93.173 Y589.89 Z4.762 I-0.202 J0.602
N11090 G1 Y592.375
N11095 X93.158 Y592.66
N11100 X93.105 Y592.949
N11105 X93.008 Y593.248
N11110 X92.865 Y593.547
N11115 X92.677 Y593.835
N11120 X92.446 Y594.104
N11125 X92.184 Y594.337
N11130 X91.879 Y594.545
N11135 X91.547 Y594.711
N11140 X91.201 Y594.831
N11145 X90.818 Y594.908
N11150 X90.676 Y594.918
N11155 X90.47 Y594.898
N11160 X90.281 Y594.813
N11165 X90.129 Y594.672
N11170 X90.031 Y594.489
N11175 X89.997 Y594.285
N11180 Y591.86
N11185 G3 X90.654 Y591.248 Z4.963 I0.635 J0.022
N11190 G1 X90.726 Y591.255
N11195 X90.798 Y591.27
N11200 X92.521 Y591.735
N11205 X92.703 Y591.784 Z4.925
N11210 X92.74 Y591.795 Z4.917
N11215 G3 X93.173 Y592.375 Z4.762 I-0.202 J0.602
N11220 G1 Y594.86
N11225 X93.161 Y595.084
N11230 X93.108 Y595.373
N11235 X93.011 Y595.672
N11240 X92.868 Y595.971
N11245 X92.68 Y596.259
N11250 X92.448 Y596.529
N11255 X92.187 Y596.763
N11260 X91.881 Y596.97
N11265 X91.549 Y597.136
N11270 X91.202 Y597.256
N11275 X90.819 Y597.334
N11280 X90.676 Y597.344
N11285 X90.47 Y597.324
N11290 X90.281 Y597.239
N11295 X90.129 Y597.098
N11300 X90.031 Y596.915
N11305 X89.997 Y596.71
N11310 Y594.285
N11315 G3 X90.654 Y593.672 Z4.963 I0.635 J0.022
N11320 G1 X90.736 Y593.68
N11325 X90.816 Y593.699
N11330 X92.522 Y594.214
N11335 X92.721 Y594.275 Z4.921
N11340 X92.74 Y594.28 Z4.917
N11345 G3 X93.173 Y594.86 Z4.762 I-0.202 J0.602
N11350 G1 Y597.345
N11355 X93.164 Y597.509
N11360 X93.111 Y597.798
N11365 X93.014 Y598.098
N11370 X92.871 Y598.397
N11375 X92.683 Y598.685
N11380 X92.45 Y598.956
N11385 X92.189 Y599.189
N11390 X91.883 Y599.397
N11395 X91.551 Y599.563
N11400 X91.203 Y599.683
N11405 X90.821 Y599.761
N11410 X90.676 Y599.771
N11415 X90.47 Y599.751
N11420 X90.281 Y599.666
N11425 X90.129 Y599.525
N11430 X90.031 Y599.342
N11435 X89.997 Y599.138
N11440 Y596.71
N11445 G3 X90.654 Y596.098 Z4.963 I0.635 J0.022
N11450 G1 X90.744 Y596.108
N11455 X90.833 Y596.13
N11460 X92.524 Y596.694
N11465 X92.739 Y596.765 Z4.917
N11470 G3 X93.173 Y597.345 Z4.762 I-0.201 J0.602
N11475 G1 Y599.623
N11480 X93.157 Y599.938
N11485 X93.104 Y600.227
N11490 X93.007 Y600.525
N11495 X92.864 Y600.824
N11500 X92.676 Y601.112
N11505 X92.445 Y601.381
N11510 X92.184 Y601.614
N11515 X91.878 Y601.821
N11520 X91.547 Y601.988
N11525 X91.2 Y602.107
N11530 X90.818 Y602.185
N11535 X90.676 Y602.195
N11540 X90.47 Y602.175
N11545 X90.281 Y602.09
N11550 X90.129 Y601.948
N11555 X90.031 Y601.766
N11560 X89.997 Y601.561
N11565 Y599.138
N11570 G3 X90.654 Y598.525 Z4.963 I0.635 J0.022
N11575 G1 X90.722 Y598.531
N11580 X90.789 Y598.544
N11585 X92.52 Y598.986
N11590 X92.695 Y599.03 Z4.926
N11595 X92.74 Y599.043 Z4.917
N11600 G3 X93.173 Y599.623 Z4.762 I-0.202 J0.602
N11605 G1 Y602.109
N11610 X93.16 Y602.361
N11615 X93.107 Y602.65
N11620 X93.009 Y602.949
N11625 X92.866 Y603.248
N11630 X92.679 Y603.536
N11635 X92.447 Y603.805
N11640 X92.186 Y604.039
N11645 X91.88 Y604.246
N11650 X91.548 Y604.412
N11655 X91.201 Y604.532
N11660 X90.819 Y604.61
N11665 X90.676 Y604.62
N11670 X90.47 Y604.6
N11675 X90.281 Y604.515
N11680 X90.129 Y604.374
N11685 X90.031 Y604.191
N11690 X89.997 Y603.986
N11695 Y601.561
N11700 G3 X90.654 Y600.949 Z4.963 I0.635 J0.022
N11705 G1 X90.731 Y600.956
N11710 X90.807 Y600.973
N11715 X92.522 Y601.465
N11720 X92.713 Y601.52 Z4.923
N11725 X92.74 Y601.529 Z4.917
N11730 G3 X93.173 Y602.109 Z4.762 I-0.202 J0.602
N11735 G1 Y604.594
N11740 X93.163 Y604.785
N11745 X93.11 Y605.074
N11750 X93.012 Y605.374
N11755 X92.869 Y605.673
N11760 X92.681 Y605.961
N11765 X92.449 Y606.231
N11770 X92.188 Y606.465
N11775 X91.882 Y606.672
N11780 X91.55 Y606.839
N11785 X91.203 Y606.959
N11790 X90.82 Y607.036
N11795 X90.676 Y607.046
N11800 X90.47 Y607.027
N11805 X90.281 Y606.941
N11810 X90.129 Y606.8
N11815 X90.031 Y606.617
N11820 X89.997 Y606.413
N11825 Y603.986
N11830 G3 X90.654 Y603.374 Z4.963 I0.635 J0.022
N11835 G1 X90.74 Y603.383
N11840 X90.825 Y603.404
N11845 X92.523 Y603.945
N11850 X92.731 Y604.011 Z4.919
N11855 X92.74 Y604.014 Z4.917
N11860 G3 X93.173 Y604.594 Z4.762 I-0.202 J0.602
N11865 G1 Y606.872
N11870 X93.155 Y607.213
N11875 X93.102 Y607.502
N11880 X93.005 Y607.801
N11885 X92.863 Y608.099
N11890 X92.675 Y608.387
N11895 X92.443 Y608.656
N11900 X92.183 Y608.889
N11905 X91.878 Y609.096
N11910 X91.546 Y609.262
N11915 X91.2 Y609.382
N11920 X90.817 Y609.46
N11925 X90.676 Y609.469
N11930 X90.47 Y609.45
N11935 X90.281 Y609.365
N11940 X90.129 Y609.223
N11945 X90.031 Y609.04
N11950 X89.997 Y608.836
N11955 Y606.413
N11960 G3 X90.654 Y605.8 Z4.963 I0.635 J0.022
N11965 G1 X90.718 Y605.806
N11970 X90.781 Y605.818
N11975 X92.52 Y606.236
N11980 X92.687 Y606.276 Z4.928
N11985 G3 X93.173 Y606.872 Z4.762 I-0.149 J0.617
N11990 G1 Y609.357
N11995 X93.159 Y609.635
N12000 X93.105 Y609.924
N12005 X93.008 Y610.224
N12010 X92.865 Y610.523
N12015 X92.678 Y610.81
N12020 X92.446 Y611.08
N12025 X92.185 Y611.313
N12030 X91.879 Y611.52
N12035 X91.547 Y611.687
N12040 X91.201 Y611.806
N12045 X90.818 Y611.884
N12050 X90.676 Y611.894
N12055 X90.47 Y611.874
N12060 X90.281 Y611.789
N12065 X90.129 Y611.648
N12070 X90.031 Y611.465
N12075 X89.997 Y611.26
N12080 Y608.836
N12085 G3 X90.654 Y608.223 Z4.963 I0.635 J0.022
N12090 G1 X90.727 Y608.23
N12095 X90.8 Y608.246
N12100 X92.521 Y608.716
N12105 X92.705 Y608.766 Z4.924
N12110 G3 X93.173 Y609.357 Z4.762 I-0.167 J0.613
N12115 G1 Y611.842
N12120 X93.162 Y612.06
N12125 X93.108 Y612.348
N12130 X93.011 Y612.648
N12135 X92.868 Y612.947
N12140 X92.68 Y613.235
N12145 X92.448 Y613.505
N12150 X92.187 Y613.738
N12155 X91.881 Y613.946
N12160 X91.549 Y614.112
N12165 X91.202 Y614.232
N12170 X90.82 Y614.31
N12175 X90.676 Y614.32
N12180 X90.47 Y614.3
N12185 X90.281 Y614.215
N12190 X90.129 Y614.073
N12195 X90.031 Y613.891
N12200 X89.997 Y613.686
N12205 Y611.26
N12210 G3 X90.654 Y610.648 Z4.963 I0.635 J0.022
N12215 G1 X90.736 Y610.656
N12220 X90.817 Y610.675
N12225 X92.523 Y611.195
N12230 X92.723 Y611.257 Z4.92
N12235 X92.74 Y611.262 Z4.917
N12240 G3 X93.173 Y611.842 Z4.762 I-0.202 J0.602
N12245 G1 Y614.327
N12250 X93.165 Y614.485
N12255 X93.111 Y614.774
N12260 X93.014 Y615.074
N12265 X92.871 Y615.373
N12270 X92.683 Y615.661
N12275 X92.451 Y615.931
N12280 X92.189 Y616.165
N12285 X91.883 Y616.373
N12290 X91.551 Y616.539
N12295 X91.204 Y616.659
N12300 X90.821 Y616.737
N12305 X90.676 Y616.747
N12310 X90.47 Y616.727
N12315 X90.281 Y616.642
N12320 X90.129 Y616.501
N12325 X90.031 Y616.318
N12330 X89.997 Y616.113
N12335 Y613.686
N12340 G3 X90.654 Y613.074 Z4.963 I0.635 J0.022
N12345 G1 X90.745 Y613.084
N12350 X90.834 Y613.107
N12355 X92.525 Y613.675
N12360 X92.74 Y613.747 Z4.917
N12365 G3 X93.173 Y614.327 Z4.762 I-0.202 J0.602
N12370 G1 Y616.605
N12375 X93.157 Y616.914
N12380 X93.104 Y617.203
N12385 X93.007 Y617.501
N12390 X92.864 Y617.8
N12395 X92.676 Y618.088
N12400 X92.445 Y618.357
N12405 X92.184 Y618.59
N12410 X91.879 Y618.797
N12415 X91.547 Y618.964
N12420 X91.2 Y619.083
N12425 X90.818 Y619.161
N12430 X90.676 Y619.171
N12435 X90.47 Y619.151
N12440 X90.281 Y619.066
N12445 X90.129 Y618.924
N12450 X90.031 Y618.742
N12455 X89.997 Y618.537
N12460 Y616.113
N12465 G3 X90.654 Y615.501 Z4.963 I0.635 J0.022
N12470 G1 X90.723 Y615.507
N12475 X90.791 Y615.521
N12480 X92.52 Y615.967
N12485 X92.696 Y616.012 Z4.926
N12490 G3 X93.173 Y616.605 Z4.762 I-0.159 J0.615
N12495 G1 Y619.09
N12500 X93.16 Y619.337
N12505 X93.107 Y619.626
N12510 X93.01 Y619.925
N12515 X92.867 Y620.224
N12520 X92.679 Y620.512
N12525 X92.447 Y620.782
N12530 X92.186 Y621.015
N12535 X91.88 Y621.222
N12540 X91.548 Y621.389
N12545 X91.202 Y621.508
N12550 X90.819 Y621.586
N12555 X90.676 Y621.596
N12560 X90.47 Y621.576
N12565 X90.281 Y621.491
N12570 X90.129 Y621.35
N12575 X90.031 Y621.167
N12580 X89.997 Y620.963
N12585 Y618.537
N12590 G3 X90.654 Y617.925 Z4.963 I0.635 J0.022
N12595 G1 X90.732 Y617.932
N12600 X90.809 Y617.95
N12605 X92.522 Y618.446
N12610 X92.715 Y618.502 Z4.922
N12615 X92.74 Y618.51 Z4.917
N12620 G3 X93.173 Y619.09 Z4.762 I-0.202 J0.602
N12625 G1 Y621.575
N12630 X93.163 Y621.761
N12635 X93.11 Y622.05
N12640 X93.013 Y622.35
N12645 X92.87 Y622.649
N12650 X92.682 Y622.937
N12655 X92.449 Y623.207
N12660 X92.188 Y623.441
N12665 X91.882 Y623.648
N12670 X91.55 Y623.815
N12675 X91.203 Y623.935
N12680 X90.82 Y624.013
N12685 X90.676 Y624.023
N12690 X90.47 Y624.003
N12695 X90.281 Y623.918
N12700 X90.129 Y623.776
N12705 X90.031 Y623.594
N12710 X89.997 Y623.389
N12715 Y620.963
N12720 G3 X90.654 Y620.35 Z4.963 I0.635 J0.022
N12725 G1 X90.741 Y620.359
N12730 X90.826 Y620.38
N12735 X92.524 Y620.926
N12740 X92.732 Y620.993 Z4.919
N12745 X92.74 Y620.995 Z4.917
N12750 G3 X93.173 Y621.575 Z4.762 I-0.202 J0.602
N12755 G1 Y623.853
N12760 X93.156 Y624.19
N12765 X93.102 Y624.479
N12770 X93.006 Y624.777
N12775 X92.863 Y625.076
N12780 X92.675 Y625.363
N12785 X92.444 Y625.632
N12790 X92.183 Y625.865
N12795 X91.878 Y626.072
N12800 X91.546 Y626.239
N12805 X91.2 Y626.358
N12810 X90.817 Y626.436
N12815 X90.676 Y626.446
N12820 X90.47 Y626.426
N12825 X90.281 Y626.341
N12830 X90.129 Y626.2
N12835 X90.031 Y626.017
N12840 X89.997 Y625.812
N12845 Y623.389
N12850 G3 X90.654 Y622.777 Z4.963 I0.635 J0.022
N12855 G1 X90.719 Y622.782
N12860 X90.782 Y622.794
N12865 X92.52 Y623.217
N12870 X92.688 Y623.258 Z4.928
N12875 X92.74 Y623.273 Z4.917
N12880 G3 X93.173 Y623.853 Z4.762 I-0.202 J0.602
N12885 G1 Y626.338
N12890 X93.159 Y626.612
N12895 X93.106 Y626.901
N12900 X93.008 Y627.2
N12905 X92.866 Y627.499
N12910 X92.678 Y627.787
N12915 X92.446 Y628.056
N12920 X92.185 Y628.289
N12925 X91.88 Y628.497
N12930 X91.548 Y628.663
N12935 X91.201 Y628.783
N12940 X90.818 Y628.861
N12945 X90.676 Y628.87
N12950 X90.47 Y628.851
N12955 X90.281 Y628.766
N12960 X90.129 Y628.624
N12965 X90.031 Y628.441
N12970 X89.997 Y628.237
N12975 Y625.812
N12980 G3 X90.654 Y625.2 Z4.963 I0.635 J0.022
N12985 G1 X90.728 Y625.207
N12990 X90.801 Y625.222
N12995 X92.521 Y625.697
N13000 X92.707 Y625.748 Z4.924
N13005 G3 X93.173 Y626.338 Z4.762 I-0.169 J0.612
N13010 G1 Y628.823
N13015 X93.162 Y629.036
N13020 X93.109 Y629.325
N13025 X93.011 Y629.624
N13030 X92.868 Y629.924
N13035 X92.68 Y630.212
N13040 X92.448 Y630.481
N13045 X92.187 Y630.715
N13050 X91.882 Y630.922
N13055 X91.549 Y631.089
N13060 X91.202 Y631.209
N13065 X90.82 Y631.287
N13070 X90.676 Y631.296
N13075 X90.47 Y631.277
N13080 X90.281 Y631.192
N13085 X90.129 Y631.05
N13090 X90.031 Y630.867
N13095 X89.997 Y630.663
N13100 Y628.237
N13105 G3 X90.654 Y627.624 Z4.963 I0.635 J0.022
N13110 G1 X90.737 Y627.633
N13115 X90.819 Y627.652
N13120 X92.523 Y628.177
N13125 X92.725 Y628.239 Z4.92
N13130 X92.74 Y628.243 Z4.917
N13135 G3 X93.173 Y628.823 Z4.762 I-0.202 J0.602
N13140 G1 Y631.308
N13145 X93.165 Y631.462
N13150 X93.112 Y631.751
N13155 X93.014 Y632.05
N13160 X92.871 Y632.35
N13165 X92.683 Y632.638
N13170 X92.451 Y632.908
N13175 X92.189 Y633.142
N13180 X91.883 Y633.349
N13185 X91.551 Y633.516
N13190 X91.204 Y633.636
N13195 X90.821 Y633.714
N13200 X90.676 Y633.724
N13205 X90.47 Y633.704
N13210 X90.281 Y633.619
N13215 X90.129 Y633.477
N13220 X90.031 Y633.295
N13225 X89.997 Y633.09
N13230 Y630.663
N13235 G3 X90.654 Y630.05 Z4.963 I0.635 J0.022
N13240 G1 X90.746 Y630.06
N13245 X90.836 Y630.084
N13250 X92.525 Y630.656
N13255 X92.74 Y630.729 Z4.917
N13260 X92.742
N13265 G3 X93.173 Y631.308 Z4.762 I-0.204 J0.601
N13270 G1 Y633.586
N13275 X93.157 Y633.891
N13280 X93.104 Y634.179
N13285 X93.007 Y634.478
N13290 X92.864 Y634.777
N13295 X92.677 Y635.064
N13300 X92.445 Y635.334
N13305 X92.184 Y635.567
N13310 X91.879 Y635.774
N13315 X91.547 Y635.94
N13320 X91.2 Y636.06
N13325 X90.818 Y636.138
N13330 X90.676 Y636.148
N13335 X90.47 Y636.128
N13340 X90.281 Y636.043
N13345 X90.129 Y635.901
N13350 X90.031 Y635.719
N13355 X89.997 Y635.514
N13360 Y633.09
N13365 G3 X90.654 Y632.478 Z4.963 I0.635 J0.022
N13370 G1 X90.724 Y632.484
N13375 X90.792 Y632.498
N13380 X92.52 Y632.948
N13385 X92.698 Y632.994 Z4.926
N13390 X92.74 Y633.007 Z4.917
N13395 G3 X93.173 Y633.586 Z4.762 I-0.202 J0.602
N13400 G1 Y636.072
N13405 X93.16 Y636.314
N13410 X93.107 Y636.603
N13415 X93.01 Y636.902
N13420 X92.867 Y637.201
N13425 X92.679 Y637.489
N13430 X92.447 Y637.758
N13435 X92.186 Y637.992
N13440 X91.881 Y638.199
N13445 X91.548 Y638.366
N13450 X91.202 Y638.485
N13455 X90.819 Y638.563
N13460 X90.676 Y638.573
N13465 X90.47 Y638.553
N13470 X90.281 Y638.468
N13475 X90.129 Y638.327
N13480 X90.031 Y638.144
N13485 X89.997 Y637.94
N13490 Y635.514
N13495 G3 X90.654 Y634.902 Z4.963 I0.635 J0.022
N13500 G1 X90.733 Y634.909
N13505 X90.81 Y634.927
N13510 X92.522 Y635.427
N13515 X92.716 Y635.484 Z4.922
N13520 X92.74 Y635.492 Z4.917
N13525 G3 X93.173 Y636.072 Z4.762 I-0.202 J0.602
N13530 G1 Y638.557
N13535 X93.163 Y638.738
N13540 X93.11 Y639.027
N13545 X93.013 Y639.327
N13550 X92.87 Y639.626
N13555 X92.682 Y639.914
N13560 X92.45 Y640.184
N13565 X92.188 Y640.418
N13570 X91.883 Y640.625
N13575 X91.55 Y640.792
N13580 X91.203 Y640.912
N13585 X90.82 Y640.99
N13590 X90.676 Y641.
N13595 X90.47 Y640.98
N13600 X90.281 Y640.895
N13605 X90.129 Y640.753
N13610 X90.031 Y640.571
N13615 X89.997 Y640.366
N13620 Y637.94
N13625 G3 X90.654 Y637.327 Z4.963 I0.635 J0.022
N13630 G1 X90.742 Y637.336
N13635 X90.828 Y637.358
N13640 X92.524 Y637.907
N13645 X92.734 Y637.975 Z4.918
N13650 X92.74 Y637.977 Z4.917
N13655 G3 X93.173 Y638.557 Z4.762 I-0.202 J0.602
N13660 G1 Y640.835
N13665 X93.156 Y641.167
N13670 X93.103 Y641.456
N13675 X93.006 Y641.754
N13680 X92.863 Y642.053
N13685 X92.675 Y642.34
N13690 X92.444 Y642.61
N13695 X92.183 Y642.842
N13700 X91.878 Y643.05
N13705 X91.546 Y643.216
N13710 X91.2 Y643.336
N13715 X90.817 Y643.413
N13720 X90.676 Y643.423
N13725 X90.47 Y643.403
N13730 X90.281 Y643.318
N13735 X90.129 Y643.177
N13740 X90.031 Y642.994
N13745 X89.997 Y642.79
N13750 Y640.366
N13755 G3 X90.654 Y639.754 Z4.963 I0.635 J0.022
N13760 G1 X90.719 Y639.759
N13765 X90.784 Y639.772
N13770 X92.52 Y640.199
N13775 X92.689 Y640.24 Z4.927
N13780 X92.74 Y640.255 Z4.917
N13785 G3 X93.173 Y640.835 Z4.762 I-0.202 J0.602
N13790 G1 Y643.32
N13795 X93.159 Y643.589
N13800 X93.106 Y643.878
N13805 X93.009 Y644.177
N13810 X92.866 Y644.476
N13815 X92.678 Y644.764
N13820 X92.446 Y645.034
N13825 X92.185 Y645.267
N13830 X91.88 Y645.474
N13835 X91.548 Y645.64
N13840 X91.201 Y645.76
N13845 X90.819 Y645.838
N13850 X90.676 Y645.848
N13855 X90.47 Y645.828
N13860 X90.281 Y645.743
N13865 X90.129 Y645.601
N13870 X90.031 Y645.419
N13875 X89.997 Y645.214
N13880 Y642.79
N13885 G3 X90.654 Y642.177 Z4.963 I0.635 J0.022
N13890 G1 X90.729 Y642.184
N13895 X90.802 Y642.2
N13900 X92.521 Y642.678
N13905 X92.708 Y642.73 Z4.924
N13910 X92.74 Y642.74 Z4.917
N13915 G3 X93.173 Y643.32 Z4.762 I-0.202 J0.602
N13920 G1 Y645.805
N13925 X93.162 Y646.013
N13930 X93.109 Y646.302
N13935 X93.012 Y646.602
N13940 X92.868 Y646.901
N13945 X92.681 Y647.189
N13950 X92.449 Y647.459
N13955 X92.187 Y647.692
N13960 X91.882 Y647.9
N13965 X91.549 Y648.066
N13970 X91.202 Y648.186
N13975 X90.82 Y648.264
N13980 X90.676 Y648.274
N13985 X90.47 Y648.254
N13990 X90.281 Y648.169
N13995 X90.129 Y648.027
N14000 X90.031 Y647.845
N14005 X89.997 Y647.64
N14010 Y645.214
N14015 G3 X90.654 Y644.602 Z4.963 I0.635 J0.022
N14020 G1 X90.738 Y644.61
N14025 X90.82 Y644.63
N14030 X92.523 Y645.158
N14035 X92.726 Y645.221 Z4.92
N14040 X92.74 Y645.225 Z4.917
N14045 G3 X93.173 Y645.805 Z4.762 I-0.202 J0.602
N14050 G1 Y648.29
N14055 X93.165 Y648.44
N14060 X93.112 Y648.729
N14065 X93.014 Y649.029
N14070 X92.871 Y649.328
N14075 X92.683 Y649.616
N14080 X92.45 Y649.886
N14085 X92.188 Y650.12
N14090 X91.882 Y650.328
N14095 X91.55 Y650.494
N14100 X91.203 Y650.614
N14105 X90.819 Y650.692
N14110 X90.676 Y650.701
N14115 X90.469 Y650.682
N14120 X90.281 Y650.596
N14125 X90.129 Y650.455
N14130 X90.031 Y650.272
N14135 X89.997 Y650.068
N14140 Y647.64
N14145 G3 X90.654 Y647.028 Z4.963 I0.635 J0.022
N14150 G1 X90.747 Y647.038
N14155 X90.837 Y647.061
N14160 X92.525 Y647.637
N14165 X92.74 Y647.71 Z4.917
N14170 X92.743 Y647.711 Z4.916
N14175 G3 X93.173 Y648.29 Z4.762 I-0.205 J0.601
N14180 G1 Y650.568
N14185 X93.157 Y650.868
N14190 X93.104 Y651.157
N14195 X93.007 Y651.456
N14200 X92.864 Y651.754
N14205 X92.677 Y652.042
N14210 X92.445 Y652.311
N14215 X92.184 Y652.545
N14220 X91.879 Y652.752
N14225 X91.547 Y652.918
N14230 X91.2 Y653.038
N14235 X90.818 Y653.116
N14240 X90.676 Y653.125
N14245 X90.47 Y653.106
N14250 X90.281 Y653.021
N14255 X90.129 Y652.879
N14260 X90.031 Y652.696
N14265 X89.997 Y652.492
N14270 Y650.068
N14275 G3 X90.654 Y649.455 Z4.963 I0.635 J0.022
N14280 G1 X90.724 Y649.462
N14285 X90.793 Y649.476
N14290 X92.52 Y649.929
N14295 X92.699 Y649.976 Z4.925
N14300 G3 X93.173 Y650.568 Z4.762 I-0.161 J0.614
N14305 G1 Y653.053
N14310 X93.161 Y653.291
N14315 X93.107 Y653.58
N14320 X93.01 Y653.879
N14325 X92.867 Y654.179
N14330 X92.679 Y654.466
N14335 X92.447 Y654.736
N14340 X92.186 Y654.969
N14345 X91.881 Y655.177
N14350 X91.549 Y655.343
N14355 X91.202 Y655.463
N14360 X90.819 Y655.541
N14365 X90.676 Y655.551
N14370 X90.47 Y655.531
N14375 X90.281 Y655.446
N14380 X90.129 Y655.304
N14385 X90.031 Y655.122
N14390 X89.997 Y654.917
N14395 Y652.492
N14400 G3 X90.654 Y651.879 Z4.963 I0.635 J0.022
N14405 G1 X90.733 Y651.887
N14410 X90.812 Y651.905
N14415 X92.522 Y652.409
N14420 X92.717 Y652.466 Z4.922
N14425 X92.74 Y652.473 Z4.917
N14430 G3 X93.173 Y653.053 Z4.762 I-0.202 J0.602
N14435 G1 Y655.538
N14440 X93.164 Y655.716
N14445 X93.11 Y656.005
N14450 X93.013 Y656.305
N14455 X92.87 Y656.604
N14460 X92.682 Y656.892
N14465 X92.45 Y657.162
N14470 X92.188 Y657.396
N14475 X91.883 Y657.603
N14480 X91.55 Y657.77
N14485 X91.203 Y657.89
N14490 X90.82 Y657.968
N14495 X90.676 Y657.978
N14500 X90.47 Y657.958
N14505 X90.281 Y657.873
N14510 X90.129 Y657.731
N14515 X90.031 Y657.549
N14520 X89.997 Y657.344
N14525 Y654.917
N14530 G3 X90.654 Y654.305 Z4.963 I0.635 J0.022
N14535 G1 X90.742 Y654.314
N14540 X90.829 Y654.336
N14545 X92.524 Y654.888
N14550 X92.735 Y654.957 Z4.918
N14555 X92.74 Y654.958 Z4.917
N14560 G3 X93.173 Y655.538 Z4.762 I-0.202 J0.602
N14565 G1 Y657.816
N14570 X93.156 Y658.145
N14575 X93.103 Y658.433
N14580 X93.006 Y658.732
N14585 X92.863 Y659.031
N14590 X92.676 Y659.318
N14595 X92.444 Y659.587
N14600 X92.183 Y659.82
N14605 X91.878 Y660.028
N14610 X91.546 Y660.194
N14615 X91.2 Y660.313
N14620 X90.818 Y660.391
N14625 X90.676 Y660.401
N14630 X90.47 Y660.381
N14635 X90.281 Y660.296
N14640 X90.129 Y660.155
N14645 X90.031 Y659.972
N14650 X89.997 Y659.767
N14655 Y657.344
N14660 G3 X90.654 Y656.732 Z4.963 I0.635 J0.022
N14665 G1 X90.72 Y656.737
N14670 X90.785 Y656.75
N14675 X92.52 Y657.18
N14680 X92.691 Y657.222 Z4.927
N14685 X92.74 Y657.236 Z4.917
N14690 G3 X93.173 Y657.816 Z4.762 I-0.202 J0.602
N14695 G1 Y660.301
N14700 X93.159 Y660.567
N14705 X93.106 Y660.856
N14710 X93.009 Y661.155
N14715 X92.866 Y661.454
N14720 X92.678 Y661.742
N14725 X92.446 Y662.011
N14730 X92.185 Y662.245
N14735 X91.88 Y662.452
N14740 X91.548 Y662.618
N14745 X91.201 Y662.738
N14750 X90.819 Y662.816
N14755 X90.676 Y662.826
N14760 X90.47 Y662.806
N14765 X90.281 Y662.721
N14770 X90.129 Y662.579
N14775 X90.031 Y662.397
N14780 X89.997 Y662.192
N14785 Y659.767
N14790 G3 X90.654 Y659.155 Z4.963 I0.635 J0.022
N14795 G1 X90.729 Y659.162
N14800 X90.803 Y659.178
N14805 X92.521 Y659.659
N14810 X92.709 Y659.712 Z4.923
N14815 X92.74 Y659.721 Z4.917
N14820 G3 X93.173 Y660.301 Z4.762 I-0.202 J0.602
N14825 G1 Y662.786
N14830 X93.162 Y662.991
N14835 X93.109 Y663.28
N14840 X93.012 Y663.58
N14845 X92.869 Y663.879
N14850 X92.681 Y664.167
N14855 X92.449 Y664.437
N14860 X92.187 Y664.67
N14865 X91.882 Y664.878
N14870 X91.549 Y665.044
N14875 X91.203 Y665.164
N14880 X90.82 Y665.242
N14885 X90.676 Y665.252
N14890 X90.47 Y665.232
N14895 X90.281 Y665.147
N14900 X90.129 Y665.006
N14905 X90.031 Y664.823
N14910 X89.997 Y664.618
N14915 Y662.192
N14920 G3 X90.654 Y661.58 Z4.963 I0.635 J0.022
N14925 G1 X90.738 Y661.588
N14930 X90.821 Y661.608
N14935 X92.523 Y662.139
N14940 X92.727 Y662.202 Z4.92
N14945 X92.74 Y662.206 Z4.917
N14950 G3 X93.173 Y662.786 Z4.762 I-0.202 J0.602
N14955 G1 Y665.064
N14960 X93.155 Y665.419
N14965 X93.102 Y665.708
N14970 X93.005 Y666.006
N14975 X92.862 Y666.305
N14980 X92.674 Y666.592
N14985 X92.443 Y666.861
N14990 X92.182 Y667.094
N14995 X91.877 Y667.301
N15000 X91.546 Y667.468
N15005 X91.199 Y667.587
N15010 X90.817 Y667.665
N15015 X90.676 Y667.675
N15020 X90.47 Y667.655
N15025 X90.281 Y667.57
N15030 X90.129 Y667.428
N15035 X90.031 Y667.246
N15040 X89.997 Y667.041
N15045 Y664.618
N15050 G3 X90.654 Y664.006 Z4.963 I0.635 J0.022
N15055 G1 X90.716 Y664.011
N15060 X90.777 Y664.022
N15065 X92.519 Y664.43
N15070 X92.683 Y664.468 Z4.929
N15075 G3 X93.173 Y665.064 Z4.762 I-0.145 J0.618
N15080 G1 Y667.55
N15085 X93.158 Y667.841
N15090 X93.105 Y668.13
N15095 X93.008 Y668.429
N15100 X92.865 Y668.728
N15105 X92.677 Y669.015
N15110 X92.445 Y669.285
N15115 X92.184 Y669.518
N15120 X91.879 Y669.725
N15125 X91.547 Y669.892
N15130 X91.201 Y670.011
N15135 X90.818 Y670.089
N15140 X90.676 Y670.099
N15145 X90.47 Y670.079
N15150 X90.281 Y669.994
N15155 X90.129 Y669.853
N15160 X90.031 Y669.67
N15165 X89.997 Y669.465
N15170 Y667.041
N15175 G3 X90.654 Y666.429 Z4.963 I0.635 J0.022
N15180 G1 X90.725 Y666.435
N15185 X90.796 Y666.45
N15190 X92.521 Y666.91
N15195 X92.702 Y666.958 Z4.925
N15200 X92.74 Y666.97 Z4.917
N15205 G3 X93.173 Y667.55 Z4.762 I-0.202 J0.602
N15210 G1 Y670.035
N15215 X93.161 Y670.265
N15220 X93.108 Y670.554
N15225 X93.011 Y670.853
N15230 X92.868 Y671.152
N15235 X92.68 Y671.44
N15240 X92.448 Y671.71
N15245 X92.186 Y671.943
N15250 X91.881 Y672.15
N15255 X91.549 Y672.317
N15260 X91.202 Y672.437
N15265 X90.819 Y672.515
N15270 X90.676 Y672.524
N15275 X90.47 Y672.505
N15280 X90.281 Y672.42
N15285 X90.129 Y672.278
N15290 X90.031 Y672.095
N15295 X89.997 Y671.891
N15300 Y669.465
N15305 G3 X90.654 Y668.853 Z4.963 I0.635 J0.022
N15310 G1 X90.735 Y668.861
N15315 X90.814 Y668.879
N15320 X92.522 Y669.389
N15325 X92.72 Y669.448 Z4.921
N15330 X92.74 Y669.455 Z4.917
N15335 G3 X93.173 Y670.035 Z4.762 I-0.202 J0.602
N15340 G1 Y672.52
N15345 X93.164 Y672.69
N15350 X93.111 Y672.979
N15355 X93.013 Y673.278
N15360 X92.87 Y673.578
N15365 X92.682 Y673.866
N15370 X92.45 Y674.136
N15375 X92.188 Y674.37
N15380 X91.883 Y674.577
N15385 X91.55 Y674.744
N15390 X91.203 Y674.864
N15395 X90.82 Y674.941
N15400 X90.676 Y674.951
N15405 X90.47 Y674.932
N15410 X90.281 Y674.847
N15415 X90.129 Y674.705
N15420 X90.031 Y674.522
N15425 X89.997 Y674.318
N15430 Y671.891
N15435 G3 X90.654 Y671.278 Z4.963 I0.635 J0.022
N15440 G1 X90.744 Y671.288
N15445 X90.831 Y671.31
N15450 X92.524 Y671.869
N15455 X92.737 Y671.939 Z4.918
N15460 G3 X93.173 Y672.52 Z4.762 I-0.199 J0.603
N15465 G1 Y674.798
N15470 X93.156 Y675.118
N15475 X93.103 Y675.407
N15480 X93.006 Y675.706
N15485 X92.863 Y676.004
N15490 X92.676 Y676.292
N15495 X92.444 Y676.561
N15500 X92.183 Y676.794
N15505 X91.878 Y677.001
N15510 X91.546 Y677.168
N15515 X91.2 Y677.287
N15520 X90.818 Y677.365
N15525 X90.676 Y677.375
N15530 X90.47 Y677.355
N15535 X90.281 Y677.27
N15540 X90.129 Y677.129
N15545 X90.031 Y676.946
N15550 X89.997 Y676.741
N15555 Y674.318
N15560 G3 X90.654 Y673.705 Z4.963 I0.635 J0.022
N15565 G1 X90.721 Y673.711
N15570 X90.787 Y673.724
N15575 X92.52 Y674.161
N15580 X92.693 Y674.204 Z4.927
N15585 G3 X93.173 Y674.798 Z4.762 I-0.155 J0.616
N15590 G1 Y677.283
N15595 X93.16 Y677.541
N15600 X93.106 Y677.83
N15605 X93.009 Y678.129
N15610 X92.866 Y678.428
N15615 X92.678 Y678.716
N15620 X92.447 Y678.986
N15625 X92.185 Y679.219
N15630 X91.88 Y679.426
N15635 X91.548 Y679.593
N15640 X91.201 Y679.712
N15645 X90.819 Y679.79
N15650 X90.676 Y679.8
N15655 X90.47 Y679.78
N15660 X90.281 Y679.695
N15665 X90.129 Y679.554
N15670 X90.031 Y679.371
N15675 X89.997 Y679.166
N15680 Y676.741
N15685 G3 X90.654 Y676.129 Z4.963 I0.635 J0.022
N15690 G1 X90.73 Y676.136
N15695 X90.806 Y676.153
N15700 X92.522 Y676.64
N15705 X92.711 Y676.694 Z4.923
N15710 X92.74 Y676.703 Z4.917
N15715 G3 X93.173 Y677.283 Z4.762 I-0.202 J0.602
N15720 G1 Y679.768
N15725 X93.163 Y679.965
N15730 X93.109 Y680.254
N15735 X93.012 Y680.554
N15740 X92.869 Y680.853
N15745 X92.681 Y681.141
N15750 X92.449 Y681.411
N15755 X92.187 Y681.645
N15760 X91.882 Y681.852
N15765 X91.55 Y682.019
N15770 X91.203 Y682.138
N15775 X90.82 Y682.216
N15780 X90.676 Y682.226
N15785 X90.47 Y682.207
N15790 X90.281 Y682.121
N15795 X90.129 Y681.98
N15800 X90.031 Y681.797
N15805 X89.997 Y681.593
N15810 Y679.166
N15815 G3 X90.654 Y678.554 Z4.963 I0.635 J0.022
N15820 G1 X90.74 Y678.563
N15825 X90.823 Y678.583
N15830 X92.523 Y679.12
N15835 X92.729 Y679.185 Z4.919
N15840 X92.74 Y679.188 Z4.917
N15845 G3 X93.173 Y679.768 Z4.762 I-0.202 J0.602
N15850 G1 Y682.046
N15855 X93.155 Y682.393
N15860 X93.102 Y682.682
N15865 X93.005 Y682.981
N15870 X92.862 Y683.279
N15875 X92.675 Y683.567
N15880 X92.443 Y683.836
N15885 X92.182 Y684.069
N15890 X91.877 Y684.276
N15895 X91.546 Y684.442
N15900 X91.199 Y684.562
N15905 X90.817 Y684.639
N15910 X90.676 Y684.649
N15915 X90.47 Y684.629
N15920 X90.281 Y684.544
N15925 X90.129 Y684.403
N15930 X90.031 Y684.22
N15935 X89.997 Y684.016
N15940 Y681.593
N15945 G3 X90.654 Y680.98 Z4.963 I0.635 J0.022
N15950 G1 X90.717 Y680.986
N15955 X90.779 Y680.997
N15960 X92.519 Y681.411
N15965 X92.685 Y681.45 Z4.928
N15970 X92.74 Y681.466 Z4.917
N15975 G3 X93.173 Y682.046 Z4.762 I-0.202 J0.602
N15980 G1 Y684.531
N15985 X93.158 Y684.815
N15990 X93.105 Y685.104
N15995 X93.008 Y685.403
N16000 X92.865 Y685.702
N16005 X92.677 Y685.99
N16010 X92.446 Y686.259
N16015 X92.184 Y686.493
N16020 X91.879 Y686.7
N16025 X91.547 Y686.866
N16030 X91.201 Y686.986
N16035 X90.818 Y687.064
N16040 X90.676 Y687.073
N16045 X90.47 Y687.054
N16050 X90.281 Y686.969
N16055 X90.129 Y686.827
N16060 X90.031 Y686.644
N16065 X89.997 Y686.44
N16070 Y684.016
N16075 G3 X90.654 Y683.403 Z4.963 I0.635 J0.022
N16080 G1 X90.726 Y683.41
N16085 X90.798 Y683.425
N16090 X92.521 Y683.891
N16095 X92.704 Y683.94 Z4.925
N16100 X92.74 Y683.951 Z4.917
N16105 G3 X93.173 Y684.531 Z4.762 I-0.202 J0.602
N16110 G1 Y687.016
N16115 X93.161 Y687.239
N16120 X93.108 Y687.528
N16125 X93.011 Y687.828
N16130 X92.868 Y688.127
N16135 X92.68 Y688.415
N16140 X92.448 Y688.684
N16145 X92.187 Y688.918
N16150 X91.881 Y689.125
N16155 X91.549 Y689.292
N16160 X91.202 Y689.412
N16165 X90.819 Y689.489
N16170 X90.676 Y689.499
N16175 X90.47 Y689.48
N16180 X90.281 Y689.394
N16185 X90.129 Y689.253
N16190 X90.031 Y689.07
N16195 X89.997 Y688.866
N16200 Y686.44
N16205 G3 X90.654 Y685.828 Z4.963 I0.635 J0.022
N16210 G1 X90.736 Y685.836
N16215 X90.816 Y685.854
N16220 X92.522 Y686.37
N16225 X92.722 Y686.431 Z4.921
N16230 X92.74 Y686.436 Z4.917
N16235 G3 X93.173 Y687.016 Z4.762 I-0.202 J0.602
N16240 G1 Y689.501
N16245 X93.164 Y689.664
N16250 X93.111 Y689.953
N16255 X93.014 Y690.253
N16260 X92.871 Y690.553
N16265 X92.683 Y690.841
N16270 X92.45 Y691.111
N16275 X92.189 Y691.344
N16280 X91.883 Y691.552
N16285 X91.551 Y691.719
N16290 X91.204 Y691.839
N16295 X90.821 Y691.917
N16300 X90.676 Y691.926
N16305 X90.47 Y691.907
N16310 X90.281 Y691.822
N16315 X90.129 Y691.68
N16320 X90.031 Y691.497
N16325 X89.997 Y691.293
N16330 Y688.866
N16335 G3 X90.654 Y688.253 Z4.963 I0.635 J0.022
N16340 G1 X90.745 Y688.263
N16345 X90.833 Y688.286
N16350 X92.524 Y688.85
N16355 X92.739 Y688.921 Z4.917
N16360 G3 X93.173 Y689.501 Z4.762 I-0.201 J0.602
N16365 G1 Y691.779
N16370 X93.157 Y692.093
N16375 X93.104 Y692.382
N16380 X93.007 Y692.681
N16385 X92.864 Y692.979
N16390 X92.676 Y693.267
N16395 X92.445 Y693.536
N16400 X92.184 Y693.769
N16405 X91.878 Y693.977
N16410 X91.547 Y694.143
N16415 X91.2 Y694.263
N16420 X90.818 Y694.34
N16425 X90.676 Y694.35
N16430 X90.47 Y694.33
N16435 X90.281 Y694.245
N16440 X90.129 Y694.104
N16445 X90.031 Y693.921
N16450 X89.997 Y693.717
N16455 Y691.293
N16460 G3 X90.654 Y690.68 Z4.963 I0.635 J0.022
N16465 G1 X90.722 Y690.686
N16470 X90.789 Y690.7
N16475 X92.52 Y691.142
N16480 X92.695 Y691.186 Z4.926
N16485 X92.74 Y691.199 Z4.917
N16490 G3 X93.173 Y691.779 Z4.762 I-0.202 J0.602
N16495 G1 Y694.264
N16500 X93.16 Y694.516
N16505 X93.107 Y694.805
N16510 X93.009 Y695.104
N16515 X92.867 Y695.403
N16520 X92.679 Y695.691
N16525 X92.447 Y695.961
N16530 X92.186 Y696.194
N16535 X91.88 Y696.401
N16540 X91.548 Y696.568
N16545 X91.202 Y696.688
N16550 X90.819 Y696.765
N16555 X90.676 Y696.775
N16560 X90.47 Y696.755
N16565 X90.281 Y696.67
N16570 X90.129 Y696.529
N16575 X90.031 Y696.346
N16580 X89.997 Y696.142
N16585 Y693.717
N16590 G3 X90.654 Y693.104 Z4.963 I0.635 J0.022
N16595 G1 X90.731 Y693.112
N16600 X90.808 Y693.128
N16605 X92.522 Y693.621
N16610 X92.713 Y693.676 Z4.922
N16615 X92.74 Y693.684 Z4.917
N16620 G3 X93.173 Y694.264 Z4.762 I-0.202 J0.602
N16625 G1 Y696.75
N16630 X93.163 Y696.941
N16635 X93.11 Y697.23
N16640 X93.012 Y697.529
N16645 X92.869 Y697.829
N16650 X92.681 Y698.116
N16655 X92.449 Y698.387
N16660 X92.188 Y698.62
N16665 X91.882 Y698.827
N16670 X91.55 Y698.994
N16675 X91.203 Y699.114
N16680 X90.82 Y699.192
N16685 X90.676 Y699.202
N16690 X90.47 Y699.182
N16695 X90.281 Y699.097
N16700 X90.129 Y698.955
N16705 X90.031 Y698.773
N16710 X89.997 Y698.568
N16715 Y696.142
N16720 G3 X90.654 Y695.529 Z4.963 I0.635 J0.022
N16725 G1 X90.74 Y695.538
N16730 X90.825 Y695.559
N16735 X92.523 Y696.101
N16740 X92.731 Y696.167 Z4.919
N16745 X92.74 Y696.17 Z4.917
N16750 G3 X93.173 Y696.75 Z4.762 I-0.202 J0.602
N16755 G1 Y699.028
N16760 X93.155 Y699.369
N16765 X93.102 Y699.658
N16770 X93.005 Y699.956
N16775 X92.863 Y700.255
N16780 X92.675 Y700.542
N16785 X92.443 Y700.811
N16790 X92.183 Y701.044
N16795 X91.878 Y701.251
N16800 X91.546 Y701.418
N16805 X91.2 Y701.537
N16810 X90.817 Y701.615
N16815 X90.676 Y701.625
N16820 X90.47 Y701.605
N16825 X90.281 Y701.52
N16830 X90.129 Y701.378
N16835 X90.031 Y701.196
N16840 X89.997 Y700.991
N16845 Y698.568
N16850 G3 X90.654 Y697.956 Z4.963 I0.635 J0.022
N16855 G1 X90.718 Y697.961
N16860 X90.781 Y697.973
N16865 X92.52 Y698.392
N16870 X92.687 Y698.432 Z4.928
N16875 G3 X93.173 Y699.028 Z4.762 I-0.149 J0.617
N16880 G1 Y701.513
N16885 X93.159 Y701.791
N16890 X93.105 Y702.08
N16895 X93.008 Y702.379
N16900 X92.865 Y702.678
N16905 X92.678 Y702.966
N16910 X92.446 Y703.235
N16915 X92.185 Y703.468
N16920 X91.879 Y703.676
N16925 X91.547 Y703.842
N16930 X91.201 Y703.962
N16935 X90.818 Y704.039
N16940 X90.676 Y704.049
N16945 X90.47 Y704.03
N16950 X90.281 Y703.944
N16955 X90.129 Y703.803
N16960 X90.031 Y703.62
N16965 X89.997 Y703.416
N16970 Y700.991
N16975 G3 X90.654 Y700.379 Z4.963 I0.635 J0.022
N16980 G1 X90.727 Y700.386
N16985 X90.8 Y700.401
N16990 X92.521 Y700.872
N16995 X92.705 Y700.922 Z4.924
N17000 X92.74 Y700.933 Z4.917
N17005 G3 X93.173 Y701.513 Z4.762 I-0.202 J0.602
N17010 G1 Y703.998
N17015 X93.162 Y704.215
N17020 X93.108 Y704.504
N17025 X93.011 Y704.803
N17030 X92.868 Y705.102
N17035 X92.68 Y705.39
N17040 X92.448 Y705.66
N17045 X92.187 Y705.894
N17050 X91.881 Y706.101
N17055 X91.549 Y706.268
N17060 X91.202 Y706.387
N17065 X90.82 Y706.465
N17070 X90.676 Y706.475
N17075 X90.47 Y706.455
N17080 X90.281 Y706.37
N17085 X90.129 Y706.229
N17090 X90.031 Y706.046
N17095 X89.997 Y705.842
N17100 Y703.416
N17105 G3 X90.654 Y702.803 Z4.963 I0.635 J0.022
N17110 G1 X90.737 Y702.812
N17115 X90.818 Y702.831
N17120 X92.523 Y703.351
N17125 X92.723 Y703.413 Z4.92
N17130 X92.74 Y703.418 Z4.917
N17135 G3 X93.173 Y703.998 Z4.762 I-0.202 J0.602
N17140 G1 Y706.483
N17145 X93.165 Y706.64
N17150 X93.111 Y706.929
N17155 X93.014 Y707.229
N17160 X92.871 Y707.529
N17165 X92.683 Y707.817
N17170 X92.451 Y708.087
N17175 X92.189 Y708.32
N17180 X91.883 Y708.528
N17185 X91.551 Y708.695
N17190 X91.204 Y708.815
N17195 X90.821 Y708.892
N17200 X90.676 Y708.902
N17205 X90.47 Y708.883
N17210 X90.281 Y708.798
N17215 X90.129 Y708.656
N17220 X90.031 Y708.473
N17225 X89.997 Y708.269
N17230 Y705.842
N17235 G3 X90.654 Y705.229 Z4.963 I0.635 J0.022
N17240 G1 X90.745 Y705.239
N17245 X90.835 Y705.262
N17250 X92.525 Y705.831
N17255 X92.74 Y705.903 Z4.917
N17260 G3 X93.173 Y706.483 Z4.762 I-0.202 J0.602
N17265 G1 Y708.761
N17270 X93.157 Y709.069
N17275 X93.104 Y709.358
N17280 X93.007 Y709.657
N17285 X92.864 Y709.955
N17290 X92.676 Y710.243
N17295 X92.445 Y710.512
N17300 X92.184 Y710.745
N17305 X91.879 Y710.953
N17310 X91.547 Y711.119
N17315 X91.2 Y711.239
N17320 X90.818 Y711.317
N17325 X90.676 Y711.326
N17330 X90.47 Y711.307
N17335 X90.281 Y711.221
N17340 X90.129 Y711.08
N17345 X90.031 Y710.897
N17350 X89.997 Y710.693
N17355 Y708.269
N17360 G3 X90.654 Y707.656 Z4.963 I0.635 J0.022
N17365 G1 X90.723 Y707.663
N17370 X90.791 Y707.676
N17375 X92.52 Y708.123
N17380 X92.697 Y708.168 Z4.926
N17385 X92.74 Y708.181 Z4.917
N17390 G3 X93.173 Y708.761 Z4.762 I-0.202 J0.602
N17395 G1 Y711.246
N17400 X93.16 Y711.492
N17405 X93.107 Y711.781
N17410 X93.01 Y712.08
N17415 X92.867 Y712.379
N17420 X92.679 Y712.667
N17425 X92.447 Y712.937
N17430 X92.186 Y713.17
N17435 X91.88 Y713.378
N17440 X91.548 Y713.544
N17445 X91.202 Y713.664
N17450 X90.819 Y713.742
N17455 X90.676 Y713.751
N17460 X90.47 Y713.732
N17465 X90.281 Y713.647
N17470 X90.129 Y713.505
N17475 X90.031 Y713.322
N17480 X89.997 Y713.118
N17485 Y710.693
N17490 G3 X90.654 Y710.08 Z4.963 I0.635 J0.022
N17495 G1 X90.732 Y710.088
N17500 X90.809 Y710.105
N17505 X92.522 Y710.602
N17510 X92.715 Y710.658 Z4.922
N17515 X92.74 Y710.666 Z4.917
N17520 G3 X93.173 Y711.246 Z4.762 I-0.202 J0.602
N17525 G1 Y713.731
N17530 X93.163 Y713.917
N17535 X93.11 Y714.206
N17540 X93.013 Y714.505
N17545 X92.87 Y714.805
N17550 X92.682 Y715.093
N17555 X92.449 Y715.363
N17560 X92.188 Y715.596
N17565 X91.882 Y715.804
N17570 X91.55 Y715.97
N17575 X91.203 Y716.09
N17580 X90.82 Y716.168
N17585 X90.676 Y716.178
N17590 X90.47 Y716.158
N17595 X90.281 Y716.073
N17600 X90.129 Y715.932
N17605 X90.031 Y715.749
N17610 X89.997 Y715.545
N17615 Y713.118
N17620 G3 X90.654 Y712.505 Z4.963 I0.635 J0.022
N17625 G1 X90.741 Y712.515
N17630 X90.827 Y712.536
N17635 X92.524 Y713.082
N17640 X92.732 Y713.149 Z4.919
N17645 X92.74 Y713.151 Z4.917
N17650 G3 X93.173 Y713.731 Z4.762 I-0.202 J0.602
N17655 G1 Y716.009
N17660 X93.156 Y716.345
N17665 X93.103 Y716.634
N17670 X93.006 Y716.932
N17675 X92.863 Y717.231
N17680 X92.675 Y717.519
N17685 X92.444 Y717.788
N17690 X92.183 Y718.021
N17695 X91.878 Y718.228
N17700 X91.546 Y718.394
N17705 X91.2 Y718.514
N17710 X90.817 Y718.592
N17715 X90.676 Y718.601
N17720 X90.47 Y718.582
N17725 X90.281 Y718.496
N17730 X90.129 Y718.355
N17735 X90.031 Y718.172
N17740 X89.997 Y717.968
N17745 Y715.545
N17750 G3 X90.654 Y714.932 Z4.963 I0.635 J0.022
N17755 G1 X90.719 Y714.938
N17760 X90.782 Y714.95
N17765 X92.52 Y715.373
N17770 X92.688 Y715.414 Z4.928
N17775 G3 X93.173 Y716.009 Z4.762 I-0.15 J0.617
N17780 G1 Y718.494
N17785 X93.159 Y718.767
N17790 X93.106 Y719.056
N17795 X93.008 Y719.356
N17800 X92.866 Y719.654
N17805 X92.678 Y719.942
N17810 X92.446 Y720.212
N17815 X92.185 Y720.445
N17820 X91.88 Y720.652
N17825 X91.548 Y720.819
N17830 X91.201 Y720.938
N17835 X90.818 Y721.016
N17840 X90.676 Y721.026
N17845 X90.47 Y721.006
N17850 X90.281 Y720.921
N17855 X90.129 Y720.78
N17860 X90.031 Y720.597
N17865 X89.997 Y720.392
N17870 Y717.968
N17875 G3 X90.654 Y717.355 Z4.963 I0.635 J0.022
N17880 G1 X90.728 Y717.362
N17885 X90.801 Y717.378
N17890 X92.521 Y717.853
N17895 X92.707 Y717.904 Z4.924
N17900 X92.74 Y717.914 Z4.917
N17905 G3 X93.173 Y718.494 Z4.762 I-0.202 J0.602
N17910 G1 Y720.979
N17915 X93.162 Y721.191
N17920 X93.109 Y721.48
N17925 X93.011 Y721.78
N17930 X92.868 Y722.079
N17935 X92.68 Y722.367
N17940 X92.448 Y722.637
N17945 X92.187 Y722.87
N17950 X91.882 Y723.078
N17955 X91.549 Y723.244
N17960 X91.202 Y723.364
N17965 X90.82 Y723.442
N17970 X90.676 Y723.452
N17975 X90.47 Y723.432
N17980 X90.281 Y723.347
N17985 X90.129 Y723.206
N17990 X90.031 Y723.023
N17995 X89.997 Y722.818
N18000 Y720.392
N18005 G3 X90.654 Y719.78 Z4.963 I0.635 J0.022
N18010 G1 X90.737 Y719.788
N18015 X90.819 Y719.808
N18020 X92.523 Y720.332
N18025 X92.725 Y720.395 Z4.92
N18030 X92.74 Y720.399 Z4.917
N18035 G3 X93.173 Y720.979 Z4.762 I-0.202 J0.602
N18040 G1 Y723.464
N18045 X93.165 Y723.617
N18050 X93.112 Y723.906
N18055 X93.014 Y724.206
N18060 X92.871 Y724.505
N18065 X92.683 Y724.793
N18070 X92.451 Y725.064
N18075 X92.189 Y725.297
N18080 X91.883 Y725.505
N18085 X91.551 Y725.672
N18090 X91.204 Y725.791
N18095 X90.821 Y725.869
N18100 X90.676 Y725.879
N18105 X90.47 Y725.859
N18110 X90.281 Y725.774
N18115 X90.129 Y725.633
N18120 X90.031 Y725.45
N18125 X89.997 Y725.246
N18130 Y722.818
N18135 G3 X90.654 Y722.206 Z4.963 I0.635 J0.022
N18140 G1 X90.746 Y722.216
N18145 X90.836 Y722.239
N18150 X92.525 Y722.812
N18155 X92.74 Y722.884 Z4.917
N18160 X92.742 Y722.885
N18165 G3 X93.173 Y723.464 Z4.762 I-0.204 J0.601
N18170 G1 Y725.742
N18175 X93.157 Y726.046
N18180 X93.104 Y726.335
N18185 X93.007 Y726.634
N18190 X92.864 Y726.932
N18195 X92.677 Y727.22
N18200 X92.445 Y727.489
N18205 X92.184 Y727.722
N18210 X91.879 Y727.93
N18215 X91.547 Y728.096
N18220 X91.2 Y728.216
N18225 X90.818 Y728.293
N18230 X90.676 Y728.303
N18235 X90.47 Y728.284
N18240 X90.281 Y728.198
N18245 X90.129 Y728.057
N18250 X90.031 Y727.874
N18255 X89.997 Y727.67
N18260 Y725.246
N18265 G3 X90.654 Y724.633 Z4.963 I0.635 J0.022
N18270 G1 X90.724 Y724.64
N18275 X90.792 Y724.653
N18280 X92.52 Y725.104
N18285 X92.698 Y725.15 Z4.926
N18290 X92.74 Y725.162 Z4.917
N18295 G3 X93.173 Y725.742 Z4.762 I-0.202 J0.602
N18300 G1 Y728.227
N18305 X93.16 Y728.469
N18310 X93.107 Y728.758
N18315 X93.01 Y729.057
N18320 X92.867 Y729.356
N18325 X92.679 Y729.644
N18330 X92.447 Y729.914
N18335 X92.186 Y730.147
N18340 X91.881 Y730.355
N18345 X91.548 Y730.521
N18350 X91.202 Y730.641
N18355 X90.819 Y730.719
N18360 X90.676 Y730.729
N18365 X90.47 Y730.709
N18370 X90.281 Y730.624
N18375 X90.129 Y730.482
N18380 X90.031 Y730.299
N18385 X89.997 Y730.095
N18390 Y727.67
N18395 G3 X90.654 Y727.057 Z4.963 I0.635 J0.022
N18400 G1 X90.733 Y727.065
N18405 X90.81 Y727.082
N18410 X92.522 Y727.583
N18415 X92.716 Y727.64 Z4.922
N18420 X92.74 Y727.648 Z4.917
N18425 G3 X93.173 Y728.227 Z4.762 I-0.202 J0.602
N18430 G1 Y730.713
N18435 X93.163 Y730.894
N18440 X93.11 Y731.183
N18445 X93.013 Y731.482
N18450 X92.87 Y731.782
N18455 X92.682 Y732.07
N18460 X92.45 Y732.34
N18465 X92.188 Y732.573
N18470 X91.883 Y732.781
N18475 X91.55 Y732.948
N18480 X91.203 Y733.068
N18485 X90.82 Y733.145
N18490 X90.676 Y733.155
N18495 X90.47 Y733.135
N18500 X90.281 Y733.05
N18505 X90.129 Y732.909
N18510 X90.031 Y732.726
N18515 X89.997 Y732.522
N18520 Y730.095
N18525 G3 X90.654 Y729.483 Z4.963 I0.635 J0.022
N18530 G1 X90.742 Y729.492
N18535 X90.828 Y729.513
N18540 X92.524 Y730.063
N18545 X92.734 Y730.131 Z4.918
N18550 X92.74 Y730.133 Z4.917
N18555 G3 X93.173 Y730.713 Z4.762 I-0.202 J0.602
N18560 G1 Y732.991
N18565 X93.156 Y733.322
N18570 X93.103 Y733.611
N18575 X93.006 Y733.91
N18580 X92.863 Y734.208
N18585 X92.675 Y734.496
N18590 X92.444 Y734.765
N18595 X92.183 Y734.998
N18600 X91.878 Y735.205
N18605 X91.546 Y735.371
N18610 X91.2 Y735.491
N18615 X90.817 Y735.569
N18620 X90.676 Y735.579
N18625 X90.47 Y735.559
N18630 X90.281 Y735.474
N18635 X90.129 Y735.332
N18640 X90.031 Y735.15
N18645 X89.997 Y734.945
N18650 Y732.522
N18655 G3 X90.654 Y731.909 Z4.963 I0.635 J0.022
N18660 G1 X90.719 Y731.915
N18665 X90.784 Y731.927
N18670 X92.52 Y732.354
N18675 X92.69 Y732.396 Z4.927
N18680 X92.74 Y732.411 Z4.917
N18685 G3 X93.173 Y732.991 Z4.762 I-0.202 J0.602
N18690 G1 Y735.476
N18695 X93.159 Y735.745
N18700 X93.106 Y736.034
N18705 X93.009 Y736.333
N18710 X92.866 Y736.632
N18715 X92.678 Y736.919
N18720 X92.446 Y737.189
N18725 X92.185 Y737.422
N18730 X91.88 Y737.629
N18735 X91.548 Y737.796
N18740 X91.201 Y737.916
N18745 X90.819 Y737.993
N18750 X90.676 Y738.003
N18755 X90.47 Y737.984
N18760 X90.281 Y737.898
N18765 X90.129 Y737.757
N18770 X90.031 Y737.574
N18775 X89.997 Y737.37
N18780 Y734.945
N18785 G3 X90.654 Y734.333 Z4.963 I0.635 J0.022
N18790 G1 X90.729 Y734.34
N18795 X90.802 Y734.355
N18800 X92.521 Y734.834
N18805 X92.708 Y734.886 Z4.924
N18810 X92.74 Y734.896 Z4.917
N18815 G3 X93.173 Y735.476 Z4.762 I-0.202 J0.602
N18820 G1 Y737.961
N18825 X93.162 Y738.169
N18830 X93.109 Y738.458
N18835 X93.012 Y738.757
N18840 X92.869 Y739.057
N18845 X92.681 Y739.344
N18850 X92.449 Y739.614
N18855 X92.187 Y739.848
N18860 X91.882 Y740.055
N18865 X91.549 Y740.222
N18870 X91.202 Y740.342
N18875 X90.82 Y740.419
N18880 X90.676 Y740.429
N18885 X90.47 Y740.41
N18890 X90.281 Y740.324
N18895 X90.129 Y740.183
N18900 X90.031 Y740.
N18905 X89.997 Y739.796
N18910 Y737.37
N18915 G3 X90.654 Y736.757 Z4.963 I0.635 J0.022
N18920 G1 X90.738 Y736.766
N18925 X90.82 Y736.785
N18930 X92.523 Y737.313
N18935 X92.726 Y737.376 Z4.92
N18940 X92.74 Y737.381 Z4.917
N18945 G3 X93.173 Y737.961 Z4.762 I-0.202 J0.602
N18950 G1 Y740.446
N18955 X93.165 Y740.596
N18960 X93.112 Y740.885
N18965 X93.014 Y741.185
N18970 X92.871 Y741.484
N18975 X92.682 Y741.772
N18980 X92.45 Y742.042
N18985 X92.188 Y742.276
N18990 X91.882 Y742.483
N18995 X91.549 Y742.65
N19000 X91.202 Y742.77
N19005 X90.819 Y742.847
N19010 X90.676 Y742.857
N19015 X90.469 Y742.837
N19020 X90.281 Y742.752
N19025 X90.129 Y742.61
N19030 X90.031 Y742.428
N19035 X89.997 Y742.223
N19040 Y739.796
N19045 G3 X90.654 Y739.183 Z4.963 I0.635 J0.022
N19050 G1 X90.747 Y739.193
N19055 X90.837 Y739.217
N19060 X92.525 Y739.793
N19065 X92.74 Y739.866 Z4.917
N19070 X92.743 Y739.867 Z4.916
N19075 G3 X93.173 Y740.446 Z4.762 I-0.205 J0.601
N19080 G1 Y742.724
N19085 X93.157 Y743.024
N19090 X93.104 Y743.312
N19095 X93.007 Y743.611
N19100 X92.864 Y743.91
N19105 X92.677 Y744.198
N19110 X92.445 Y744.467
N19115 X92.184 Y744.7
N19120 X91.879 Y744.907
N19125 X91.547 Y745.074
N19130 X91.2 Y745.193
N19135 X90.818 Y745.271
N19140 X90.676 Y745.281
N19145 X90.47 Y745.261
N19150 X90.281 Y745.176
N19155 X90.129 Y745.035
N19160 X90.031 Y744.852
N19165 X89.997 Y744.647
N19170 Y742.223
N19175 G3 X90.654 Y741.611 Z4.963 I0.635 J0.022
N19180 G1 X90.724 Y741.617
N19185 X90.793 Y741.631
N19190 X92.521 Y742.085
N19195 X92.699 Y742.132 Z4.925
N19200 X92.74 Y742.144 Z4.917
N19205 G3 X93.173 Y742.724 Z4.762 I-0.202 J0.602
N19210 G1 Y745.209
N19215 X93.161 Y745.447
N19220 X93.151 Y745.596
N19225 X93.131 Y745.745
N19230 X93.101 Y745.892
N19235 X93.062 Y746.037
N19240 X93.013 Y746.179
N19245 X92.957 Y746.318
N19250 X92.891 Y746.453
N19255 X92.818 Y746.584
N19260 X92.737 Y746.71
N19265 X92.65 Y746.832
N19270 X92.556 Y746.949
N19275 X92.455 Y747.06
N19280 X92.349 Y747.166
N19285 X92.237 Y747.265
N19290 X92.119 Y747.358
N19295 X91.997 Y747.445
N19300 X91.87 Y747.526
N19305 X91.739 Y747.599
N19310 X91.605 Y747.666
N19315 X91.468 Y747.726
N19320 X91.327 Y747.779
N19325 X91.184 Y747.824
N19330 X91.039 Y747.862
N19335 X90.892 Y747.893
N19340 X90.744 Y747.917
N19345 X90.702 Y747.921
N19350 X90.49 Y747.909
N19355 X90.294 Y747.828
N19360 X90.136 Y747.686
N19365 X90.033 Y747.5
N19370 X89.997 Y747.29
N19375 Y744.647
N19380 G3 X90.654 Y744.035 Z4.963 I0.635 J0.022
N19385 G1 X90.733 Y744.043
N19390 X90.812 Y744.06
N19395 X92.522 Y744.565
N19400 X92.717 Y744.622 Z4.922
N19405 X92.74 Y744.629 Z4.917
N19410 G3 X93.173 Y745.209 Z4.762 I-0.202 J0.602
N19415 G1 Y749.144
N19420 G3 X92.998 Y749.559 Z4.855 I-0.635 J-0.022
N19425 G1 X92.785 Y749.784 Z4.917
N19430 X92.629 Y749.948 Z4.963
N19435 X91.093 Y751.567
N19440 G3 X90.654 Y751.765 I-0.461 J-0.437
N19445 X89.997 Y751.152 Z4.762 I-0.022 J-0.635
N19450 G1 Y747.29
N19455 G3 X90.445 Y746.706 I0.635 J0.022
N19460 G1 X90.54 Y746.676 Z4.77
N19465 X90.633 Y746.648 Z4.794
N19470 X90.721 Y746.621 Z4.832
N19475 X90.802 Y746.596 Z4.884
N19480 X90.874 Y746.573 Z4.948
N19485 X90.936 Y746.554 Z5.024
N19490 X90.986 Y746.539 Z5.109
N19495 X91.022 Y746.528 Z5.201
N19500 X91.044 Y746.521 Z5.298
N19505 X91.052 Y746.519 Z5.398
N19510 G0 Z25.525
(2D CONTOUR1)
N19515 G0 X198.094 Y487.68
N19520 Z25.525
N19525 Z15.525
N19530 G1 Z11.525 F333.33
N19535 Z5.16
N19540 G19 G2 Y487.045 Z4.525 J-0.635 K0. F1000.
N19545 G1 Y486.41
N19550 G17 G3 X198.729 Y485.775 I0.635 J0.
N19555 G1 X660.4
N19560 G2 X663.575 Y482.6 I0. J-3.175
N19565 G1 Y25.4
N19570 G2 X660.4 Y22.225 I-3.175 J0.
N19575 G1 X25.4
N19580 G2 X22.225 Y25.4 I0. J3.175
N19585 G1 Y482.6
N19590 G2 X25.4 Y485.775 I3.175 J0.
N19595 G1 X198.729
N19600 G3 X199.364 Y486.41 I0. J0.635
N19605 G1 Y487.045
N19610 G19 G3 Y487.68 Z5.16 J0. K0.635
N19615 G0 Z15.525
N19620 X675.284 Y279.718
N19625 G1 Z11.525 F333.33
N19630 Z5.16
N19635 G2 Y279.083 Z4.525 J-0.635 K0. F1000.
N19640 G1 Y278.448
N19645 G17 G3 X675.919 Y277.813 I0.635 J0.
N19650 G1 X774.7
N19655 G2 X777.875 Y274.638 I0. J-3.175
N19660 G1 Y25.4
N19665 G2 X774.7 Y22.225 I-3.175 J0.
N19670 G1 X673.1
N19675 G2 X669.925 Y25.4 I0. J3.175
N19680 G1 Y274.638
N19685 G2 X673.1 Y277.813 I3.175 J0.
N19690 G1 X675.919
N19695 G3 X676.554 Y278.448 I0. J0.635
N19700 G1 Y279.083
N19705 G19 G3 Y279.718 Z5.16 J0. K0.635
N19710 G0 Z15.525
N19715 X675.284
N19720 G1 Z5.525 F333.33
N19725 Z3.
N19730 Y279.083 F1000.
N19735 Y278.448
N19740 G17 G3 X675.919 Y277.813 I0.635 J0.
N19745 G1 X682.275
N19750 Z0. F333.33
N19755 X764.164 F1000.
N19760 Z3.
N19765 X774.7
N19770 G2 X777.875 Y274.638 I0. J-3.175
N19775 G1 Y271.463
N19780 Z0. F333.33
