%
(RVCABNEST2)
(MACHINE)
(  VENDOR AUTODESK)
(  MODEL GENERIC 3-AXIS ROUTER)
(  DESCRIPTION THIS MACHINE HAS XYZ AXIS ON THE HEAD)
(T20 D=6.35 CR=0. - ZMIN=0. - FLAT END MILL)
N10 G90 G94 G17 G91.1
N15 G21
N20 G53 G0 Z0.
(2D ADAPTIVE1)
N25 M0
(MANUAL TOOL CHANGE TO T20)
N30 S20000 M3
N35 G17 G90 G94
N40 G54
N45 G0 X566.147 Y308.282
N50 G43 Z24.525 H20
N55 G0 Z14.525
N60 Z7.898
N65 G1 Z7.262 F1000.
N70 Z5.262
N75 G3 X565.65 Y304.825 I15.704 J-4.023
N80 G1 Y303.387 F3000.
N85 X565.657 Y303.237
N90 X565.928 Y302.64
N95 X566.398 Y301.999
N100 X567.13 Y301.344
N105 X567.979 Y300.853
N110 X568.896 Y300.501
N115 X569.846 Y300.258
N120 X570.814 Y300.095
N125 X571.79 Y299.987
N130 X572.769 Y299.918
N135 X573.75 Y299.874
N140 X574.731 Y299.846
N145 X575.712 Y299.829
N150 X576.693 Y299.818
N155 X577.675 Y299.811
N160 X578.656 Y299.807
N165 X579.638 Y299.804
N170 X581.601 Y299.802
N175 X586.509 Y299.8
N180 X614.972
N185 X630.69
N190 X630.886 Y299.831
N195 X631.063 Y299.921
N200 X631.204 Y300.062
N205 X631.294 Y300.239
N210 X631.325 Y300.435
N215 Y301.603
N220 G3 X630.989 Y302.142 I-0.635 J-0.022
N225 X630.461 Y301.807 I-0.169 J-0.317
N230 X630.886 Y301.036 I0.999 J0.049
N235 G1 X630.989 Y300.973 F1000.
N240 G2 X631.325 Y300.435 I-0.299 J-0.56
N245 G1 Y299.151 F2500.
N250 X631.301 Y298.673
N255 X631.158 Y298.13
N260 X630.854 Y297.523
N265 X630.341 Y296.877
N270 X629.585 Y296.251
N275 X628.721 Y295.785
N280 X627.797 Y295.454
N285 X627.463 Y295.374
N290 X627.326 Y295.356
N295 X627.189 Y295.369
N300 X627.058 Y295.411
N305 X626.91 Y295.476
N310 X626.688 Y295.565
N315 X626.465 Y295.638
N320 X626.242 Y295.69
N325 X626.019 Y295.724
N330 X625.573 Y295.766
N335 X625.35 Y295.775
N340 X570.065
N345 X569.084 Y295.824
N350 X568.109 Y295.939
N355 X567.155 Y296.169
N360 X566.229 Y296.492
N365 X566.008 Y296.6
N370 X565.861 Y296.698
N375 X565.747 Y296.834
N380 X565.675 Y296.995
N385 X565.65 Y297.171
N390 Y301.603
N395 G2 X565.986 Y302.142 Z5.396 I0.635 J-0.022 F3000.
N400 G1 X566.082 Y302.186 Z5.417
N405 X566.19 Y302.221 Z5.44
N410 X566.301 Y302.242 Z5.463
N415 G2 X567.224 Y301.763 I0.115 J-0.908
N420 X566.27 Y297.881 I-2.65 J-1.407
N425 G1 X566.175 Y297.819 Z5.44
N430 X566.078 Y297.76 Z5.417
N435 X565.986 Y297.709 Z5.396 F1000.
N440 G3 X565.65 Y297.171 Z5.262 I0.299 J-0.56
N445 G1 Y296.475 F3000.
N450 X565.653 Y296.364
N455 X565.661 Y296.308
N460 X565.674 Y296.252
N465 X565.693 Y296.197
N470 X565.718 Y296.141
N475 X565.75 Y296.085
N480 X565.788 Y296.029
N485 X565.829 Y295.98
N490 X565.885 Y295.927
N495 X565.94 Y295.884
N500 X565.996 Y295.85
N505 X566.052 Y295.824
N510 X566.099 Y295.806
N515 X566.187 Y295.784
N520 X566.275 Y295.775
N525 X570.065
N530 G3 X570.649 Y296.223 I-0.022 J0.635
N535 G1 X570.678 Y296.317 Z5.27
N540 X570.707 Y296.41 Z5.294
N545 X570.734 Y296.498 Z5.332
N550 X570.759 Y296.579 Z5.384
N555 X570.782 Y296.652 Z5.448
N560 X570.801 Y296.713 Z5.524
N565 X570.816 Y296.763 Z5.609
N570 X570.827 Y296.8 Z5.701
N575 X570.834 Y296.822 Z5.798
N580 X570.836 Y296.829 Z5.898
N585 G0 Z14.525
N590 X630.779 Y300.45
N595 Z6.532
N600 G1 Z5.898 F1000.
N605 X630.783 Y300.443 Z5.798
N610 X630.795 Y300.423 Z5.701
N615 X630.815 Y300.391 Z5.609
N620 X630.841 Y300.346 Z5.524
N625 X630.874 Y300.29 Z5.448
N630 X630.913 Y300.225 Z5.384
N635 X630.956 Y300.152 Z5.332
N640 X631.003 Y300.073 Z5.294
N645 X631.053 Y299.99 Z5.27
N650 X631.104 Y299.904 Z5.262
N655 G2 X631.325 Y299.151 I-1.36 J-0.809
N660 G1 Y295.137 F2500.
N665 X631.294 Y294.513
N670 X631.111 Y293.819
N675 X630.752 Y293.102
N680 X630.229 Y292.444
N685 X630.115 Y292.35
N690 X629.951 Y292.251
N695 X629.765 Y292.206
N700 X629.575 Y292.218
N705 X629.396 Y292.286
N710 X629.246 Y292.404
N715 X629.138 Y292.562
N720 X629.081 Y292.744
N725 G2 X629.16 Y293.129 I0.631 J0.072 F3000.
N730 G1 X629.184 Y293.16
N735 X629.217 Y293.182
N740 X629.256 Y293.193
N745 X629.295 Y293.191
N750 X629.333 Y293.177
N755 X629.367 Y293.166
N760 X629.402 Y293.169
N765 X629.434 Y293.186
N770 X629.456 Y293.214
N775 X629.466 Y293.248
N780 X629.462 Y293.284
N785 X629.444 Y293.315
N790 X629.44 Y293.319 F1000.
N795 X629.416 Y293.335
N800 X629.388 Y293.342
N805 X629.36 Y293.339
N810 X629.334 Y293.326
N815 G3 X629.081 Y292.744 I0.378 J-0.51
N820 G1 X629.09 Y292.685 F3000.
N825 X629.142 Y292.239
N830 X629.149 Y292.016
N835 Y291.793
N840 X629.161 Y291.575
N845 X629.23 Y291.315
N850 X629.371 Y291.035
N855 X629.589 Y290.763
N860 X629.914 Y290.494
N865 X630.374 Y290.254
N870 X630.518 Y290.213
N875 X630.711 Y290.19
N880 X630.902 Y290.226
N885 X631.073 Y290.318
N890 X631.209 Y290.458
N895 X631.295 Y290.632
N900 X631.325 Y290.824
N905 Y295.137
N910 G3 X630.892 Y295.717 Z5.417 I-0.635 J-0.022
N915 G1 X630.819 Y295.737 Z5.432
N920 X630.744 Y295.748 Z5.447
N925 X630.669 Y295.75 Z5.463
N930 G3 X630.078 Y295.281 I0.022 J-0.635
N935 G1 X629.393 Y292.758
N940 X629.334 Y292.539 Z5.417
N945 X629.171 Y291.939 Z5.292 F1000.
N950 X629.156 Y291.866 Z5.277
N955 X629.149 Y291.793 Z5.262
N960 X629.15 Y290.678 F3000.
N965 Y289.563
N970 X629.169 Y289.176
N975 X629.274 Y288.779
N980 X629.47 Y288.387
N985 X629.776 Y288.003
N990 X630.173 Y287.673
N995 X630.394 Y287.557
N1000 X630.6 Y287.49
N1005 X630.816 Y287.496
N1010 X631.018 Y287.575
N1015 X631.182 Y287.717
N1020 X631.288 Y287.905
N1025 X631.325 Y288.119
N1030 Y290.824
N1035 G3 X630.706 Y291.332 Z5.444 I-0.533 J-0.019
N1040 G1 X630.616 Y291.315 Z5.463
N1045 G3 X629.444 Y290.503 I0.391 J-1.816
N1050 G1 X629.386 Y290.406 Z5.44
N1055 X629.333 Y290.306 Z5.417
N1060 G3 X629.15 Y289.563 Z5.262 I1.673 J-0.807 F1000.
N1065 G1 Y286.888 F3000.
N1070 X629.171 Y286.467
N1075 X629.272 Y286.082
N1080 X629.476 Y285.676
N1085 X629.775 Y285.3
N1090 X630.174 Y284.969
N1095 X630.394 Y284.853
N1100 X630.6 Y284.786
N1105 X630.816 Y284.793
N1110 X631.018 Y284.871
N1115 X631.182 Y285.013
N1120 X631.288 Y285.202
N1125 X631.325 Y285.415
N1130 Y288.119
N1135 G3 X630.718 Y288.628 Z5.442 I-0.533 J-0.019
N1140 G1 X630.616 Y288.611 Z5.463
N1145 G3 X629.449 Y287.826 I0.355 J-1.787
N1150 G1 X629.39 Y287.729 Z5.44
N1155 X629.336 Y287.629 Z5.417
N1160 G3 X629.15 Y286.888 Z5.262 I1.634 J-0.805 F1000.
N1165 G1 Y284.212 F3000.
N1170 X629.172 Y283.764
N1175 X629.274 Y283.379
N1180 X629.477 Y282.973
N1185 X629.776 Y282.597
N1190 X630.175 Y282.266
N1195 X630.394 Y282.151
N1200 X630.6 Y282.084
N1205 X630.816 Y282.09
N1210 X631.018 Y282.169
N1215 X631.182 Y282.311
N1220 X631.288 Y282.499
N1225 X631.325 Y282.713
N1230 Y285.415
N1235 G3 X630.73 Y285.926 Z5.439 I-0.533 J-0.019
N1240 G1 X630.616 Y285.909 Z5.463
N1245 G3 X629.454 Y285.148 I0.322 J-1.759
N1250 G1 X629.393 Y285.052 Z5.44
N1255 X629.339 Y284.952 Z5.417
N1260 G3 X629.15 Y284.212 Z5.262 I1.598 J-0.803 F1000.
N1265 G1 Y281.314 F3000.
N1270 X629.163 Y281.059
N1275 X629.264 Y280.673
N1280 X629.468 Y280.266
N1285 X629.768 Y279.889
N1290 X630.168 Y279.557
N1295 X630.394 Y279.438
N1300 X630.6 Y279.372
N1305 X630.816 Y279.378
N1310 X631.018 Y279.457
N1315 X631.182 Y279.598
N1320 X631.288 Y279.787
N1325 X631.325 Y280.
N1330 Y282.713
N1335 G3 X630.892 Y283.293 Z5.417 I-0.635 J-0.022
N1340 G1 X630.819 Y283.312 Z5.432
N1345 X630.744 Y283.323 Z5.447
N1350 X630.669 Y283.325 Z5.463
N1355 G3 X630.157 Y283.036 I0.022 J-0.635
N1360 G1 X629.607 Y282.186
N1365 X629.484 Y281.995 Z5.417
N1370 X629.252 Y281.637 Z5.331 F1000.
N1375 G3 X629.15 Y281.314 Z5.262 I0.533 J-0.345
N1380 G1 Y278.638 F3000.
N1385 X629.165 Y278.347
N1390 X629.266 Y277.961
N1395 X629.47 Y277.555
N1400 X629.77 Y277.177
N1405 X630.17 Y276.846
N1410 X630.394 Y276.728
N1415 X630.6 Y276.661
N1420 X630.816 Y276.667
N1425 X631.018 Y276.746
N1430 X631.182 Y276.888
N1435 X631.288 Y277.076
N1440 X631.325 Y277.29
N1445 Y280.
N1450 G3 X630.892 Y280.58 Z5.417 I-0.635 J-0.022
N1455 G1 X630.819 Y280.6 Z5.432
N1460 X630.744 Y280.611 Z5.447
N1465 X630.669 Y280.613 Z5.463
N1470 G3 X630.162 Y280.33 I0.022 J-0.635
N1475 G1 X629.614 Y279.506
N1480 X629.488 Y279.317 Z5.417
N1485 X629.256 Y278.967 Z5.333 F1000.
N1490 G3 X629.15 Y278.638 Z5.262 I0.529 J-0.352
N1495 G1 Y275.962 F3000.
N1500 X629.166 Y275.637
N1505 X629.268 Y275.251
N1510 X629.471 Y274.845
N1515 X629.771 Y274.468
N1520 X630.171 Y274.136
N1525 X630.394 Y274.019
N1530 X630.6 Y273.952
N1535 X630.816 Y273.959
N1540 X631.018 Y274.037
N1545 X631.182 Y274.179
N1550 X631.288 Y274.368
N1555 X631.325 Y274.581
N1560 Y277.29
N1565 G3 X630.892 Y277.87 Z5.417 I-0.635 J-0.022
N1570 G1 X630.819 Y277.889 Z5.432
N1575 X630.744 Y277.9 Z5.447
N1580 X630.669 Y277.902 Z5.463
N1585 G3 X630.166 Y277.625 I0.022 J-0.635
N1590 G1 X629.62 Y276.826
N1595 X629.492 Y276.639 Z5.417
N1600 X629.26 Y276.298 Z5.334 F1000.
N1605 G3 X629.15 Y275.962 Z5.262 I0.524 J-0.358
N1610 G1 Y273.287 F3000.
N1615 X629.168 Y272.928
N1620 X629.269 Y272.543
N1625 X629.473 Y272.137
N1630 X629.772 Y271.76
N1635 X630.172 Y271.429
N1640 X630.394 Y271.312
N1645 X630.6 Y271.245
N1650 X630.816 Y271.252
N1655 X631.018 Y271.33
N1660 X631.182 Y271.472
N1665 X631.288 Y271.66
N1670 X631.325 Y271.874
N1675 Y274.581
N1680 G3 X630.693 Y275.086 Z5.447 I-0.532 J-0.019
N1685 G1 X630.616 Y275.069 Z5.463
N1690 G3 X629.439 Y274.229 I0.431 J-1.849
N1695 G1 X629.382 Y274.131 Z5.44
N1700 X629.33 Y274.03 Z5.417
N1705 G3 X629.15 Y273.287 Z5.262 I1.717 J-0.81 F1000.
N1710 G1 Y270.611 F3000.
N1715 X629.169 Y270.222
N1720 X629.271 Y269.836
N1725 X629.474 Y269.431
N1730 X629.774 Y269.054
N1735 X630.173 Y268.723
N1740 X630.394 Y268.607
N1745 X630.6 Y268.54
N1750 X630.816 Y268.546
N1755 X631.018 Y268.625
N1760 X631.182 Y268.767
N1765 X631.288 Y268.955
N1770 X631.325 Y269.168
N1775 Y271.874
N1780 G3 X630.841 Y272.386 Z5.417 I-0.533 J-0.019
N1785 G1 X630.773 Y272.388 Z5.431
N1790 X630.705 Y272.381 Z5.444
N1795 X630.616 Y272.364 Z5.463
N1800 G3 X629.444 Y271.552 I0.392 J-1.818
N1805 G1 X629.386 Y271.454 Z5.44
N1810 X629.333 Y271.354 Z5.417
N1815 G3 X629.15 Y270.611 Z5.262 I1.675 J-0.807 F1000.
N1820 G1 Y267.936 F3000.
N1825 X629.171 Y267.517
N1830 X629.272 Y267.132
N1835 X629.476 Y266.726
N1840 X629.775 Y266.35
N1845 X630.174 Y266.018
N1850 X630.394 Y265.903
N1855 X630.6 Y265.836
N1860 X630.816 Y265.842
N1865 X631.018 Y265.921
N1870 X631.182 Y266.063
N1875 X631.288 Y266.251
N1880 X631.325 Y266.465
N1885 Y269.168
N1890 G3 X630.717 Y269.678 Z5.442 I-0.533 J-0.019
N1895 G1 X630.616 Y269.661 Z5.463
N1900 G3 X629.449 Y268.874 I0.357 J-1.789
N1905 G1 X629.389 Y268.777 Z5.44
N1910 X629.336 Y268.677 Z5.417
N1915 G3 X629.15 Y267.936 Z5.262 I1.636 J-0.805 F1000.
N1920 G1 Y265.26 F3000.
N1925 X629.172 Y264.813
N1930 X629.274 Y264.428
N1935 X629.477 Y264.023
N1940 X629.776 Y263.647
N1945 X630.175 Y263.316
N1950 X630.394 Y263.2
N1955 X630.6 Y263.134
N1960 X630.816 Y263.14
N1965 X631.018 Y263.219
N1970 X631.182 Y263.361
N1975 X631.288 Y263.549
N1980 X631.325 Y263.762
N1985 Y266.465
N1990 G3 X630.729 Y266.976 Z5.44 I-0.533 J-0.019
N1995 G1 X630.616 Y266.959 Z5.463
N2000 G3 X629.453 Y266.196 I0.324 J-1.761
N2005 G1 X629.393 Y266.1 Z5.44
N2010 X629.339 Y266.001 Z5.417
N2015 G3 X629.15 Y265.26 Z5.262 I1.601 J-0.803 F1000.
N2020 G1 Y262.362 F3000.
N2025 X629.163 Y262.109
N2030 X629.264 Y261.722
N2035 X629.468 Y261.316
N2040 X629.768 Y260.938
N2045 X630.168 Y260.607
N2050 X630.394 Y260.488
N2055 X630.6 Y260.421
N2060 X630.816 Y260.427
N2065 X631.018 Y260.506
N2070 X631.182 Y260.648
N2075 X631.288 Y260.836
N2080 X631.325 Y261.05
N2085 Y263.762
N2090 G3 X630.892 Y264.342 Z5.417 I-0.635 J-0.022
N2095 G1 X630.819 Y264.362 Z5.432
N2100 X630.744 Y264.373 Z5.447
N2105 X630.669 Y264.375 Z5.463
N2110 G3 X630.157 Y264.085 I0.022 J-0.635
N2115 G1 X629.607 Y263.234
N2120 X629.484 Y263.043 Z5.417
N2125 X629.251 Y262.684 Z5.331 F1000.
N2130 G3 X629.15 Y262.362 Z5.262 I0.533 J-0.345
N2135 G1 Y259.686 F3000.
N2140 X629.164 Y259.396
N2145 X629.266 Y259.01
N2150 X629.47 Y258.604
N2155 X629.77 Y258.227
N2160 X630.17 Y257.895
N2165 X630.394 Y257.777
N2170 X630.6 Y257.71
N2175 X630.816 Y257.717
N2180 X631.018 Y257.795
N2185 X631.182 Y257.937
N2190 X631.288 Y258.126
N2195 X631.325 Y258.339
N2200 Y261.05
N2205 G3 X630.892 Y261.63 Z5.417 I-0.635 J-0.022
N2210 G1 X630.819 Y261.649 Z5.432
N2215 X630.744 Y261.66 Z5.447
N2220 X630.669 Y261.662 Z5.463
N2225 G3 X630.161 Y261.379 I0.022 J-0.635
N2230 G1 X629.614 Y260.554
N2235 X629.488 Y260.365 Z5.417
N2240 X629.256 Y260.015 Z5.333 F1000.
N2245 G3 X629.15 Y259.686 Z5.262 I0.529 J-0.351
N2250 G1 Y257.01 F3000.
N2255 X629.166 Y256.686
N2260 X629.268 Y256.3
N2265 X629.471 Y255.894
N2270 X629.771 Y255.517
N2275 X630.171 Y255.186
N2280 X630.394 Y255.068
N2285 X630.6 Y255.002
N2290 X630.816 Y255.008
N2295 X631.018 Y255.087
N2300 X631.182 Y255.228
N2305 X631.288 Y255.417
N2310 X631.325 Y255.63
N2315 Y258.339
N2320 G3 X630.892 Y258.919 Z5.417 I-0.635 J-0.022
N2325 G1 X630.819 Y258.939 Z5.432
N2330 X630.744 Y258.95 Z5.447
N2335 X630.669 Y258.951 Z5.463
N2340 G3 X630.166 Y258.675 I0.022 J-0.635
N2345 G1 X629.62 Y257.874
N2350 X629.492 Y257.687 Z5.417
N2355 X629.26 Y257.346 Z5.334 F1000.
N2360 G3 X629.15 Y257.01 Z5.262 I0.525 J-0.358
N2365 G1 Y254.335 F3000.
N2370 X629.168 Y253.978
N2375 X629.269 Y253.592
N2380 X629.473 Y253.186
N2385 X629.772 Y252.809
N2390 X630.172 Y252.478
N2395 X630.394 Y252.361
N2400 X630.6 Y252.294
N2405 X630.816 Y252.301
N2410 X631.018 Y252.379
N2415 X631.182 Y252.521
N2420 X631.288 Y252.71
N2425 X631.325 Y252.923
N2430 Y255.63
N2435 G3 X630.693 Y256.135 Z5.447 I-0.532 J-0.019
N2440 G1 X630.616 Y256.119 Z5.463
N2445 G3 X629.439 Y255.277 I0.433 J-1.85
N2450 G1 X629.381 Y255.179 Z5.44
N2455 X629.33 Y255.078 Z5.417
N2460 G3 X629.15 Y254.335 Z5.262 I1.719 J-0.81 F1000.
N2465 G1 Y251.659 F3000.
N2470 X629.169 Y251.271
N2475 X629.271 Y250.886
N2480 X629.474 Y250.48
N2485 X629.774 Y250.103
N2490 X630.173 Y249.772
N2495 X630.394 Y249.656
N2500 X630.6 Y249.589
N2505 X630.816 Y249.595
N2510 X631.018 Y249.674
N2515 X631.182 Y249.816
N2520 X631.288 Y250.004
N2525 X631.325 Y250.218
N2530 Y252.923
N2535 G3 X630.705 Y253.43 Z5.444 I-0.533 J-0.019
N2540 G1 X630.616 Y253.413 Z5.463
N2545 G3 X629.444 Y252.6 I0.394 J-1.819
N2550 G1 X629.385 Y252.502 Z5.44
N2555 X629.333 Y252.402 Z5.417
N2560 G3 X629.15 Y251.659 Z5.262 I1.677 J-0.807 F1000.
N2565 G1 Y248.984 F3000.
N2570 X629.171 Y248.566
N2575 X629.272 Y248.181
N2580 X629.476 Y247.775
N2585 X629.775 Y247.399
N2590 X630.174 Y247.068
N2595 X630.394 Y246.952
N2600 X630.6 Y246.885
N2605 X630.816 Y246.892
N2610 X631.018 Y246.97
N2615 X631.182 Y247.112
N2620 X631.288 Y247.3
N2625 X631.325 Y247.514
N2630 Y250.218
N2635 G3 X630.717 Y250.727 Z5.442 I-0.533 J-0.019
N2640 G1 X630.616 Y250.71 Z5.463
N2645 G3 X629.448 Y249.922 I0.358 J-1.79
N2650 G1 X629.389 Y249.825 Z5.44
N2655 X629.336 Y249.725 Z5.417
N2660 G3 X629.15 Y248.984 Z5.262 I1.638 J-0.805 F1000.
N2665 G1 Y246.308 F3000.
N2670 X629.172 Y245.863
N2675 X629.274 Y245.477
N2680 X629.477 Y245.072
N2685 X629.776 Y244.696
N2690 X630.175 Y244.365
N2695 X630.394 Y244.25
N2700 X630.6 Y244.183
N2705 X630.816 Y244.189
N2710 X631.018 Y244.268
N2715 X631.182 Y244.41
N2720 X631.288 Y244.598
N2725 X631.325 Y244.811
N2730 Y247.514
N2735 G3 X630.729 Y248.025 Z5.44 I-0.533 J-0.019
N2740 G1 X630.616 Y248.008 Z5.463
N2745 G3 X629.453 Y247.244 I0.325 J-1.762
N2750 G1 X629.393 Y247.148 Z5.44
N2755 X629.339 Y247.049 Z5.417
N2760 G3 X629.15 Y246.308 Z5.262 I1.602 J-0.803 F1000.
N2765 G1 Y243.41 F3000.
N2770 X629.163 Y243.158
N2775 X629.264 Y242.771
N2780 X629.468 Y242.365
N2785 X629.768 Y241.987
N2790 X630.168 Y241.656
N2795 X630.394 Y241.537
N2800 X630.6 Y241.47
N2805 X630.816 Y241.476
N2810 X631.018 Y241.555
N2815 X631.182 Y241.697
N2820 X631.288 Y241.885
N2825 X631.325 Y242.099
N2830 Y244.811
N2835 G3 X630.892 Y245.391 Z5.417 I-0.635 J-0.022
N2840 G1 X630.819 Y245.411 Z5.432
N2845 X630.744 Y245.422 Z5.447
N2850 X630.669 Y245.424 Z5.463
N2855 G3 X630.157 Y245.134 I0.022 J-0.635
N2860 G1 X629.607 Y244.282
N2865 X629.484 Y244.092 Z5.417
N2870 X629.251 Y243.732 Z5.331 F1000.
N2875 G3 X629.15 Y243.41 Z5.262 I0.533 J-0.345
N2880 G1 Y240.734 F3000.
N2885 X629.164 Y240.445
N2890 X629.266 Y240.059
N2895 X629.47 Y239.653
N2900 X629.77 Y239.276
N2905 X630.17 Y238.944
N2910 X630.394 Y238.826
N2915 X630.6 Y238.759
N2920 X630.816 Y238.766
N2925 X631.018 Y238.844
N2930 X631.182 Y238.986
N2935 X631.288 Y239.175
N2940 X631.325 Y239.388
N2945 Y242.099
N2950 G3 X630.892 Y242.679 Z5.417 I-0.635 J-0.022
N2955 G1 X630.819 Y242.698 Z5.432
N2960 X630.744 Y242.709 Z5.447
N2965 X630.669 Y242.711 Z5.463
N2970 G3 X630.161 Y242.428 I0.022 J-0.635
N2975 G1 X629.613 Y241.602
N2980 X629.488 Y241.413 Z5.417
N2985 X629.256 Y241.063 Z5.333 F1000.
N2990 G3 X629.15 Y240.734 Z5.262 I0.529 J-0.351
N2995 G1 Y238.058 F3000.
N3000 X629.166 Y237.735
N3005 X629.268 Y237.349
N3010 X629.471 Y236.943
N3015 X629.771 Y236.566
N3020 X630.171 Y236.235
N3025 X630.394 Y236.117
N3030 X630.6 Y236.051
N3035 X630.816 Y236.057
N3040 X631.018 Y236.135
N3045 X631.182 Y236.277
N3050 X631.288 Y236.466
N3055 X631.325 Y236.679
N3060 Y239.388
N3065 G3 X630.892 Y239.968 Z5.417 I-0.635 J-0.022
N3070 G1 X630.819 Y239.988 Z5.432
N3075 X630.744 Y239.999 Z5.447
N3080 X630.669 Y240. Z5.463
N3085 G3 X630.166 Y239.723 I0.022 J-0.635
N3090 G1 X629.62 Y238.922
N3095 X629.492 Y238.735 Z5.417
N3100 X629.26 Y238.394 Z5.334 F1000.
N3105 G3 X629.15 Y238.058 Z5.262 I0.525 J-0.358
N3110 G1 Y235.383 F3000.
N3115 X629.168 Y235.027
N3120 X629.269 Y234.641
N3125 X629.473 Y234.235
N3130 X629.772 Y233.858
N3135 X630.172 Y233.527
N3140 X630.394 Y233.41
N3145 X630.6 Y233.343
N3150 X630.816 Y233.35
N3155 X631.018 Y233.428
N3160 X631.182 Y233.57
N3165 X631.288 Y233.759
N3170 X631.325 Y233.972
N3175 Y236.679
N3180 G3 X630.692 Y237.184 Z5.447 I-0.532 J-0.019
N3185 G1 X630.616 Y237.168 Z5.463
N3190 G3 X629.439 Y236.325 I0.434 J-1.851
N3195 G1 X629.381 Y236.227 Z5.44
N3200 X629.33 Y236.126 Z5.417
N3205 G3 X629.15 Y235.383 Z5.262 I1.72 J-0.81 F1000.
N3210 G1 Y232.707 F3000.
N3215 X629.169 Y232.32
N3220 X629.271 Y231.934
N3225 X629.474 Y231.529
N3230 X629.774 Y231.152
N3235 X630.173 Y230.821
N3240 X630.394 Y230.705
N3245 X630.6 Y230.638
N3250 X630.816 Y230.644
N3255 X631.018 Y230.723
N3260 X631.182 Y230.865
N3265 X631.288 Y231.053
N3270 X631.325 Y231.266
N3275 Y233.972
N3280 G3 X630.705 Y234.479 Z5.444 I-0.533 J-0.019
N3285 G1 X630.616 Y234.462 Z5.463
N3290 G3 X629.444 Y233.648 I0.395 J-1.82
N3295 G1 X629.385 Y233.55 Z5.44
N3300 X629.333 Y233.45 Z5.417
N3305 G3 X629.15 Y232.707 Z5.262 I1.678 J-0.807 F1000.
N3310 G1 Y230.032 F3000.
N3315 X629.171 Y229.615
N3320 X629.272 Y229.23
N3325 X629.475 Y228.824
N3330 X629.775 Y228.448
N3335 X630.174 Y228.116
N3340 X630.394 Y228.001
N3345 X630.6 Y227.934
N3350 X630.816 Y227.94
N3355 X631.018 Y228.019
N3360 X631.182 Y228.161
N3365 X631.288 Y228.349
N3370 X631.325 Y228.563
N3375 Y231.266
N3380 G3 X630.717 Y231.776 Z5.442 I-0.533 J-0.019
N3385 G1 X630.616 Y231.759 Z5.463
N3390 G3 X629.448 Y230.97 I0.359 J-1.791
N3395 G1 X629.389 Y230.873 Z5.44
N3400 X629.336 Y230.773 Z5.417
N3405 G3 X629.15 Y230.032 Z5.262 I1.639 J-0.805 F1000.
N3410 G1 Y227.356 F3000.
N3415 X629.172 Y226.911
N3420 X629.274 Y226.526
N3425 X629.477 Y226.121
N3430 X629.776 Y225.744
N3435 X630.175 Y225.413
N3440 X630.394 Y225.298
N3445 X630.6 Y225.232
N3450 X630.816 Y225.238
N3455 X631.018 Y225.317
N3460 X631.182 Y225.458
N3465 X631.288 Y225.647
N3470 X631.325 Y225.86
N3475 Y228.563
N3480 G3 X630.728 Y229.074 Z5.44 I-0.533 J-0.019
N3485 G1 X630.616 Y229.057 Z5.463
N3490 G3 X629.453 Y228.293 I0.326 J-1.763
N3495 G1 X629.393 Y228.196 Z5.44
N3500 X629.339 Y228.097 Z5.417
N3505 G3 X629.15 Y227.356 Z5.262 I1.603 J-0.803 F1000.
N3510 G1 Y224.458 F3000.
N3515 X629.163 Y224.206
N3520 X629.264 Y223.82
N3525 X629.468 Y223.414
N3530 X629.768 Y223.036
N3535 X630.168 Y222.705
N3540 X630.394 Y222.586
N3545 X630.6 Y222.519
N3550 X630.816 Y222.525
N3555 X631.018 Y222.604
N3560 X631.182 Y222.746
N3565 X631.288 Y222.934
N3570 X631.325 Y223.147
N3575 Y225.86
N3580 G3 X630.892 Y226.44 Z5.417 I-0.635 J-0.022
N3585 G1 X630.819 Y226.46 Z5.432
N3590 X630.744 Y226.471 Z5.447
N3595 X630.669 Y226.473 Z5.463
N3600 G3 X630.157 Y226.182 I0.022 J-0.635
N3605 G1 X629.607 Y225.33
N3610 X629.483 Y225.14 Z5.417
N3615 X629.251 Y224.78 Z5.331 F1000.
N3620 G3 X629.15 Y224.458 Z5.262 I0.533 J-0.344
N3625 G1 Y221.782 F3000.
N3630 X629.164 Y221.494
N3635 X629.266 Y221.108
N3640 X629.47 Y220.702
N3645 X629.769 Y220.324
N3650 X630.17 Y219.993
N3655 X630.394 Y219.875
N3660 X630.6 Y219.808
N3665 X630.816 Y219.814
N3670 X631.018 Y219.893
N3675 X631.182 Y220.035
N3680 X631.288 Y220.223
N3685 X631.325 Y220.437
N3690 Y223.147
N3695 G3 X630.892 Y223.727 Z5.417 I-0.635 J-0.022
N3700 G1 X630.819 Y223.747 Z5.432
N3705 X630.744 Y223.758 Z5.447
N3710 X630.669 Y223.76 Z5.463
N3715 G3 X630.161 Y223.476 I0.022 J-0.635
N3720 G1 X629.613 Y222.65
N3725 X629.488 Y222.461 Z5.417
N3730 X629.255 Y222.111 Z5.333 F1000.
N3735 G3 X629.15 Y221.782 Z5.262 I0.529 J-0.351
N3740 G1 Y219.106 F3000.
N3745 X629.166 Y218.784
N3750 X629.268 Y218.398
N3755 X629.471 Y217.992
N3760 X629.771 Y217.615
N3765 X630.171 Y217.283
N3770 X630.394 Y217.166
N3775 X630.6 Y217.099
N3780 X630.816 Y217.105
N3785 X631.018 Y217.184
N3790 X631.182 Y217.326
N3795 X631.288 Y217.514
N3800 X631.325 Y217.728
N3805 Y220.437
N3810 G3 X630.892 Y221.017 Z5.417 I-0.635 J-0.022
N3815 G1 X630.819 Y221.036 Z5.432
N3820 X630.744 Y221.047 Z5.447
N3825 X630.669 Y221.049 Z5.463
N3830 G3 X630.166 Y220.772 I0.022 J-0.635
N3835 G1 X629.62 Y219.97
N3840 X629.492 Y219.783 Z5.417
N3845 X629.26 Y219.442 Z5.334 F1000.
N3850 G3 X629.15 Y219.106 Z5.262 I0.525 J-0.357
N3855 G1 Y216.431 F3000.
N3860 X629.168 Y216.075
N3865 X629.269 Y215.69
N3870 X629.473 Y215.284
N3875 X629.772 Y214.907
N3880 X630.172 Y214.576
N3885 X630.394 Y214.459
N3890 X630.6 Y214.392
N3895 X630.816 Y214.398
N3900 X631.018 Y214.477
N3905 X631.182 Y214.619
N3910 X631.288 Y214.807
N3915 X631.325 Y215.021
N3920 Y217.728
N3925 G3 X630.692 Y218.232 Z5.447 I-0.532 J-0.019
N3930 G1 X630.616 Y218.216 Z5.463
N3935 G3 X629.438 Y217.373 I0.435 J-1.852
N3940 G1 X629.381 Y217.275 Z5.44
N3945 X629.33 Y217.174 Z5.417
N3950 G3 X629.15 Y216.431 Z5.262 I1.721 J-0.81 F1000.
N3955 G1 Y213.755 F3000.
N3960 X629.169 Y213.369
N3965 X629.271 Y212.983
N3970 X629.474 Y212.577
N3975 X629.773 Y212.201
N3980 X630.173 Y211.87
N3985 X630.394 Y211.753
N3990 X630.6 Y211.686
N3995 X630.816 Y211.693
N4000 X631.018 Y211.771
N4005 X631.182 Y211.913
N4010 X631.288 Y212.102
N4015 X631.325 Y212.315
N4020 Y215.021
N4025 G3 X630.841 Y215.533 Z5.417 I-0.533 J-0.019
N4030 G1 X630.772 Y215.535 Z5.431
N4035 X630.704 Y215.528 Z5.444
N4040 X630.616 Y215.511 Z5.463
N4045 G3 X629.443 Y214.696 I0.396 J-1.82
N4050 G1 X629.385 Y214.598 Z5.44
N4055 X629.333 Y214.498 Z5.417
N4060 G3 X629.15 Y213.755 Z5.262 I1.679 J-0.807 F1000.
N4065 G1 Y211.08 F3000.
N4070 X629.171 Y210.663
N4075 X629.272 Y210.278
N4080 X629.475 Y209.872
N4085 X629.775 Y209.496
N4090 X630.174 Y209.165
N4095 X630.394 Y209.049
N4100 X630.6 Y208.983
N4105 X630.816 Y208.989
N4110 X631.018 Y209.067
N4115 X631.182 Y209.209
N4120 X631.288 Y209.398
N4125 X631.325 Y209.611
N4130 Y212.315
N4135 G3 X630.716 Y212.824 Z5.442 I-0.533 J-0.019
N4140 G1 X630.616 Y212.807 Z5.463
N4145 G3 X629.448 Y212.018 I0.36 J-1.791
N4150 G1 X629.389 Y211.921 Z5.44
N4155 X629.336 Y211.821 Z5.417
N4160 G3 X629.15 Y211.08 Z5.262 I1.64 J-0.805 F1000.
N4165 G1 Y208.404 F3000.
N4170 X629.172 Y207.96
N4175 X629.274 Y207.575
N4180 X629.477 Y207.169
N4185 X629.776 Y206.793
N4190 X630.175 Y206.462
N4195 X630.394 Y206.347
N4200 X630.6 Y206.28
N4205 X630.816 Y206.286
N4210 X631.018 Y206.365
N4215 X631.182 Y206.507
N4220 X631.288 Y206.695
N4225 X631.325 Y206.909
N4230 Y209.611
N4235 G3 X630.728 Y210.122 Z5.44 I-0.533 J-0.019
N4240 G1 X630.616 Y210.105 Z5.463
N4245 G3 X629.453 Y209.341 I0.327 J-1.764
N4250 G1 X629.393 Y209.244 Z5.44
N4255 X629.339 Y209.145 Z5.417
N4260 G3 X629.15 Y208.404 Z5.262 I1.604 J-0.803 F1000.
N4265 G1 Y205.506 F3000.
N4270 X629.163 Y205.255
N4275 X629.264 Y204.869
N4280 X629.468 Y204.462
N4285 X629.768 Y204.085
N4290 X630.168 Y203.753
N4295 X630.394 Y203.634
N4300 X630.6 Y203.567
N4305 X630.816 Y203.574
N4310 X631.018 Y203.652
N4315 X631.182 Y203.794
N4320 X631.288 Y203.983
N4325 X631.325 Y204.196
N4330 Y206.909
N4335 G3 X630.892 Y207.489 Z5.417 I-0.635 J-0.022
N4340 G1 X630.819 Y207.508 Z5.432
N4345 X630.744 Y207.519 Z5.447
N4350 X630.669 Y207.521 Z5.463
N4355 G3 X630.157 Y207.231 I0.022 J-0.635
N4360 G1 X629.606 Y206.378
N4365 X629.483 Y206.188 Z5.417
N4370 X629.251 Y205.828 Z5.331 F1000.
N4375 G3 X629.15 Y205.506 Z5.262 I0.534 J-0.344
N4380 G1 Y202.83 F3000.
N4385 X629.164 Y202.543
N4390 X629.266 Y202.157
N4395 X629.47 Y201.75
N4400 X629.769 Y201.373
N4405 X630.17 Y201.042
N4410 X630.394 Y200.923
N4415 X630.6 Y200.857
N4420 X630.816 Y200.863
N4425 X631.018 Y200.941
N4430 X631.182 Y201.083
N4435 X631.288 Y201.272
N4440 X631.325 Y201.485
N4445 Y204.196
N4450 G3 X630.892 Y204.776 Z5.417 I-0.635 J-0.022
N4455 G1 X630.819 Y204.796 Z5.432
N4460 X630.744 Y204.806 Z5.447
N4465 X630.669 Y204.808 Z5.463
N4470 G3 X630.161 Y204.525 I0.022 J-0.635
N4475 G1 X629.613 Y203.698
N4480 X629.488 Y203.509 Z5.417
N4485 X629.255 Y203.159 Z5.333 F1000.
N4490 G3 X629.15 Y202.83 Z5.262 I0.529 J-0.351
N4495 G1 Y200.154 F3000.
N4500 X629.166 Y199.832
N4505 X629.268 Y199.446
N4510 X629.471 Y199.04
N4515 X629.771 Y198.663
N4520 X630.171 Y198.332
N4525 X630.394 Y198.214
N4530 X630.6 Y198.148
N4535 X630.816 Y198.154
N4540 X631.018 Y198.233
N4545 X631.182 Y198.374
N4550 X631.288 Y198.563
N4555 X631.325 Y198.776
N4560 Y201.485
N4565 G3 X630.892 Y202.065 Z5.417 I-0.635 J-0.022
N4570 G1 X630.819 Y202.085 Z5.432
N4575 X630.744 Y202.096 Z5.447
N4580 X630.669 Y202.098 Z5.463
N4585 G3 X630.165 Y201.82 I0.022 J-0.635
N4590 G1 X629.62 Y201.018
N4595 X629.492 Y200.831 Z5.417
N4600 X629.26 Y200.49 Z5.334 F1000.
N4605 G3 X629.15 Y200.154 Z5.262 I0.525 J-0.357
N4610 G1 Y197.479 F3000.
N4615 X629.168 Y197.124
N4620 X629.269 Y196.738
N4625 X629.473 Y196.332
N4630 X629.772 Y195.955
N4635 X630.172 Y195.624
N4640 X630.394 Y195.507
N4645 X630.6 Y195.44
N4650 X630.816 Y195.447
N4655 X631.018 Y195.525
N4660 X631.182 Y195.667
N4665 X631.288 Y195.856
N4670 X631.325 Y196.069
N4675 Y198.776
N4680 G3 X630.692 Y199.281 Z5.447 I-0.532 J-0.019
N4685 G1 X630.616 Y199.265 Z5.463
N4690 G3 X629.438 Y198.421 I0.435 J-1.852
N4695 G1 X629.381 Y198.323 Z5.44
N4700 X629.33 Y198.222 Z5.417
N4705 G3 X629.15 Y197.479 Z5.262 I1.722 J-0.81 F1000.
N4710 G1 Y194.803 F3000.
N4715 X629.169 Y194.417
N4720 X629.271 Y194.031
N4725 X629.474 Y193.626
N4730 X629.773 Y193.249
N4735 X630.173 Y192.918
N4740 X630.394 Y192.802
N4745 X630.6 Y192.735
N4750 X630.816 Y192.741
N4755 X631.018 Y192.82
N4760 X631.182 Y192.962
N4765 X631.288 Y193.15
N4770 X631.325 Y193.363
N4775 Y196.069
N4780 G3 X630.704 Y196.576 Z5.444 I-0.533 J-0.019
N4785 G1 X630.616 Y196.559 Z5.463
N4790 G3 X629.443 Y195.744 I0.396 J-1.821
N4795 G1 X629.385 Y195.646 Z5.44
N4800 X629.333 Y195.546 Z5.417
N4805 G3 X629.15 Y194.803 Z5.262 I1.679 J-0.807 F1000.
N4810 G1 Y192.128 F3000.
N4815 X629.171 Y191.712
N4820 X629.272 Y191.327
N4825 X629.475 Y190.921
N4830 X629.775 Y190.544
N4835 X630.174 Y190.213
N4840 X630.394 Y190.098
N4845 X630.6 Y190.031
N4850 X630.816 Y190.037
N4855 X631.018 Y190.116
N4860 X631.182 Y190.258
N4865 X631.288 Y190.446
N4870 X631.325 Y190.66
N4875 Y193.363
N4880 G3 X630.716 Y193.873 Z5.442 I-0.533 J-0.019
N4885 G1 X630.616 Y193.855 Z5.463
N4890 G3 X629.448 Y193.066 I0.36 J-1.791
N4895 G1 X629.389 Y192.969 Z5.44
N4900 X629.336 Y192.869 Z5.417
N4905 G3 X629.15 Y192.128 Z5.262 I1.64 J-0.805 F1000.
N4910 G1 Y189.452 F3000.
N4915 X629.172 Y189.008
N4920 X629.274 Y188.623
N4925 X629.477 Y188.218
N4930 X629.776 Y187.841
N4935 X630.175 Y187.51
N4940 X630.394 Y187.395
N4945 X630.6 Y187.328
N4950 X630.816 Y187.335
N4955 X631.018 Y187.413
N4960 X631.182 Y187.555
N4965 X631.288 Y187.744
N4970 X631.325 Y187.957
N4975 Y190.66
N4980 G3 X630.728 Y191.171 Z5.44 I-0.533 J-0.019
N4985 G1 X630.616 Y191.153 Z5.463
N4990 G3 X629.453 Y190.389 I0.327 J-1.764
N4995 G1 X629.393 Y190.292 Z5.44
N5000 X629.339 Y190.193 Z5.417
N5005 G3 X629.15 Y189.452 Z5.262 I1.604 J-0.803 F1000.
N5010 G1 Y186.554 F3000.
N5015 X629.163 Y186.303
N5020 X629.264 Y185.917
N5025 X629.468 Y185.51
N5030 X629.768 Y185.133
N5035 X630.168 Y184.801
N5040 X630.394 Y184.682
N5045 X630.6 Y184.616
N5050 X630.816 Y184.622
N5055 X631.018 Y184.701
N5060 X631.182 Y184.842
N5065 X631.288 Y185.031
N5070 X631.325 Y185.244
N5075 Y187.957
N5080 G3 X630.892 Y188.537 Z5.417 I-0.635 J-0.022
N5085 G1 X630.819 Y188.557 Z5.432
N5090 X630.744 Y188.568 Z5.447
N5095 X630.669 Y188.57 Z5.463
N5100 G3 X630.157 Y188.279 I0.022 J-0.635
N5105 G1 X629.606 Y187.426
N5110 X629.483 Y187.236 Z5.417
N5115 X629.251 Y186.876 Z5.331 F1000.
N5120 G3 X629.15 Y186.554 Z5.262 I0.534 J-0.344
N5125 G1 Y183.878 F3000.
N5130 X629.164 Y183.591
N5135 X629.266 Y183.205
N5140 X629.47 Y182.799
N5145 X629.769 Y182.421
N5150 X630.17 Y182.09
N5155 X630.394 Y181.972
N5160 X630.6 Y181.905
N5165 X630.816 Y181.911
N5170 X631.018 Y181.99
N5175 X631.182 Y182.132
N5180 X631.288 Y182.32
N5185 X631.325 Y182.533
N5190 Y185.244
N5195 G3 X630.892 Y185.824 Z5.417 I-0.635 J-0.022
N5200 G1 X630.819 Y185.844 Z5.432
N5205 X630.744 Y185.855 Z5.447
N5210 X630.669 Y185.857 Z5.463
N5215 G3 X630.161 Y185.573 I0.022 J-0.635
N5220 G1 X629.613 Y184.746
N5225 X629.488 Y184.557 Z5.417
N5230 X629.255 Y184.207 Z5.333 F1000.
N5235 G3 X629.15 Y183.878 Z5.262 I0.529 J-0.351
N5240 G1 Y181.202 F3000.
N5245 X629.166 Y180.881
N5250 X629.268 Y180.495
N5255 X629.471 Y180.089
N5260 X629.771 Y179.712
N5265 X630.171 Y179.38
N5270 X630.394 Y179.263
N5275 X630.6 Y179.196
N5280 X630.816 Y179.202
N5285 X631.018 Y179.281
N5290 X631.182 Y179.423
N5295 X631.288 Y179.611
N5300 X631.325 Y179.824
N5305 Y182.533
N5310 G3 X630.892 Y183.113 Z5.417 I-0.635 J-0.022
N5315 G1 X630.819 Y183.133 Z5.432
N5320 X630.744 Y183.144 Z5.447
N5325 X630.669 Y183.146 Z5.463
N5330 G3 X630.165 Y182.869 I0.022 J-0.635
N5335 G1 X629.62 Y182.066
N5340 X629.492 Y181.879 Z5.417
N5345 X629.26 Y181.538 Z5.334 F1000.
N5350 G3 X629.15 Y181.202 Z5.262 I0.525 J-0.357
N5355 G1 Y178.527 F3000.
N5360 X629.168 Y178.172
N5365 X629.269 Y177.786
N5370 X629.473 Y177.38
N5375 X629.772 Y177.004
N5380 X630.172 Y176.672
N5385 X630.394 Y176.555
N5390 X630.6 Y176.489
N5395 X630.816 Y176.495
N5400 X631.018 Y176.574
N5405 X631.182 Y176.715
N5410 X631.288 Y176.904
N5415 X631.325 Y177.117
N5420 Y179.824
N5425 G3 X630.692 Y180.329 Z5.447 I-0.532 J-0.019
N5430 G1 X630.616 Y180.313 Z5.463
N5435 G3 X629.438 Y179.469 I0.436 J-1.852
N5440 G1 X629.381 Y179.371 Z5.44
N5445 X629.33 Y179.27 Z5.417
N5450 G3 X629.15 Y178.527 Z5.262 I1.722 J-0.81 F1000.
N5455 G1 Y175.851 F3000.
N5460 X629.169 Y175.465
N5465 X629.271 Y175.08
N5470 X629.474 Y174.674
N5475 X629.773 Y174.297
N5480 X630.173 Y173.966
N5485 X630.394 Y173.85
N5490 X630.6 Y173.783
N5495 X630.816 Y173.789
N5500 X631.018 Y173.868
N5505 X631.182 Y174.01
N5510 X631.288 Y174.198
N5515 X631.325 Y174.412
N5520 Y177.117
N5525 G3 X630.704 Y177.624 Z5.445 I-0.533 J-0.019
N5530 G1 X630.616 Y177.607 Z5.463
N5535 G3 X629.443 Y176.792 I0.397 J-1.821
N5540 G1 X629.385 Y176.694 Z5.44
N5545 X629.333 Y176.594 Z5.417
N5550 G3 X629.15 Y175.851 Z5.262 I1.68 J-0.807 F1000.
N5555 G1 Y173.176 F3000.
N5560 X629.171 Y172.76
N5565 X629.272 Y172.375
N5570 X629.475 Y171.969
N5575 X629.775 Y171.593
N5580 X630.174 Y171.262
N5585 X630.394 Y171.146
N5590 X630.6 Y171.079
N5595 X630.816 Y171.085
N5600 X631.018 Y171.164
N5605 X631.182 Y171.306
N5610 X631.288 Y171.494
N5615 X631.325 Y171.708
N5620 Y174.412
N5625 G3 X630.716 Y174.921 Z5.442 I-0.533 J-0.019
N5630 G1 X630.616 Y174.904 Z5.463
N5635 G3 X629.448 Y174.114 I0.361 J-1.792
N5640 G1 X629.389 Y174.017 Z5.44
N5645 X629.336 Y173.917 Z5.417
N5650 G3 X629.15 Y173.176 Z5.262 I1.641 J-0.805 F1000.
N5655 G1 Y170.5 F3000.
N5660 X629.172 Y170.056
N5665 X629.273 Y169.671
N5670 X629.477 Y169.266
N5675 X629.776 Y168.89
N5680 X630.175 Y168.559
N5685 X630.394 Y168.443
N5690 X630.6 Y168.377
N5695 X630.816 Y168.383
N5700 X631.018 Y168.462
N5705 X631.182 Y168.603
N5710 X631.288 Y168.792
N5715 X631.325 Y169.005
N5720 Y171.708
N5725 G3 X630.728 Y172.219 Z5.44 I-0.533 J-0.019
N5730 G1 X630.616 Y172.202 Z5.463
N5735 G3 X629.453 Y171.437 I0.327 J-1.764
N5740 G1 X629.393 Y171.34 Z5.44
N5745 X629.339 Y171.241 Z5.417
N5750 G3 X629.15 Y170.5 Z5.262 I1.604 J-0.803 F1000.
N5755 G1 Y167.602 F3000.
N5760 X629.163 Y167.352
N5765 X629.264 Y166.965
N5770 X629.468 Y166.559
N5775 X629.768 Y166.181
N5780 X630.168 Y165.85
N5785 X630.394 Y165.731
N5790 X630.6 Y165.664
N5795 X630.816 Y165.67
N5800 X631.018 Y165.749
N5805 X631.182 Y165.891
N5810 X631.288 Y166.079
N5815 X631.325 Y166.292
N5820 Y169.005
N5825 G3 X630.892 Y169.585 Z5.417 I-0.635 J-0.022
N5830 G1 X630.819 Y169.605 Z5.432
N5835 X630.744 Y169.616 Z5.447
N5840 X630.669 Y169.618 Z5.463
N5845 G3 X630.157 Y169.327 I0.022 J-0.635
N5850 G1 X629.606 Y168.474
N5855 X629.483 Y168.284 Z5.417
N5860 X629.251 Y167.924 Z5.331 F1000.
N5865 G3 X629.15 Y167.602 Z5.262 I0.534 J-0.344
N5870 G1 Y164.926 F3000.
N5875 X629.164 Y164.639
N5880 X629.266 Y164.253
N5885 X629.47 Y163.847
N5890 X629.769 Y163.47
N5895 X630.169 Y163.138
N5900 X630.394 Y163.02
N5905 X630.6 Y162.953
N5910 X630.816 Y162.959
N5915 X631.018 Y163.038
N5920 X631.182 Y163.18
N5925 X631.288 Y163.368
N5930 X631.325 Y163.582
N5935 Y166.292
N5940 G3 X630.892 Y166.872 Z5.417 I-0.635 J-0.022
N5945 G1 X630.819 Y166.892 Z5.432
N5950 X630.744 Y166.903 Z5.447
N5955 X630.669 Y166.905 Z5.463
N5960 G3 X630.161 Y166.621 I0.022 J-0.635
N5965 G1 X629.613 Y165.794
N5970 X629.488 Y165.605 Z5.417
N5975 X629.255 Y165.255 Z5.333 F1000.
N5980 G3 X629.15 Y164.926 Z5.262 I0.529 J-0.351
N5985 G1 Y162.25 F3000.
N5990 X629.166 Y161.929
N5995 X629.268 Y161.543
N6000 X629.471 Y161.137
N6005 X629.771 Y160.76
N6010 X630.171 Y160.428
N6015 X630.394 Y160.311
N6020 X630.6 Y160.244
N6025 X630.816 Y160.25
N6030 X631.018 Y160.329
N6035 X631.182 Y160.471
N6040 X631.288 Y160.659
N6045 X631.325 Y160.873
N6050 Y163.582
N6055 G3 X630.892 Y164.162 Z5.417 I-0.635 J-0.022
N6060 G1 X630.819 Y164.181 Z5.432
N6065 X630.744 Y164.192 Z5.447
N6070 X630.669 Y164.194 Z5.463
N6075 G3 X630.165 Y163.917 I0.022 J-0.635
N6080 G1 X629.62 Y163.114
N6085 X629.492 Y162.927 Z5.417
N6090 X629.26 Y162.586 Z5.334 F1000.
N6095 G3 X629.15 Y162.25 Z5.262 I0.525 J-0.357
N6100 G1 Y159.575 F3000.
N6105 X629.168 Y159.22
N6110 X629.269 Y158.835
N6115 X629.473 Y158.429
N6120 X629.772 Y158.052
N6125 X630.172 Y157.721
N6130 X630.394 Y157.604
N6135 X630.6 Y157.537
N6140 X630.816 Y157.543
N6145 X631.018 Y157.622
N6150 X631.182 Y157.764
N6155 X631.288 Y157.952
N6160 X631.325 Y158.165
N6165 Y160.873
N6170 G3 X630.692 Y161.377 Z5.447 I-0.532 J-0.019
N6175 G1 X630.616 Y161.361 Z5.463
N6180 G3 X629.438 Y160.517 I0.436 J-1.853
N6185 G1 X629.381 Y160.419 Z5.44
N6190 X629.33 Y160.318 Z5.417
N6195 G3 X629.15 Y159.575 Z5.262 I1.722 J-0.81 F1000.
N6200 G1 Y156.899 F3000.
N6205 X629.169 Y156.513
N6210 X629.271 Y156.128
N6215 X629.474 Y155.722
N6220 X629.773 Y155.346
N6225 X630.173 Y155.014
N6230 X630.394 Y154.898
N6235 X630.6 Y154.831
N6240 X630.816 Y154.838
N6245 X631.018 Y154.916
N6250 X631.182 Y155.058
N6255 X631.288 Y155.247
N6260 X631.325 Y155.46
N6265 Y158.165
N6270 G3 X630.704 Y158.673 Z5.445 I-0.533 J-0.019
N6275 G1 X630.616 Y158.656 Z5.463
N6280 G3 X629.443 Y157.84 I0.397 J-1.821
N6285 G1 X629.385 Y157.742 Z5.44
N6290 X629.333 Y157.642 Z5.417
N6295 G3 X629.15 Y156.899 Z5.262 I1.68 J-0.807 F1000.
N6300 G1 Y154.224 F3000.
N6305 X629.171 Y153.808
N6310 X629.272 Y153.423
N6315 X629.475 Y153.017
N6320 X629.775 Y152.641
N6325 X630.174 Y152.31
N6330 X630.394 Y152.194
N6335 X630.6 Y152.127
N6340 X630.816 Y152.134
N6345 X631.018 Y152.212
N6350 X631.182 Y152.354
N6355 X631.288 Y152.543
N6360 X631.325 Y152.756
N6365 Y155.46
N6370 G3 X630.716 Y155.969 Z5.442 I-0.533 J-0.019
N6375 G1 X630.616 Y155.952 Z5.463
N6380 G3 X629.448 Y155.162 I0.361 J-1.792
N6385 G1 X629.389 Y155.065 Z5.44
N6390 X629.336 Y154.965 Z5.417
N6395 G3 X629.15 Y154.224 Z5.262 I1.641 J-0.805 F1000.
N6400 G1 Y151.548 F3000.
N6405 X629.172 Y151.105
N6410 X629.273 Y150.72
N6415 X629.477 Y150.314
N6420 X629.776 Y149.938
N6425 X630.175 Y149.607
N6430 X630.394 Y149.492
N6435 X630.6 Y149.425
N6440 X630.816 Y149.431
N6445 X631.018 Y149.51
N6450 X631.182 Y149.652
N6455 X631.288 Y149.84
N6460 X631.325 Y150.053
N6465 Y152.756
N6470 G3 X630.728 Y153.267 Z5.44 I-0.533 J-0.019
N6475 G1 X630.616 Y153.25 Z5.463
N6480 G3 X629.453 Y152.485 I0.328 J-1.764
N6485 G1 X629.393 Y152.388 Z5.44
N6490 X629.339 Y152.289 Z5.417
N6495 G3 X629.15 Y151.548 Z5.262 I1.605 J-0.803 F1000.
N6500 G1 Y148.65 F3000.
N6505 X629.163 Y148.4
N6510 X629.264 Y148.013
N6515 X629.468 Y147.607
N6520 X629.768 Y147.229
N6525 X630.168 Y146.898
N6530 X630.394 Y146.779
N6535 X630.6 Y146.712
N6540 X630.816 Y146.718
N6545 X631.018 Y146.797
N6550 X631.182 Y146.939
N6555 X631.288 Y147.127
N6560 X631.325 Y147.341
N6565 Y150.053
N6570 G3 X630.892 Y150.633 Z5.417 I-0.635 J-0.022
N6575 G1 X630.819 Y150.653 Z5.432
N6580 X630.744 Y150.664 Z5.447
N6585 X630.669 Y150.666 Z5.463
N6590 G3 X630.157 Y150.376 I0.022 J-0.635
N6595 G1 X629.606 Y149.522
N6600 X629.483 Y149.332 Z5.417
N6605 X629.251 Y148.972 Z5.331 F1000.
N6610 G3 X629.15 Y148.65 Z5.262 I0.534 J-0.344
N6615 G1 Y145.974 F3000.
N6620 X629.164 Y145.687
N6625 X629.266 Y145.301
N6630 X629.47 Y144.895
N6635 X629.769 Y144.518
N6640 X630.169 Y144.186
N6645 X630.394 Y144.068
N6650 X630.6 Y144.001
N6655 X630.816 Y144.008
N6660 X631.018 Y144.086
N6665 X631.182 Y144.228
N6670 X631.288 Y144.417
N6675 X631.325 Y144.63
N6680 Y147.341
N6685 G3 X630.892 Y147.921 Z5.417 I-0.635 J-0.022
N6690 G1 X630.819 Y147.94 Z5.432
N6695 X630.744 Y147.951 Z5.447
N6700 X630.669 Y147.953 Z5.463
N6705 G3 X630.161 Y147.669 I0.022 J-0.635
N6710 G1 X629.613 Y146.842
N6715 X629.488 Y146.653 Z5.417
N6720 X629.255 Y146.303 Z5.333 F1000.
N6725 G3 X629.15 Y145.974 Z5.262 I0.529 J-0.351
N6730 G1 Y143.298 F3000.
N6735 X629.166 Y142.977
N6740 X629.268 Y142.591
N6745 X629.471 Y142.185
N6750 X629.771 Y141.808
N6755 X630.171 Y141.477
N6760 X630.394 Y141.359
N6765 X630.6 Y141.292
N6770 X630.816 Y141.299
N6775 X631.018 Y141.377
N6780 X631.182 Y141.519
N6785 X631.288 Y141.708
N6790 X631.325 Y141.921
N6795 Y144.63
N6800 G3 X630.892 Y145.21 Z5.417 I-0.635 J-0.022
N6805 G1 X630.819 Y145.229 Z5.432
N6810 X630.744 Y145.24 Z5.447
N6815 X630.669 Y145.242 Z5.463
N6820 G3 X630.165 Y144.965 I0.022 J-0.635
N6825 G1 X629.619 Y144.162
N6830 X629.492 Y143.975 Z5.417
N6835 X629.26 Y143.633 Z5.334 F1000.
N6840 G3 X629.15 Y143.298 Z5.262 I0.525 J-0.357
N6845 G1 Y140.623 F3000.
N6850 X629.168 Y140.268
N6855 X629.269 Y139.883
N6860 X629.473 Y139.477
N6865 X629.772 Y139.1
N6870 X630.172 Y138.769
N6875 X630.394 Y138.652
N6880 X630.6 Y138.585
N6885 X630.816 Y138.591
N6890 X631.018 Y138.67
N6895 X631.182 Y138.812
N6900 X631.288 Y139.
N6905 X631.325 Y139.214
N6910 Y141.921
N6915 G3 X630.692 Y142.425 Z5.447 I-0.532 J-0.019
N6920 G1 X630.616 Y142.409 Z5.463
N6925 G3 X629.438 Y141.565 I0.436 J-1.853
N6930 G1 X629.381 Y141.467 Z5.44
N6935 X629.33 Y141.366 Z5.417
N6940 G3 X629.15 Y140.623 Z5.262 I1.722 J-0.81 F1000.
N6945 G1 Y137.947 F3000.
N6950 X629.169 Y137.562
N6955 X629.271 Y137.176
N6960 X629.474 Y136.77
N6965 X629.773 Y136.394
N6970 X630.173 Y136.063
N6975 X630.394 Y135.946
N6980 X630.6 Y135.879
N6985 X630.816 Y135.886
N6990 X631.018 Y135.964
N6995 X631.182 Y136.106
N7000 X631.288 Y136.295
N7005 X631.325 Y136.508
N7010 Y139.214
N7015 G3 X630.704 Y139.721 Z5.445 I-0.533 J-0.019
N7020 G1 X630.616 Y139.704 Z5.463
N7025 G3 X629.443 Y138.888 I0.397 J-1.821
N7030 G1 X629.385 Y138.79 Z5.44
N7035 X629.333 Y138.69 Z5.417
N7040 G3 X629.15 Y137.947 Z5.262 I1.68 J-0.807 F1000.
N7045 G1 Y135.272 F3000.
N7050 X629.171 Y134.856
N7055 X629.272 Y134.471
N7060 X629.475 Y134.065
N7065 X629.775 Y133.689
N7070 X630.174 Y133.358
N7075 X630.394 Y133.242
N7080 X630.6 Y133.175
N7085 X630.816 Y133.182
N7090 X631.018 Y133.26
N7095 X631.182 Y133.402
N7100 X631.288 Y133.591
N7105 X631.325 Y133.804
N7110 Y136.508
N7115 G3 X630.716 Y137.017 Z5.442 I-0.533 J-0.019
N7120 G1 X630.616 Y137. Z5.463
N7125 G3 X629.448 Y136.21 I0.361 J-1.792
N7130 G1 X629.389 Y136.113 Z5.44
N7135 X629.336 Y136.013 Z5.417
N7140 G3 X629.15 Y135.272 Z5.262 I1.641 J-0.805 F1000.
N7145 G1 Y132.596 F3000.
N7150 X629.172 Y132.153
N7155 X629.273 Y131.768
N7160 X629.477 Y131.362
N7165 X629.776 Y130.986
N7170 X630.175 Y130.655
N7175 X630.394 Y130.54
N7180 X630.6 Y130.473
N7185 X630.816 Y130.479
N7190 X631.018 Y130.558
N7195 X631.182 Y130.7
N7200 X631.288 Y130.888
N7205 X631.325 Y131.102
N7210 Y133.804
N7215 G3 X630.728 Y134.315 Z5.44 I-0.533 J-0.019
N7220 G1 X630.616 Y134.298 Z5.463
N7225 G3 X629.453 Y133.533 I0.328 J-1.764
N7230 G1 X629.393 Y133.436 Z5.44
N7235 X629.339 Y133.337 Z5.417
N7240 G3 X629.15 Y132.596 Z5.262 I1.605 J-0.803 F1000.
N7245 G1 Y129.698 F3000.
N7250 X629.162 Y129.448
N7255 X629.264 Y129.061
N7260 X629.468 Y128.655
N7265 X629.768 Y128.277
N7270 X630.168 Y127.946
N7275 X630.394 Y127.827
N7280 X630.6 Y127.76
N7285 X630.816 Y127.766
N7290 X631.018 Y127.845
N7295 X631.182 Y127.987
N7300 X631.288 Y128.175
N7305 X631.325 Y128.389
N7310 Y131.102
N7315 G3 X630.892 Y131.682 Z5.417 I-0.635 J-0.022
N7320 G1 X630.819 Y131.701 Z5.432
N7325 X630.744 Y131.712 Z5.447
N7330 X630.669 Y131.714 Z5.463
N7335 G3 X630.157 Y131.424 I0.022 J-0.635
N7340 G1 X629.606 Y130.57
N7345 X629.483 Y130.38 Z5.417
N7350 X629.251 Y130.02 Z5.331 F1000.
N7355 G3 X629.15 Y129.698 Z5.262 I0.534 J-0.344
N7360 G1 Y127.022 F3000.
N7365 X629.164 Y126.735
N7370 X629.266 Y126.349
N7375 X629.47 Y125.943
N7380 X629.769 Y125.566
N7385 X630.169 Y125.234
N7390 X630.394 Y125.116
N7395 X630.6 Y125.049
N7400 X630.816 Y125.056
N7405 X631.018 Y125.134
N7410 X631.182 Y125.276
N7415 X631.288 Y125.465
N7420 X631.325 Y125.678
N7425 Y128.389
N7430 G3 X630.892 Y128.969 Z5.417 I-0.635 J-0.022
N7435 G1 X630.819 Y128.988 Z5.432
N7440 X630.744 Y128.999 Z5.447
N7445 X630.669 Y129.001 Z5.463
N7450 G3 X630.161 Y128.717 I0.022 J-0.635
N7455 G1 X629.613 Y127.89
N7460 X629.488 Y127.701 Z5.417
N7465 X629.255 Y127.351 Z5.333 F1000.
N7470 G3 X629.15 Y127.022 Z5.262 I0.529 J-0.351
N7475 G1 Y124.346 F3000.
N7480 X629.166 Y124.025
N7485 X629.268 Y123.639
N7490 X629.471 Y123.233
N7495 X629.771 Y122.856
N7500 X630.171 Y122.525
N7505 X630.394 Y122.407
N7510 X630.6 Y122.34
N7515 X630.816 Y122.347
N7520 X631.018 Y122.425
N7525 X631.182 Y122.567
N7530 X631.288 Y122.756
N7535 X631.325 Y122.969
N7540 Y125.678
N7545 G3 X630.892 Y126.258 Z5.417 I-0.635 J-0.022
N7550 G1 X630.819 Y126.278 Z5.432
N7555 X630.744 Y126.288 Z5.447
N7560 X630.669 Y126.29 Z5.463
N7565 G3 X630.165 Y126.013 I0.022 J-0.635
N7570 G1 X629.619 Y125.21
N7575 X629.492 Y125.023 Z5.417
N7580 X629.26 Y124.681 Z5.334 F1000.
N7585 G3 X629.15 Y124.346 Z5.262 I0.525 J-0.357
N7590 G1 Y121.671 F3000.
N7595 X629.168 Y121.316
N7600 X629.269 Y120.931
N7605 X629.473 Y120.525
N7610 X629.772 Y120.148
N7615 X630.172 Y119.817
N7620 X630.394 Y119.7
N7625 X630.6 Y119.633
N7630 X630.816 Y119.639
N7635 X631.018 Y119.718
N7640 X631.182 Y119.86
N7645 X631.288 Y120.048
N7650 X631.325 Y120.262
N7655 Y122.969
N7660 G3 X630.692 Y123.473 Z5.447 I-0.532 J-0.019
N7665 G1 X630.616 Y123.457 Z5.463
N7670 G3 X629.438 Y122.613 I0.436 J-1.853
N7675 G1 X629.381 Y122.515 Z5.44
N7680 X629.33 Y122.414 Z5.417
N7685 G3 X629.15 Y121.671 Z5.262 I1.723 J-0.81 F1000.
N7690 G1 Y118.995 F3000.
N7695 X629.169 Y118.61
N7700 X629.271 Y118.224
N7705 X629.474 Y117.818
N7710 X629.773 Y117.442
N7715 X630.173 Y117.111
N7720 X630.394 Y116.994
N7725 X630.6 Y116.928
N7730 X630.816 Y116.934
N7735 X631.018 Y117.012
N7740 X631.182 Y117.154
N7745 X631.288 Y117.343
N7750 X631.325 Y117.556
N7755 Y120.262
N7760 G3 X630.704 Y120.769 Z5.445 I-0.533 J-0.019
N7765 G1 X630.616 Y120.752 Z5.463
N7770 G3 X629.443 Y119.936 I0.397 J-1.822
N7775 G1 X629.385 Y119.838 Z5.44
N7780 X629.333 Y119.738 Z5.417
N7785 G3 X629.15 Y118.995 Z5.262 I1.68 J-0.807 F1000.
N7790 G1 Y116.32 F3000.
N7795 X629.171 Y115.904
N7800 X629.272 Y115.519
N7805 X629.475 Y115.114
N7810 X629.775 Y114.737
N7815 X630.174 Y114.406
N7820 X630.394 Y114.29
N7825 X630.6 Y114.224
N7830 X630.816 Y114.23
N7835 X631.018 Y114.308
N7840 X631.182 Y114.45
N7845 X631.288 Y114.639
N7850 X631.325 Y114.852
N7855 Y117.556
N7860 G3 X630.716 Y118.065 Z5.442 I-0.533 J-0.019
N7865 G1 X630.616 Y118.048 Z5.463
N7870 G3 X629.448 Y117.258 I0.361 J-1.792
N7875 G1 X629.389 Y117.161 Z5.44
N7880 X629.336 Y117.061 Z5.417
N7885 G3 X629.15 Y116.32 Z5.262 I1.641 J-0.805 F1000.
N7890 G1 Y113.644 F3000.
N7895 X629.172 Y113.201
N7900 X629.273 Y112.816
N7905 X629.477 Y112.41
N7910 X629.776 Y112.034
N7915 X630.175 Y111.703
N7920 X630.394 Y111.588
N7925 X630.6 Y111.521
N7930 X630.816 Y111.527
N7935 X631.018 Y111.606
N7940 X631.182 Y111.748
N7945 X631.288 Y111.936
N7950 X631.325 Y112.15
N7955 Y114.852
N7960 G3 X630.728 Y115.363 Z5.44 I-0.533 J-0.019
N7965 G1 X630.616 Y115.346 Z5.463
N7970 G3 X629.453 Y114.581 I0.328 J-1.764
N7975 G1 X629.393 Y114.484 Z5.44
N7980 X629.339 Y114.385 Z5.417
N7985 G3 X629.15 Y113.644 Z5.262 I1.605 J-0.803 F1000.
N7990 G1 Y110.746 F3000.
N7995 X629.162 Y110.496
N8000 X629.264 Y110.11
N8005 X629.468 Y109.703
N8010 X629.768 Y109.326
N8015 X630.168 Y108.994
N8020 X630.394 Y108.875
N8025 X630.6 Y108.808
N8030 X630.816 Y108.815
N8035 X631.018 Y108.893
N8040 X631.182 Y109.035
N8045 X631.288 Y109.224
N8050 X631.325 Y109.437
N8055 Y112.15
N8060 G3 X630.892 Y112.73 Z5.417 I-0.635 J-0.022
N8065 G1 X630.819 Y112.749 Z5.432
N8070 X630.744 Y112.76 Z5.447
N8075 X630.669 Y112.762 Z5.463
N8080 G3 X630.157 Y112.472 I0.022 J-0.635
N8085 G1 X629.606 Y111.618
N8090 X629.483 Y111.428 Z5.417
N8095 X629.251 Y111.068 Z5.331 F1000.
N8100 G3 X629.15 Y110.746 Z5.262 I0.534 J-0.344
N8105 G1 Y108.07 F3000.
N8110 X629.164 Y107.784
N8115 X629.266 Y107.397
N8120 X629.47 Y106.991
N8125 X629.769 Y106.614
N8130 X630.169 Y106.282
N8135 X630.394 Y106.164
N8140 X630.6 Y106.097
N8145 X630.816 Y106.104
N8150 X631.018 Y106.182
N8155 X631.182 Y106.324
N8160 X631.288 Y106.513
N8165 X631.325 Y106.726
N8170 Y109.437
N8175 G3 X630.892 Y110.017 Z5.417 I-0.635 J-0.022
N8180 G1 X630.819 Y110.036 Z5.432
N8185 X630.744 Y110.047 Z5.447
N8190 X630.669 Y110.049 Z5.463
N8195 G3 X630.161 Y109.765 I0.022 J-0.635
N8200 G1 X629.613 Y108.938
N8205 X629.488 Y108.749 Z5.417
N8210 X629.255 Y108.399 Z5.333 F1000.
N8215 G3 X629.15 Y108.07 Z5.262 I0.529 J-0.351
N8220 G1 Y105.394 F3000.
N8225 X629.166 Y105.073
N8230 X629.268 Y104.687
N8235 X629.471 Y104.281
N8240 X629.771 Y103.904
N8245 X630.171 Y103.573
N8250 X630.394 Y103.455
N8255 X630.6 Y103.388
N8260 X630.816 Y103.395
N8265 X631.018 Y103.473
N8270 X631.182 Y103.615
N8275 X631.288 Y103.804
N8280 X631.325 Y104.017
N8285 Y106.726
N8290 G3 X630.892 Y107.306 Z5.417 I-0.635 J-0.022
N8295 G1 X630.819 Y107.326 Z5.432
N8300 X630.744 Y107.337 Z5.447
N8305 X630.669 Y107.338 Z5.463
N8310 G3 X630.165 Y107.061 I0.022 J-0.635
N8315 G1 X629.619 Y106.258
N8320 X629.492 Y106.071 Z5.417
N8325 X629.26 Y105.729 Z5.334 F1000.
N8330 G3 X629.15 Y105.394 Z5.262 I0.525 J-0.357
N8335 G1 Y102.719 F3000.
N8340 X629.168 Y102.365
N8345 X629.269 Y101.979
N8350 X629.473 Y101.573
N8355 X629.772 Y101.196
N8360 X630.172 Y100.865
N8365 X630.394 Y100.748
N8370 X630.6 Y100.681
N8375 X630.816 Y100.687
N8380 X631.018 Y100.766
N8385 X631.182 Y100.908
N8390 X631.288 Y101.096
N8395 X631.325 Y101.31
N8400 Y104.017
N8405 G3 X630.692 Y104.521 Z5.447 I-0.532 J-0.019
N8410 G1 X630.616 Y104.505 Z5.463
N8415 G3 X629.438 Y103.661 I0.436 J-1.853
N8420 G1 X629.381 Y103.563 Z5.44
N8425 X629.33 Y103.462 Z5.417
N8430 G3 X629.15 Y102.719 Z5.262 I1.723 J-0.81 F1000.
N8435 G1 Y100.043 F3000.
N8440 X629.169 Y99.658
N8445 X629.271 Y99.272
N8450 X629.474 Y98.866
N8455 X629.773 Y98.49
N8460 X630.173 Y98.159
N8465 X630.394 Y98.042
N8470 X630.6 Y97.976
N8475 X630.816 Y97.982
N8480 X631.018 Y98.061
N8485 X631.182 Y98.202
N8490 X631.288 Y98.391
N8495 X631.325 Y98.604
N8500 Y101.31
N8505 G3 X630.704 Y101.817 Z5.445 I-0.533 J-0.019
N8510 G1 X630.616 Y101.8 Z5.463
N8515 G3 X629.443 Y100.984 I0.397 J-1.822
N8520 G1 X629.385 Y100.886 Z5.44
N8525 X629.333 Y100.786 Z5.417
N8530 G3 X629.15 Y100.043 Z5.262 I1.68 J-0.807 F1000.
N8535 G1 Y97.368 F3000.
N8540 X629.171 Y96.953
N8545 X629.272 Y96.567
N8550 X629.475 Y96.162
N8555 X629.775 Y95.785
N8560 X630.174 Y95.454
N8565 X630.394 Y95.338
N8570 X630.6 Y95.272
N8575 X630.816 Y95.278
N8580 X631.018 Y95.357
N8585 X631.182 Y95.498
N8590 X631.288 Y95.687
N8595 X631.325 Y95.9
N8600 Y98.604
N8605 G3 X630.716 Y99.113 Z5.442 I-0.533 J-0.019
N8610 G1 X630.616 Y99.096 Z5.463
N8615 G3 X629.448 Y98.306 I0.361 J-1.792
N8620 G1 X629.389 Y98.209 Z5.44
N8625 X629.336 Y98.109 Z5.417
N8630 G3 X629.15 Y97.368 Z5.262 I1.641 J-0.805 F1000.
N8635 G1 Y94.692 F3000.
N8640 X629.172 Y94.249
N8645 X629.273 Y93.864
N8650 X629.477 Y93.458
N8655 X629.776 Y93.082
N8660 X630.175 Y92.751
N8665 X630.394 Y92.636
N8670 X630.6 Y92.569
N8675 X630.816 Y92.575
N8680 X631.018 Y92.654
N8685 X631.182 Y92.796
N8690 X631.288 Y92.984
N8695 X631.325 Y93.198
N8700 Y95.9
N8705 G3 X630.728 Y96.411 Z5.44 I-0.533 J-0.019
N8710 G1 X630.616 Y96.394 Z5.463
N8715 G3 X629.453 Y95.629 I0.328 J-1.765
N8720 G1 X629.393 Y95.532 Z5.44
N8725 X629.339 Y95.433 Z5.417
N8730 G3 X629.15 Y94.692 Z5.262 I1.605 J-0.803 F1000.
N8735 G1 Y91.794 F3000.
N8740 X629.162 Y91.544
N8745 X629.264 Y91.158
N8750 X629.468 Y90.751
N8755 X629.768 Y90.374
N8760 X630.168 Y90.042
N8765 X630.394 Y89.923
N8770 X630.6 Y89.856
N8775 X630.816 Y89.863
N8780 X631.018 Y89.941
N8785 X631.182 Y90.083
N8790 X631.288 Y90.272
N8795 X631.325 Y90.485
N8800 Y93.198
N8805 G3 X630.892 Y93.778 Z5.417 I-0.635 J-0.022
N8810 G1 X630.819 Y93.797 Z5.432
N8815 X630.744 Y93.808 Z5.447
N8820 X630.669 Y93.81 Z5.463
N8825 G3 X630.157 Y93.52 I0.022 J-0.635
N8830 G1 X629.606 Y92.666
N8835 X629.483 Y92.476 Z5.417
N8840 X629.251 Y92.116 Z5.331 F1000.
N8845 G3 X629.15 Y91.794 Z5.262 I0.534 J-0.344
N8850 G1 Y89.118 F3000.
N8855 X629.164 Y88.832
N8860 X629.266 Y88.445
N8865 X629.47 Y88.039
N8870 X629.769 Y87.662
N8875 X630.169 Y87.33
N8880 X630.394 Y87.212
N8885 X630.6 Y87.145
N8890 X630.816 Y87.152
N8895 X631.018 Y87.23
N8900 X631.182 Y87.372
N8905 X631.288 Y87.561
N8910 X631.325 Y87.774
N8915 Y90.485
N8920 G3 X630.892 Y91.065 Z5.417 I-0.635 J-0.022
N8925 G1 X630.819 Y91.085 Z5.432
N8930 X630.744 Y91.095 Z5.447
N8935 X630.669 Y91.097 Z5.463
N8940 G3 X630.161 Y90.813 I0.022 J-0.635
N8945 G1 X629.613 Y89.986
N8950 X629.488 Y89.797 Z5.417
N8955 X629.255 Y89.447 Z5.333 F1000.
N8960 G3 X629.15 Y89.118 Z5.262 I0.529 J-0.351
N8965 G1 Y86.442 F3000.
N8970 X629.166 Y86.121
N8975 X629.268 Y85.735
N8980 X629.471 Y85.329
N8985 X629.771 Y84.952
N8990 X630.171 Y84.621
N8995 X630.394 Y84.503
N9000 X630.6 Y84.436
N9005 X630.816 Y84.443
N9010 X631.018 Y84.521
N9015 X631.182 Y84.663
N9020 X631.288 Y84.852
N9025 X631.325 Y85.065
N9030 Y87.774
N9035 G3 X630.892 Y88.354 Z5.417 I-0.635 J-0.022
N9040 G1 X630.819 Y88.374 Z5.432
N9045 X630.744 Y88.385 Z5.447
N9050 X630.669 Y88.386 Z5.463
N9055 G3 X630.165 Y88.109 I0.022 J-0.635
N9060 G1 X629.619 Y87.306
N9065 X629.492 Y87.119 Z5.417
N9070 X629.26 Y86.777 Z5.334 F1000.
N9075 G3 X629.15 Y86.442 Z5.262 I0.525 J-0.357
N9080 G1 Y83.767 F3000.
N9085 X629.168 Y83.413
N9090 X629.269 Y83.027
N9095 X629.473 Y82.621
N9100 X629.772 Y82.244
N9105 X630.172 Y81.913
N9110 X630.394 Y81.796
N9115 X630.6 Y81.729
N9120 X630.816 Y81.736
N9125 X631.018 Y81.814
N9130 X631.182 Y81.956
N9135 X631.288 Y82.144
N9140 X631.325 Y82.358
N9145 Y85.065
N9150 G3 X630.692 Y85.57 Z5.447 I-0.532 J-0.019
N9155 G1 X630.616 Y85.553 Z5.463
N9160 G3 X629.438 Y84.709 I0.436 J-1.853
N9165 G1 X629.381 Y84.611 Z5.44
N9170 X629.33 Y84.51 Z5.417
N9175 G3 X629.15 Y83.767 Z5.262 I1.723 J-0.81 F1000.
N9180 G1 Y81.091 F3000.
N9185 X629.169 Y80.706
N9190 X629.271 Y80.32
N9195 X629.474 Y79.914
N9200 X629.773 Y79.538
N9205 X630.173 Y79.207
N9210 X630.394 Y79.09
N9215 X630.6 Y79.024
N9220 X630.816 Y79.03
N9225 X631.018 Y79.109
N9230 X631.182 Y79.25
N9235 X631.288 Y79.439
N9240 X631.325 Y79.652
N9245 Y82.358
N9250 G3 X630.704 Y82.865 Z5.445 I-0.533 J-0.019
N9255 G1 X630.616 Y82.848 Z5.463
N9260 G3 X629.443 Y82.032 I0.397 J-1.822
N9265 G1 X629.385 Y81.934 Z5.44
N9270 X629.333 Y81.834 Z5.417
N9275 G3 X629.15 Y81.091 Z5.262 I1.68 J-0.807 F1000.
N9280 G1 Y78.416 F3000.
N9285 X629.171 Y78.001
N9290 X629.272 Y77.615
N9295 X629.475 Y77.21
N9300 X629.775 Y76.833
N9305 X630.174 Y76.502
N9310 X630.394 Y76.386
N9315 X630.6 Y76.32
N9320 X630.816 Y76.326
N9325 X631.018 Y76.405
N9330 X631.182 Y76.546
N9335 X631.288 Y76.735
N9340 X631.325 Y76.948
N9345 Y79.652
N9350 G3 X630.716 Y80.161 Z5.442 I-0.533 J-0.019
N9355 G1 X630.616 Y80.144 Z5.463
N9360 G3 X629.448 Y79.354 I0.361 J-1.792
N9365 G1 X629.389 Y79.257 Z5.44
N9370 X629.336 Y79.157 Z5.417
N9375 G3 X629.15 Y78.416 Z5.262 I1.641 J-0.805 F1000.
N9380 G1 Y75.74 F3000.
N9385 X629.172 Y75.297
N9390 X629.273 Y74.912
N9395 X629.477 Y74.506
N9400 X629.776 Y74.13
N9405 X630.175 Y73.799
N9410 X630.394 Y73.684
N9415 X630.6 Y73.617
N9420 X630.816 Y73.623
N9425 X631.018 Y73.702
N9430 X631.182 Y73.844
N9435 X631.288 Y74.032
N9440 X631.325 Y74.246
N9445 Y76.948
N9450 G3 X630.728 Y77.459 Z5.44 I-0.533 J-0.019
N9455 G1 X630.616 Y77.442 Z5.463
N9460 G3 X629.453 Y76.677 I0.328 J-1.765
N9465 G1 X629.393 Y76.58 Z5.44
N9470 X629.339 Y76.481 Z5.417
N9475 G3 X629.15 Y75.74 Z5.262 I1.605 J-0.803 F1000.
N9480 G1 Y72.842 F3000.
N9485 X629.162 Y72.592
N9490 X629.264 Y72.206
N9495 X629.468 Y71.799
N9500 X629.768 Y71.422
N9505 X630.168 Y71.09
N9510 X630.394 Y70.971
N9515 X630.6 Y70.904
N9520 X630.816 Y70.911
N9525 X631.018 Y70.989
N9530 X631.182 Y71.131
N9535 X631.288 Y71.32
N9540 X631.325 Y71.533
N9545 Y74.246
N9550 G3 X630.892 Y74.826 Z5.417 I-0.635 J-0.022
N9555 G1 X630.819 Y74.845 Z5.432
N9560 X630.744 Y74.856 Z5.447
N9565 X630.669 Y74.858 Z5.463
N9570 G3 X630.157 Y74.568 I0.022 J-0.635
N9575 G1 X629.606 Y73.714
N9580 X629.483 Y73.524 Z5.417
N9585 X629.251 Y73.164 Z5.331 F1000.
N9590 G3 X629.15 Y72.842 Z5.262 I0.534 J-0.344
N9595 G1 Y70.166 F3000.
N9600 X629.164 Y69.88
N9605 X629.266 Y69.494
N9610 X629.47 Y69.087
N9615 X629.769 Y68.71
N9620 X630.169 Y68.378
N9625 X630.394 Y68.26
N9630 X630.6 Y68.193
N9635 X630.816 Y68.2
N9640 X631.018 Y68.278
N9645 X631.182 Y68.42
N9650 X631.288 Y68.609
N9655 X631.325 Y68.822
N9660 Y71.533
N9665 G3 X630.892 Y72.113 Z5.417 I-0.635 J-0.022
N9670 G1 X630.819 Y72.133 Z5.432
N9675 X630.744 Y72.143 Z5.447
N9680 X630.669 Y72.145 Z5.463
N9685 G3 X630.161 Y71.862 I0.022 J-0.635
N9690 G1 X629.613 Y71.034
N9695 X629.488 Y70.845 Z5.417
N9700 X629.255 Y70.495 Z5.333 F1000.
N9705 G3 X629.15 Y70.166 Z5.262 I0.529 J-0.351
N9710 G1 Y67.49 F3000.
N9715 X629.166 Y67.169
N9720 X629.268 Y66.783
N9725 X629.471 Y66.377
N9730 X629.771 Y66.
N9735 X630.171 Y65.669
N9740 X630.394 Y65.551
N9745 X630.6 Y65.484
N9750 X630.816 Y65.491
N9755 X631.018 Y65.569
N9760 X631.182 Y65.711
N9765 X631.288 Y65.9
N9770 X631.325 Y66.113
N9775 Y68.822
N9780 G3 X630.892 Y69.402 Z5.417 I-0.635 J-0.022
N9785 G1 X630.819 Y69.422 Z5.432
N9790 X630.744 Y69.433 Z5.447
N9795 X630.669 Y69.435 Z5.463
N9800 G3 X630.165 Y69.157 I0.022 J-0.635
N9805 G1 X629.619 Y68.354
N9810 X629.492 Y68.167 Z5.417
N9815 X629.26 Y67.825 Z5.334 F1000.
N9820 G3 X629.15 Y67.49 Z5.262 I0.525 J-0.357
N9825 G1 Y64.815 F3000.
N9830 X629.168 Y64.461
N9835 X629.269 Y64.075
N9840 X629.473 Y63.669
N9845 X629.772 Y63.292
N9850 X630.172 Y62.961
N9855 X630.394 Y62.844
N9860 X630.6 Y62.777
N9865 X630.816 Y62.784
N9870 X631.018 Y62.862
N9875 X631.182 Y63.004
N9880 X631.288 Y63.193
N9885 X631.325 Y63.406
N9890 Y66.113
N9895 G3 X630.692 Y66.618 Z5.447 I-0.532 J-0.019
N9900 G1 X630.616 Y66.601 Z5.463
N9905 G3 X629.438 Y65.757 I0.436 J-1.853
N9910 G1 X629.381 Y65.659 Z5.44
N9915 X629.33 Y65.558 Z5.417
N9920 G3 X629.15 Y64.815 Z5.262 I1.723 J-0.81 F1000.
N9925 G1 Y62.139 F3000.
N9930 X629.169 Y61.754
N9935 X629.271 Y61.368
N9940 X629.474 Y60.962
N9945 X629.773 Y60.586
N9950 X630.173 Y60.255
N9955 X630.394 Y60.138
N9960 X630.6 Y60.072
N9965 X630.816 Y60.078
N9970 X631.018 Y60.157
N9975 X631.182 Y60.298
N9980 X631.288 Y60.487
N9985 X631.325 Y60.7
N9990 Y63.406
N9995 G3 X630.704 Y63.913 Z5.445 I-0.533 J-0.019
N10000 G1 X630.616 Y63.896 Z5.463
N10005 G3 X629.443 Y63.08 I0.397 J-1.822
N10010 G1 X629.385 Y62.982 Z5.44
N10015 X629.333 Y62.882 Z5.417
N10020 G3 X629.15 Y62.139 Z5.262 I1.681 J-0.807 F1000.
N10025 G1 Y59.464 F3000.
N10030 X629.171 Y59.049
N10035 X629.272 Y58.663
N10040 X629.475 Y58.258
N10045 X629.775 Y57.881
N10050 X630.174 Y57.55
N10055 X630.394 Y57.434
N10060 X630.6 Y57.368
N10065 X630.816 Y57.374
N10070 X631.018 Y57.453
N10075 X631.182 Y57.594
N10080 X631.288 Y57.783
N10085 X631.325 Y57.996
N10090 Y60.7
N10095 G3 X630.716 Y61.209 Z5.442 I-0.533 J-0.019
N10100 G1 X630.616 Y61.192 Z5.463
N10105 G3 X629.448 Y60.402 I0.361 J-1.792
N10110 G1 X629.389 Y60.305 Z5.44
N10115 X629.336 Y60.205 Z5.417
N10120 G3 X629.15 Y59.464 Z5.262 I1.641 J-0.805 F1000.
N10125 G1 Y56.788 F3000.
N10130 X629.172 Y56.345
N10135 X629.273 Y55.96
N10140 X629.477 Y55.554
N10145 X629.776 Y55.178
N10150 X630.175 Y54.847
N10155 X630.394 Y54.732
N10160 X630.6 Y54.665
N10165 X630.816 Y54.671
N10170 X631.018 Y54.75
N10175 X631.182 Y54.892
N10180 X631.288 Y55.08
N10185 X631.325 Y55.294
N10190 Y57.996
N10195 G3 X630.728 Y58.507 Z5.44 I-0.533 J-0.019
N10200 G1 X630.616 Y58.49 Z5.463
N10205 G3 X629.453 Y57.725 I0.328 J-1.765
N10210 G1 X629.393 Y57.628 Z5.44
N10215 X629.339 Y57.529 Z5.417
N10220 G3 X629.15 Y56.788 Z5.262 I1.605 J-0.803 F1000.
N10225 G1 Y53.89 F3000.
N10230 X629.162 Y53.64
N10235 X629.264 Y53.254
N10240 X629.468 Y52.847
N10245 X629.768 Y52.47
N10250 X630.168 Y52.138
N10255 X630.394 Y52.019
N10260 X630.6 Y51.952
N10265 X630.816 Y51.959
N10270 X631.018 Y52.037
N10275 X631.182 Y52.179
N10280 X631.288 Y52.368
N10285 X631.325 Y52.581
N10290 Y55.294
N10295 G3 X630.892 Y55.874 Z5.417 I-0.635 J-0.022
N10300 G1 X630.819 Y55.893 Z5.432
N10305 X630.744 Y55.904 Z5.447
N10310 X630.669 Y55.906 Z5.463
N10315 G3 X630.157 Y55.616 I0.022 J-0.635
N10320 G1 X629.606 Y54.762
N10325 X629.483 Y54.572 Z5.417
N10330 X629.251 Y54.212 Z5.331 F1000.
N10335 G3 X629.15 Y53.89 Z5.262 I0.534 J-0.344
N10340 G1 Y51.214 F3000.
N10345 X629.164 Y50.928
N10350 X629.175 Y50.778
N10355 X629.197 Y50.63
N10360 X629.231 Y50.483
N10365 X629.275 Y50.34
N10370 X629.328 Y50.2
N10375 X629.391 Y50.064
N10380 X629.463 Y49.932
N10385 X629.542 Y49.805
N10390 X629.63 Y49.683
N10395 X629.725 Y49.567
N10400 X629.826 Y49.457
N10405 X629.934 Y49.352
N10410 X630.048 Y49.255
N10415 X630.167 Y49.164
N10420 X630.291 Y49.079
N10425 X630.36 Y49.037
N10430 X630.537 Y48.964
N10435 X630.727 Y48.946
N10440 X630.914 Y48.986
N10445 X631.081 Y49.08
N10450 X631.212 Y49.219
N10455 X631.296 Y49.391
N10460 X631.325 Y49.58
N10465 Y52.581
N10470 G3 X630.892 Y53.161 Z5.417 I-0.635 J-0.022
N10475 G1 X630.819 Y53.181 Z5.432
N10480 X630.744 Y53.191 Z5.447
N10485 X630.669 Y53.193 Z5.463
N10490 G3 X630.161 Y52.91 I0.022 J-0.635
N10495 G1 X629.613 Y52.082
N10500 X629.488 Y51.893 Z5.417
N10505 X629.255 Y51.543 Z5.333 F1000.
N10510 G3 X629.15 Y51.214 Z5.262 I0.529 J-0.351
N10515 G1 Y47.647 F3000.
N10520 G3 X629.218 Y47.381 Z5.318 I0.635 J0.022
N10525 G1 X629.442 Y46.941 Z5.417
N10530 X629.545 Y46.739 Z5.463
N10535 X630.124 Y45.598
N10540 G3 X630.669 Y45.25 I0.566 J0.288
N10545 G1 X630.744 Y45.252 Z5.447
N10550 X630.819 Y45.263 Z5.432
N10555 X630.892 Y45.283 Z5.417
N10560 G3 X631.325 Y45.863 Z5.262 I-0.202 J0.602 F1000.
N10565 G1 Y49.58 F3000.
N10570 G3 X630.877 Y50.165 I-0.635 J-0.022
N10575 G1 X630.783 Y50.194 Z5.27
N10580 X630.69 Y50.222 Z5.294
N10585 X630.602 Y50.25 Z5.332
N10590 X630.521 Y50.275 Z5.384
N10595 X630.448 Y50.297 Z5.448
N10600 X630.387 Y50.316 Z5.524
N10605 X630.337 Y50.331 Z5.609
N10610 X630.3 Y50.343 Z5.701
N10615 X630.278 Y50.349 Z5.798
N10620 X630.271 Y50.352 Z5.898
N10625 G0 Z24.525
N10630 X-6.657 Y296.272
N10635 Z14.525
N10640 Z7.898
N10645 G1 Z7.262 F1000.
N10650 Z5.262
N10655 G3 X-3.2 Y295.775 I4.023 J15.704
N10660 G1 X-1.794 F3000.
N10665 X-1.644 Y295.783
N10670 X-1.05 Y296.044
N10675 X-0.411 Y296.501
N10680 X0.246 Y297.217
N10685 X0.746 Y298.062
N10690 X0.836 Y298.29
N10695 X0.878 Y298.405
N10700 X0.918 Y298.521
N10705 X0.956 Y298.638
N10710 X1.036 Y298.731
N10715 X1.881 Y299.231
N10720 X2.833 Y299.466
N10725 X3.806 Y299.599
N10730 X4.784 Y299.677
N10735 X5.765 Y299.724
N10740 X6.746 Y299.753
N10745 X7.727 Y299.771
N10750 X8.709 Y299.782
N10755 X9.69 Y299.789
N10760 X10.672 Y299.793
N10765 X12.635 Y299.797
N10770 X15.579 Y299.799
N10775 X46.988 Y299.8
N10780 X59.19
N10785 X59.386 Y299.831
N10790 X59.563 Y299.921
N10795 X59.704 Y300.062
N10800 X59.794 Y300.239
N10805 X59.825 Y300.435
N10810 Y301.458
N10815 G3 X59.489 Y301.996 I-0.635 J-0.022
N10820 X58.992 Y301.604 I-0.163 J-0.305
N10825 X59.386 Y301.036 I0.968 J0.252
N10830 G1 X59.489 Y300.973 F1000.
N10835 G2 X59.825 Y300.435 I-0.299 J-0.56
N10840 G1 Y299.012 F2500.
N10845 X59.808 Y298.673
N10850 X59.665 Y298.13
N10855 X59.361 Y297.523
N10860 X58.847 Y296.877
N10865 X58.092 Y296.251
N10870 X57.349 Y295.851
N10875 X57.254 Y295.809
N10880 X57.152 Y295.784
N10885 X57.048 Y295.775
N10890 X0.088
N10895 G2 X-0.482 Y296.639 I0.022 J0.635 F3000.
N10900 G1 X-0.446 Y296.731 Z5.27
N10905 X-0.411 Y296.822 Z5.294
N10910 X-0.378 Y296.907 Z5.332
N10915 X-0.347 Y296.987 Z5.384
N10920 X-0.32 Y297.057 Z5.448
N10925 X-0.297 Y297.118 Z5.524
N10930 X-0.278 Y297.166 Z5.609
N10935 X-0.264 Y297.202 Z5.701
N10940 X-0.256 Y297.224 Z5.798
N10945 X-0.253 Y297.231 Z5.898
N10950 G0 Z14.525
N10955 X59.279 Y300.312
N10960 Z6.532
N10965 G1 Z5.898 F1000.
N10970 X59.283 Y300.305 Z5.798
N10975 X59.295 Y300.285 Z5.701
N10980 X59.315 Y300.252 Z5.609
N10985 X59.341 Y300.208 Z5.524
N10990 X59.374 Y300.152 Z5.448
N10995 X59.413 Y300.087 Z5.384
N11000 X59.456 Y300.014 Z5.332
N11005 X59.503 Y299.935 Z5.294
N11010 X59.553 Y299.851 Z5.27
N11015 X59.604 Y299.766 Z5.262
N11020 G2 X59.825 Y299.012 I-1.36 J-0.809
N11025 G1 Y296.567 F2500.
N11030 X59.819 Y296.344
N11035 X59.81 Y296.289
N11040 X59.794 Y296.233
N11045 X59.774 Y296.178
N11050 X59.747 Y296.122
N11055 X59.711 Y296.063
N11060 X59.668 Y296.004
N11065 X59.613 Y295.946
N11070 X59.558 Y295.9
N11075 X59.501 Y295.863
N11080 X59.445 Y295.833
N11085 X59.389 Y295.811
N11090 X59.334 Y295.794
N11095 X59.278 Y295.783
N11100 X59.222 Y295.776
N11105 X59. Y295.775
N11110 X57.048
N11115 G2 X56.478 Y296.639 I0.022 J0.635 F3000.
N11120 G1 X56.514 Y296.731 Z5.27
N11125 X56.549 Y296.822 Z5.294
N11130 X56.582 Y296.907 Z5.332
N11135 X56.613 Y296.987 Z5.384
N11140 X56.64 Y297.057 Z5.448
N11145 X56.663 Y297.118 Z5.524
N11150 X56.682 Y297.166 Z5.609
N11155 X56.696 Y297.202 Z5.701
N11160 X56.704 Y297.224 Z5.798
N11165 X56.707 Y297.231 Z5.898
N11170 G0 Z24.525
N11175 X-6.646 Y562.972
N11180 Z14.525
N11185 Z7.898
N11190 G1 Z7.262 F1000.
N11195 Z5.262
N11200 G3 X-3.189 Y562.475 I4.023 J15.704
N11205 G1 X-1.75 F3000.
N11210 X-1.601 Y562.482
N11215 X-1.002 Y562.757
N11220 X-0.361 Y563.232
N11225 X0.291 Y563.966
N11230 X0.779 Y564.817
N11235 X0.867 Y565.046
N11240 X0.907 Y565.162
N11245 X0.946 Y565.279
N11250 X0.983 Y565.395
N11255 X1.062 Y565.489
N11260 X1.927 Y565.953
N11265 X2.883 Y566.178
N11270 X3.856 Y566.305
N11275 X4.835 Y566.381
N11280 X5.815 Y566.427
N11285 X6.796 Y566.455
N11290 X7.778 Y566.472
N11295 X8.759 Y566.483
N11300 X9.74 Y566.489
N11305 X10.722 Y566.493
N11310 X12.685 Y566.497
N11315 X16.611 Y566.5
N11320 X47.038
N11325 X97.095
N11330 X147.153
N11335 X197.21
N11340 X247.267
N11345 X297.324
N11350 X347.382
N11355 X397.439
N11360 X447.496
N11365 X497.553
N11370 X547.611
N11375 X597.668
N11380 X627.727
N11385 X627.84 Y566.453
N11390 X627.928 Y566.367
N11395 X628.121 Y565.916
N11400 X628.236 Y564.941
N11405 X628.305 Y563.962
N11410 X628.342 Y563.083
N11415 X628.379 Y562.893
N11420 X628.472 Y562.724
N11425 X628.612 Y562.59
N11430 X628.785 Y562.504
N11435 X628.976 Y562.475
N11440 X630.204
N11445 G3 X630.742 Y562.811 Z5.396 I-0.022 J0.635
N11450 X630.751 Y563.132 Z5.463 I-0.318 J0.169
N11455 X630.44 Y563.34 I-0.326 J-0.152
N11460 X629.716 Y563.073 I-0.043 J-0.999
N11465 G1 X629.638 Y562.992 Z5.44
N11470 X629.569 Y562.901 Z5.417
N11475 X629.514 Y562.811 Z5.396 F1000.
N11480 G2 X628.976 Y562.475 Z5.262 I-0.56 J0.299
N11485 G1 X317.907 F2500.
N11490 X317.684 Y562.473
N11495 X317.238 Y562.454
N11500 X317.015 Y562.441
N11505 X316.792 Y562.404
N11510 X316.569 Y562.351
N11515 X316.346 Y562.286
N11520 X315.403 Y562.011
N11525 X314.439 Y561.83
N11530 X313.465 Y561.711
N11535 X312.486 Y561.633
N11540 X311.506 Y561.584
N11545 X310.643 Y561.556
N11550 X310.499 Y561.568
N11555 X310.36 Y561.613
N11560 X310.236 Y561.688
N11565 X310.1 Y561.792
N11570 X310.036 Y561.837
N11575 X309.877 Y561.94
N11580 X309.654 Y562.068
N11585 X309.431 Y562.169
N11590 X309.208 Y562.258
N11595 X308.985 Y562.332
N11600 X308.762 Y562.386
N11605 X308.538 Y562.419
N11610 X308.092 Y562.467
N11615 X307.869 Y562.474
N11620 X305.192 Y562.475
N11625 X0.034
N11630 G2 X-0.536 Y563.339 I0.022 J0.635 F3000.
N11635 G1 X-0.5 Y563.431 Z5.27
N11640 X-0.465 Y563.522 Z5.294
N11645 X-0.432 Y563.607 Z5.332
N11650 X-0.401 Y563.687 Z5.384
N11655 X-0.374 Y563.757 Z5.448
N11660 X-0.351 Y563.818 Z5.524
N11665 X-0.332 Y563.866 Z5.609
N11670 X-0.318 Y563.902 Z5.701
N11675 X-0.31 Y563.924 Z5.798
N11680 X-0.307 Y563.931 Z5.898
N11685 G0 Z14.525
N11690 X317.441 Y563.173
N11695 Z6.532
N11700 G1 Z5.898 F1000.
N11705 X317.436 Y563.167 Z5.798
N11710 X317.42 Y563.15 Z5.701
N11715 X317.394 Y563.122 Z5.609
N11720 X317.358 Y563.084 Z5.524
N11725 X317.314 Y563.037 Z5.448
N11730 X317.262 Y562.982 Z5.384
N11735 X317.204 Y562.92 Z5.332
N11740 X317.141 Y562.852 Z5.294
N11745 X317.075 Y562.781 Z5.27
N11750 X317.008 Y562.709 Z5.262
N11755 G2 X316.346 Y562.286 I-1.157 J1.08
N11760 G1 X316.123 Y562.207 F2500.
N11765 X315.804 Y562.06
N11770 X315.677 Y561.985
N11775 X315.454 Y561.85
N11780 X315.231 Y561.684
N11785 X315.139 Y561.614
N11790 X315.007 Y561.497
N11795 X314.899 Y561.391
N11800 X314.784 Y561.27
N11805 X314.692 Y561.169
N11810 X314.517 Y560.946
N11815 X314.373 Y560.723
N11820 X314.243 Y560.5
N11825 X314.115 Y560.224
N11830 X314.05 Y560.054
N11835 X313.849 Y559.547
N11840 X313.437 Y558.925
N11845 X312.872 Y558.367
N11850 X312.627 Y558.209
N11855 X312.452 Y558.131
N11860 X312.263 Y558.108
N11865 X312.075 Y558.143
N11870 X311.906 Y558.232
N11875 X311.771 Y558.367
N11880 X311.682 Y558.537
N11885 X311.648 Y558.725
N11890 X311.642 Y558.939
N11895 X311.59 Y559.385
N11900 G2 X311.862 Y559.958 I0.633 J0.051 F3000.
N11905 X312.267 Y559.533 I0.169 J-0.245
N11910 X312.07 Y559.339 I-0.794 J0.609
N11915 G1 X311.969 Y559.272 F1000.
N11920 G3 X311.648 Y558.725 I0.314 J-0.552
N11925 G1 X311.65 Y558.047 F3000.
N11930 Y557.601
N11935 X311.658 Y557.436
N11940 X311.731 Y557.161
N11945 X311.887 Y556.849
N11950 X312.127 Y556.547
N11955 X312.498 Y556.24
N11960 X312.984 Y555.984
N11965 X313.016 Y555.975
N11970 X313.209 Y555.951
N11975 X313.401 Y555.986
N11980 X313.573 Y556.078
N11985 X313.708 Y556.218
N11990 X313.795 Y556.393
N11995 X313.825 Y556.585
N12000 Y558.27
N12005 X313.826 Y558.716
N12010 X313.832 Y558.939
N12015 G3 X313.509 Y559.485 Z5.396 I-0.635 J-0.007
N12020 X313.193 Y559.578 Z5.463 I-0.356 J-0.63
N12025 X312.431 Y558.837 I-0.039 J-0.722
N12030 X313.21 Y557.304 I1.999 J0.051
N12035 G1 X313.302 Y557.237 Z5.44
N12040 X313.397 Y557.176 Z5.417
N12045 X313.489 Y557.123 Z5.396 F1000.
N12050 G2 X313.825 Y556.585 Z5.262 I-0.299 J-0.56
N12055 G1 Y555.371 F2500.
N12060 X313.818 Y555.222
N12065 X313.719 Y554.903
N12070 X313.537 Y554.575
N12075 X313.247 Y554.241
N12080 X312.848 Y553.939
N12085 X312.557 Y553.801
N12090 X312.352 Y553.743
N12095 X312.141 Y553.756
N12100 X311.945 Y553.838
N12105 X311.788 Y553.98
N12110 X311.685 Y554.166
N12115 X311.65 Y554.375
N12120 Y557.601
N12125 G2 X312.306 Y558.214 Z5.463 I0.635 J-0.022 F3000.
N12130 X312.873 Y557.818 I-0.022 J-0.635
N12135 G1 X313.487 Y556.305
N12140 X313.573 Y556.095 Z5.417
N12145 X313.779 Y555.588 Z5.307 F1000.
N12150 X313.803 Y555.518 Z5.292
N12155 X313.818 Y555.445 Z5.277
N12160 X313.825 Y555.371 Z5.262
N12165 Y553.142 F2500.
N12170 X313.804 Y552.723
N12175 X313.702 Y552.336
N12180 X313.5 Y551.933
N12185 X313.2 Y551.555
N12190 X312.802 Y551.225
N12195 X312.581 Y551.109
N12200 X312.375 Y551.042
N12205 X312.159 Y551.048
N12210 X311.957 Y551.127
N12215 X311.793 Y551.269
N12220 X311.687 Y551.457
N12225 X311.65 Y551.671
N12230 Y554.375
N12235 G2 X312.306 Y554.987 Z5.463 I0.635 J-0.022 F3000.
N12240 X312.796 Y554.729 I-0.022 J-0.635
N12245 G1 X313.337 Y553.993
N12250 X313.471 Y553.81 Z5.417
N12255 X313.702 Y553.496 Z5.339 F1000.
N12260 G2 X313.825 Y553.142 Z5.262 I-0.512 J-0.376
N12265 G1 Y550.466 F2500.
N12270 X313.803 Y550.019
N12275 X313.701 Y549.634
N12280 X313.498 Y549.229
N12285 X313.199 Y548.853
N12290 X312.8 Y548.522
N12295 X312.581 Y548.406
N12300 X312.375 Y548.34
N12305 X312.159 Y548.346
N12310 X311.957 Y548.425
N12315 X311.793 Y548.567
N12320 X311.687 Y548.755
N12325 X311.65 Y548.968
N12330 Y551.671
N12335 G2 X312.306 Y552.283 Z5.463 I0.635 J-0.022 F3000.
N12340 X312.792 Y552.03 I-0.022 J-0.635
N12345 G1 X313.331 Y551.313
N12350 X313.468 Y551.132 Z5.417
N12355 X313.698 Y550.826 Z5.34 F1000.
N12360 G2 X313.825 Y550.466 Z5.262 I-0.507 J-0.382
N12365 G1 Y547.568 F2500.
N12370 X313.812 Y547.315
N12375 X313.711 Y546.928
N12380 X313.507 Y546.522
N12385 X313.207 Y546.144
N12390 X312.807 Y545.813
N12395 X312.581 Y545.694
N12400 X312.375 Y545.627
N12405 X312.159 Y545.633
N12410 X311.957 Y545.712
N12415 X311.793 Y545.854
N12420 X311.687 Y546.042
N12425 X311.65 Y546.256
N12430 Y548.968
N12435 G2 X312.306 Y549.581 Z5.463 I0.635 J-0.022 F3000.
N12440 X312.818 Y549.291 I-0.022 J-0.635
N12445 G1 X313.368 Y548.44
N12450 X313.491 Y548.25 Z5.417
N12455 X313.724 Y547.89 Z5.331 F1000.
N12460 G2 X313.825 Y547.568 Z5.262 I-0.533 J-0.345
N12465 G1 Y544.892 F2500.
N12470 X313.81 Y544.602
N12475 X313.709 Y544.216
N12480 X313.505 Y543.81
N12485 X313.205 Y543.433
N12490 X312.805 Y543.101
N12495 X312.581 Y542.983
N12500 X312.375 Y542.916
N12505 X312.159 Y542.923
N12510 X311.957 Y543.001
N12515 X311.793 Y543.143
N12520 X311.687 Y543.332
N12525 X311.65 Y543.545
N12530 Y546.256
N12535 G2 X312.306 Y546.868 Z5.463 I0.635 J-0.022 F3000.
N12540 X312.814 Y546.585 I-0.022 J-0.635
N12545 G1 X313.361 Y545.76
N12550 X313.487 Y545.571 Z5.417
N12555 X313.719 Y545.221 Z5.333 F1000.
N12560 G2 X313.825 Y544.892 Z5.262 I-0.529 J-0.351
N12565 G1 Y542.217 F2500.
N12570 X313.809 Y541.892
N12575 X313.707 Y541.506
N12580 X313.504 Y541.1
N12585 X313.204 Y540.723
N12590 X312.804 Y540.392
N12595 X312.581 Y540.274
N12600 X312.375 Y540.208
N12605 X312.159 Y540.214
N12610 X311.957 Y540.293
N12615 X311.793 Y540.434
N12620 X311.687 Y540.623
N12625 X311.65 Y540.836
N12630 Y543.545
N12635 G2 X312.306 Y544.158 Z5.463 I0.635 J-0.022 F3000.
N12640 X312.809 Y543.881 I-0.022 J-0.635
N12645 G1 X313.355 Y543.08
N12650 X313.483 Y542.893 Z5.417
N12655 X313.715 Y542.552 Z5.334 F1000.
N12660 G2 X313.825 Y542.217 Z5.262 I-0.525 J-0.358
N12665 G1 Y539.541 F2500.
N12670 X313.807 Y539.184
N12675 X313.706 Y538.798
N12680 X313.502 Y538.392
N12685 X313.203 Y538.015
N12690 X312.803 Y537.684
N12695 X312.581 Y537.567
N12700 X312.375 Y537.5
N12705 X312.159 Y537.507
N12710 X311.957 Y537.585
N12715 X311.793 Y537.727
N12720 X311.687 Y537.916
N12725 X311.65 Y538.129
N12730 Y540.836
N12735 G2 X312.306 Y541.449 Z5.463 I0.635 J-0.022 F3000.
N12740 X312.805 Y541.178 I-0.022 J-0.635
N12745 G1 X313.349 Y540.4
N12750 X313.479 Y540.214 Z5.417
N12755 X313.711 Y539.883 Z5.336 F1000.
N12760 G2 X313.825 Y539.541 Z5.262 I-0.52 J-0.364
N12765 G1 Y536.865 F2500.
N12770 X313.806 Y536.477
N12775 X313.704 Y536.092
N12780 X313.501 Y535.686
N12785 X313.201 Y535.309
N12790 X312.802 Y534.978
N12795 X312.581 Y534.862
N12800 X312.375 Y534.795
N12805 X312.159 Y534.801
N12810 X311.957 Y534.88
N12815 X311.793 Y535.022
N12820 X311.687 Y535.21
N12825 X311.65 Y535.424
N12830 Y538.129
N12835 G2 X312.306 Y538.742 Z5.463 I0.635 J-0.022 F3000.
N12840 X312.801 Y538.477 I-0.022 J-0.635
N12845 G1 X313.343 Y537.721
N12850 X313.475 Y537.536 Z5.417
N12855 X313.707 Y537.213 Z5.337 F1000.
N12860 G2 X313.825 Y536.865 Z5.262 I-0.516 J-0.37
N12865 G1 Y534.19 F2500.
N12870 X313.804 Y533.772
N12875 X313.703 Y533.387
N12880 X313.499 Y532.981
N12885 X313.2 Y532.605
N12890 X312.801 Y532.274
N12895 X312.581 Y532.158
N12900 X312.375 Y532.091
N12905 X312.159 Y532.098
N12910 X311.957 Y532.176
N12915 X311.793 Y532.318
N12920 X311.687 Y532.507
N12925 X311.65 Y532.72
N12930 Y535.424
N12935 G2 X312.306 Y536.036 Z5.463 I0.635 J-0.022 F3000.
N12940 X312.797 Y535.777 I-0.022 J-0.635
N12945 G1 X313.337 Y535.041
N12950 X313.471 Y534.858 Z5.417
N12955 X313.702 Y534.543 Z5.339 F1000.
N12960 G2 X313.825 Y534.19 Z5.262 I-0.512 J-0.376
N12965 G1 Y531.514 F2500.
N12970 X313.803 Y531.069
N12975 X313.701 Y530.683
N12980 X313.498 Y530.278
N12985 X313.199 Y529.902
N12990 X312.8 Y529.571
N12995 X312.581 Y529.456
N13000 X312.375 Y529.389
N13005 X312.159 Y529.395
N13010 X311.957 Y529.474
N13015 X311.793 Y529.616
N13020 X311.687 Y529.804
N13025 X311.65 Y530.017
N13030 Y532.72
N13035 G2 X312.306 Y533.332 Z5.463 I0.635 J-0.022 F3000.
N13040 X312.792 Y533.079 I-0.022 J-0.635
N13045 G1 X313.332 Y532.361
N13050 X313.468 Y532.18 Z5.417
N13055 X313.698 Y531.873 Z5.34 F1000.
N13060 G2 X313.825 Y531.514 Z5.262 I-0.508 J-0.381
N13065 G1 Y528.616 F2500.
N13070 X313.812 Y528.364
N13075 X313.711 Y527.977
N13080 X313.507 Y527.571
N13085 X313.207 Y527.193
N13090 X312.807 Y526.862
N13095 X312.581 Y526.743
N13100 X312.375 Y526.676
N13105 X312.159 Y526.682
N13110 X311.957 Y526.761
N13115 X311.793 Y526.903
N13120 X311.687 Y527.091
N13125 X311.65 Y527.305
N13130 Y530.017
N13135 G2 X312.306 Y530.63 Z5.463 I0.635 J-0.022 F3000.
N13140 X312.818 Y530.34 I-0.022 J-0.635
N13145 G1 X313.368 Y529.488
N13150 X313.491 Y529.298 Z5.417
N13155 X313.724 Y528.938 Z5.331 F1000.
N13160 G2 X313.825 Y528.616 Z5.262 I-0.533 J-0.345
N13165 G1 Y525.94 F2500.
N13170 X313.811 Y525.652
N13175 X313.709 Y525.265
N13180 X313.505 Y524.859
N13185 X313.205 Y524.482
N13190 X312.805 Y524.15
N13195 X312.581 Y524.032
N13200 X312.375 Y523.965
N13205 X312.159 Y523.972
N13210 X311.957 Y524.05
N13215 X311.793 Y524.192
N13220 X311.687 Y524.381
N13225 X311.65 Y524.594
N13230 Y527.305
N13235 G2 X312.306 Y527.917 Z5.463 I0.635 J-0.022 F3000.
N13240 X312.814 Y527.634 I-0.022 J-0.635
N13245 G1 X313.362 Y526.808
N13250 X313.487 Y526.619 Z5.417
N13255 X313.719 Y526.269 Z5.333 F1000.
N13260 G2 X313.825 Y525.94 Z5.262 I-0.529 J-0.351
N13265 G1 Y523.265 F2500.
N13270 X313.809 Y522.941
N13275 X313.707 Y522.555
N13280 X313.504 Y522.149
N13285 X313.204 Y521.772
N13290 X312.804 Y521.441
N13295 X312.581 Y521.323
N13300 X312.375 Y521.257
N13305 X312.159 Y521.263
N13310 X311.957 Y521.341
N13315 X311.793 Y521.483
N13320 X311.687 Y521.672
N13325 X311.65 Y521.885
N13330 Y524.594
N13335 G2 X312.306 Y525.206 Z5.463 I0.635 J-0.022 F3000.
N13340 X312.809 Y524.929 I-0.022 J-0.635
N13345 G1 X313.355 Y524.128
N13350 X313.483 Y523.941 Z5.417
N13355 X313.715 Y523.6 Z5.334 F1000.
N13360 G2 X313.825 Y523.265 Z5.262 I-0.525 J-0.358
N13365 G1 Y520.589 F2500.
N13370 X313.807 Y520.233
N13375 X313.706 Y519.847
N13380 X313.502 Y519.441
N13385 X313.203 Y519.064
N13390 X312.803 Y518.733
N13395 X312.581 Y518.616
N13400 X312.375 Y518.549
N13405 X312.159 Y518.556
N13410 X311.957 Y518.634
N13415 X311.793 Y518.776
N13420 X311.687 Y518.965
N13425 X311.65 Y519.178
N13430 Y521.885
N13435 G2 X312.306 Y522.498 Z5.463 I0.635 J-0.022 F3000.
N13440 X312.805 Y522.227 I-0.022 J-0.635
N13445 G1 X313.349 Y521.448
N13450 X313.479 Y521.262 Z5.417
N13455 X313.711 Y520.931 Z5.336 F1000.
N13460 G2 X313.825 Y520.589 Z5.262 I-0.521 J-0.364
N13465 G1 Y517.913 F2500.
N13470 X313.806 Y517.526
N13475 X313.704 Y517.141
N13480 X313.501 Y516.735
N13485 X313.201 Y516.358
N13490 X312.802 Y516.027
N13495 X312.581 Y515.911
N13500 X312.375 Y515.844
N13505 X312.159 Y515.85
N13510 X311.957 Y515.929
N13515 X311.793 Y516.071
N13520 X311.687 Y516.259
N13525 X311.65 Y516.473
N13530 Y519.178
N13535 G2 X312.306 Y519.79 Z5.463 I0.635 J-0.022 F3000.
N13540 X312.801 Y519.526 I-0.022 J-0.635
N13545 G1 X313.343 Y518.769
N13550 X313.475 Y518.584 Z5.417
N13555 X313.707 Y518.261 Z5.337 F1000.
N13560 G2 X313.825 Y517.913 Z5.262 I-0.516 J-0.37
N13565 G1 Y515.238 F2500.
N13570 X313.804 Y514.821
N13575 X313.703 Y514.436
N13580 X313.5 Y514.03
N13585 X313.2 Y513.654
N13590 X312.801 Y513.323
N13595 X312.581 Y513.207
N13600 X312.375 Y513.14
N13605 X312.159 Y513.146
N13610 X311.957 Y513.225
N13615 X311.793 Y513.367
N13620 X311.687 Y513.555
N13625 X311.65 Y513.769
N13630 Y516.473
N13635 G2 X312.306 Y517.085 Z5.463 I0.635 J-0.022 F3000.
N13640 X312.797 Y516.826 I-0.022 J-0.635
N13645 G1 X313.337 Y516.089
N13650 X313.472 Y515.906 Z5.417
N13655 X313.702 Y515.591 Z5.339 F1000.
N13660 G2 X313.825 Y515.238 Z5.262 I-0.512 J-0.376
N13665 G1 Y512.562 F2500.
N13670 X313.803 Y512.117
N13675 X313.701 Y511.732
N13680 X313.498 Y511.327
N13685 X313.199 Y510.951
N13690 X312.8 Y510.62
N13695 X312.581 Y510.504
N13700 X312.375 Y510.438
N13705 X312.159 Y510.444
N13710 X311.957 Y510.523
N13715 X311.793 Y510.664
N13720 X311.687 Y510.853
N13725 X311.65 Y511.066
N13730 Y513.769
N13735 G2 X312.306 Y514.381 Z5.463 I0.635 J-0.022 F3000.
N13740 X312.792 Y514.128 I-0.022 J-0.635
N13745 G1 X313.332 Y513.409
N13750 X313.468 Y513.228 Z5.417
N13755 X313.698 Y512.921 Z5.34 F1000.
N13760 G2 X313.825 Y512.562 Z5.262 I-0.508 J-0.381
N13765 G1 Y509.664 F2500.
N13770 X313.812 Y509.413
N13775 X313.711 Y509.026
N13780 X313.507 Y508.62
N13785 X313.207 Y508.242
N13790 X312.807 Y507.911
N13795 X312.581 Y507.792
N13800 X312.375 Y507.725
N13805 X312.159 Y507.731
N13810 X311.957 Y507.81
N13815 X311.793 Y507.952
N13820 X311.687 Y508.14
N13825 X311.65 Y508.353
N13830 Y511.066
N13835 G2 X312.306 Y511.679 Z5.463 I0.635 J-0.022 F3000.
N13840 X312.818 Y511.389 I-0.022 J-0.635
N13845 G1 X313.368 Y510.536
N13850 X313.492 Y510.346 Z5.417
N13855 X313.724 Y509.986 Z5.331 F1000.
N13860 G2 X313.825 Y509.664 Z5.262 I-0.533 J-0.344
N13865 G1 Y506.988 F2500.
N13870 X313.811 Y506.7
N13875 X313.709 Y506.314
N13880 X313.505 Y505.908
N13885 X313.206 Y505.531
N13890 X312.805 Y505.199
N13895 X312.581 Y505.081
N13900 X312.375 Y505.014
N13905 X312.159 Y505.02
N13910 X311.957 Y505.099
N13915 X311.793 Y505.241
N13920 X311.687 Y505.429
N13925 X311.65 Y505.643
N13930 Y508.353
N13935 G2 X312.306 Y508.966 Z5.463 I0.635 J-0.022 F3000.
N13940 X312.814 Y508.682 I-0.022 J-0.635
N13945 G1 X313.362 Y507.856
N13950 X313.487 Y507.667 Z5.417
N13955 X313.72 Y507.317 Z5.333 F1000.
N13960 G2 X313.825 Y506.988 Z5.262 I-0.529 J-0.351
N13965 G1 Y504.313 F2500.
N13970 X313.809 Y503.99
N13975 X313.707 Y503.604
N13980 X313.504 Y503.198
N13985 X313.204 Y502.821
N13990 X312.804 Y502.49
N13995 X312.581 Y502.372
N14000 X312.375 Y502.305
N14005 X312.159 Y502.312
N14010 X311.957 Y502.39
N14015 X311.793 Y502.532
N14020 X311.687 Y502.72
N14025 X311.65 Y502.934
N14030 Y505.643
N14035 G2 X312.306 Y506.255 Z5.463 I0.635 J-0.022 F3000.
N14040 X312.809 Y505.978 I-0.022 J-0.635
N14045 G1 X313.355 Y505.176
N14050 X313.483 Y504.989 Z5.417
N14055 X313.715 Y504.648 Z5.334 F1000.
N14060 G2 X313.825 Y504.313 Z5.262 I-0.525 J-0.357
N14065 G1 Y501.637 F2500.
N14070 X313.807 Y501.281
N14075 X313.706 Y500.896
N14080 X313.502 Y500.49
N14085 X313.203 Y500.113
N14090 X312.803 Y499.782
N14095 X312.581 Y499.665
N14100 X312.375 Y499.598
N14105 X312.159 Y499.604
N14110 X311.957 Y499.683
N14115 X311.793 Y499.825
N14120 X311.687 Y500.013
N14125 X311.65 Y500.227
N14130 Y502.934
N14135 G2 X312.306 Y503.546 Z5.463 I0.635 J-0.022 F3000.
N14140 X312.805 Y503.275 I-0.022 J-0.635
N14145 G1 X313.349 Y502.497
N14150 X313.479 Y502.31 Z5.417
N14155 X313.711 Y501.978 Z5.336 F1000.
N14160 G2 X313.825 Y501.637 Z5.262 I-0.521 J-0.364
N14165 G1 Y498.961 F2500.
N14170 X313.806 Y498.575
N14175 X313.704 Y498.189
N14180 X313.501 Y497.783
N14185 X313.201 Y497.407
N14190 X312.802 Y497.076
N14195 X312.581 Y496.959
N14200 X312.375 Y496.893
N14205 X312.159 Y496.899
N14210 X311.957 Y496.977
N14215 X311.793 Y497.119
N14220 X311.687 Y497.308
N14225 X311.65 Y497.521
N14230 Y500.227
N14235 G2 X312.306 Y500.839 Z5.463 I0.635 J-0.022 F3000.
N14240 X312.801 Y500.574 I-0.022 J-0.635
N14245 G1 X313.343 Y499.817
N14250 X313.475 Y499.632 Z5.417
N14255 X313.707 Y499.309 Z5.337 F1000.
N14260 G2 X313.825 Y498.961 Z5.262 I-0.516 J-0.37
N14265 G1 Y496.286 F2500.
N14270 X313.804 Y495.869
N14275 X313.703 Y495.484
N14280 X313.5 Y495.079
N14285 X313.2 Y494.702
N14290 X312.801 Y494.371
N14295 X312.581 Y494.255
N14300 X312.375 Y494.189
N14305 X312.159 Y494.195
N14310 X311.957 Y494.274
N14315 X311.793 Y494.415
N14320 X311.687 Y494.604
N14325 X311.65 Y494.817
N14330 Y497.521
N14335 G2 X312.306 Y498.134 Z5.463 I0.635 J-0.022 F3000.
N14340 X312.797 Y497.874 I-0.022 J-0.635
N14345 G1 X313.337 Y497.137
N14350 X313.472 Y496.954 Z5.417
N14355 X313.702 Y496.639 Z5.339 F1000.
N14360 G2 X313.825 Y496.286 Z5.262 I-0.512 J-0.375
N14365 G1 Y493.61 F2500.
N14370 X313.803 Y493.166
N14375 X313.701 Y492.781
N14380 X313.498 Y492.375
N14385 X313.199 Y491.999
N14390 X312.8 Y491.668
N14395 X312.581 Y491.553
N14400 X312.375 Y491.486
N14405 X312.159 Y491.492
N14410 X311.957 Y491.571
N14415 X311.793 Y491.713
N14420 X311.687 Y491.901
N14425 X311.65 Y492.115
N14430 Y494.817
N14435 G2 X312.306 Y495.43 Z5.463 I0.635 J-0.022 F3000.
N14440 X312.793 Y495.176 I-0.022 J-0.635
N14445 G1 X313.332 Y494.457
N14450 X313.468 Y494.276 Z5.417
N14455 X313.698 Y493.969 Z5.34 F1000.
N14460 G2 X313.825 Y493.61 Z5.262 I-0.508 J-0.381
N14465 G1 Y490.712 F2500.
N14470 X313.812 Y490.461
N14475 X313.711 Y490.075
N14480 X313.507 Y489.668
N14485 X313.207 Y489.291
N14490 X312.807 Y488.959
N14495 X312.581 Y488.84
N14500 X312.375 Y488.773
N14505 X312.159 Y488.78
N14510 X311.957 Y488.858
N14515 X311.793 Y489.
N14520 X311.687 Y489.189
N14525 X311.65 Y489.402
N14530 Y492.115
N14535 G2 X312.306 Y492.727 Z5.463 I0.635 J-0.022 F3000.
N14540 X312.818 Y492.437 I-0.022 J-0.635
N14545 G1 X313.369 Y491.584
N14550 X313.492 Y491.394 Z5.417
N14555 X313.724 Y491.034 Z5.331 F1000.
N14560 G2 X313.825 Y490.712 Z5.262 I-0.533 J-0.344
N14565 G1 Y488.036 F2500.
N14570 X313.811 Y487.749
N14575 X313.709 Y487.363
N14580 X313.505 Y486.956
N14585 X313.206 Y486.579
N14590 X312.805 Y486.248
N14595 X312.581 Y486.129
N14600 X312.375 Y486.063
N14605 X312.159 Y486.069
N14610 X311.957 Y486.148
N14615 X311.793 Y486.289
N14620 X311.687 Y486.478
N14625 X311.65 Y486.691
N14630 Y489.402
N14635 G2 X312.306 Y490.014 Z5.463 I0.635 J-0.022 F3000.
N14640 X312.814 Y489.731 I-0.022 J-0.635
N14645 G1 X313.362 Y488.904
N14650 X313.487 Y488.715 Z5.417
N14655 X313.72 Y488.365 Z5.333 F1000.
N14660 G2 X313.825 Y488.036 Z5.262 I-0.529 J-0.351
N14665 G1 Y485.361 F2500.
N14670 X313.809 Y485.038
N14675 X313.707 Y484.652
N14680 X313.504 Y484.246
N14685 X313.204 Y483.869
N14690 X312.804 Y483.538
N14695 X312.581 Y483.42
N14700 X312.375 Y483.354
N14705 X312.159 Y483.36
N14710 X311.957 Y483.439
N14715 X311.793 Y483.58
N14720 X311.687 Y483.769
N14725 X311.65 Y483.982
N14730 Y486.691
N14735 G2 X312.306 Y487.304 Z5.463 I0.635 J-0.022 F3000.
N14740 X312.81 Y487.026 I-0.022 J-0.635
N14745 G1 X313.355 Y486.224
N14750 X313.483 Y486.037 Z5.417
N14755 X313.715 Y485.696 Z5.334 F1000.
N14760 G2 X313.825 Y485.361 Z5.262 I-0.525 J-0.357
N14765 G1 Y482.685 F2500.
N14770 X313.807 Y482.33
N14775 X313.706 Y481.944
N14780 X313.502 Y481.538
N14785 X313.203 Y481.161
N14790 X312.803 Y480.83
N14795 X312.581 Y480.713
N14800 X312.375 Y480.646
N14805 X312.159 Y480.653
N14810 X311.957 Y480.731
N14815 X311.793 Y480.873
N14820 X311.687 Y481.062
N14825 X311.65 Y481.275
N14830 Y483.982
N14835 G2 X312.306 Y484.595 Z5.463 I0.635 J-0.022 F3000.
N14840 X312.805 Y484.324 I-0.022 J-0.635
N14845 G1 X313.349 Y483.545
N14850 X313.479 Y483.359 Z5.417
N14855 X313.711 Y483.026 Z5.336 F1000.
N14860 G2 X313.825 Y482.685 Z5.262 I-0.521 J-0.364
N14865 G1 Y480.009 F2500.
N14870 X313.806 Y479.623
N14875 X313.704 Y479.238
N14880 X313.501 Y478.832
N14885 X313.202 Y478.455
N14890 X312.802 Y478.124
N14895 X312.581 Y478.008
N14900 X312.375 Y477.941
N14905 X312.159 Y477.947
N14910 X311.957 Y478.026
N14915 X311.793 Y478.168
N14920 X311.687 Y478.356
N14925 X311.65 Y478.57
N14930 Y481.275
N14935 G2 X312.306 Y481.888 Z5.463 I0.635 J-0.022 F3000.
N14940 X312.801 Y481.622 I-0.022 J-0.635
N14945 G1 X313.343 Y480.865
N14950 X313.475 Y480.68 Z5.417
N14955 X313.707 Y480.357 Z5.337 F1000.
N14960 G2 X313.825 Y480.009 Z5.262 I-0.516 J-0.37
N14965 G1 Y477.334 F2500.
N14970 X313.804 Y476.918
N14975 X313.703 Y476.533
N14980 X313.5 Y476.127
N14985 X313.2 Y475.751
N14990 X312.801 Y475.419
N14995 X312.581 Y475.304
N15000 X312.375 Y475.237
N15005 X312.159 Y475.243
N15010 X311.957 Y475.322
N15015 X311.793 Y475.464
N15020 X311.687 Y475.652
N15025 X311.65 Y475.866
N15030 Y478.57
N15035 G2 X312.306 Y479.182 Z5.463 I0.635 J-0.022 F3000.
N15040 X312.797 Y478.923 I-0.022 J-0.635
N15045 G1 X313.337 Y478.185
N15050 X313.472 Y478.002 Z5.417
N15055 X313.703 Y477.687 Z5.339 F1000.
N15060 G2 X313.825 Y477.334 Z5.262 I-0.512 J-0.375
N15065 G1 Y474.658 F2500.
N15070 X313.803 Y474.214
N15075 X313.701 Y473.829
N15080 X313.498 Y473.424
N15085 X313.199 Y473.047
N15090 X312.8 Y472.716
N15095 X312.581 Y472.601
N15100 X312.375 Y472.534
N15105 X312.159 Y472.541
N15110 X311.957 Y472.619
N15115 X311.793 Y472.761
N15120 X311.687 Y472.95
N15125 X311.65 Y473.163
N15130 Y475.866
N15135 G2 X312.306 Y476.478 Z5.463 I0.635 J-0.022 F3000.
N15140 X312.793 Y476.224 I-0.022 J-0.635
N15145 G1 X313.332 Y475.505
N15150 X313.468 Y475.324 Z5.417
N15155 X313.698 Y475.017 Z5.34 F1000.
N15160 G2 X313.825 Y474.658 Z5.262 I-0.508 J-0.381
N15165 G1 Y471.76 F2500.
N15170 X313.812 Y471.509
N15175 X313.711 Y471.123
N15180 X313.507 Y470.716
N15185 X313.207 Y470.339
N15190 X312.807 Y470.007
N15195 X312.581 Y469.888
N15200 X312.375 Y469.822
N15205 X312.159 Y469.828
N15210 X311.957 Y469.907
N15215 X311.793 Y470.048
N15220 X311.687 Y470.237
N15225 X311.65 Y470.45
N15230 Y473.163
N15235 G2 X312.306 Y473.776 Z5.463 I0.635 J-0.022 F3000.
N15240 X312.818 Y473.485 I-0.022 J-0.635
N15245 G1 X313.369 Y472.632
N15250 X313.492 Y472.442 Z5.417
N15255 X313.724 Y472.082 Z5.331 F1000.
N15260 G2 X313.825 Y471.76 Z5.262 I-0.534 J-0.344
N15265 G1 Y469.084 F2500.
N15270 X313.811 Y468.797
N15275 X313.709 Y468.411
N15280 X313.505 Y468.005
N15285 X313.206 Y467.627
N15290 X312.805 Y467.296
N15295 X312.581 Y467.178
N15300 X312.375 Y467.111
N15305 X312.159 Y467.117
N15310 X311.957 Y467.196
N15315 X311.793 Y467.338
N15320 X311.687 Y467.526
N15325 X311.65 Y467.74
N15330 Y470.45
N15335 G2 X312.306 Y471.063 Z5.463 I0.635 J-0.022 F3000.
N15340 X312.814 Y470.779 I-0.022 J-0.635
N15345 G1 X313.362 Y469.952
N15350 X313.487 Y469.763 Z5.417
N15355 X313.72 Y469.413 Z5.333 F1000.
N15360 G2 X313.825 Y469.084 Z5.262 I-0.529 J-0.351
N15365 G1 Y466.409 F2500.
N15370 X313.809 Y466.087
N15375 X313.707 Y465.701
N15380 X313.504 Y465.295
N15385 X313.204 Y464.918
N15390 X312.804 Y464.586
N15395 X312.581 Y464.469
N15400 X312.375 Y464.402
N15405 X312.159 Y464.408
N15410 X311.957 Y464.487
N15415 X311.793 Y464.629
N15420 X311.687 Y464.817
N15425 X311.65 Y465.031
N15430 Y467.74
N15435 G2 X312.306 Y468.352 Z5.463 I0.635 J-0.022 F3000.
N15440 X312.81 Y468.075 I-0.022 J-0.635
N15445 G1 X313.355 Y467.272
N15450 X313.483 Y467.085 Z5.417
N15455 X313.715 Y466.744 Z5.334 F1000.
N15460 G2 X313.825 Y466.409 Z5.262 I-0.525 J-0.357
N15465 G1 Y463.733 F2500.
N15470 X313.807 Y463.378
N15475 X313.706 Y462.992
N15480 X313.502 Y462.586
N15485 X313.203 Y462.21
N15490 X312.803 Y461.878
N15495 X312.581 Y461.761
N15500 X312.375 Y461.695
N15505 X312.159 Y461.701
N15510 X311.957 Y461.78
N15515 X311.793 Y461.922
N15520 X311.687 Y462.11
N15525 X311.65 Y462.323
N15530 Y465.031
N15535 G2 X312.306 Y465.643 Z5.463 I0.635 J-0.022 F3000.
N15540 X312.805 Y465.372 I-0.022 J-0.635
N15545 G1 X313.349 Y464.593
N15550 X313.479 Y464.407 Z5.417
N15555 X313.711 Y464.074 Z5.336 F1000.
N15560 G2 X313.825 Y463.733 Z5.262 I-0.521 J-0.363
N15565 G1 Y461.057 F2500.
N15570 X313.806 Y460.671
N15575 X313.704 Y460.286
N15580 X313.501 Y459.88
N15585 X313.202 Y459.503
N15590 X312.802 Y459.172
N15595 X312.581 Y459.056
N15600 X312.375 Y458.989
N15605 X312.159 Y458.996
N15610 X311.957 Y459.074
N15615 X311.793 Y459.216
N15620 X311.687 Y459.404
N15625 X311.65 Y459.618
N15630 Y462.323
N15635 G2 X312.306 Y462.936 Z5.463 I0.635 J-0.022 F3000.
N15640 X312.801 Y462.671 I-0.022 J-0.635
N15645 G1 X313.343 Y461.913
N15650 X313.475 Y461.728 Z5.417
N15655 X313.707 Y461.405 Z5.337 F1000.
N15660 G2 X313.825 Y461.057 Z5.262 I-0.516 J-0.37
N15665 G1 Y458.382 F2500.
N15670 X313.804 Y457.966
N15675 X313.703 Y457.581
N15680 X313.5 Y457.175
N15685 X313.2 Y456.799
N15690 X312.801 Y456.468
N15695 X312.581 Y456.352
N15700 X312.375 Y456.285
N15705 X312.159 Y456.292
N15710 X311.957 Y456.37
N15715 X311.793 Y456.512
N15720 X311.687 Y456.701
N15725 X311.65 Y456.914
N15730 Y459.618
N15735 G2 X312.306 Y460.23 Z5.463 I0.635 J-0.022 F3000.
N15740 X312.797 Y459.971 I-0.022 J-0.635
N15745 G1 X313.338 Y459.233
N15750 X313.472 Y459.05 Z5.417
N15755 X313.703 Y458.735 Z5.339 F1000.
N15760 G2 X313.825 Y458.382 Z5.262 I-0.512 J-0.375
N15765 G1 Y455.706 F2500.
N15770 X313.803 Y455.263
N15775 X313.701 Y454.877
N15780 X313.498 Y454.472
N15785 X313.199 Y454.096
N15790 X312.8 Y453.765
N15795 X312.581 Y453.649
N15800 X312.375 Y453.583
N15805 X312.159 Y453.589
N15810 X311.957 Y453.668
N15815 X311.793 Y453.81
N15820 X311.687 Y453.998
N15825 X311.65 Y454.211
N15830 Y456.914
N15835 G2 X312.306 Y457.526 Z5.463 I0.635 J-0.022 F3000.
N15840 X312.793 Y457.273 I-0.022 J-0.635
N15845 G1 X313.332 Y456.553
N15850 X313.468 Y456.372 Z5.417
N15855 X313.698 Y456.065 Z5.34 F1000.
N15860 G2 X313.825 Y455.706 Z5.262 I-0.508 J-0.381
N15865 G1 Y452.808 F2500.
N15870 X313.812 Y452.558
N15875 X313.711 Y452.171
N15880 X313.507 Y451.765
N15885 X313.207 Y451.387
N15890 X312.807 Y451.056
N15895 X312.581 Y450.937
N15900 X312.375 Y450.87
N15905 X312.159 Y450.876
N15910 X311.957 Y450.955
N15915 X311.793 Y451.097
N15920 X311.687 Y451.285
N15925 X311.65 Y451.499
N15930 Y454.211
N15935 G2 X312.306 Y454.824 Z5.463 I0.635 J-0.022 F3000.
N15940 X312.818 Y454.533 I-0.022 J-0.635
N15945 G1 X313.369 Y453.68
N15950 X313.492 Y453.49 Z5.417
N15955 X313.724 Y453.13 Z5.331 F1000.
N15960 G2 X313.825 Y452.808 Z5.262 I-0.534 J-0.344
N15965 G1 Y450.132 F2500.
N15970 X313.811 Y449.845
N15975 X313.709 Y449.459
N15980 X313.505 Y449.053
N15985 X313.206 Y448.676
N15990 X312.805 Y448.344
N15995 X312.581 Y448.226
N16000 X312.375 Y448.159
N16005 X312.159 Y448.165
N16010 X311.957 Y448.244
N16015 X311.793 Y448.386
N16020 X311.687 Y448.574
N16025 X311.65 Y448.788
N16030 Y451.499
N16035 G2 X312.306 Y452.111 Z5.463 I0.635 J-0.022 F3000.
N16040 X312.814 Y451.827 I-0.022 J-0.635
N16045 G1 X313.362 Y451.
N16050 X313.487 Y450.811 Z5.417
N16055 X313.72 Y450.461 Z5.333 F1000.
N16060 G2 X313.825 Y450.132 Z5.262 I-0.529 J-0.351
N16065 G1 Y447.457 F2500.
N16070 X313.809 Y447.135
N16075 X313.707 Y446.749
N16080 X313.504 Y446.343
N16085 X313.204 Y445.966
N16090 X312.804 Y445.634
N16095 X312.581 Y445.517
N16100 X312.375 Y445.45
N16105 X312.159 Y445.456
N16110 X311.957 Y445.535
N16115 X311.793 Y445.677
N16120 X311.687 Y445.865
N16125 X311.65 Y446.079
N16130 Y448.788
N16135 G2 X312.306 Y449.4 Z5.463 I0.635 J-0.022 F3000.
N16140 X312.81 Y449.123 I-0.022 J-0.635
N16145 G1 X313.355 Y448.32
N16150 X313.483 Y448.133 Z5.417
N16155 X313.715 Y447.792 Z5.334 F1000.
N16160 G2 X313.825 Y447.457 Z5.262 I-0.525 J-0.357
N16165 G1 Y444.781 F2500.
N16170 X313.807 Y444.426
N16175 X313.706 Y444.041
N16180 X313.502 Y443.635
N16185 X313.203 Y443.258
N16190 X312.803 Y442.927
N16195 X312.581 Y442.81
N16200 X312.375 Y442.743
N16205 X312.159 Y442.749
N16210 X311.957 Y442.828
N16215 X311.793 Y442.97
N16220 X311.687 Y443.158
N16225 X311.65 Y443.372
N16230 Y446.079
N16235 G2 X312.306 Y446.691 Z5.463 I0.635 J-0.022 F3000.
N16240 X312.805 Y446.42 I-0.022 J-0.635
N16245 G1 X313.349 Y445.641
N16250 X313.479 Y445.455 Z5.417
N16255 X313.711 Y445.122 Z5.336 F1000.
N16260 G2 X313.825 Y444.781 Z5.262 I-0.521 J-0.363
N16265 G1 Y442.105 F2500.
N16270 X313.806 Y441.72
N16275 X313.704 Y441.334
N16280 X313.501 Y440.928
N16285 X313.202 Y440.552
N16290 X312.802 Y440.22
N16295 X312.581 Y440.104
N16300 X312.375 Y440.037
N16305 X312.159 Y440.044
N16310 X311.957 Y440.122
N16315 X311.793 Y440.264
N16320 X311.687 Y440.453
N16325 X311.65 Y440.666
N16330 Y443.372
N16335 G2 X312.306 Y443.984 Z5.463 I0.635 J-0.022 F3000.
N16340 X312.801 Y443.719 I-0.022 J-0.635
N16345 G1 X313.343 Y442.961
N16350 X313.475 Y442.776 Z5.417
N16355 X313.707 Y442.453 Z5.337 F1000.
N16360 G2 X313.825 Y442.105 Z5.262 I-0.516 J-0.369
N16365 G1 Y439.43 F2500.
N16370 X313.804 Y439.014
N16375 X313.703 Y438.629
N16380 X313.5 Y438.223
N16385 X313.2 Y437.847
N16390 X312.801 Y437.516
N16395 X312.581 Y437.4
N16400 X312.375 Y437.333
N16405 X312.159 Y437.34
N16410 X311.957 Y437.418
N16415 X311.793 Y437.56
N16420 X311.687 Y437.749
N16425 X311.65 Y437.962
N16430 Y440.666
N16435 G2 X312.306 Y441.278 Z5.463 I0.635 J-0.022 F3000.
N16440 X312.797 Y441.019 I-0.022 J-0.635
N16445 G1 X313.338 Y440.281
N16450 X313.472 Y440.098 Z5.417
N16455 X313.703 Y439.783 Z5.339 F1000.
N16460 G2 X313.825 Y439.43 Z5.262 I-0.512 J-0.375
N16465 G1 Y436.754 F2500.
N16470 X313.803 Y436.311
N16475 X313.701 Y435.926
N16480 X313.498 Y435.52
N16485 X313.199 Y435.144
N16490 X312.8 Y434.813
N16495 X312.581 Y434.698
N16500 X312.375 Y434.631
N16505 X312.159 Y434.637
N16510 X311.957 Y434.716
N16515 X311.793 Y434.858
N16520 X311.687 Y435.046
N16525 X311.65 Y435.259
N16530 Y437.962
N16535 G2 X312.306 Y438.574 Z5.463 I0.635 J-0.022 F3000.
N16540 X312.793 Y438.321 I-0.022 J-0.635
N16545 G1 X313.332 Y437.601
N16550 X313.468 Y437.42 Z5.417
N16555 X313.698 Y437.113 Z5.34 F1000.
N16560 G2 X313.825 Y436.754 Z5.262 I-0.508 J-0.381
N16565 G1 Y433.856 F2500.
N16570 X313.813 Y433.606
N16575 X313.711 Y433.219
N16580 X313.507 Y432.813
N16585 X313.207 Y432.435
N16590 X312.807 Y432.104
N16595 X312.581 Y431.985
N16600 X312.375 Y431.918
N16605 X312.159 Y431.924
N16610 X311.957 Y432.003
N16615 X311.793 Y432.145
N16620 X311.687 Y432.333
N16625 X311.65 Y432.547
N16630 Y435.259
N16635 G2 X312.306 Y435.872 Z5.463 I0.635 J-0.022 F3000.
N16640 X312.818 Y435.582 I-0.022 J-0.635
N16645 G1 X313.369 Y434.728
N16650 X313.492 Y434.538 Z5.417
N16655 X313.724 Y434.178 Z5.331 F1000.
N16660 G2 X313.825 Y433.856 Z5.262 I-0.534 J-0.344
N16665 G1 Y431.18 F2500.
N16670 X313.811 Y430.893
N16675 X313.709 Y430.507
N16680 X313.505 Y430.101
N16685 X313.206 Y429.724
N16690 X312.805 Y429.392
N16695 X312.581 Y429.274
N16700 X312.375 Y429.207
N16705 X312.159 Y429.214
N16710 X311.957 Y429.292
N16715 X311.793 Y429.434
N16720 X311.687 Y429.623
N16725 X311.65 Y429.836
N16730 Y432.547
N16735 G2 X312.306 Y433.159 Z5.463 I0.635 J-0.022 F3000.
N16740 X312.814 Y432.875 I-0.022 J-0.635
N16745 G1 X313.362 Y432.048
N16750 X313.487 Y431.859 Z5.417
N16755 X313.72 Y431.509 Z5.333 F1000.
N16760 G2 X313.825 Y431.18 Z5.262 I-0.529 J-0.351
N16765 G1 Y428.505 F2500.
N16770 X313.809 Y428.183
N16775 X313.707 Y427.797
N16780 X313.504 Y427.391
N16785 X313.204 Y427.014
N16790 X312.804 Y426.683
N16795 X312.581 Y426.565
N16800 X312.375 Y426.498
N16805 X312.159 Y426.505
N16810 X311.957 Y426.583
N16815 X311.793 Y426.725
N16820 X311.687 Y426.914
N16825 X311.65 Y427.127
N16830 Y429.836
N16835 G2 X312.306 Y430.448 Z5.463 I0.635 J-0.022 F3000.
N16840 X312.81 Y430.171 I-0.022 J-0.635
N16845 G1 X313.356 Y429.368
N16850 X313.483 Y429.181 Z5.417
N16855 X313.715 Y428.84 Z5.334 F1000.
N16860 G2 X313.825 Y428.505 Z5.262 I-0.525 J-0.357
N16865 G1 Y425.829 F2500.
N16870 X313.807 Y425.474
N16875 X313.706 Y425.089
N16880 X313.502 Y424.683
N16885 X313.203 Y424.306
N16890 X312.803 Y423.975
N16895 X312.581 Y423.858
N16900 X312.375 Y423.791
N16905 X312.159 Y423.797
N16910 X311.957 Y423.876
N16915 X311.793 Y424.018
N16920 X311.687 Y424.206
N16925 X311.65 Y424.42
N16930 Y427.127
N16935 G2 X312.306 Y427.739 Z5.463 I0.635 J-0.022 F3000.
N16940 X312.805 Y427.468 I-0.022 J-0.635
N16945 G1 X313.349 Y426.689
N16950 X313.479 Y426.503 Z5.417
N16955 X313.711 Y426.17 Z5.336 F1000.
N16960 G2 X313.825 Y425.829 Z5.262 I-0.521 J-0.363
N16965 G1 Y423.153 F2500.
N16970 X313.806 Y422.768
N16975 X313.704 Y422.382
N16980 X313.501 Y421.976
N16985 X313.202 Y421.6
N16990 X312.802 Y421.269
N16995 X312.581 Y421.152
N17000 X312.375 Y421.085
N17005 X312.159 Y421.092
N17010 X311.957 Y421.17
N17015 X311.793 Y421.312
N17020 X311.687 Y421.501
N17025 X311.65 Y421.714
N17030 Y424.42
N17035 G2 X312.306 Y425.032 Z5.463 I0.635 J-0.022 F3000.
N17040 X312.801 Y424.767 I-0.022 J-0.635
N17045 G1 X313.343 Y424.009
N17050 X313.475 Y423.824 Z5.417
N17055 X313.707 Y423.501 Z5.337 F1000.
N17060 G2 X313.825 Y423.153 Z5.262 I-0.516 J-0.369
N17065 G1 Y420.478 F2500.
N17070 X313.804 Y420.062
N17075 X313.703 Y419.677
N17080 X313.5 Y419.271
N17085 X313.2 Y418.895
N17090 X312.801 Y418.564
N17095 X312.581 Y418.448
N17100 X312.375 Y418.382
N17105 X312.159 Y418.388
N17110 X311.957 Y418.466
N17115 X311.793 Y418.608
N17120 X311.687 Y418.797
N17125 X311.65 Y419.01
N17130 Y421.714
N17135 G2 X312.306 Y422.327 Z5.463 I0.635 J-0.022 F3000.
N17140 X312.797 Y422.067 I-0.022 J-0.635
N17145 G1 X313.338 Y421.329
N17150 X313.472 Y421.146 Z5.417
N17155 X313.703 Y420.831 Z5.339 F1000.
N17160 G2 X313.825 Y420.478 Z5.262 I-0.512 J-0.375
N17165 G1 Y417.802 F2500.
N17170 X313.803 Y417.359
N17175 X313.701 Y416.974
N17180 X313.498 Y416.568
N17185 X313.199 Y416.192
N17190 X312.8 Y415.861
N17195 X312.581 Y415.746
N17200 X312.375 Y415.679
N17205 X312.159 Y415.685
N17210 X311.957 Y415.764
N17215 X311.793 Y415.906
N17220 X311.687 Y416.094
N17225 X311.65 Y416.308
N17230 Y419.01
N17235 G2 X312.306 Y419.623 Z5.463 I0.635 J-0.022 F3000.
N17240 X312.793 Y419.369 I-0.022 J-0.635
N17245 G1 X313.332 Y418.649
N17250 X313.468 Y418.468 Z5.417
N17255 X313.698 Y418.161 Z5.34 F1000.
N17260 G2 X313.825 Y417.802 Z5.262 I-0.508 J-0.381
N17265 G1 Y414.904 F2500.
N17270 X313.813 Y414.654
N17275 X313.711 Y414.268
N17280 X313.507 Y413.861
N17285 X313.207 Y413.483
N17290 X312.807 Y413.152
N17295 X312.581 Y413.033
N17300 X312.375 Y412.966
N17305 X312.159 Y412.973
N17310 X311.957 Y413.051
N17315 X311.793 Y413.193
N17320 X311.687 Y413.382
N17325 X311.65 Y413.595
N17330 Y416.308
N17335 G2 X312.306 Y416.92 Z5.463 I0.635 J-0.022 F3000.
N17340 X312.818 Y416.63 I-0.022 J-0.635
N17345 G1 X313.369 Y415.776
N17350 X313.492 Y415.586 Z5.417
N17355 X313.724 Y415.226 Z5.331 F1000.
N17360 G2 X313.825 Y414.904 Z5.262 I-0.534 J-0.344
N17365 G1 Y412.228 F2500.
N17370 X313.811 Y411.942
N17375 X313.709 Y411.555
N17380 X313.505 Y411.149
N17385 X313.206 Y410.772
N17390 X312.805 Y410.44
N17395 X312.581 Y410.322
N17400 X312.375 Y410.255
N17405 X312.159 Y410.262
N17410 X311.957 Y410.34
N17415 X311.793 Y410.482
N17420 X311.687 Y410.671
N17425 X311.65 Y410.884
N17430 Y413.595
N17435 G2 X312.306 Y414.207 Z5.463 I0.635 J-0.022 F3000.
N17440 X312.814 Y413.923 I-0.022 J-0.635
N17445 G1 X313.362 Y413.096
N17450 X313.487 Y412.907 Z5.417
N17455 X313.72 Y412.557 Z5.333 F1000.
N17460 G2 X313.825 Y412.228 Z5.262 I-0.529 J-0.351
N17465 G1 Y409.553 F2500.
N17470 X313.809 Y409.231
N17475 X313.707 Y408.845
N17480 X313.504 Y408.439
N17485 X313.204 Y408.062
N17490 X312.804 Y407.731
N17495 X312.581 Y407.613
N17500 X312.375 Y407.546
N17505 X312.159 Y407.553
N17510 X311.957 Y407.631
N17515 X311.793 Y407.773
N17520 X311.687 Y407.962
N17525 X311.65 Y408.175
N17530 Y410.884
N17535 G2 X312.306 Y411.496 Z5.463 I0.635 J-0.022 F3000.
N17540 X312.81 Y411.219 I-0.022 J-0.635
N17545 G1 X313.356 Y410.417
N17550 X313.483 Y410.229 Z5.417
N17555 X313.715 Y409.888 Z5.334 F1000.
N17560 G2 X313.825 Y409.553 Z5.262 I-0.525 J-0.357
N17565 G1 Y406.877 F2500.
N17570 X313.807 Y406.523
N17575 X313.706 Y406.137
N17580 X313.502 Y405.731
N17585 X313.203 Y405.354
N17590 X312.803 Y405.023
N17595 X312.581 Y404.906
N17600 X312.375 Y404.839
N17605 X312.159 Y404.845
N17610 X311.957 Y404.924
N17615 X311.793 Y405.066
N17620 X311.687 Y405.254
N17625 X311.65 Y405.468
N17630 Y408.175
N17635 G2 X312.306 Y408.787 Z5.463 I0.635 J-0.022 F3000.
N17640 X312.805 Y408.516 I-0.022 J-0.635
N17645 G1 X313.349 Y407.737
N17650 X313.479 Y407.551 Z5.417
N17655 X313.711 Y407.218 Z5.336 F1000.
N17660 G2 X313.825 Y406.877 Z5.262 I-0.521 J-0.363
N17665 G1 Y404.201 F2500.
