%
(RVCABNEST2)
(MACHINE)
(  VENDOR AUTODESK)
(  MODEL GENERIC 3-AXIS ROUTER)
(  DESCRIPTION THIS MACHINE HAS XYZ AXIS ON THE HEAD)
(T20 D=6.35 CR=0. - ZMIN=0. - FLAT END MILL)
N10 G90 G94 G17 G91.1
N15 G21
N20 G53 G0 Z0.
(SLOTS)
N25 M0
(MANUAL TOOL CHANGE TO T20)
N30 S20000 M3
N35 G17 G90 G94
N40 G54
N45 G0 X313.944 Y327.533
N50 G43 Z24.525 H20
N55 G0 Z14.525
N60 G1 Z10.525 F833.33
N65 Z5.397
N70 X313.949 Y327.527 Z5.298 F2500.
N75 X313.963 Y327.508 Z5.201
N80 X313.986 Y327.478 Z5.109
N85 X314.017 Y327.436 Z5.024
N90 X314.056 Y327.384 Z4.948
N95 X314.101 Y327.324 Z4.884
N100 X314.152 Y327.256 Z4.832
N105 X314.207 Y327.182 Z4.794
N110 X314.265 Y327.104 Z4.77
N115 X314.325 Y327.025 Z4.762
N120 X314.706 Y326.517
N125 G3 X315.595 Y326.39 I0.508 J0.381
N130 G2 X317.5 Y327.025 I1.905 J-2.54
N135 G1 X390.525
N140 Y330.2
N145 X317.5
N150 G2 X314.325 Y333.375 I0. J3.175
N155 G1 Y558.8
N160 G2 X317.5 Y561.975 I3.175 J0.
N165 G1 X627.063
N170 Y565.15
N175 X3.175
N180 Y561.975
N185 X307.975
N190 G2 X311.15 Y558.8 I0. J-3.175
N195 G1 Y317.5
N200 X314.325
N205 Y323.85
N210 G2 X315.595 Y326.39 I3.175 J0.
N215 G3 X315.722 Y327.279 I-0.381 J0.508
N220 G1 X315.341 Y327.787
N225 X315.281 Y327.866 Z4.77
N230 X315.223 Y327.944 Z4.794
N235 X315.168 Y328.018 Z4.832
N240 X315.117 Y328.086 Z4.884
N245 X315.072 Y328.146 Z4.948
N250 X315.033 Y328.198 Z5.024
N255 X315.002 Y328.24 Z5.109
N260 X314.979 Y328.27 Z5.201
N265 X314.965 Y328.289 Z5.298
N270 X314.96 Y328.295 Z5.397
N275 G0 Z14.525
N280 X629.92 Y270.01
N285 G1 Z10.525 F833.33
N290 Z5.397
N295 G18 G2 X630.555 Z4.762 I0.635 K0. F2500.
N300 G1 X631.19
N305 G17 G3 X631.825 Y270.645 I0. J0.635
N310 G1 Y273.05
N315 X565.15
N320 Y269.875
N325 X625.475
N330 G2 X628.65 Y266.7 I0. J-3.175
N335 G1 Y25.4
N340 X631.825
N345 Y270.645
N350 G3 X631.19 Y271.28 I-0.635 J0.
N355 G1 X630.555
N360 G18 G3 X629.92 Z5.397 I0. K0.635
N365 G0 Z14.525
N370 X4.128 Y271.78
N375 G1 Z10.525 F833.33
N380 Z5.397
N385 G19 G2 Y271.145 Z4.762 J-0.635 K0. F2500.
N390 G1 Y270.51
N395 G17 G3 X4.763 Y269.875 I0.635 J0.
N400 G1 X60.325
N405 Y273.05
N410 X3.175
N415 Y269.875
N420 X4.763
N425 G3 X5.398 Y270.51 I0. J0.635
N430 G1 Y271.145
N435 G19 G3 Y271.78 Z5.397 J0. K0.635
N440 G0 Z24.525
N445 G17
(CUTOUTS)
N450 G0 X635.318 Y314.96
N455 Z24.525
N460 Z14.525
N465 G1 Z10.525 F1000.
N470 Z4.16
N475 G18 G3 X634.683 Z3.525 I-0.635 K0.
N480 G1 X634.048
N485 G17 G3 X633.413 Y314.325 I0. J-0.635
N490 G2 X630.238 Y311.15 I-3.175 J0. F3000.
N495 G1 X0.
N500 G2 X-3.175 Y314.325 I0. J3.175
N505 G1 Y568.325
N510 G2 X0. Y571.5 I3.175 J0.
N515 G1 X630.238
N520 G2 X633.413 Y568.325 I0. J-3.175
N525 G1 Y314.325
N530 G3 X634.048 Y313.69 I0.635 J0.
N535 G1 X634.683
N540 G18 G2 X635.318 Z4.16 I0. K0.635
N545 G0 Z14.525
N550 Y314.96
N555 G1 Z4.525 F1000.
N560 Z0.635
N565 G3 X634.683 Z0. I-0.635 K0.
N570 G1 X634.048
N575 G17 G3 X633.413 Y314.325 I0. J-0.635
N580 G2 X630.238 Y311.15 I-3.175 J0. F3000.
N585 G1 X587.399
N590 Z2.
N595 X569.049
N600 Z0. F1000.
N605 X483.371 F3000.
N610 Z2.
N615 X465.021
N620 Z0. F1000.
N625 X379.343 F3000.
N630 Z2.
N635 X360.993
N640 Z0. F1000.
N645 X275.315 F3000.
N650 Z2.
N655 X256.965
N660 Z0. F1000.
N665 X171.287 F3000.
N670 Z2.
N675 X152.937
N680 Z0. F1000.
N685 X67.259 F3000.
N690 Z2.
N695 X48.909
N700 Z0. F1000.
N705 X0. F3000.
N710 G2 X-3.175 Y314.325 I0. J3.175
N715 G1 Y351.094
N720 Z2.
N725 Y369.444
N730 Z0. F1000.
N735 Y455.122 F3000.
N740 Z2.
N745 Y473.472
N750 Z0. F1000.
N755 Y565.15 F3000.
N760 Z2.
N765 Y568.325
N770 G2 X0. Y571.5 I3.175 J0.
N775 G1 X9.175
N780 Z0. F1000.
N785 X94.853 F3000.
N790 Z2.
N795 X113.203
N800 Z0. F1000.
N805 X198.881 F3000.
N810 Z2.
N815 X217.231
N820 Z0. F1000.
N825 X302.909 F3000.
N830 Z2.
N835 X321.259
N840 Z0. F1000.
N845 X406.937 F3000.
N850 Z2.
N855 X425.287
N860 Z0. F1000.
N865 X510.965 F3000.
N870 Z2.
N875 X529.315
N880 Z0. F1000.
N885 X614.993 F3000.
N890 Z2.
N895 X630.238
N900 G2 X633.343 Y568.988 I0. J-3.175
N905 G1 Z0. F1000.
N910 G2 X633.413 Y568.325 I-3.105 J-0.663 F3000.
N915 G1 Y479.542
N920 Z2.
N925 Y461.192
N930 Z0. F1000.
N935 Y375.514 F3000.
N940 Z2.
N945 Y357.164
N950 Z0. F1000.
N955 Y314.325 F3000.
N960 G3 X634.048 Y313.69 I0.635 J0.
N965 G1 X634.683
N970 G18 G2 X635.318 Z0.635 I0. K0.635
N975 G0 Z14.525
N980 X684.372 Y281.305
N985 G1 Z10.525 F1000.
N990 Z4.16
N995 G19 G2 Y280.67 Z3.525 J-0.635 K0.
N1000 G1 Y280.035
N1005 G17 G3 X685.007 Y279.4 I0.635 J0.
N1010 G1 X711.2 F3000.
N1015 G2 X714.375 Y276.225 I0. J-3.175
N1020 G1 Y22.225
N1025 G2 X711.2 Y19.05 I-3.175 J0.
N1030 G1 X0.
N1035 G2 X-3.175 Y22.225 I0. J3.175
N1040 G1 Y276.225
N1045 G2 X0. Y279.4 I3.175 J0.
N1050 G1 X685.007
N1055 G3 X685.641 Y280.035 I0. J0.635
N1060 G1 Y280.67
N1065 G19 G3 Y281.305 Z4.16 J0. K0.635
N1070 G0 Z14.525
N1075 Y345.758
N1080 G1 Z10.525 F1000.
N1085 Z4.16
N1090 G3 Y346.393 Z3.525 J0.635 K0.
N1095 G1 Y347.028
N1100 G17 G3 X685.007 Y347.663 I-0.635 J0.
N1105 G1 X644.525 F3000.
N1110 G2 X641.35 Y350.838 I0. J3.175
N1115 G1 Y687.388
N1120 G2 X644.525 Y690.563 I3.175 J0.
N1125 G1 X708.025
N1130 G2 X711.2 Y687.388 I0. J-3.175
N1135 G1 Y350.838
N1140 G2 X708.025 Y347.663 I-3.175 J0.
N1145 G1 X685.007
N1150 G3 X684.372 Y347.028 I0. J-0.635
N1155 G1 Y346.393
N1160 G19 G2 Y345.758 Z4.16 J0. K0.635
N1165 G0 Z14.525
N1170 X717.453 Y346.9
N1175 G1 Z10.525 F1000.
N1180 Z4.16
N1185 X717.459 Y346.906 Z4.061
N1190 X717.476 Y346.921 Z3.964
N1195 X717.504 Y346.948 Z3.872
N1200 X717.542 Y346.983 Z3.787
N1205 X717.589 Y347.027 Z3.711
N1210 X717.644 Y347.079 Z3.646
N1215 X717.706 Y347.137 Z3.594
N1220 X717.773 Y347.2 Z3.556
N1225 X717.844 Y347.267 Z3.533
N1230 X717.917 Y347.335 Z3.525
N1235 X718.38 Y347.769
N1240 G17 G3 X718.409 Y348.666 I-0.434 J0.463
N1245 G2 X717.55 Y350.838 I2.316 J2.172 F3000.
N1250 G1 Y692.15
N1255 G2 X720.725 Y695.325 I3.175 J0.
N1260 G1 X788.987
N1265 G2 X792.162 Y692.15 I0. J-3.175
N1270 G1 Y350.838
N1275 G2 X788.987 Y347.663 I-3.175 J0.
N1280 G1 X720.725
N1285 G2 X718.409 Y348.666 I0. J3.175
N1290 G3 X717.511 Y348.695 I-0.463 J-0.434
N1295 G1 X717.048 Y348.261
N1300 X716.976 Y348.193 Z3.533
N1305 X716.905 Y348.127 Z3.556
N1310 X716.838 Y348.064 Z3.594
N1315 X716.776 Y348.006 Z3.646
N1320 X716.72 Y347.954 Z3.711
N1325 X716.673 Y347.91 Z3.787
N1330 X716.635 Y347.874 Z3.872
N1335 X716.607 Y347.848 Z3.964
N1340 X716.59 Y347.832 Z4.061
N1345 X716.585 Y347.827 Z4.16
N1350 G0 Z14.525
N1355 X708.66 Y345.758
N1360 G1 Z4.525 F1000.
N1365 Z0.635
N1370 G19 G3 Y346.393 Z0. J0.635 K0.
N1375 G1 Y347.028
N1380 G17 G3 X708.025 Y347.663 I-0.635 J0.
N1385 G1 X667.194 F3000.
N1390 Z2.
N1395 X648.844
N1400 Z0. F1000.
N1405 X644.525 F3000.
N1410 G2 X641.35 Y350.838 I0. J3.175
N1415 G1 Y428.181
N1420 Z2.
N1425 Y446.531
N1430 Z0. F1000.
N1435 Y528.194 F3000.
N1440 Z2.
N1445 Y546.544
N1450 Z0. F1000.
N1455 Y628.206 F3000.
N1460 Z2.
N1465 Y646.556
N1470 Z0. F1000.
N1475 Y687.388 F3000.
N1480 G2 X644.525 Y690.563 I3.175 J0.
N1485 G1 X685.356
N1490 Z2.
N1495 X703.706
N1500 Z0. F1000.
N1505 X708.025 F3000.
N1510 G2 X711.2 Y687.388 I0. J-3.175
N1515 G1 Y610.044
N1520 Z2.
N1525 Y591.694
N1530 Z0. F1000.
N1535 Y510.031 F3000.
N1540 Z2.
N1545 Y491.681
N1550 Z0. F1000.
N1555 Y410.019 F3000.
N1560 Z2.
N1565 Y391.669
N1570 Z0. F1000.
N1575 Y350.838 F3000.
N1580 G2 X708.025 Y347.663 I-3.175 J0.
N1585 G3 X707.39 Y347.028 I0. J-0.635
N1590 G1 Y346.393
N1595 G19 G2 Y345.758 Z0.635 J0. K0.635
N1600 G0 Z14.525
N1605 X717.233 Y312.897
N1610 G1 Z10.525 F1000.
N1615 Z4.16
N1620 G18 G2 X717.868 Z3.525 I0.635 K0.
N1625 G1 X718.503
N1630 G17 G3 X719.138 Y313.531 I0. J0.635
N1635 G1 Y341.313 F3000.
N1640 G2 X722.313 Y344.488 I3.175 J0.
N1645 G1 X785.813
N1650 G2 X788.988 Y341.313 I0. J-3.175
N1655 G1 Y0.
N1660 G2 X785.813 Y-3.175 I-3.175 J0.
N1665 G1 X722.313
N1670 G2 X719.138 Y0. I0. J3.175
N1675 G1 Y313.531
N1680 G3 X718.503 Y314.167 I-0.635 J0.
N1685 G1 X717.868
N1690 G18 G3 X717.233 Z4.16 I0. K0.635
N1695 G0 Z14.525
N1700 X684.372 Y281.305
N1705 G1 Z4.525 F1000.
N1710 Z2.
N1715 Y280.67
N1720 Y280.035
N1725 G17 G3 X685.007 Y279.4 I0.635 J0.
N1730 G1 X694.975 F3000.
N1735 Z0. F1000.
N1740 X711.2 F3000.
N1745 G2 X714.375 Y276.225 I0. J-3.175
N1750 G1 Y209.2
N1755 Z2.
N1760 Y190.85
N1765 Z0. F1000.
N1770 Y107.6 F3000.
N1775 Z2.
N1780 Y89.25
N1785 Z0. F1000.
N1790 Y22.225 F3000.
N1795 G2 X711.2 Y19.05 I-3.175 J0.
N1800 G1 X694.975
N1805 Z2.
N1810 X676.625
N1815 Z0. F1000.
N1820 X593.375 F3000.
N1825 Z2.
N1830 X575.025
N1835 Z0. F1000.
N1840 X491.775 F3000.
N1845 Z2.
N1850 X473.425
N1855 Z0. F1000.
N1860 X390.175 F3000.
N1865 Z2.
N1870 X371.825
N1875 Z0. F1000.
N1880 X288.575 F3000.
N1885 Z2.
N1890 X270.225
N1895 Z0. F1000.
N1900 X186.975 F3000.
N1905 Z2.
N1910 X168.625
N1915 Z0. F1000.
N1920 X85.375 F3000.
N1925 Z2.
N1930 X67.025
N1935 Z0. F1000.
N1940 X0. F3000.
N1945 G2 X-3.175 Y22.225 I0. J3.175
N1950 G1 Y38.45
N1955 Z2.
N1960 Y56.8
N1965 Z0. F1000.
N1970 Y140.05 F3000.
N1975 Z2.
N1980 Y158.4
N1985 Z0. F1000.
N1990 Y241.65 F3000.
N1995 Z2.
N2000 Y260.
N2005 Z0. F1000.
N2010 Y276.225 F3000.
N2015 G2 X0. Y279.4 I3.175 J0.
N2020 G1 X67.025
N2025 Z2.
N2030 X85.375
N2035 Z0. F1000.
N2040 X168.625 F3000.
N2045 Z2.
N2050 X186.975
N2055 Z0. F1000.
N2060 X270.225 F3000.
N2065 Z2.
N2070 X288.575
N2075 Z0. F1000.
N2080 X371.825 F3000.
N2085 Z2.
N2090 X390.175
N2095 Z0. F1000.
N2100 X473.425 F3000.
N2105 Z2.
N2110 X491.775
N2115 Z0. F1000.
N2120 X575.025 F3000.
N2125 Z2.
N2130 X593.375
N2135 Z0. F1000.
N2140 X676.625 F3000.
N2145 Z2.
N2150 X685.007
N2155 G3 X685.641 Y280.035 I0. J0.635
N2160 G1 Y281.305
N2165 G0 Z14.525
N2170 X717.453 Y346.9
N2175 G1 Z4.525 F1000.
N2180 Z0.635
N2185 X717.459 Y346.906 Z0.536
N2190 X717.476 Y346.921 Z0.439
N2195 X717.504 Y346.948 Z0.347
N2200 X717.542 Y346.983 Z0.262
N2205 X717.589 Y347.027 Z0.186
N2210 X717.644 Y347.079 Z0.121
N2215 X717.706 Y347.137 Z0.069
N2220 X717.773 Y347.2 Z0.031
N2225 X717.844 Y347.267 Z0.008
N2230 X717.917 Y347.335 Z0.
N2235 X718.38 Y347.769
N2240 G3 X718.409 Y348.666 I-0.434 J0.463
N2245 G2 X717.55 Y350.838 I2.316 J2.172 F3000.
N2250 G1 Y392.859
N2255 Z2.
N2260 Y411.209
N2265 Z0. F1000.
N2270 Y495.253 F3000.
N2275 Z2.
N2280 Y513.603
N2285 Z0. F1000.
N2290 Y597.647 F3000.
N2295 Z2.
N2300 Y615.997
N2305 Z0. F1000.
N2310 Y692.15 F3000.
N2315 G2 X720.725 Y695.325 I3.175 J0.
N2320 G1 X728.616
N2325 Z2.
N2330 X746.966
N2335 Z0. F1000.
N2340 X788.987 F3000.
N2345 G2 X792.162 Y692.15 I0. J-3.175
N2350 G1 Y650.128
N2355 Z2.
N2360 Y631.778
N2365 Z0. F1000.
N2370 Y547.734 F3000.
N2375 Z2.
N2380 Y529.384
N2385 Z0. F1000.
N2390 Y445.341 F3000.
N2395 Z2.
N2400 Y426.991
N2405 Z0. F1000.
N2410 Y350.838 F3000.
N2415 G2 X788.987 Y347.663 I-3.175 J0.
N2420 G1 X781.097
N2425 Z2.
N2430 X762.747
N2435 Z0. F1000.
N2440 X744.386 F3000.
N2445 Z2.
N2450 X726.036
N2455 Z0. F1000.
N2460 X720.725 F3000.
N2465 G2 X718.409 Y348.666 I0. J3.175
N2470 G3 X717.511 Y348.695 I-0.463 J-0.434
N2475 G1 X717.048 Y348.261
N2480 X716.976 Y348.193 Z0.008
N2485 X716.905 Y348.127 Z0.031
N2490 X716.838 Y348.064 Z0.069
N2495 X716.776 Y348.006 Z0.121
N2500 X716.72 Y347.954 Z0.186
N2505 X716.673 Y347.91 Z0.262
N2510 X716.635 Y347.874 Z0.347
N2515 X716.607 Y347.848 Z0.439
N2520 X716.59 Y347.832 Z0.536
N2525 X716.585 Y347.827 Z0.635
N2530 G0 Z14.525
N2535 X717.233 Y312.897
N2540 G1 Z4.525 F1000.
N2545 Z0.635
N2550 G18 G2 X717.868 Z0. I0.635 K0.
N2555 G1 X718.503
N2560 G17 G3 X719.138 Y313.531 I0. J0.635
N2565 G1 Y341.313 F3000.
N2570 G2 X722.313 Y344.488 I3.175 J0.
N2575 G1 X726.036
N2580 Z2.
N2585 X744.386
N2590 Z0. F1000.
N2595 X762.747 F3000.
N2600 Z2.
N2605 X781.097
N2610 Z0. F1000.
N2615 X785.813 F3000.
N2620 G2 X788.988 Y341.313 I0. J-3.175
N2625 G1 Y299.886
N2630 Z2.
N2635 Y281.536
N2640 Z0. F1000.
N2645 Y198.683 F3000.
N2650 Z2.
N2655 Y180.333
N2660 Z0. F1000.
N2665 Y97.48 F3000.
N2670 Z2.
N2675 Y79.13
N2680 Z0. F1000.
N2685 Y0. F3000.
N2690 G2 X785.813 Y-3.175 I-3.175 J0.
N2695 G1 X782.089
N2700 Z2.
N2705 X763.739
N2710 Z0. F1000.
N2715 X722.313 F3000.
N2720 G2 X719.138 Y0. I0. J3.175
N2725 G1 Y41.427
N2730 Z2.
N2735 Y59.777
N2740 Z0. F1000.
N2745 Y142.63 F3000.
N2750 Z2.
N2755 Y160.98
N2760 Z0. F1000.
N2765 Y243.833 F3000.
N2770 Z2.
N2775 Y262.183
N2780 Z0. F1000.
N2785 Y313.531 F3000.
N2790 G3 X718.503 Y314.167 I-0.635 J0.
N2795 G1 X717.868
N2800 G18 G3 X717.233 Z0.635 I0. K0.635
N2805 G0 Z24.525
N2810 G17
N2815 G53 G0 Z0.
N2820 G53 G0 X0. Y0.
N2825 M30
%
