%
(RVCBNTNEST3)
(MACHINE)
(  VENDOR AUTODESK)
(  MODEL GENERIC 3-AXIS ROUTER)
(  DESCRIPTION THIS MACHINE HAS XYZ AXIS ON THE HEAD)
(T20 D=6.35 CR=0. - ZMIN=0. - FLAT END MILL)
N10 G90 G94 G17 G91.1
N15 G21
N30 S20000 M3
N35 G17 G90 G94
N40 G54
N45 G0 X64.265 Y569.536
N50 G43 Z25.525 H20
N55 G0 Z15.525
N60 Z13.025
N65 G3 X64.058 Y564.07 Z12.797 I1.616 J-2.798 F500.
N70 X69.069 Y566.245 Z12.57 I1.821 J2.664
N75 X64.945 Y569.817 Z12.342 I-3.186 J0.488
N80 X63.511 Y564.56 Z12.114 I0.937 J-3.08
N85 X68.864 Y565.54 Z11.886 I2.368 J2.175
N90 X65.668 Y569.938 Z11.659 I-2.982 J1.193
N95 X63.09 Y565.16 Z11.431 I0.214 J-3.2
N100 X68.506 Y564.903 Z11.203 I2.789 J1.576
N105 X66.397 Y569.891 Z10.975 I-2.624 J1.83
N110 X62.817 Y565.836 Z10.748 I-0.514 J-3.154
N115 X68.015 Y564.365 Z10.52 I3.062 J0.9
N120 X67.094 Y569.681 Z10.292 I-2.133 J2.368
N125 X62.705 Y566.554 Z10.065 I-1.211 J-2.944
N130 X67.417 Y563.953 Z9.837 I3.174 J0.182
N135 X67.723 Y569.32 Z9.609 I-1.536 J2.78
N140 X62.758 Y567.276 Z9.381 I-1.839 J-2.584
N145 X66.744 Y563.689 Z9.154 I3.121 J-0.54
N150 X68.251 Y568.828 Z8.926 I-0.863 J3.044
N155 X62.973 Y567.965 Z8.698 I-2.368 J-2.092
N160 X66.031 Y563.585 Z8.47 I2.907 J-1.228
N165 X68.653 Y568.231 Z8.243 I-0.15 J3.148
N170 X63.337 Y568.585 Z8.015 I-2.77 J-1.496
N175 X65.315 Y563.645 Z7.787 I2.544 J-1.848
N180 X68.909 Y567.561 Z7.56 I0.564 J3.089
N185 X63.83 Y569.104 Z7.332 I-3.025 J-0.826
N190 X64.635 Y563.864 Z7.104 I2.051 J-2.367
N195 X69.005 Y566.853 Z6.876 I1.245 J2.87
N200 X64.425 Y569.497 Z6.649 I-3.122 J-0.119
N205 X64.024 Y564.231 Z6.421 I1.456 J-2.759
N210 X68.939 Y566.145 Z6.193 I1.855 J2.503
N215 X65.092 Y569.743 Z5.965 I-3.056 J0.589
N220 X63.514 Y564.724 Z5.738 I0.79 J-3.006
N225 X68.715 Y565.473 Z5.51 I2.365 J2.01
N230 X65.794 Y569.832 Z5.282 I-2.832 J1.261
N235 X63.131 Y565.318 Z5.055 I0.089 J-3.095
N240 X68.346 Y564.871 Z4.827 I2.748 J1.417
N245 X66.495 Y569.76 Z4.599 I-2.463 J1.862
N250 X62.893 Y565.981 Z4.371 I-0.612 J-3.023
N255 X67.852 Y564.37 Z4.144 I2.986 J0.755
N260 X67.159 Y569.531 Z3.916 I-1.97 J2.363
N265 X62.812 Y566.678 Z3.688 I-1.276 J-2.795
N270 X67.259 Y563.996 Z3.46 I3.068 J0.059
N275 X67.752 Y569.16 Z3.233 I-1.378 J2.737
N280 X62.89 Y567.372 Z3.005 I-1.869 J-2.424
N285 X66.6 Y563.767 Z2.777 I2.99 J-0.635
N290 X68.243 Y568.665 Z2.55 I-0.72 J2.966
N295 X63.123 Y568.028 Z2.322 I-2.36 J-1.93
N300 X65.909 Y563.693 Z2.094 I2.757 J-1.291
N305 X68.609 Y568.075 Z1.866 I-0.029 J3.04
N310 X63.497 Y568.612 Z1.639 I-2.725 J-1.34
N315 X65.222 Y563.777 Z1.411 I2.384 J-1.875
N320 X68.829 Y567.42 Z1.183 I0.658 J2.956
N325 X63.991 Y569.094 Z0.955 I-2.946 J-0.685
N330 X64.574 Y564.014 Z0.728 I1.89 J-2.356
N335 X68.896 Y566.734 Z0.5 I1.305 J2.72
N340 X62.863 I-3.017 J0.
N345 X68.896 I3.017 J0.
N350 G1 X68.9 Y566.979 F1500.
N355 X69.078 Y567.945
N360 X69.123 Y568.088
N365 X69.152 Y568.235
N370 X69.167 Y568.384
N375 X69.17 Y568.537
N380 X69.159 Y568.7
N385 X69.134 Y568.874
N390 X69.092 Y569.057
N395 X69.032 Y569.247
N400 X68.952 Y569.442
N405 X68.852 Y569.641
N410 X68.731 Y569.84
N415 X68.587 Y570.038
N420 X68.421 Y570.232
N425 X68.233 Y570.419
N430 X68.023 Y570.597
N435 X67.791 Y570.763
N440 X67.539 Y570.915
N445 X67.268 Y571.049
N450 X66.98 Y571.165
N455 X66.676 Y571.259
N460 X66.358 Y571.33
N465 X66.03 Y571.376
N470 X65.693 Y571.396
N475 X65.35 Y571.389
N480 X65.004 Y571.354
N485 X64.657 Y571.291
N490 X64.313 Y571.198
N495 X63.974 Y571.078
N500 X63.642 Y570.929
N505 X63.321 Y570.752
N510 X63.013 Y570.549
N515 X62.721 Y570.32
N520 X62.446 Y570.068
N525 X62.192 Y569.792
N530 X61.959 Y569.496
N535 X61.75 Y569.181
N540 X61.566 Y568.85
N545 X61.409 Y568.503
N550 X61.281 Y568.144
N555 X61.181 Y567.775
N560 X61.111 Y567.399
N565 X61.071 Y567.018
N570 X61.062 Y566.634
N575 X61.084 Y566.25
N580 X61.136 Y565.868
N585 X61.219 Y565.492
N590 X61.333 Y565.123
N595 X61.475 Y564.765
N600 X61.646 Y564.418
N605 X61.845 Y564.087
N610 X62.069 Y563.772
N615 X62.318 Y563.476
N620 X62.59 Y563.201
N625 X62.884 Y562.948
N630 X63.196 Y562.72
N635 X63.527 Y562.518
N640 X63.872 Y562.342
N645 X64.231 Y562.195
N650 X64.6 Y562.078
N655 X64.977 Y561.99
N660 X65.361 Y561.933
N665 X65.748 Y561.906
N670 X66.135 Y561.911
N675 X66.521 Y561.947
N680 X66.903 Y562.014
N685 X67.279 Y562.111
N690 X67.645 Y562.238
N695 X68. Y562.395
N700 X68.342 Y562.579
N705 X68.667 Y562.79
N710 X68.975 Y563.026
N715 X69.262 Y563.286
N720 X69.528 Y563.569
N725 X69.77 Y563.872
N730 X69.987 Y564.193
N735 X70.33 Y564.801
N740 X70.667 Y565.529
N745 X70.877 Y566.098
N750 X71.02 Y566.609
N755 X71.112 Y567.083
N760 X71.164 Y567.54
N765 X71.178 Y567.984
N770 X71.157 Y568.414
N775 X71.102 Y568.833
N780 X71.015 Y569.243
N785 X70.895 Y569.646
N790 X70.871 Y569.704
N795 X70.845 Y569.761
N800 X70.816 Y569.816
N805 X70.74 Y569.957
N810 X70.703 Y570.01
N815 X70.199 Y570.626
N820 X70.034 Y570.826
N825 X70.012 Y570.849
N830 X69.811 Y571.021
N835 X69.205 Y571.518
N840 X69.142 Y571.568
N845 X68.919 Y571.695
N850 X68.25 Y572.052
N855 X68.139 Y572.111
N860 X68.027 Y572.151
N865 X67.135 Y572.422
N870 X67.024 Y572.453
N875 X66.912 Y572.468
N880 X66.02 Y572.556
N885 X65.909 Y572.566
N890 X65.798 Y572.562
N895 X64.794 Y572.462
N900 X64.683 Y572.439
N905 X63.791 Y572.168
N910 X63.679 Y572.133
N915 X63.568 Y572.082
N920 X62.676 Y571.605
N925 X62.558 Y571.518
N930 X62.007 Y571.067
N935 X61.784 Y570.883
N940 X61.75 Y570.849
N945 X61.561 Y570.623
N950 X61.115 Y570.079
N955 X61.022 Y569.957
N960 X60.892 Y569.717
N965 X60.544 Y569.065
N970 X60.49 Y568.953
N975 X60.446 Y568.816
N980 X60.183 Y567.949
N985 X60.158 Y567.838
N990 X60.058 Y566.834
N995 X60.052 Y566.722
N1000 X60.062 Y566.611
N1005 X60.149 Y565.719
N1010 X60.163 Y565.607
N1015 X60.193 Y565.495
N1020 X60.463 Y564.603
N1025 X60.503 Y564.492
N1030 X60.56 Y564.38
N1035 X60.918 Y563.711
N1040 X61.043 Y563.488
N1045 X61.115 Y563.396
N1050 X61.589 Y562.819
N1055 X61.781 Y562.596
N1060 X62.051 Y562.373
N1065 X62.595 Y561.926
N1070 X62.676 Y561.871
N1075 X63.405 Y561.48
N1080 X63.568 Y561.393
N1085 X63.679 Y561.342
N1090 X63.791 Y561.307
N1095 X64.69 Y561.034
N1100 X64.798 Y561.013
N1105 X65.798 Y560.914
N1110 X65.909 Y560.91
N1115 X66.02 Y560.919
N1120 X66.912 Y561.007
N1125 X67.071 Y561.034
N1130 X68.027 Y561.324
N1135 X68.139 Y561.364
N1140 X68.25 Y561.423
N1145 X68.919 Y561.78
N1150 X69.142 Y561.907
N1155 X69.168 Y561.926
N1160 X69.811 Y562.454
N1165 X69.982 Y562.596
N1170 X70.034 Y562.649
N1175 X70.357 Y563.042
N1180 X70.703 Y563.465
N1185 X70.72 Y563.488
N1190 X70.845 Y563.711
N1195 X71.203 Y564.38
N1200 X71.26 Y564.492
N1205 X71.299 Y564.603
N1210 X71.57 Y565.495
N1215 X71.595 Y565.585
N1220 X71.613 Y565.719
N1225 X71.701 Y566.611
N1230 X71.71 Y566.722
N1235 X71.704 Y566.834
N1240 X71.616 Y567.726
N1245 X71.595 Y567.891
N1250 X71.579 Y567.949
N1255 X71.308 Y568.841
N1260 X71.273 Y568.953
N1265 X71.219 Y569.065
N1270 X70.816 Y569.816
N1275 G3 X70.144 Y570.117 I-0.547 J-0.322
N1280 G1 X70.047 Y570.097 Z0.508
N1285 X69.952 Y570.078 Z0.531
N1290 X69.862 Y570.06 Z0.569
N1295 X69.778 Y570.044 Z0.621
N1300 X69.704 Y570.029 Z0.686
N1305 X69.64 Y570.016 Z0.762
N1310 X69.589 Y570.006 Z0.847
N1315 X69.552 Y569.998 Z0.939
N1320 X69.529 Y569.994 Z1.036
N1325 X69.522 Y569.992 Z1.135
N1330 G0 Z25.525
(2D CONTOUR2)
N1335 G0 X16.828 Y330.518
N1340 Z25.525
N1345 Z15.525
N1350 G1 Z11.525 F833.33
N1355 Z5.397
N1360 G19 G2 Y329.883 Z4.762 J-0.635 K0. F2500.
N1365 G1 Y329.248
N1370 G17 G3 X17.463 Y328.613 I0.635 J0.
N1375 G1 X111.125
N1380 Y331.788
N1385 X15.875
N1390 Y328.613
N1395 X17.463
N1400 G3 X18.098 Y329.248 I0. J0.635
N1405 G1 Y329.883
N1410 G19 G3 Y330.518 Z5.397 J0. K0.635
N1415 G0 Z15.525
N1420 X153.035 Y359.093
N1425 G1 Z11.525 F833.33
N1430 Z5.397
N1435 X153.04 Y359.099 Z5.298 F2500.
N1440 X153.054 Y359.118 Z5.201
N1445 X153.077 Y359.148 Z5.109
N1450 X153.108 Y359.19 Z5.024
N1455 X153.147 Y359.242 Z4.948
N1460 X153.192 Y359.302 Z4.884
N1465 X153.243 Y359.37 Z4.832
N1470 X153.298 Y359.444 Z4.794
N1475 X153.356 Y359.522 Z4.77
N1480 X153.416 Y359.601 Z4.762
N1485 X153.797 Y360.109
N1490 G17 G3 X153.67 Y360.998 I-0.508 J0.381
N1495 G2 X152.4 Y363.538 I1.905 J2.54
N1500 G1 Y457.2
N1505 X149.225
N1510 Y15.875
N1515 X152.4
N1520 Y354.013
N1525 G2 X155.575 Y357.188 I3.175 J0.
N1530 G1 X396.875
N1535 Y360.363
N1540 X155.575
N1545 G2 X153.67 Y360.998 I0. J3.175
N1550 G3 X152.781 Y360.871 I-0.381 J-0.508
N1555 G1 X152.4 Y360.363
N1560 X152.34 Y360.284 Z4.77
N1565 X152.282 Y360.206 Z4.794
N1570 X152.227 Y360.132 Z4.832
N1575 X152.176 Y360.064 Z4.884
N1580 X152.131 Y360.004 Z4.948
N1585 X152.092 Y359.952 Z5.024
N1590 X152.061 Y359.91 Z5.109
N1595 X152.038 Y359.88 Z5.201
N1600 X152.024 Y359.861 Z5.298
N1605 X152.019 Y359.855 Z5.397
N1610 G0 Z25.525
(CUTOUTS)
N1615 G0 X70.326 Y566.103
N1620 Z25.525
N1625 Z15.525
N1630 G1 Z11.525 F333.33
N1635 Z5.16
N1640 G18 G2 X70.961 Z4.525 I0.635 K0. F1000.
N1645 G1 X71.596
N1650 G17 G3 X72.231 Y566.738 I0. J0.635
N1655 X59.531 I-6.35 J0.
N1660 X72.231 I6.35 J0.
N1665 X71.596 Y567.373 I-0.635 J0.
N1670 G1 X70.961
N1675 G18 G3 X70.326 Z5.16 I0. K0.635
N1680 G0 Z15.525
N1685 Y566.103
N1690 G1 Z5.525 F333.33
N1695 Z0.635
N1700 G2 X70.961 Z0. I0.635 K0. F1000.
N1705 G1 X71.596
N1710 G17 G3 X72.231 Y566.738 I0. J0.635
N1715 X59.531 I-6.35 J0.
N1720 X72.231 I6.35 J0.
N1725 X71.596 Y567.373 I-0.635 J0.
N1730 G1 X70.961
N1735 G18 G3 X70.326 Z0.635 I0. K0.635
N1740 G0 Z15.525
N1745 X123.072 Y39.679
N1750 G1 Z11.525 F333.33
N1755 Z5.16
N1760 X123.066 Y39.685 Z5.061 F1000.
N1765 X123.05 Y39.702 Z4.964
N1770 X123.023 Y39.729 Z4.872
N1775 X122.987 Y39.766 Z4.787
N1780 X122.941 Y39.812 Z4.711
N1785 X122.888 Y39.866 Z4.646
N1790 X122.829 Y39.927 Z4.594
N1795 X122.764 Y39.993 Z4.556
N1800 X122.697 Y40.062 Z4.533
N1805 X122.627 Y40.133 Z4.525
N1810 X122.183 Y40.586
N1815 G17 G3 X121.285 Y40.595 I-0.453 J-0.445
N1820 G2 X119.062 Y39.688 I-2.223 J2.267
N1825 G1 X117.475
N1830 Y12.7
N1835 G2 X114.3 Y9.525 I-3.175 J0.
N1840 G1 X12.7
N1845 G2 X9.525 Y12.7 I0. J3.175
N1850 G1 Y642.938
N1855 G2 X12.7 Y646.113 I3.175 J0.
N1860 G1 X119.062
N1865 G2 X122.237 Y642.938 I0. J-3.175
N1870 G1 Y42.862
N1875 G2 X121.285 Y40.595 I-3.175 J0.
N1880 G3 X121.276 Y39.697 I0.445 J-0.453
N1885 G1 X121.72 Y39.244
N1890 X121.79 Y39.173 Z4.533
N1895 X121.858 Y39.104 Z4.556
N1900 X121.922 Y39.038 Z4.594
N1905 X121.981 Y38.977 Z4.646
N1910 X122.034 Y38.923 Z4.711
N1915 X122.08 Y38.877 Z4.787
N1920 X122.116 Y38.84 Z4.872
N1925 X122.143 Y38.812 Z4.964
N1930 X122.159 Y38.796 Z5.061
N1935 X122.165 Y38.79 Z5.16
N1940 G0 Z15.525
N1945 X123.072 Y39.679
N1950 G1 Z5.525 F333.33
N1955 Z0.635
N1960 X123.066 Y39.685 Z0.536 F1000.
N1965 X123.05 Y39.702 Z0.439
N1970 X123.023 Y39.729 Z0.347
N1975 X122.987 Y39.766 Z0.262
N1980 X122.941 Y39.812 Z0.186
N1985 X122.888 Y39.866 Z0.121
N1990 X122.829 Y39.927 Z0.069
N1995 X122.764 Y39.993 Z0.031
N2000 X122.697 Y40.062 Z0.008
N2005 X122.627 Y40.133 Z0.
N2010 X122.183 Y40.586
N2015 G3 X121.285 Y40.595 I-0.453 J-0.445
N2020 G2 X119.062 Y39.688 I-2.223 J2.267
N2025 G1 X117.475
N2030 Y12.7
N2035 G2 X114.3 Y9.525 I-3.175 J0.
N2040 G1 X74.489
N2045 Z3.
N2050 X56.139
N2055 Z0. F333.33
N2060 X12.7 F1000.
N2065 G2 X9.525 Y12.7 I0. J3.175
N2070 G1 Y56.139
N2075 Z3.
N2080 Y74.489
N2085 Z0. F333.33
N2090 Y161.368 F1000.
N2095 Z3.
N2100 Y179.718
N2105 Z0. F333.33
N2110 Y266.596 F1000.
N2115 Z3.
N2120 Y284.946
N2125 Z0. F333.33
N2130 Y371.825 F1000.
N2135 Z3.
N2140 Y390.175
N2145 Z0. F333.33
N2150 Y477.054 F1000.
N2155 Z3.
N2160 Y495.404
N2165 Z0. F333.33
N2170 Y582.282 F1000.
N2175 Z3.
N2180 Y600.632
N2185 Z0. F333.33
N2190 Y642.938 F1000.
N2195 G2 X12.7 Y646.113 I3.175 J0.
N2200 G1 X57.273
N2205 Z3.
N2210 X75.623
N2215 Z0. F333.33
N2220 X119.062 F1000.
N2225 G2 X122.237 Y642.938 I0. J-3.175
N2230 G1 Y599.498
N2235 Z3.
N2240 Y581.148
N2245 Z0. F333.33
N2250 Y494.27 F1000.
N2255 Z3.
N2260 Y475.92
N2265 Z0. F333.33
N2270 Y389.041 F1000.
N2275 Z3.
N2280 Y370.691
N2285 Z0. F333.33
N2290 Y283.813 F1000.
N2295 Z3.
N2300 Y265.463
N2305 Z0. F333.33
N2310 Y178.584 F1000.
N2315 Z3.
N2320 Y160.234
N2325 Z0. F333.33
N2330 Y73.355 F1000.
N2335 Z3.
N2340 Y55.005
N2345 Z0. F333.33
N2350 Y42.862 F1000.
N2355 G2 X121.285 Y40.595 I-3.175 J0.
N2360 G3 X121.276 Y39.697 I0.445 J-0.453
N2365 G1 X121.72 Y39.244
N2370 X121.79 Y39.173 Z0.008
N2375 X121.858 Y39.104 Z0.031
N2380 X121.922 Y39.038 Z0.069
N2385 X121.981 Y38.977 Z0.121
N2390 X122.034 Y38.923 Z0.186
N2395 X122.08 Y38.877 Z0.262
N2400 X122.116 Y38.84 Z0.347
N2405 X122.143 Y38.812 Z0.439
N2410 X122.159 Y38.796 Z0.536
N2415 X122.165 Y38.79 Z0.635
N2420 G0 Z15.525
N2425 X145.415 Y465.455
N2430 G1 Z11.525 F333.33
N2435 Z5.16
N2440 G19 G2 Y464.82 Z4.525 J-0.635 K0. F1000.
N2445 G1 Y464.185
N2450 G17 G3 X146.05 Y463.55 I0.635 J0.
N2455 G1 X400.05
N2460 G2 X403.225 Y460.375 I0. J-3.175
N2465 G1 Y12.7
N2470 G2 X400.05 Y9.525 I-3.175 J0.
N2475 G1 X146.05
N2480 G2 X142.875 Y12.7 I0. J3.175
N2485 G1 Y460.375
N2490 G2 X146.05 Y463.55 I3.175 J0.
N2495 G3 X146.685 Y464.185 I0. J0.635
N2500 G1 Y464.82
N2505 G19 G3 Y465.455 Z5.16 J0. K0.635
N2510 G0 Z15.525
N2515 X145.415
N2520 G1 Z5.525 F333.33
N2525 Z0.635
N2530 G2 Y464.82 Z0. J-0.635 K0. F1000.
N2535 G1 Y464.185
N2540 G17 G3 X146.05 Y463.55 I0.635 J0.
N2545 G1 X186.995
N2550 Z3.
N2555 X205.345
N2560 Z0. F333.33
N2565 X287.234 F1000.
N2570 Z3.
N2575 X305.584
N2580 Z0. F333.33
N2585 X387.473 F1000.
N2590 Z3.
N2595 X400.05
N2600 G2 X403.225 Y460.375 I0. J-3.175
N2605 G1 Y457.2
N2610 Z0. F333.33
N2615 Y372.713 F1000.
N2620 Z3.
N2625 Y354.363
N2630 Z0. F333.33
N2635 Y272.473 F1000.
N2640 Z3.
N2645 Y254.123
N2650 Z0. F333.33
N2655 Y172.234 F1000.
N2660 Z3.
N2665 Y153.884
N2670 Z0. F333.33
N2675 Y71.995 F1000.
N2680 Z3.
N2685 Y53.645
N2690 Z0. F333.33
N2695 Y12.7 F1000.
N2700 G2 X400.05 Y9.525 I-3.175 J0.
N2705 G1 X359.105
N2710 Z3.
N2715 X340.755
N2720 Z0. F333.33
N2725 X258.866 F1000.
N2730 Z3.
N2735 X240.516
N2740 Z0. F333.33
N2745 X158.627 F1000.
N2750 Z3.
N2755 X146.05
N2760 G2 X142.875 Y12.7 I0. J3.175
N2765 G1 Y15.875
N2770 Z0. F333.33
N2775 Y100.363 F1000.
N2780 Z3.
N2785 Y118.713
N2790 Z0. F333.33
N2795 Y200.602 F1000.
N2800 Z3.
N2805 Y218.952
N2810 Z0. F333.33
N2815 Y300.841 F1000.
N2820 Z3.
N2825 Y319.191
N2830 Z0. F333.33
N2835 Y401.08 F1000.
N2840 Z3.
N2845 Y419.43
N2850 Z0. F333.33
N2855 Y460.375 F1000.
N2860 G2 X146.05 Y463.55 I3.175 J0.
N2865 G3 X146.685 Y464.185 I0. J0.635
N2870 G1 Y464.82
N2875 G19 G3 Y465.455 Z0.635 J0. K0.635
N2880 G0 Z25.525
N2885 G17
N2890 G53 G0 Z0.
N2895 G53 G0 X0. Y0.
N2900 M30
%
