%
(RVCBNTNEST3)
(MACHINE)
(  VENDOR AUTODESK)
(  MODEL GENERIC 3-AXIS ROUTER)
(  DESCRIPTION THIS MACHINE HAS XYZ AXIS ON THE HEAD)
(T20 D=6.35 CR=0. - ZMIN=0. - FLAT END MILL)
N10 G90 G94 G17 G91.1
N15 G21
N20 G53 G0 Z0.
(2D ADAPTIVE1)
N25 M0
(MANUAL TOOL CHANGE TO T20)
N30 S20000 M3
N35 G17 G90 G94
N40 G54
N45 G0 X138.703 Y6.05
N50 G43 Z25.525 H20
N55 G0 Z15.525
N60 Z7.898
N65 G1 Z7.262 F1000.
N70 Z5.262
N75 G3 X139.2 Y9.506 I-15.704 J4.023
N80 G1 Y10.276
N85 X139.193 Y10.426
N90 X139.019 Y10.737
N95 X138.76 Y11.083
N100 X138.396 Y11.456
N105 X137.892 Y11.852
N110 X137.197 Y12.262
N115 X136.293 Y12.645
N120 X135.902 Y12.941
N125 X135.292 Y13.71
N130 X134.914 Y14.616
N135 X134.669 Y15.566
N140 X134.507 Y16.534
N145 X134.399 Y17.51
N150 X134.327 Y18.489
N155 X134.278 Y19.469
N160 X134.245 Y20.45
N165 X134.222 Y21.431
N170 X134.207 Y22.413
N175 X134.197 Y23.394
N180 X134.19 Y24.376
N185 X134.185 Y25.357
N190 X134.182 Y26.339
N195 X134.178 Y28.302
N200 X134.176 Y32.228
N205 X134.175 Y58.729
N210 Y108.786
N215 Y158.843
N220 Y208.901
N225 Y258.958
N230 Y309.015
N235 Y359.072
N240 Y409.13
N245 Y457.347
N250 X134.204 Y457.466
N255 X134.261 Y457.574
N260 X134.587 Y457.941
N265 X135.391 Y458.504
N270 X136.307 Y458.857
N275 X137.262 Y459.086
N280 X138.232 Y459.238
N285 X138.631 Y459.279
N290 X138.811 Y459.325
N295 X138.969 Y459.421
N300 X139.094 Y459.559
N305 X139.173 Y459.727
N310 X139.2 Y459.911
N315 Y460.346
N320 G3 X138.752 Y460.93 I-0.635 J-0.022
N325 G1 X138.658 Y460.96 Z5.27
N330 X138.565 Y460.988 Z5.294
N335 X138.477 Y461.015 Z5.332
N340 X138.396 Y461.04 Z5.384
N345 X138.323 Y461.063 Z5.448
N350 X138.262 Y461.082 Z5.524
N355 X138.212 Y461.097 Z5.609
N360 X138.175 Y461.108 Z5.701
N365 X138.153 Y461.115 Z5.798
N370 X138.146 Y461.118 Z5.898
N375 G0 Z15.525
N380 X138.654 Y8.977
N385 Z6.532
N390 G1 Z5.898 F1000.
N395 X138.658 Y8.983 Z5.798
N400 X138.67 Y9.003 Z5.701
N405 X138.69 Y9.036 Z5.609
N410 X138.716 Y9.081 Z5.524
N415 X138.749 Y9.136 Z5.448
N420 X138.788 Y9.202 Z5.384
N425 X138.831 Y9.275 Z5.332
N430 X138.878 Y9.354 Z5.294
N435 X138.928 Y9.437 Z5.27
N440 X138.979 Y9.522 Z5.262
N445 G3 X139.2 Y10.276 I-1.36 J0.809
N450 G1 Y12.283
N455 X139.151 Y13.263
N460 X138.979 Y14.23
N465 X138.81 Y15.197
N470 X138.664 Y16.167
N475 X138.545 Y17.142
N480 X138.452 Y18.119
N485 X138.38 Y19.098
N490 X138.326 Y20.078
N495 X138.286 Y21.058
N500 X138.255 Y22.039
N505 X138.233 Y23.021
N510 X138.217 Y24.002
N515 X138.205 Y24.983
N520 X138.197 Y25.965
N525 X138.191 Y26.946
N530 X138.186 Y27.928
N535 X138.181 Y29.891
N540 X138.177 Y32.835
N545 X138.175 Y38.724
N550 Y62.281
N555 Y112.338
N560 Y162.395
N565 Y212.453
N570 Y262.51
N575 Y312.567
N580 Y362.624
N585 Y412.682
N590 Y452.801
N595 X138.194 Y452.922
N600 X138.376 Y453.378
N605 X138.998 Y454.137
N610 X139.107 Y454.266
N615 X139.176 Y454.419
N620 X139.2 Y454.586
N625 Y459.911
N630 G3 X138.752 Y460.495 I-0.635 J-0.022
N635 G1 X138.658 Y460.525 Z5.27
N640 X138.565 Y460.553 Z5.294
N645 X138.477 Y460.58 Z5.332
N650 X138.396 Y460.605 Z5.384
N655 X138.323 Y460.628 Z5.448
N660 X138.262 Y460.647 Z5.524
N665 X138.212 Y460.662 Z5.609
N670 X138.175 Y460.673 Z5.701
N675 X138.153 Y460.68 Z5.798
N680 X138.146 Y460.682 Z5.898
N685 G0 Z15.525
N690 X138.654 Y10.984
N695 Z6.532
N700 G1 Z5.898 F1000.
N705 X138.658 Y10.99 Z5.798
N710 X138.67 Y11.01 Z5.701
N715 X138.69 Y11.043 Z5.609
N720 X138.716 Y11.088 Z5.524
N725 X138.749 Y11.144 Z5.448
N730 X138.788 Y11.209 Z5.384
N735 X138.831 Y11.282 Z5.332
N740 X138.878 Y11.361 Z5.294
N745 X138.928 Y11.444 Z5.27
N750 X138.979 Y11.53 Z5.262
N755 G3 X139.2 Y12.283 I-1.36 J0.809
N760 G1 Y353.516
N765 X139.206 Y353.962
N770 X139.209 Y354.185
N775 X139.225 Y354.408
N780 X139.255 Y354.631
N785 X139.3 Y354.854
N790 X139.362 Y355.077
N795 X139.392 Y355.176
N800 X139.436 Y355.3
N805 X139.526 Y355.523
N810 X139.615 Y355.702
N815 X139.838 Y356.065
N820 X139.92 Y356.192
N825 X140.061 Y356.359
N830 X140.551 Y357.005
N835 X140.962 Y357.728
N840 X141.331 Y358.638
N845 X141.572 Y359.512
N850 X141.595 Y359.688
N855 X141.568 Y359.864
N860 X141.494 Y360.025
N865 X141.378 Y360.159
N870 X141.229 Y360.256
N875 X141.175 Y360.281
N880 X140.921 Y360.429
N885 X140.729 Y360.565
N890 X140.506 Y360.732
N895 X140.349 Y360.875
N900 X140.283 Y360.937
N905 X140.139 Y361.098
N910 X139.951 Y361.322
N915 X139.838 Y361.486
N920 X139.615 Y361.849
N925 X139.542 Y361.991
N930 X139.452 Y362.214
N935 X139.392 Y362.374
N940 X139.308 Y362.66
N945 X139.262 Y362.883
N950 X139.23 Y363.106
N955 X139.209 Y363.329
N960 X139.2 Y363.998
N965 Y454.586
N970 G3 X138.752 Y455.171 I-0.635 J-0.022
N975 G1 X138.658 Y455.2 Z5.27
N980 X138.565 Y455.228 Z5.294
N985 X138.477 Y455.256 Z5.332
N990 X138.396 Y455.281 Z5.384
N995 X138.323 Y455.303 Z5.448
N1000 X138.262 Y455.322 Z5.524
N1005 X138.212 Y455.337 Z5.609
N1010 X138.175 Y455.349 Z5.701
N1015 X138.153 Y455.355 Z5.798
N1020 X138.146 Y455.358 Z5.898
N1025 G0 Z15.525
N1030 X138.806 Y355.716
N1035 Z6.532
N1040 G1 Z5.898 F1000.
N1045 X138.814 Y355.719 Z5.798
N1050 X138.836 Y355.727 Z5.701
N1055 X138.872 Y355.739 Z5.609
N1060 X138.921 Y355.756 Z5.524
N1065 X138.982 Y355.778 Z5.448
N1070 X139.054 Y355.802 Z5.384
N1075 X139.134 Y355.83 Z5.332
N1080 X139.221 Y355.861 Z5.294
N1085 X139.312 Y355.893 Z5.27
N1090 X139.406 Y355.925 Z5.262
N1095 G3 X140.061 Y356.359 I-0.52 J1.495
N1100 G1 X140.107 Y356.415
N1105 X140.283 Y356.614
N1110 X140.506 Y356.819
N1115 X140.86 Y357.084
N1120 X140.952 Y357.14
N1125 X141.175 Y357.27
N1130 X141.253 Y357.307
N1135 X141.398 Y357.374
N1140 X141.621 Y357.46
N1145 X142.067 Y357.591
N1150 X142.302 Y357.659
N1155 X142.562 Y357.775
N1160 X142.817 Y357.931
N1165 X143.056 Y358.125
N1170 X143.268 Y358.35
N1175 X143.461 Y358.617
N1180 X143.616 Y358.905
N1185 X143.654 Y359.005
N1190 X143.694 Y359.204
N1195 X143.669 Y359.406
N1200 X143.582 Y359.59
N1205 X143.442 Y359.736
N1210 X143.262 Y359.831
N1215 X143.061 Y359.864
N1220 X142.959
N1225 X142.736 Y359.871
N1230 X142.513 Y359.897
N1235 G3 X141.54 Y359.732 Z5.463 I-0.162 J-1.993
N1240 G1 X141.387 Y359.656
N1245 G3 X141.152 Y357.891 I0.533 J-0.969
N1250 X142.067 Y357.591 Z5.262 I0.768 J0.795
N1255 G1 X142.29 Y357.628
N1260 X142.736 Y357.68
N1265 X142.959 Y357.687
N1270 X143.851 Y357.688
N1275 X144.001 Y357.695
N1280 X144.198 Y357.732
N1285 X144.402 Y357.798
N1290 X144.61 Y357.898
N1295 X144.805 Y358.025
N1300 X144.991 Y358.185
N1305 X145.165 Y358.381
N1310 X145.312 Y358.598
N1315 X145.436 Y358.845
N1320 X145.497 Y359.021
N1325 X145.531 Y359.219
N1330 X145.503 Y359.417
N1335 X145.413 Y359.597
N1340 X145.273 Y359.74
N1345 X145.094 Y359.831
N1350 X144.896 Y359.863
N1355 X143.405
N1360 X143.061 Y359.864
N1365 G3 X142.564 Y359.481 Z5.397 I0.017 J-0.537
N1370 X142.507 Y359.16 Z5.463 I1.336 J-0.399
N1375 X142.949 Y358.061 I1.392 J-0.079
N1380 X143.851 Y357.688 Z5.262 I0.95 J1.02
N1385 G1 X145.635
N1390 X145.837 Y357.698
N1395 X146.035 Y357.735
N1400 X146.236 Y357.8
N1405 X146.445 Y357.9
N1410 X146.641 Y358.027
N1415 X146.824 Y358.185
N1420 X146.999 Y358.381
N1425 X147.147 Y358.599
N1430 X147.27 Y358.844
N1435 X147.331 Y359.021
N1440 X147.366 Y359.218
N1445 X147.337 Y359.417
N1450 X147.248 Y359.596
N1455 X147.107 Y359.739
N1460 X146.929 Y359.831
N1465 X146.731 Y359.863
N1470 X144.896
N1475 G3 X144.411 Y359.512 Z5.39 I0.019 J-0.537
N1480 X144.332 Y359.16 Z5.463 I1.271 J-0.47
N1485 X144.738 Y358.07 I1.35 J-0.118
N1490 X145.635 Y357.688 Z5.262 I0.944 J0.972
N1495 G1 X147.418
N1500 X147.671 Y357.701
N1505 X147.869 Y357.737
N1510 X148.069 Y357.802
N1515 X148.279 Y357.902
N1520 X148.474 Y358.03
N1525 X148.658 Y358.187
N1530 X148.832 Y358.383
N1535 X148.98 Y358.6
N1540 X149.102 Y358.845
N1545 X149.163 Y359.021
N1550 X149.198 Y359.218
N1555 X149.169 Y359.417
N1560 X149.08 Y359.596
N1565 X148.939 Y359.739
N1570 X148.761 Y359.831
N1575 X148.563 Y359.863
N1580 X146.731
N1585 G3 X146.258 Y359.544 Z5.383 I0.019 J-0.538
N1590 X146.153 Y359.164 Z5.463 I1.207 J-0.536
N1595 X146.527 Y358.078 I1.311 J-0.156
N1600 X147.418 Y357.688 Z5.262 I0.938 J0.93
N1605 G1 X149.425
N1610 X149.575 Y357.695
N1615 X149.774 Y357.742
N1620 X149.981 Y357.82
N1625 X150.187 Y357.931
N1630 X150.378 Y358.069
N1635 X150.562 Y358.243
N1640 X150.729 Y358.448
N1645 X150.867 Y358.674
N1650 X150.982 Y358.934
N1655 X151.016 Y359.049
N1660 X151.041 Y359.243
N1665 X151.007 Y359.436
N1670 X150.915 Y359.609
N1675 X150.775 Y359.745
N1680 X150.6 Y359.833
N1685 X150.406 Y359.863
N1690 X148.563
N1695 G3 X148.057 Y359.438 Z5.405 I0.019 J-0.536
N1700 X148.025 Y359.155 Z5.463 I1.419 J-0.3
N1705 X148.517 Y358.049 I1.45 J-0.018
N1710 X149.425 Y357.688 Z5.262 I0.959 J1.088
N1715 G1 X151.209
N1720 X151.359 Y357.695
N1725 X151.561 Y357.735
N1730 X151.759 Y357.801
N1735 X151.969 Y357.903
N1740 X152.166 Y358.034
N1745 X152.347 Y358.193
N1750 X152.522 Y358.392
N1755 X152.669 Y358.613
N1760 X152.789 Y358.858
N1765 X152.845 Y359.026
N1770 X152.878 Y359.223
N1775 X152.849 Y359.42
N1780 X152.759 Y359.599
N1785 X152.618 Y359.741
N1790 X152.441 Y359.832
N1795 X152.243 Y359.863
N1800 X150.406
N1805 G3 X149.909 Y359.473 Z5.398 I0.019 J-0.537
N1810 X149.857 Y359.157 Z5.463 I1.349 J-0.383
N1815 X150.306 Y358.059 I1.401 J-0.068
N1820 X151.209 Y357.688 Z5.262 I0.952 J1.03
N1825 G1 X152.992
N1830 X153.184 Y357.698
N1835 X153.383 Y357.734
N1840 X153.582 Y357.799
N1845 X153.792 Y357.899
N1850 X153.988 Y358.027
N1855 X154.171 Y358.185
N1860 X154.346 Y358.381
N1865 X154.494 Y358.599
N1870 X154.617 Y358.843
N1875 X154.678 Y359.021
N1880 X154.713 Y359.218
N1885 X154.684 Y359.417
N1890 X154.595 Y359.596
N1895 X154.454 Y359.739
N1900 X154.276 Y359.831
N1905 X154.078 Y359.863
N1910 X152.243
N1915 G3 X151.756 Y359.505 Z5.391 I0.019 J-0.537
N1920 X151.682 Y359.16 Z5.463 I1.285 J-0.455
N1925 X152.095 Y358.068 I1.358 J-0.11
N1930 X152.992 Y357.688 Z5.262 I0.945 J0.982
N1935 G1 X154.776
N1940 X155.018 Y357.7
N1945 X155.217 Y357.737
N1950 X155.417 Y357.802
N1955 X155.626 Y357.902
N1960 X155.822 Y358.029
N1965 X156.005 Y358.187
N1970 X156.18 Y358.383
N1975 X156.328 Y358.6
N1980 X156.45 Y358.845
N1985 X156.511 Y359.021
N1990 X156.546 Y359.218
N1995 X156.517 Y359.417
N2000 X156.428 Y359.596
N2005 X156.287 Y359.739
N2010 X156.109 Y359.831
N2015 X155.911 Y359.863
N2020 X154.078
N2025 G3 X153.602 Y359.537 Z5.385 I0.019 J-0.538
N2030 X153.503 Y359.163 Z5.463 I1.22 J-0.522
N2035 X153.883 Y358.077 I1.319 J-0.148
N2040 X154.776 Y357.688 Z5.262 I0.939 J0.938
N2045 G1 X156.683
N2050 X156.851 Y357.696
N2055 X157.05 Y357.733
N2060 X157.25 Y357.798
N2065 X157.46 Y357.898
N2070 X157.656 Y358.026
N2075 X157.839 Y358.184
N2080 X158.014 Y358.38
N2085 X158.162 Y358.598
N2090 X158.285 Y358.843
N2095 X158.346 Y359.021
N2100 X158.381 Y359.218
N2105 X158.353 Y359.417
N2110 X158.263 Y359.596
N2115 X158.123 Y359.739
N2120 X157.944 Y359.831
N2125 X157.746 Y359.863
N2130 X155.911
N2135 G3 X155.418 Y359.491 Z5.394 I0.019 J-0.537
N2140 X155.354 Y359.159 Z5.463 I1.312 J-0.425
N2145 X155.783 Y358.064 I1.376 J-0.092
N2150 X156.683 Y357.688 Z5.262 I0.948 J1.002
N2155 G1 X158.567
N2160 X158.716 Y357.695
N2165 X158.916 Y357.736
N2170 X159.119 Y357.807
N2175 X159.327 Y357.911
N2180 X159.521 Y358.044
N2185 X159.705 Y358.208
N2190 X159.876 Y358.408
N2195 X160.02 Y358.629
N2200 X160.14 Y358.881
N2205 X160.189 Y359.033
N2210 X160.22 Y359.229
N2215 X160.189 Y359.425
N2220 X160.098 Y359.602
N2225 X159.958 Y359.742
N2230 X159.781 Y359.832
N2235 X159.585 Y359.863
N2240 X157.746
N2245 G3 X157.246 Y359.462 Z5.4 I0.019 J-0.537
N2250 X157.2 Y359.157 Z5.463 I1.37 J-0.359
N2255 X157.662 Y358.056 I1.416 J-0.053
N2260 G1 X157.749 Y357.983 Z5.44
N2265 X157.841 Y357.918 Z5.417
N2270 G3 X158.567 Y357.688 Z5.262 I0.775 J1.186
N2275 G1 X160.35
N2280 X160.525 Y357.697
N2285 X160.725 Y357.734
N2290 X160.924 Y357.798
N2295 X161.134 Y357.899
N2300 X161.33 Y358.027
N2305 X161.513 Y358.184
N2310 X161.688 Y358.38
N2315 X161.837 Y358.599
N2320 X161.959 Y358.842
N2325 X162.02 Y359.021
N2330 X162.055 Y359.218
N2335 X162.026 Y359.417
N2340 X161.937 Y359.596
N2345 X161.797 Y359.739
N2350 X161.618 Y359.831
N2355 X161.42 Y359.863
N2360 X159.585
N2365 G3 X159.094 Y359.495 Z5.393 I0.019 J-0.537
N2370 G1 X159.062 Y359.383 Z5.417
N2375 X159.04 Y359.272 Z5.44
N2380 X159.027 Y359.159 Z5.463
N2385 G3 X159.451 Y358.066 I1.371 J-0.097
N2390 X160.35 Y357.688 Z5.262 I0.947 J0.996
N2395 G1 X162.134
N2400 X162.36 Y357.699
N2405 X162.559 Y357.736
N2410 X162.759 Y357.801
N2415 X162.968 Y357.901
N2420 X163.164 Y358.028
N2425 X163.348 Y358.186
N2430 X163.522 Y358.382
N2435 X163.67 Y358.6
N2440 X163.793 Y358.844
N2445 X163.854 Y359.021
N2450 X163.888 Y359.218
N2455 X163.86 Y359.417
N2460 X163.771 Y359.596
N2465 X163.63 Y359.739
N2470 X163.452 Y359.831
N2475 X163.253 Y359.863
N2480 X161.42
N2485 G3 X160.94 Y359.527 Z5.387 I0.019 J-0.538
N2490 X160.85 Y359.162 Z5.463 I1.24 J-0.502
N2495 X161.24 Y358.074 I1.331 J-0.137
N2500 G1 X161.324 Y357.998 Z5.44
N2505 X161.414 Y357.929 Z5.417
N2510 G3 X162.134 Y357.688 Z5.262 I0.767 J1.096
N2515 G1 X164.04
N2520 X164.194 Y357.696
N2525 X164.393 Y357.732
N2530 X164.593 Y357.797
N2535 X164.803 Y357.898
N2540 X164.999 Y358.025
N2545 X165.182 Y358.184
N2550 X165.357 Y358.38
N2555 X165.505 Y358.597
N2560 X165.628 Y358.842
N2565 X165.69 Y359.021
N2570 X165.725 Y359.218
N2575 X165.696 Y359.417
N2580 X165.607 Y359.596
N2585 X165.466 Y359.739
N2590 X165.288 Y359.831
N2595 X165.09 Y359.863
N2600 X163.253
N2605 G3 X162.758 Y359.482 Z5.396 I0.019 J-0.537
N2610 X162.7 Y359.158 Z5.463 I1.331 J-0.404
N2615 X163.139 Y358.062 I1.388 J-0.08
N2620 G1 X163.225 Y357.988 Z5.44
N2625 X163.317 Y357.921 Z5.417
N2630 G3 X164.04 Y357.688 Z5.262 I0.772 J1.157
N2635 G1 X165.924
N2640 X166.074 Y357.695
N2645 X166.273 Y357.738
N2650 X166.478 Y357.811
N2655 X166.686 Y357.918
N2660 X166.878 Y358.052
N2665 X167.062 Y358.22
N2670 X167.232 Y358.422
N2675 X167.374 Y358.645
N2680 X167.492 Y358.899
N2685 X167.536 Y359.038
N2690 X167.565 Y359.234
N2695 X167.532 Y359.429
N2700 X167.441 Y359.604
N2705 X167.301 Y359.743
N2710 X167.125 Y359.832
N2715 X166.93 Y359.863
N2720 X165.09
N2725 G3 X164.587 Y359.454 Z5.402 I0.019 J-0.536
N2730 X164.547 Y359.156 Z5.463 I1.387 J-0.339
N2735 X165.019 Y358.054 I1.428 J-0.041
N2740 G1 X165.106 Y357.981 Z5.44
N2745 X165.199 Y357.916 Z5.417
N2750 G3 X165.924 Y357.688 Z5.262 I0.776 J1.199
N2755 G1 X167.708
N2760 X167.869 Y357.696
N2765 X168.07 Y357.733
N2770 X168.268 Y357.797
N2775 X168.478 Y357.898
N2780 X168.676 Y358.026
N2785 X168.858 Y358.183
N2790 X169.033 Y358.38
N2795 X169.182 Y358.599
N2800 X169.304 Y358.842
N2805 X169.366 Y359.021
N2810 X169.4 Y359.218
N2815 X169.372 Y359.417
N2820 X169.283 Y359.596
N2825 X169.142 Y359.739
N2830 X168.964 Y359.831
N2835 X168.765 Y359.863
N2840 X166.93
N2845 G3 X166.436 Y359.488 Z5.395 I0.019 J-0.537
N2850 X166.375 Y359.158 Z5.463 I1.32 J-0.416
N2855 X166.808 Y358.063 I1.382 J-0.087
N2860 X167.708 Y357.688 Z5.262 I0.949 J1.008
N2865 G1 X169.492
N2870 X169.706 Y357.699
N2875 X169.904 Y357.735
N2880 X170.105 Y357.8
N2885 X170.314 Y357.9
N2890 X170.509 Y358.028
N2895 X170.693 Y358.186
N2900 X170.868 Y358.382
N2905 X171.016 Y358.599
N2910 X171.138 Y358.844
N2915 X171.199 Y359.021
N2920 X171.234 Y359.218
N2925 X171.206 Y359.417
N2930 X171.116 Y359.596
N2935 X170.976 Y359.739
N2940 X170.797 Y359.831
N2945 X170.599 Y359.863
N2950 X168.765
N2955 G3 X168.283 Y359.519 Z5.388 I0.019 J-0.537
N2960 X168.198 Y359.161 Z5.463 I1.256 J-0.485
N2965 X168.596 Y358.072 I1.341 J-0.127
N2970 X169.492 Y357.688 Z5.262 I0.943 J0.962
N2975 G1 X171.276
N2980 X171.54 Y357.701
N2985 X171.738 Y357.738
N2990 X171.938 Y357.803
N2995 X172.147 Y357.903
N3000 X172.342 Y358.03
N3005 X172.526 Y358.188
N3010 X172.701 Y358.384
N3015 X172.848 Y358.601
N3020 X172.971 Y358.845
N3025 X173.031 Y359.021
N3030 X173.066 Y359.218
N3035 X173.037 Y359.417
N3040 X172.948 Y359.596
N3045 X172.808 Y359.739
N3050 X172.629 Y359.831
N3055 X172.431 Y359.863
N3060 X170.599
N3065 G3 X170.129 Y359.551 Z5.382 I0.019 J-0.538
N3070 X170.019 Y359.165 Z5.463 I1.192 J-0.551
N3075 X170.385 Y358.08 I1.303 J-0.164
N3080 X171.276 Y357.688 Z5.262 I0.937 J0.92
N3085 G1 X173.282
N3090 X173.432 Y357.695
N3095 X173.631 Y357.741
N3100 X173.837 Y357.817
N3105 X174.044 Y357.926
N3110 X174.236 Y358.062
N3115 X174.42 Y358.234
N3120 X174.588 Y358.438
N3125 X174.727 Y358.662
N3130 X174.844 Y358.92
N3135 X174.881 Y359.045
N3140 X174.908 Y359.24
N3145 X174.874 Y359.433
N3150 X174.783 Y359.607
N3155 X174.643 Y359.744
N3160 X174.467 Y359.833
N3165 X174.273 Y359.863
N3170 X172.431
N3175 G3 X171.926 Y359.444 Z5.404 I0.019 J-0.536
N3180 X171.891 Y359.156 Z5.463 I1.406 J-0.316
N3185 X172.375 Y358.051 I1.441 J-0.027
N3190 X173.282 Y357.688 Z5.262 I0.958 J1.077
N3195 G1 X175.066
N3200 X175.216 Y357.695
N3205 X175.418 Y357.733
N3210 X175.616 Y357.798
N3215 X175.825 Y357.899
N3220 X176.023 Y358.028
N3225 X176.205 Y358.185
N3230 X176.38 Y358.383
N3235 X176.528 Y358.602
N3240 X176.65 Y358.846
N3245 X176.71 Y359.022
N3250 X176.744 Y359.219
N3255 X176.715 Y359.418
N3260 X176.626 Y359.597
N3265 X176.486 Y359.74
N3270 X176.307 Y359.831
N3275 X176.109 Y359.863
N3280 X174.273
N3285 G3 X173.777 Y359.479 Z5.397 I0.019 J-0.537
N3290 X173.722 Y359.158 Z5.463 I1.338 J-0.396
N3295 X174.164 Y358.061 I1.393 J-0.075
N3300 X175.066 Y357.688 Z5.262 I0.95 J1.021
N3305 G1 X176.85
N3310 X177.05 Y357.698
N3315 X177.249 Y357.735
N3320 X177.449 Y357.8
N3325 X177.658 Y357.9
N3330 X177.854 Y358.027
N3335 X178.037 Y358.185
N3340 X178.212 Y358.381
N3345 X178.36 Y358.599
N3350 X178.483 Y358.844
N3355 X178.544 Y359.021
N3360 X178.579 Y359.218
N3365 X178.55 Y359.417
N3370 X178.461 Y359.596
N3375 X178.32 Y359.739
N3380 X178.142 Y359.831
N3385 X177.944 Y359.863
N3390 X176.109
N3395 G3 X175.624 Y359.511 Z5.39 I0.019 J-0.537
N3400 X175.546 Y359.16 Z5.463 I1.274 J-0.467
N3405 X175.953 Y358.07 I1.351 J-0.117
N3410 G1 X176.038 Y357.994 Z5.44
N3415 X176.128 Y357.926 Z5.417
N3420 G3 X176.85 Y357.688 Z5.262 I0.769 J1.118
N3425 G1 X178.633
N3430 X178.884 Y357.701
N3435 X179.083 Y357.737
N3440 X179.283 Y357.802
N3445 X179.492 Y357.902
N3450 X179.687 Y358.029
N3455 X179.871 Y358.187
N3460 X180.045 Y358.383
N3465 X180.193 Y358.6
N3470 X180.316 Y358.845
N3475 X180.376 Y359.021
N3480 X180.411 Y359.218
N3485 X180.382 Y359.417
N3490 X180.293 Y359.596
N3495 X180.153 Y359.739
N3500 X179.974 Y359.831
N3505 X179.776 Y359.863
N3510 X177.944
N3515 G3 X177.47 Y359.542 Z5.383 I0.019 J-0.538
N3520 X177.367 Y359.164 Z5.463 I1.209 J-0.534
N3525 X177.741 Y358.078 I1.313 J-0.155
N3530 X178.633 Y357.688 Z5.262 I0.938 J0.931
N3535 G1 X180.64
N3540 X180.79 Y357.695
N3545 X180.989 Y357.742
N3550 X181.196 Y357.821
N3555 X181.402 Y357.932
N3560 X181.593 Y358.07
N3565 X181.777 Y358.245
N3570 X181.943 Y358.45
N3575 X182.081 Y358.676
N3580 X182.196 Y358.937
N3585 X182.23 Y359.05
N3590 X182.255 Y359.244
N3595 X182.22 Y359.436
N3600 X182.128 Y359.609
N3605 X181.988 Y359.745
N3610 X181.813 Y359.833
N3615 X181.62 Y359.863
N3620 X179.776
N3625 G3 X179.27 Y359.437 Z5.406 I0.019 J-0.536
N3630 G1 X179.259 Y359.381 Z5.417
N3635 X179.245 Y359.269 Z5.44
N3640 X179.239 Y359.155 Z5.463
N3645 G3 X179.732 Y358.049 I1.452 J-0.016
N3650 X180.64 Y357.688 Z5.262 I0.959 J1.09
N3655 G1 X182.424
N3660 X182.574 Y357.695
N3665 X182.776 Y357.735
N3670 X182.974 Y357.801
N3675 X183.184 Y357.904
N3680 X183.381 Y358.035
N3685 X183.562 Y358.194
N3690 X183.737 Y358.394
N3695 X183.884 Y358.615
N3700 X184.003 Y358.86
N3705 X184.059 Y359.027
N3710 X184.092 Y359.223
N3715 X184.062 Y359.421
N3720 X183.972 Y359.599
N3725 X183.832 Y359.741
N3730 X183.654 Y359.832
N3735 X183.457 Y359.863
N3740 X181.62
N3745 G3 X181.122 Y359.472 Z5.398 I0.019 J-0.537
N3750 X181.071 Y359.157 Z5.463 I1.351 J-0.381
N3755 X181.521 Y358.059 I1.402 J-0.066
N3760 X182.424 Y357.688 Z5.262 I0.952 J1.032
N3765 G1 X184.208
N3770 X184.397 Y357.697
N3775 X184.597 Y357.734
N3780 X184.796 Y357.799
N3785 X185.006 Y357.899
N3790 X185.202 Y358.027
N3795 X185.385 Y358.185
N3800 X185.56 Y358.381
N3805 X185.708 Y358.599
N3810 X185.831 Y358.843
N3815 X185.892 Y359.021
N3820 X185.927 Y359.218
N3825 X185.898 Y359.417
N3830 X185.809 Y359.596
N3835 X185.668 Y359.739
N3840 X185.49 Y359.831
N3845 X185.292 Y359.863
N3850 X183.457
N3855 G3 X182.969 Y359.505 Z5.392 I0.019 J-0.537
N3860 X182.896 Y359.16 Z5.463 I1.286 J-0.454
N3865 X183.31 Y358.068 I1.36 J-0.109
N3870 X184.208 Y357.688 Z5.262 I0.945 J0.983
N3875 G1 X185.991
N3880 X186.232 Y357.7
N3885 X186.431 Y357.737
N3890 X186.631 Y357.802
N3895 X186.84 Y357.902
N3900 X187.035 Y358.029
N3905 X187.219 Y358.187
N3910 X187.394 Y358.383
N3915 X187.541 Y358.6
N3920 X187.664 Y358.845
N3925 X187.725 Y359.021
N3930 X187.759 Y359.218
N3935 X187.731 Y359.417
N3940 X187.642 Y359.596
N3945 X187.501 Y359.739
N3950 X187.323 Y359.831
N3955 X187.124 Y359.863
N3960 X185.292
N3965 G3 X184.816 Y359.536 Z5.385 I0.019 J-0.538
N3970 X184.717 Y359.163 Z5.463 I1.222 J-0.521
N3975 X185.098 Y358.076 I1.32 J-0.147
N3980 X185.991 Y357.688 Z5.262 I0.939 J0.939
N3985 G1 X187.898
N3990 X188.065 Y357.696
N3995 X188.264 Y357.733
N4000 X188.464 Y357.798
N4005 X188.674 Y357.898
N4010 X188.869 Y358.026
N4015 X189.053 Y358.184
N4020 X189.228 Y358.38
N4025 X189.376 Y358.598
N4030 X189.499 Y358.843
N4035 X189.56 Y359.021
N4040 X189.595 Y359.218
N4045 X189.566 Y359.417
N4050 X189.477 Y359.596
N4055 X189.336 Y359.739
N4060 X189.158 Y359.831
N4065 X188.96 Y359.863
N4070 X187.124
N4075 G3 X186.632 Y359.491 Z5.394 I0.019 J-0.537
N4080 G1 X186.602 Y359.383 Z5.417
N4085 X186.58 Y359.271 Z5.44
N4090 X186.568 Y359.158 Z5.463
N4095 G3 X186.998 Y358.064 I1.377 J-0.091
N4100 G1 X187.083 Y357.99 Z5.44
N4105 X187.175 Y357.923 Z5.417
N4110 G3 X187.898 Y357.688 Z5.262 I0.771 J1.145
N4115 G1 X189.782
N4120 X189.931 Y357.695
N4125 X190.131 Y357.736
N4130 X190.334 Y357.807
N4135 X190.542 Y357.912
N4140 X190.736 Y358.044
N4145 X190.92 Y358.209
N4150 X191.091 Y358.409
N4155 X191.235 Y358.631
N4160 X191.355 Y358.882
N4165 X191.403 Y359.033
N4170 X191.434 Y359.229
N4175 X191.403 Y359.425
N4180 X191.312 Y359.602
N4185 X191.172 Y359.742
N4190 X190.995 Y359.832
N4195 X190.799 Y359.863
N4200 X188.96
N4205 G3 X188.459 Y359.462 Z5.401 I0.019 J-0.537
N4210 X188.414 Y359.156 Z5.463 I1.372 J-0.357
N4215 X188.877 Y358.056 I1.417 J-0.052
N4220 X189.782 Y357.688 Z5.262 I0.954 J1.049
N4225 G1 X191.565
N4230 X191.739 Y357.697
N4235 X191.939 Y357.734
N4240 X192.138 Y357.798
N4245 X192.348 Y357.898
N4250 X192.544 Y358.027
N4255 X192.727 Y358.184
N4260 X192.902 Y358.38
N4265 X193.051 Y358.599
N4270 X193.173 Y358.842
N4275 X193.234 Y359.021
N4280 X193.269 Y359.218
N4285 X193.24 Y359.417
N4290 X193.151 Y359.596
N4295 X193.011 Y359.739
N4300 X192.832 Y359.831
N4305 X192.634 Y359.863
N4310 X190.799
N4315 G3 X190.307 Y359.495 Z5.394 I0.019 J-0.537
N4320 G1 X190.276 Y359.383 Z5.417
N4325 X190.254 Y359.272 Z5.44
N4330 X190.241 Y359.159 Z5.463
N4335 G3 X190.666 Y358.065 I1.372 J-0.096
N4340 X191.565 Y357.688 Z5.262 I0.947 J0.997
N4345 G1 X193.349
N4350 X193.574 Y357.699
N4355 X193.773 Y357.736
N4360 X193.973 Y357.801
N4365 X194.182 Y357.901
N4370 X194.378 Y358.028
N4375 X194.562 Y358.186
N4380 X194.736 Y358.382
N4385 X194.884 Y358.6
N4390 X195.007 Y358.844
N4395 X195.068 Y359.021
N4400 X195.102 Y359.218
N4405 X195.074 Y359.417
N4410 X194.985 Y359.596
N4415 X194.844 Y359.739
N4420 X194.666 Y359.831
N4425 X194.467 Y359.863
N4430 X192.634
N4435 G3 X192.154 Y359.527 Z5.387 I0.019 J-0.538
N4440 X192.064 Y359.162 Z5.463 I1.242 J-0.501
N4445 X192.455 Y358.074 I1.332 J-0.136
N4450 X193.349 Y357.688 Z5.262 I0.941 J0.952
N4455 G1 X195.255
N4460 X195.408 Y357.696
N4465 X195.607 Y357.732
N4470 X195.807 Y357.797
N4475 X196.017 Y357.898
N4480 X196.213 Y358.025
N4485 X196.396 Y358.183
N4490 X196.572 Y358.38
N4495 X196.719 Y358.597
N4500 X196.842 Y358.842
N4505 X196.904 Y359.021
N4510 X196.939 Y359.218
N4515 X196.91 Y359.417
N4520 X196.821 Y359.596
N4525 X196.68 Y359.739
N4530 X196.502 Y359.831
N4535 X196.304 Y359.863
N4540 X194.467
N4545 G3 X193.972 Y359.482 Z5.396 I0.019 J-0.537
N4550 X193.915 Y359.158 Z5.463 I1.332 J-0.403
N4555 X194.354 Y358.062 I1.389 J-0.079
N4560 G1 X194.44 Y357.988 Z5.44
N4565 X194.532 Y357.921 Z5.417
N4570 G3 X195.255 Y357.688 Z5.262 I0.772 J1.158
N4575 G1 X197.139
N4580 X197.289 Y357.695
N4585 X197.488 Y357.738
N4590 X197.693 Y357.812
N4595 X197.901 Y357.919
N4600 X198.093 Y358.053
N4605 X198.277 Y358.221
N4610 X198.447 Y358.423
N4615 X198.589 Y358.646
N4620 X198.707 Y358.901
N4625 X198.75 Y359.039
N4630 X198.779 Y359.234
N4635 X198.746 Y359.429
N4640 X198.656 Y359.604
N4645 X198.515 Y359.743
N4650 X198.339 Y359.832
N4655 X198.144 Y359.863
N4660 X196.304
N4665 G3 X195.801 Y359.453 Z5.402 I0.019 J-0.536
N4670 X195.761 Y359.156 Z5.463 I1.389 J-0.337
N4675 X196.234 Y358.054 I1.428 J-0.04
N4680 G1 X196.321 Y357.981 Z5.44
N4685 X196.414 Y357.916 Z5.417
N4690 G3 X197.139 Y357.688 Z5.262 I0.776 J1.2
N4695 G1 X198.923
N4700 X199.083 Y357.696
N4705 X199.284 Y357.733
N4710 X199.483 Y357.797
N4715 X199.693 Y357.898
N4720 X199.89 Y358.026
N4725 X200.072 Y358.183
N4730 X200.248 Y358.38
N4735 X200.396 Y358.599
N4740 X200.518 Y358.842
N4745 X200.58 Y359.021
N4750 X200.615 Y359.218
N4755 X200.586 Y359.417
N4760 X200.497 Y359.596
N4765 X200.356 Y359.739
N4770 X200.178 Y359.831
N4775 X199.98 Y359.863
N4780 X198.144
N4785 G3 X197.65 Y359.487 Z5.395 I0.019 J-0.537
N4790 G1 X197.622 Y359.382 Z5.417
N4795 X197.601 Y359.271 Z5.44
N4800 X197.589 Y359.158 Z5.463
N4805 G3 X198.023 Y358.063 I1.382 J-0.086
N4810 X198.923 Y357.688 Z5.262 I0.949 J1.009
N4815 G1 X200.707
N4820 X200.92 Y357.699
N4825 X201.119 Y357.735
N4830 X201.319 Y357.8
N4835 X201.528 Y357.9
N4840 X201.724 Y358.028
N4845 X201.907 Y358.186
N4850 X202.082 Y358.382
N4855 X202.23 Y358.599
N4860 X202.353 Y358.844
N4865 X202.414 Y359.021
N4870 X202.448 Y359.218
N4875 X202.42 Y359.417
N4880 X202.331 Y359.596
N4885 X202.19 Y359.739
N4890 X202.012 Y359.831
N4895 X201.813 Y359.863
N4900 X199.98
N4905 G3 X199.497 Y359.519 Z5.389 I0.019 J-0.537
N4910 X199.413 Y359.161 Z5.463 I1.257 J-0.484
N4915 X199.811 Y358.072 I1.341 J-0.126
N4920 X200.707 Y357.688 Z5.262 I0.943 J0.963
N4925 G1 X202.491
N4930 X202.754 Y357.701
N4935 X202.952 Y357.738
N4940 X203.152 Y357.803
N4945 X203.361 Y357.903
N4950 X203.557 Y358.03
N4955 X203.74 Y358.188
N4960 X203.915 Y358.384
N4965 X204.062 Y358.601
N4970 X204.185 Y358.845
N4975 X204.246 Y359.021
N4980 X204.28 Y359.218
N4985 X204.252 Y359.417
N4990 X204.163 Y359.596
N4995 X204.022 Y359.739
N5000 X203.843 Y359.831
N5005 X203.645 Y359.863
N5010 X201.813
N5015 G3 X201.343 Y359.55 Z5.382 I0.019 J-0.538
N5020 X201.233 Y359.165 Z5.463 I1.193 J-0.55
N5025 X201.6 Y358.08 I1.303 J-0.164
N5030 X202.491 Y357.688 Z5.262 I0.937 J0.921
N5035 G1 X204.497
N5040 X204.647 Y357.695
N5045 X204.846 Y357.741
N5050 X205.052 Y357.817
N5055 X205.259 Y357.926
N5060 X205.451 Y358.063
N5065 X205.635 Y358.235
N5070 X205.803 Y358.439
N5075 X205.942 Y358.663
N5080 X206.059 Y358.921
N5085 X206.096 Y359.045
N5090 X206.123 Y359.24
N5095 X206.089 Y359.433
N5100 X205.997 Y359.607
N5105 X205.857 Y359.744
N5110 X205.682 Y359.833
N5115 X205.488 Y359.863
N5120 X203.645
N5125 G3 X203.14 Y359.444 Z5.404 I0.019 J-0.536
N5130 X203.106 Y359.156 Z5.463 I1.407 J-0.315
N5135 X203.59 Y358.051 I1.442 J-0.026
N5140 X204.497 Y357.688 Z5.262 I0.958 J1.078
N5145 G1 X206.281
N5150 X206.431 Y357.695
N5155 X206.633 Y357.733
N5160 X206.831 Y357.798
N5165 X207.041 Y357.899
N5170 X207.238 Y358.029
N5175 X207.42 Y358.186
N5180 X207.595 Y358.383
N5185 X207.743 Y358.603
N5190 X207.864 Y358.847
N5195 X207.925 Y359.022
N5200 X207.959 Y359.22
N5205 X207.93 Y359.418
N5210 X207.841 Y359.597
N5215 X207.7 Y359.74
N5220 X207.522 Y359.831
N5225 X207.324 Y359.863
N5230 X205.488
N5235 G3 X204.991 Y359.478 Z5.397 I0.019 J-0.537
N5240 X204.936 Y359.158 Z5.463 I1.339 J-0.396
N5245 X205.379 Y358.061 I1.394 J-0.075
N5250 X206.281 Y357.688 Z5.262 I0.951 J1.022
N5255 G1 X208.065
N5260 X208.264 Y357.698
N5265 X208.463 Y357.735
N5270 X208.663 Y357.8
N5275 X208.873 Y357.9
N5280 X209.068 Y358.027
N5285 X209.252 Y358.185
N5290 X209.427 Y358.381
N5295 X209.575 Y358.599
N5300 X209.697 Y358.844
N5305 X209.758 Y359.021
N5310 X209.793 Y359.218
N5315 X209.765 Y359.417
N5320 X209.675 Y359.596
N5325 X209.535 Y359.739
N5330 X209.356 Y359.831
N5335 X209.158 Y359.863
N5340 X207.324
N5345 G3 X206.838 Y359.51 Z5.39 I0.019 J-0.537
N5350 X206.76 Y359.16 Z5.463 I1.274 J-0.466
N5355 X207.168 Y358.07 I1.352 J-0.116
N5360 X208.065 Y357.688 Z5.262 I0.944 J0.975
N5365 G1 X209.848
N5370 X210.099 Y357.701
N5375 X210.297 Y357.737
N5380 X210.497 Y357.802
N5385 X210.706 Y357.902
N5390 X210.902 Y358.029
N5395 X211.085 Y358.187
N5400 X211.26 Y358.383
N5405 X211.408 Y358.6
N5410 X211.53 Y358.845
N5415 X211.591 Y359.021
N5420 X211.626 Y359.218
N5425 X211.597 Y359.417
N5430 X211.508 Y359.596
N5435 X211.367 Y359.739
N5440 X211.189 Y359.831
N5445 X210.991 Y359.863
N5450 X209.158
N5455 G3 X208.685 Y359.542 Z5.384 I0.019 J-0.538
N5460 X208.582 Y359.164 Z5.463 I1.21 J-0.533
N5465 X208.956 Y358.078 I1.313 J-0.154
N5470 G1 X209.04 Y358.001 Z5.44
N5475 X209.129 Y357.931 Z5.417
N5480 G3 X209.848 Y357.688 Z5.262 I0.765 J1.078
N5485 G1 X211.855
N5490 X212.005 Y357.695
N5495 X212.204 Y357.742
N5500 X212.411 Y357.821
N5505 X212.618 Y357.932
N5510 X212.808 Y358.071
N5515 X212.992 Y358.245
N5520 X213.158 Y358.451
N5525 X213.296 Y358.677
N5530 X213.411 Y358.937
N5535 X213.444 Y359.05
N5540 X213.469 Y359.244
N5545 X213.434 Y359.436
N5550 X213.343 Y359.609
N5555 X213.203 Y359.746
N5560 X213.028 Y359.833
N5565 X212.835 Y359.863
N5570 X210.991
N5575 G3 X210.484 Y359.437 Z5.406 I0.019 J-0.536
N5580 G1 X210.474 Y359.381 Z5.417
N5585 X210.459 Y359.269 Z5.44
N5590 X210.454 Y359.155 Z5.463
N5595 G3 X210.947 Y358.049 I1.452 J-0.016
N5600 X211.855 Y357.688 Z5.262 I0.959 J1.091
N5605 G1 X213.639
N5610 X213.789 Y357.695
N5615 X213.991 Y357.735
N5620 X214.189 Y357.802
N5625 X214.399 Y357.904
N5630 X214.596 Y358.036
N5635 X214.777 Y358.195
N5640 X214.952 Y358.394
N5645 X215.099 Y358.615
N5650 X215.218 Y358.861
N5655 X215.274 Y359.027
N5660 X215.307 Y359.224
N5665 X215.277 Y359.421
N5670 X215.187 Y359.599
N5675 X215.046 Y359.741
N5680 X214.869 Y359.832
N5685 X214.672 Y359.863
N5690 X212.835
N5695 G3 X212.336 Y359.472 Z5.398 I0.019 J-0.537
N5700 X212.285 Y359.157 Z5.463 I1.352 J-0.381
N5705 X212.736 Y358.059 I1.403 J-0.066
N5710 X213.639 Y357.688 Z5.262 I0.952 J1.032
N5715 G1 X215.423
N5720 X215.612 Y357.697
N5725 X215.811 Y357.734
N5730 X216.01 Y357.799
N5735 X216.22 Y357.899
N5740 X216.416 Y358.027
N5745 X216.6 Y358.185
N5750 X216.775 Y358.381
N5755 X216.923 Y358.599
N5760 X217.045 Y358.843
N5765 X217.107 Y359.021
N5770 X217.141 Y359.218
N5775 X217.113 Y359.417
N5780 X217.023 Y359.596
N5785 X216.883 Y359.739
N5790 X216.704 Y359.831
N5795 X216.506 Y359.863
N5800 X214.672
N5805 G3 X214.183 Y359.504 Z5.392 I0.019 J-0.537
N5810 X214.11 Y359.16 Z5.463 I1.287 J-0.453
N5815 X214.525 Y358.068 I1.36 J-0.108
N5820 X215.423 Y357.688 Z5.262 I0.945 J0.983
N5825 G1 X217.206
N5830 X217.447 Y357.7
N5835 X217.645 Y357.737
N5840 X217.845 Y357.802
N5845 X218.054 Y357.902
N5850 X218.25 Y358.029
N5855 X218.434 Y358.187
N5860 X218.608 Y358.383
N5865 X218.756 Y358.6
N5870 X218.879 Y358.845
N5875 X218.939 Y359.021
N5880 X218.974 Y359.218
N5885 X218.945 Y359.417
N5890 X218.856 Y359.596
N5895 X218.715 Y359.739
N5900 X218.537 Y359.831
N5905 X218.339 Y359.863
N5910 X216.506
N5915 G3 X216.03 Y359.536 Z5.385 I0.019 J-0.538
N5920 X215.932 Y359.163 Z5.463 I1.223 J-0.52
N5925 X216.313 Y358.076 I1.321 J-0.147
N5930 X217.206 Y357.688 Z5.262 I0.939 J0.94
N5935 G1 X219.113
N5940 X219.279 Y357.696
N5945 X219.478 Y357.733
N5950 X219.679 Y357.798
N5955 X219.888 Y357.898
N5960 X220.084 Y358.026
N5965 X220.268 Y358.184
N5970 X220.443 Y358.38
N5975 X220.591 Y358.598
N5980 X220.713 Y358.843
N5985 X220.775 Y359.021
N5990 X220.81 Y359.218
N5995 X220.781 Y359.417
N6000 X220.692 Y359.596
N6005 X220.551 Y359.739
N6010 X220.373 Y359.831
N6015 X220.175 Y359.863
N6020 X218.339
N6025 G3 X217.846 Y359.49 Z5.395 I0.019 J-0.537
N6030 X217.783 Y359.158 Z5.463 I1.315 J-0.422
N6035 X218.213 Y358.064 I1.378 J-0.091
N6040 X219.113 Y357.688 Z5.262 I0.948 J1.004
N6045 G1 X220.997
N6050 X221.147 Y357.695
N6055 X221.346 Y357.737
N6060 X221.549 Y357.807
N6065 X221.757 Y357.912
N6070 X221.951 Y358.045
N6075 X222.135 Y358.21
N6080 X222.306 Y358.41
N6085 X222.45 Y358.631
N6090 X222.57 Y358.883
N6095 X222.618 Y359.033
N6100 X222.649 Y359.229
N6105 X222.617 Y359.425
N6110 X222.527 Y359.602
N6115 X222.386 Y359.742
N6120 X222.21 Y359.832
N6125 X222.014 Y359.863
N6130 X220.175
N6135 G3 X219.674 Y359.461 Z5.401 I0.019 J-0.537
N6140 X219.629 Y359.156 Z5.463 I1.372 J-0.356
N6145 X220.092 Y358.056 I1.417 J-0.051
N6150 X220.997 Y357.688 Z5.262 I0.954 J1.049
N6155 G1 X222.78
N6160 X222.953 Y357.697
N6165 X223.154 Y357.734
N6170 X223.352 Y357.798
N6175 X223.562 Y357.898
N6180 X223.759 Y358.027
N6185 X223.941 Y358.184
N6190 X224.117 Y358.38
N6195 X224.265 Y358.599
N6200 X224.387 Y358.842
N6205 X224.449 Y359.021
N6210 X224.484 Y359.218
N6215 X224.455 Y359.417
N6220 X224.366 Y359.596
N6225 X224.225 Y359.739
N6230 X224.047 Y359.831
N6235 X223.849 Y359.863
N6240 X222.014
N6245 G3 X221.522 Y359.495 Z5.394 I0.019 J-0.537
N6250 X221.456 Y359.159 Z5.463 I1.306 J-0.432
N6255 X221.881 Y358.065 I1.372 J-0.096
N6260 X222.78 Y357.688 Z5.262 I0.947 J0.998
N6265 G1 X224.564
N6270 X224.789 Y357.699
N6275 X224.988 Y357.736
N6280 X225.188 Y357.801
N6285 X225.397 Y357.901
N6290 X225.593 Y358.028
N6295 X225.776 Y358.186
N6300 X225.951 Y358.382
N6305 X226.099 Y358.6
N6310 X226.221 Y358.844
N6315 X226.282 Y359.021
N6320 X226.317 Y359.218
N6325 X226.288 Y359.417
N6330 X226.199 Y359.596
N6335 X226.059 Y359.739
N6340 X225.88 Y359.831
N6345 X225.682 Y359.863
N6350 X223.849
N6355 G3 X223.369 Y359.526 Z5.387 I0.019 J-0.538
N6360 G1 X223.343 Y359.456 Z5.402
N6365 X223.321 Y359.384 Z5.417
N6370 X223.295 Y359.274 Z5.44
N6375 X223.279 Y359.162 Z5.463
N6380 G3 X223.67 Y358.074 I1.332 J-0.135
N6385 X224.564 Y357.688 Z5.262 I0.941 J0.953
N6390 G1 X226.471
N6395 X226.622 Y357.696
N6400 X226.821 Y357.732
N6405 X227.022 Y357.797
N6410 X227.231 Y357.898
N6415 X227.427 Y358.025
N6420 X227.611 Y358.183
N6425 X227.786 Y358.38
N6430 X227.934 Y358.597
N6435 X228.057 Y358.842
N6440 X228.119 Y359.021
N6445 X228.153 Y359.218
N6450 X228.125 Y359.417
N6455 X228.035 Y359.596
N6460 X227.895 Y359.739
N6465 X227.716 Y359.831
N6470 X227.518 Y359.863
N6475 X225.682
N6480 G3 X225.187 Y359.481 Z5.396 I0.019 J-0.537
N6485 X225.129 Y359.158 Z5.463 I1.332 J-0.402
N6490 X225.569 Y358.062 I1.39 J-0.079
N6495 X226.471 Y357.688 Z5.262 I0.95 J1.017
N6500 G1 X228.355
N6505 X228.504 Y357.695
N6510 X228.704 Y357.738
N6515 X228.908 Y357.812
N6520 X229.116 Y357.919
N6525 X229.308 Y358.053
N6530 X229.493 Y358.221
N6535 X229.662 Y358.423
N6540 X229.804 Y358.646
N6545 X229.922 Y358.901
N6550 X229.965 Y359.039
N6555 X229.994 Y359.234
N6560 X229.961 Y359.429
N6565 X229.87 Y359.604
N6570 X229.73 Y359.743
N6575 X229.554 Y359.832
N6580 X229.359 Y359.863
N6585 X227.518
N6590 G3 X227.015 Y359.453 Z5.402 I0.019 J-0.536
N6595 X226.976 Y359.156 Z5.463 I1.389 J-0.337
N6600 X227.449 Y358.054 I1.429 J-0.04
N6605 X228.355 Y357.688 Z5.262 I0.956 J1.063
N6610 G1 X230.138
N6615 X230.298 Y357.696
N6620 X230.499 Y357.733
N6625 X230.697 Y357.797
N6630 X230.907 Y357.898
N6635 X231.105 Y358.026
N6640 X231.287 Y358.183
N6645 X231.462 Y358.38
N6650 X231.611 Y358.599
N6655 X231.733 Y358.842
N6660 X231.795 Y359.021
N6665 X231.829 Y359.218
N6670 X231.801 Y359.417
N6675 X231.712 Y359.596
N6680 X231.571 Y359.739
N6685 X231.392 Y359.831
N6690 X231.194 Y359.863
N6695 X229.359
N6700 G3 X228.865 Y359.487 Z5.395 I0.019 J-0.537
N6705 X228.804 Y359.158 Z5.463 I1.322 J-0.414
N6710 X229.238 Y358.063 I1.383 J-0.086
N6715 G1 X229.323 Y357.989 Z5.44
N6720 X229.415 Y357.922 Z5.417
N6725 G3 X230.138 Y357.688 Z5.262 I0.772 J1.15
N6730 G1 X231.922
N6735 X232.135 Y357.699
N6740 X232.333 Y357.735
N6745 X232.534 Y357.8
N6750 X232.743 Y357.9
N6755 X232.938 Y358.028
N6760 X233.122 Y358.186
N6765 X233.297 Y358.382
N6770 X233.445 Y358.599
N6775 X233.567 Y358.844
N6780 X233.628 Y359.021
N6785 X233.663 Y359.218
N6790 X233.635 Y359.417
N6795 X233.545 Y359.596
N6800 X233.405 Y359.739
N6805 X233.226 Y359.831
N6810 X233.028 Y359.863
N6815 X231.194
N6820 G3 X230.711 Y359.519 Z5.389 I0.019 J-0.537
N6825 X230.627 Y359.161 Z5.463 I1.258 J-0.484
N6830 X231.026 Y358.072 I1.342 J-0.126
N6835 X231.922 Y357.688 Z5.262 I0.943 J0.963
N6840 G1 X233.706
N6845 X233.969 Y357.701
N6850 X234.167 Y357.738
N6855 X234.367 Y357.803
N6860 X234.576 Y357.903
N6865 X234.771 Y358.03
N6870 X234.955 Y358.188
N6875 X235.13 Y358.384
N6880 X235.277 Y358.601
N6885 X235.4 Y358.845
N6890 X235.46 Y359.021
N6895 X235.495 Y359.218
N6900 X235.466 Y359.417
N6905 X235.377 Y359.596
N6910 X235.237 Y359.739
N6915 X235.058 Y359.831
N6920 X234.86 Y359.863
N6925 X233.028
N6930 G3 X232.558 Y359.55 Z5.382 I0.019 J-0.538
N6935 X232.448 Y359.165 Z5.463 I1.193 J-0.549
N6940 X232.815 Y358.08 I1.303 J-0.164
N6945 X233.706 Y357.688 Z5.262 I0.937 J0.921
N6950 G1 X235.712
N6955 X235.862 Y357.695
N6960 X236.061 Y357.741
N6965 X236.268 Y357.817
N6970 X236.474 Y357.927
N6975 X236.666 Y358.063
N6980 X236.85 Y358.235
N6985 X237.018 Y358.439
N6990 X237.157 Y358.664
N6995 X237.273 Y358.922
N7000 X237.311 Y359.045
N7005 X237.337 Y359.24
N7010 X237.303 Y359.433
N7015 X237.212 Y359.607
N7020 X237.072 Y359.745
N7025 X236.896 Y359.833
N7030 X236.702 Y359.863
N7035 X234.86
N7040 G3 X234.355 Y359.444 Z5.404 I0.019 J-0.536
N7045 X234.321 Y359.156 Z5.463 I1.408 J-0.314
N7050 X234.805 Y358.051 I1.442 J-0.026
N7055 X235.712 Y357.688 Z5.262 I0.958 J1.078
N7060 G1 X237.496
N7065 X237.646 Y357.695
N7070 X237.848 Y357.733
N7075 X238.046 Y357.798
N7080 X238.256 Y357.899
N7085 X238.453 Y358.029
N7090 X238.635 Y358.186
N7095 X238.81 Y358.384
N7100 X238.958 Y358.603
N7105 X239.079 Y358.847
N7110 X239.14 Y359.022
N7115 X239.174 Y359.22
N7120 X239.145 Y359.418
N7125 X239.055 Y359.597
N7130 X238.915 Y359.74
N7135 X238.737 Y359.831
N7140 X238.539 Y359.863
N7145 X236.702
N7150 G3 X236.206 Y359.478 Z5.397 I0.019 J-0.537
N7155 X236.151 Y359.158 Z5.463 I1.339 J-0.395
N7160 X236.594 Y358.061 I1.394 J-0.074
N7165 X237.496 Y357.688 Z5.262 I0.951 J1.022
N7170 G1 X239.28
N7175 X239.479 Y357.698
N7180 X239.678 Y357.735
N7185 X239.878 Y357.8
N7190 X240.087 Y357.9
N7195 X240.283 Y358.027
N7200 X240.467 Y358.185
N7205 X240.642 Y358.381
N7210 X240.789 Y358.599
N7215 X240.912 Y358.844
N7220 X240.973 Y359.021
N7225 X241.008 Y359.218
N7230 X240.979 Y359.417
N7235 X240.89 Y359.596
N7240 X240.749 Y359.739
N7245 X240.571 Y359.831
N7250 X240.373 Y359.863
N7255 X238.539
N7260 G3 X238.053 Y359.51 Z5.39 I0.019 J-0.537
N7265 X237.975 Y359.16 Z5.463 I1.275 J-0.466
N7270 X238.383 Y358.07 I1.352 J-0.116
N7275 X239.28 Y357.688 Z5.262 I0.944 J0.975
N7280 G1 X241.064
N7285 X241.313 Y357.701
N7290 X241.512 Y357.737
N7295 X241.712 Y357.802
N7300 X241.921 Y357.902
N7305 X242.116 Y358.029
N7310 X242.3 Y358.187
N7315 X242.475 Y358.383
N7320 X242.622 Y358.6
N7325 X242.745 Y358.845
N7330 X242.806 Y359.021
N7335 X242.84 Y359.218
N7340 X242.812 Y359.417
N7345 X242.723 Y359.596
N7350 X242.582 Y359.739
N7355 X242.404 Y359.831
N7360 X242.205 Y359.863
N7365 X240.373
N7370 G3 X239.899 Y359.542 Z5.384 I0.019 J-0.538
N7375 X239.796 Y359.164 Z5.463 I1.21 J-0.532
N7380 X240.171 Y358.078 I1.313 J-0.154
N7385 X241.064 Y357.688 Z5.262 I0.938 J0.932
N7390 G1 X243.07
N7395 X243.22 Y357.695
N7400 X243.419 Y357.742
N7405 X243.626 Y357.821
N7410 X243.833 Y357.932
N7415 X244.023 Y358.071
N7420 X244.207 Y358.245
N7425 X244.373 Y358.451
N7430 X244.511 Y358.677
N7435 X244.626 Y358.938
N7440 X244.659 Y359.05
N7445 X244.684 Y359.244
N7450 X244.649 Y359.437
N7455 X244.557 Y359.609
N7460 X244.417 Y359.746
N7465 X244.243 Y359.833
N7470 X244.049 Y359.863
N7475 X242.205
N7480 G3 X241.699 Y359.436 Z5.406 I0.019 J-0.536
N7485 G1 X241.689 Y359.381 Z5.417
N7490 X241.674 Y359.268 Z5.44
N7495 X241.668 Y359.155 Z5.463
N7500 G3 X242.162 Y358.049 I1.452 J-0.016
N7505 X243.07 Y357.688 Z5.262 I0.959 J1.091
N7510 G1 X244.854
N7515 X245.004 Y357.695
N7520 X245.206 Y357.735
N7525 X245.405 Y357.802
N7530 X245.614 Y357.904
N7535 X245.811 Y358.036
N7540 X245.992 Y358.195
N7545 X246.167 Y358.394
N7550 X246.314 Y358.615
N7555 X246.433 Y358.861
N7560 X246.489 Y359.027
N7565 X246.522 Y359.224
N7570 X246.492 Y359.421
N7575 X246.402 Y359.599
N7580 X246.261 Y359.741
N7585 X246.084 Y359.832
N7590 X245.887 Y359.863
N7595 X244.049
N7600 G3 X243.551 Y359.472 Z5.398 I0.019 J-0.537
N7605 G1 X243.529 Y359.382 Z5.417
N7610 X243.51 Y359.27 Z5.44
N7615 X243.5 Y359.157 Z5.463
N7620 G3 X243.951 Y358.059 I1.403 J-0.066
N7625 X244.854 Y357.688 Z5.262 I0.952 J1.032
N7630 G1 X246.638
N7635 X246.827 Y357.697
N7640 X247.026 Y357.734
N7645 X247.225 Y357.799
N7650 X247.435 Y357.899
N7655 X247.631 Y358.027
N7660 X247.814 Y358.185
N7665 X247.99 Y358.381
N7670 X248.138 Y358.599
N7675 X248.26 Y358.843
N7680 X248.321 Y359.021
N7685 X248.356 Y359.218
N7690 X248.327 Y359.417
N7695 X248.238 Y359.596
N7700 X248.098 Y359.739
N7705 X247.919 Y359.831
N7710 X247.721 Y359.863
N7715 X245.887
N7720 G3 X245.398 Y359.504 Z5.392 I0.019 J-0.537
N7725 X245.325 Y359.16 Z5.463 I1.287 J-0.453
N7730 X245.74 Y358.068 I1.36 J-0.108
N7735 X246.638 Y357.688 Z5.262 I0.945 J0.984
N7740 G1 X248.421
N7745 X248.662 Y357.7
N7750 X248.86 Y357.737
N7755 X249.06 Y357.802
N7760 X249.269 Y357.902
N7765 X249.465 Y358.029
N7770 X249.648 Y358.187
N7775 X249.823 Y358.383
N7780 X249.971 Y358.6
N7785 X250.093 Y358.845
N7790 X250.154 Y359.021
N7795 X250.189 Y359.218
N7800 X250.16 Y359.417
N7805 X250.071 Y359.596
N7810 X249.93 Y359.739
N7815 X249.752 Y359.831
N7820 X249.554 Y359.863
N7825 X247.721
N7830 G3 X247.245 Y359.536 Z5.385 I0.019 J-0.538
N7835 X247.147 Y359.163 Z5.463 I1.223 J-0.52
N7840 X247.528 Y358.076 I1.321 J-0.147
N7845 X248.421 Y357.688 Z5.262 I0.939 J0.94
N7850 G1 X250.328
N7855 X250.494 Y357.696
N7860 X250.693 Y357.733
N7865 X250.893 Y357.798
N7870 X251.103 Y357.898
N7875 X251.299 Y358.026
N7880 X251.483 Y358.184
N7885 X251.658 Y358.38
N7890 X251.806 Y358.598
N7895 X251.928 Y358.843
N7900 X251.99 Y359.021
N7905 X252.025 Y359.218
N7910 X251.996 Y359.417
N7915 X251.907 Y359.596
N7920 X251.766 Y359.739
N7925 X251.588 Y359.831
N7930 X251.39 Y359.863
N7935 X249.554
N7940 G3 X249.061 Y359.49 Z5.395 I0.019 J-0.537
N7945 X248.998 Y359.158 Z5.463 I1.315 J-0.422
N7950 X249.428 Y358.064 I1.378 J-0.09
N7955 X250.328 Y357.688 Z5.262 I0.948 J1.004
N7960 G1 X252.212
N7965 X252.362 Y357.695
N7970 X252.561 Y357.737
N7975 X252.764 Y357.807
N7980 X252.972 Y357.912
N7985 X253.166 Y358.045
N7990 X253.35 Y358.21
N7995 X253.521 Y358.41
N8000 X253.665 Y358.631
N8005 X253.785 Y358.883
N8010 X253.833 Y359.033
N8015 X253.864 Y359.229
N8020 X253.832 Y359.425
N8025 X253.742 Y359.602
N8030 X253.601 Y359.742
N8035 X253.424 Y359.832
N8040 X253.229 Y359.863
N8045 X251.39
N8050 G3 X250.889 Y359.461 Z5.401 I0.019 J-0.537
N8055 G1 X250.87 Y359.382 Z5.417
N8060 X250.853 Y359.27 Z5.44
N8065 X250.844 Y359.156 Z5.463
N8070 G3 X251.307 Y358.056 I1.417 J-0.051
N8075 G1 X251.394 Y357.983 Z5.44
N8080 X251.487 Y357.917 Z5.417
N8085 G3 X252.212 Y357.688 Z5.262 I0.775 J1.188
N8090 G1 X253.995
N8095 X254.168 Y357.697
N8100 X254.369 Y357.734
N8105 X254.567 Y357.798
N8110 X254.777 Y357.898
N8115 X254.974 Y358.027
N8120 X255.156 Y358.184
N8125 X255.332 Y358.38
N8130 X255.48 Y358.599
N8135 X255.602 Y358.842
N8140 X255.664 Y359.021
N8145 X255.699 Y359.218
N8150 X255.67 Y359.417
N8155 X255.581 Y359.596
N8160 X255.44 Y359.739
N8165 X255.262 Y359.831
N8170 X255.064 Y359.863
N8175 X253.229
N8180 G3 X252.737 Y359.494 Z5.394 I0.019 J-0.537
N8185 X252.671 Y359.159 Z5.463 I1.307 J-0.431
N8190 X253.096 Y358.065 I1.373 J-0.096
N8195 X253.995 Y357.688 Z5.262 I0.947 J0.998
N8200 G1 X255.779
N8205 X256.004 Y357.699
N8210 X256.203 Y357.736
N8215 X256.403 Y357.801
N8220 X256.612 Y357.901
N8225 X256.808 Y358.028
N8230 X256.991 Y358.186
N8235 X257.166 Y358.382
N8240 X257.314 Y358.6
N8245 X257.436 Y358.844
N8250 X257.497 Y359.021
N8255 X257.532 Y359.218
N8260 X257.503 Y359.417
N8265 X257.414 Y359.596
N8270 X257.273 Y359.739
N8275 X257.095 Y359.831
N8280 X256.897 Y359.863
N8285 X255.064
N8290 G3 X254.584 Y359.526 Z5.387 I0.019 J-0.538
N8295 X254.494 Y359.162 Z5.463 I1.242 J-0.5
N8300 X254.885 Y358.074 I1.332 J-0.135
N8305 X255.779 Y357.688 Z5.262 I0.941 J0.953
N8310 G1 X257.686
N8315 X257.837 Y357.696
N8320 X258.036 Y357.732
N8325 X258.237 Y357.797
N8330 X258.446 Y357.898
N8335 X258.642 Y358.025
N8340 X258.826 Y358.183
N8345 X259.001 Y358.38
N8350 X259.149 Y358.597
N8355 X259.272 Y358.842
N8360 X259.333 Y359.021
N8365 X259.368 Y359.218
N8370 X259.34 Y359.417
N8375 X259.25 Y359.596
N8380 X259.11 Y359.739
N8385 X258.931 Y359.831
N8390 X258.733 Y359.863
N8395 X256.897
N8400 G3 X256.402 Y359.481 Z5.396 I0.019 J-0.537
N8405 X256.344 Y359.158 Z5.463 I1.333 J-0.402
N8410 X256.784 Y358.062 I1.39 J-0.079
N8415 X257.686 Y357.688 Z5.262 I0.95 J1.017
N8420 G1 X259.57
N8425 X259.719 Y357.695
N8430 X259.919 Y357.738
N8435 X260.123 Y357.812
N8440 X260.331 Y357.919
N8445 X260.524 Y358.053
N8450 X260.708 Y358.222
N8455 X260.877 Y358.424
N8460 X261.019 Y358.646
N8465 X261.137 Y358.901
N8470 X261.18 Y359.039
N8475 X261.209 Y359.234
N8480 X261.176 Y359.429
N8485 X261.085 Y359.604
N8490 X260.945 Y359.743
N8495 X260.769 Y359.832
N8500 X260.574 Y359.863
N8505 X258.733
N8510 G3 X258.23 Y359.453 Z5.402 I0.019 J-0.536
N8515 G1 X258.215 Y359.381 Z5.417
N8520 X258.198 Y359.269 Z5.44
N8525 X258.191 Y359.156 Z5.463
N8530 G3 X258.664 Y358.054 I1.429 J-0.04
N8535 G1 X258.751 Y357.981 Z5.44
N8540 X258.844 Y357.916 Z5.417
N8545 G3 X259.57 Y357.688 Z5.262 I0.776 J1.201
N8550 G1 X261.353
N8555 X261.513 Y357.696
N8560 X261.714 Y357.733
N8565 X261.912 Y357.797
N8570 X262.122 Y357.898
N8575 X262.319 Y358.026
N8580 X262.502 Y358.183
N8585 X262.677 Y358.38
N8590 X262.826 Y358.599
N8595 X262.948 Y358.842
N8600 X263.01 Y359.021
N8605 X263.044 Y359.218
N8610 X263.016 Y359.417
N8615 X262.926 Y359.596
N8620 X262.786 Y359.739
N8625 X262.607 Y359.831
N8630 X262.409 Y359.863
N8635 X260.574
N8640 G3 X260.08 Y359.487 Z5.395 I0.019 J-0.537
N8645 X260.019 Y359.158 Z5.463 I1.322 J-0.414
N8650 X260.453 Y358.063 I1.383 J-0.086
N8655 X261.353 Y357.688 Z5.262 I0.949 J1.009
N8660 G1 X263.137
N8665 X263.35 Y357.699
N8670 X263.548 Y357.735
N8675 X263.749 Y357.8
N8680 X263.958 Y357.9
N8685 X264.153 Y358.028
N8690 X264.337 Y358.186
N8695 X264.512 Y358.382
N8700 X264.66 Y358.599
N8705 X264.782 Y358.844
N8710 X264.843 Y359.021
N8715 X264.878 Y359.218
N8720 X264.849 Y359.417
N8725 X264.76 Y359.596
N8730 X264.62 Y359.739
N8735 X264.441 Y359.831
N8740 X264.243 Y359.863
N8745 X262.409
N8750 G3 X261.926 Y359.519 Z5.389 I0.019 J-0.537
N8755 X261.842 Y359.161 Z5.463 I1.258 J-0.484
N8760 X262.241 Y358.072 I1.342 J-0.126
N8765 G1 X262.326 Y357.996 Z5.44
N8770 X262.416 Y357.927 Z5.417
N8775 G3 X263.137 Y357.688 Z5.262 I0.768 J1.107
N8780 G1 X264.921
N8785 X265.184 Y357.701
N8790 X265.382 Y357.738
N8795 X265.582 Y357.803
N8800 X265.791 Y357.903
N8805 X265.986 Y358.03
N8810 X266.17 Y358.188
N8815 X266.345 Y358.384
N8820 X266.492 Y358.601
N8825 X266.615 Y358.845
N8830 X266.675 Y359.021
N8835 X266.71 Y359.218
N8840 X266.681 Y359.417
N8845 X266.592 Y359.596
N8850 X266.452 Y359.739
N8855 X266.273 Y359.831
N8860 X266.075 Y359.863
N8865 X264.243
N8870 G3 X263.773 Y359.55 Z5.382 I0.019 J-0.538
N8875 X263.663 Y359.165 Z5.463 I1.194 J-0.549
N8880 X264.03 Y358.08 I1.304 J-0.164
N8885 X264.921 Y357.688 Z5.262 I0.937 J0.921
N8890 G1 X266.927
N8895 X267.077 Y357.695
N8900 X267.276 Y357.741
N8905 X267.483 Y357.817
N8910 X267.689 Y357.927
N8915 X267.881 Y358.063
N8920 X268.065 Y358.235
N8925 X268.233 Y358.439
N8930 X268.372 Y358.664
N8935 X268.488 Y358.922
N8940 X268.526 Y359.045
N8945 X268.552 Y359.24
N8950 X268.518 Y359.433
N8955 X268.427 Y359.607
N8960 X268.287 Y359.745
N8965 X268.111 Y359.833
N8970 X267.917 Y359.863
N8975 X266.075
N8980 G3 X265.57 Y359.444 Z5.404 I0.019 J-0.536
N8985 G1 X265.558 Y359.381 Z5.417
N8990 X265.542 Y359.269 Z5.44
N8995 X265.536 Y359.156 Z5.463
N9000 G3 X266.02 Y358.051 I1.442 J-0.026
N9005 X266.927 Y357.688 Z5.262 I0.958 J1.079
N9010 G1 X268.711
N9015 X268.861 Y357.695
N9020 X269.063 Y357.733
N9025 X269.261 Y357.798
N9030 X269.471 Y357.899
N9035 X269.668 Y358.029
N9040 X269.85 Y358.186
N9045 X270.025 Y358.384
N9050 X270.173 Y358.603
N9055 X270.294 Y358.847
N9060 X270.355 Y359.022
N9065 X270.389 Y359.22
N9070 X270.36 Y359.418
N9075 X270.27 Y359.597
N9080 X270.13 Y359.74
N9085 X269.952 Y359.831
N9090 X269.754 Y359.863
N9095 X267.917
N9100 G3 X267.421 Y359.478 Z5.397 I0.019 J-0.537
N9105 X267.366 Y359.158 Z5.463 I1.339 J-0.395
N9110 X267.809 Y358.061 I1.394 J-0.074
N9115 G1 X267.895 Y357.987 Z5.44
N9120 X267.987 Y357.92 Z5.417
N9125 G3 X268.711 Y357.688 Z5.262 I0.773 J1.163
N9130 G1 X270.495
N9135 X270.694 Y357.698
N9140 X270.893 Y357.735
N9145 X271.093 Y357.799
N9150 X271.302 Y357.9
N9155 X271.498 Y358.027
N9160 X271.682 Y358.185
N9165 X271.857 Y358.381
N9170 X272.004 Y358.599
N9175 X272.127 Y358.844
N9180 X272.188 Y359.021
N9185 X272.223 Y359.218
N9190 X272.194 Y359.417
N9195 X272.105 Y359.596
N9200 X271.964 Y359.739
N9205 X271.786 Y359.831
N9210 X271.588 Y359.863
N9215 X269.754
N9220 G3 X269.268 Y359.51 Z5.39 I0.019 J-0.537
N9225 X269.19 Y359.16 Z5.463 I1.275 J-0.466
N9230 X269.598 Y358.07 I1.352 J-0.116
N9235 X270.495 Y357.688 Z5.262 I0.944 J0.975
N9240 G1 X272.279
N9245 X272.528 Y357.701
N9250 X272.727 Y357.737
N9255 X272.927 Y357.802
N9260 X273.136 Y357.902
N9265 X273.331 Y358.029
N9270 X273.515 Y358.187
N9275 X273.69 Y358.383
N9280 X273.837 Y358.6
N9285 X273.96 Y358.845
N9290 X274.021 Y359.021
N9295 X274.055 Y359.218
N9300 X274.027 Y359.417
N9305 X273.938 Y359.596
N9310 X273.797 Y359.739
N9315 X273.619 Y359.831
N9320 X273.42 Y359.863
N9325 X271.588
N9330 G3 X271.114 Y359.542 Z5.384 I0.019 J-0.538
N9335 X271.011 Y359.164 Z5.463 I1.21 J-0.532
N9340 X271.387 Y358.078 I1.313 J-0.154
N9345 X272.279 Y357.688 Z5.262 I0.938 J0.932
N9350 G1 X274.285
N9355 X274.435 Y357.695
N9360 X274.634 Y357.742
N9365 X274.842 Y357.821
N9370 X275.048 Y357.933
N9375 X275.238 Y358.071
N9380 X275.422 Y358.245
N9385 X275.589 Y358.451
N9390 X275.726 Y358.677
N9395 X275.841 Y358.938
N9400 X275.874 Y359.05
N9405 X275.899 Y359.244
N9410 X275.864 Y359.437
N9415 X275.772 Y359.609
N9420 X275.632 Y359.746
N9425 X275.458 Y359.833
N9430 X275.264 Y359.863
N9435 X273.42
N9440 G3 X272.914 Y359.436 Z5.406 I0.019 J-0.536
N9445 G1 X272.904 Y359.381 Z5.417
N9450 X272.889 Y359.268 Z5.44
N9455 X272.883 Y359.155 Z5.463
N9460 G3 X273.377 Y358.049 I1.453 J-0.015
N9465 X274.285 Y357.688 Z5.262 I0.959 J1.091
N9470 G1 X276.069
N9475 X276.219 Y357.695
N9480 X276.421 Y357.735
N9485 X276.62 Y357.802
N9490 X276.829 Y357.905
N9495 X277.026 Y358.036
N9500 X277.207 Y358.195
N9505 X277.382 Y358.394
N9510 X277.529 Y358.616
N9515 X277.648 Y358.861
N9520 X277.704 Y359.027
N9525 X277.737 Y359.224
N9530 X277.707 Y359.421
N9535 X277.617 Y359.599
N9540 X277.476 Y359.741
N9545 X277.299 Y359.832
N9550 X277.102 Y359.863
N9555 X275.264
N9560 G3 X274.766 Y359.472 Z5.398 I0.019 J-0.537
N9565 X274.715 Y359.157 Z5.463 I1.352 J-0.38
N9570 X275.166 Y358.059 I1.403 J-0.066
N9575 X276.069 Y357.688 Z5.262 I0.952 J1.032
N9580 G1 X277.853
N9585 X278.042 Y357.697
N9590 X278.241 Y357.734
N9595 X278.44 Y357.799
N9600 X278.65 Y357.899
N9605 X278.846 Y358.027
N9610 X279.029 Y358.185
N9615 X279.205 Y358.381
N9620 X279.353 Y358.599
N9625 X279.475 Y358.843
N9630 X279.536 Y359.021
N9635 X279.571 Y359.218
N9640 X279.543 Y359.417
N9645 X279.453 Y359.596
N9650 X279.313 Y359.739
N9655 X279.134 Y359.831
N9660 X278.936 Y359.863
N9665 X277.102
N9670 G3 X276.613 Y359.504 Z5.392 I0.019 J-0.537
N9675 X276.54 Y359.16 Z5.463 I1.287 J-0.453
N9680 X276.955 Y358.068 I1.36 J-0.108
N9685 G1 X277.04 Y357.993 Z5.44
N9690 X277.131 Y357.925 Z5.417
N9695 G3 X277.853 Y357.688 Z5.262 I0.77 J1.127
N9700 G1 X279.636
N9705 X279.877 Y357.7
N9710 X280.075 Y357.737
N9715 X280.275 Y357.802
N9720 X280.484 Y357.902
N9725 X280.68 Y358.029
N9730 X280.863 Y358.187
N9735 X281.038 Y358.383
N9740 X281.186 Y358.6
N9745 X281.308 Y358.845
N9750 X281.369 Y359.021
N9755 X281.404 Y359.218
N9760 X281.375 Y359.417
N9765 X281.286 Y359.596
N9770 X281.145 Y359.739
N9775 X280.967 Y359.831
N9780 X280.769 Y359.863
N9785 X278.936
N9790 G3 X278.46 Y359.536 Z5.385 I0.019 J-0.538
N9795 X278.362 Y359.163 Z5.463 I1.223 J-0.52
N9800 X278.743 Y358.076 I1.321 J-0.147
N9805 X279.636 Y357.688 Z5.262 I0.939 J0.94
N9810 G1 X281.543
N9815 X281.709 Y357.696
N9820 X281.908 Y357.733
N9825 X282.108 Y357.798
N9830 X282.318 Y357.898
N9835 X282.514 Y358.026
N9840 X282.698 Y358.184
N9845 X282.873 Y358.38
N9850 X283.021 Y358.598
N9855 X283.143 Y358.843
N9860 X283.205 Y359.021
N9865 X283.24 Y359.218
N9870 X283.211 Y359.417
N9875 X283.122 Y359.596
N9880 X282.981 Y359.739
N9885 X282.803 Y359.831
N9890 X282.605 Y359.863
N9895 X280.769
N9900 G3 X280.276 Y359.49 Z5.395 I0.019 J-0.537
N9905 X280.213 Y359.158 Z5.463 I1.315 J-0.422
N9910 X280.643 Y358.064 I1.378 J-0.09
N9915 G1 X280.728 Y357.99 Z5.44
N9920 X280.82 Y357.923 Z5.417
N9925 G3 X281.543 Y357.688 Z5.262 I0.771 J1.146
N9930 G1 X283.427
N9935 X283.577 Y357.695
N9940 X283.776 Y357.737
N9945 X283.979 Y357.807
N9950 X284.187 Y357.912
N9955 X284.381 Y358.045
N9960 X284.565 Y358.21
N9965 X284.736 Y358.41
N9970 X284.88 Y358.631
N9975 X285. Y358.883
N9980 X285.048 Y359.033
N9985 X285.079 Y359.229
N9990 X285.047 Y359.425
N9995 X284.957 Y359.602
N10000 X284.816 Y359.742
N10005 X284.639 Y359.832
N10010 X284.444 Y359.863
N10015 X282.605
N10020 G3 X282.104 Y359.461 Z5.401 I0.019 J-0.537
N10025 G1 X282.085 Y359.382 Z5.417
N10030 X282.068 Y359.27 Z5.44
N10035 X282.059 Y359.156 Z5.463
N10040 G3 X282.522 Y358.056 I1.417 J-0.051
N10045 X283.427 Y357.688 Z5.262 I0.954 J1.049
N10050 G1 X285.211
N10055 X285.383 Y357.697
N10060 X285.584 Y357.734
N10065 X285.782 Y357.798
N10070 X285.992 Y357.898
N10075 X286.189 Y358.027
N10080 X286.371 Y358.184
N10085 X286.547 Y358.38
N10090 X286.695 Y358.599
N10095 X286.817 Y358.842
N10100 X286.879 Y359.021
N10105 X286.914 Y359.218
N10110 X286.885 Y359.417
N10115 X286.796 Y359.596
N10120 X286.655 Y359.739
N10125 X286.477 Y359.831
N10130 X286.279 Y359.863
N10135 X284.444
N10140 G3 X283.952 Y359.494 Z5.394 I0.019 J-0.537
N10145 X283.886 Y359.159 Z5.463 I1.307 J-0.431
N10150 X284.311 Y358.065 I1.373 J-0.096
N10155 X285.211 Y357.688 Z5.262 I0.947 J0.998
N10160 G1 X286.994
N10165 X287.219 Y357.699
N10170 X287.418 Y357.736
N10175 X287.618 Y357.801
N10180 X287.827 Y357.901
N10185 X288.023 Y358.028
N10190 X288.206 Y358.186
N10195 X288.381 Y358.382
N10200 X288.529 Y358.6
N10205 X288.651 Y358.844
N10210 X288.712 Y359.021
N10215 X288.747 Y359.218
N10220 X288.718 Y359.417
N10225 X288.629 Y359.596
N10230 X288.489 Y359.739
N10235 X288.31 Y359.831
N10240 X288.112 Y359.863
N10245 X286.279
N10250 G3 X285.799 Y359.526 Z5.387 I0.019 J-0.538
N10255 X285.709 Y359.162 Z5.463 I1.242 J-0.5
N10260 X286.1 Y358.074 I1.332 J-0.135
N10265 G1 X286.184 Y357.997 Z5.44
N10270 X286.274 Y357.929 Z5.417
N10275 G3 X286.994 Y357.688 Z5.262 I0.767 J1.098
N10280 G1 X288.901
N10285 X289.052 Y357.696
N10290 X289.251 Y357.732
N10295 X289.452 Y357.797
N10300 X289.661 Y357.898
N10305 X289.857 Y358.025
N10310 X290.041 Y358.183
N10315 X290.216 Y358.38
N10320 X290.364 Y358.597
N10325 X290.487 Y358.842
N10330 X290.548 Y359.021
N10335 X290.583 Y359.218
N10340 X290.555 Y359.417
N10345 X290.465 Y359.596
N10350 X290.325 Y359.739
N10355 X290.146 Y359.831
N10360 X289.948 Y359.863
N10365 X288.112
N10370 G3 X287.617 Y359.481 Z5.396 I0.019 J-0.537
N10375 X287.559 Y359.158 Z5.463 I1.333 J-0.402
N10380 X287.999 Y358.062 I1.39 J-0.079
N10385 X288.901 Y357.688 Z5.262 I0.95 J1.017
N10390 G1 X290.785
N10395 X290.935 Y357.695
N10400 X291.134 Y357.738
N10405 X291.338 Y357.812
N10410 X291.546 Y357.919
N10415 X291.739 Y358.053
N10420 X291.923 Y358.222
N10425 X292.092 Y358.424
N10430 X292.234 Y358.646
N10435 X292.352 Y358.901
N10440 X292.395 Y359.039
N10445 X292.424 Y359.234
N10450 X292.391 Y359.429
N10455 X292.3 Y359.604
N10460 X292.16 Y359.743
N10465 X291.984 Y359.832
N10470 X291.789 Y359.863
N10475 X289.948
N10480 G3 X289.445 Y359.453 Z5.402 I0.019 J-0.536
N10485 X289.406 Y359.156 Z5.463 I1.389 J-0.336
N10490 X289.879 Y358.054 I1.429 J-0.039
N10495 X290.785 Y357.688 Z5.262 I0.956 J1.063
N10500 G1 X292.568
N10505 X292.728 Y357.696
N10510 X292.929 Y357.733
N10515 X293.127 Y357.797
N10520 X293.337 Y357.898
N10525 X293.535 Y358.026
N10530 X293.717 Y358.183
N10535 X293.892 Y358.38
N10540 X294.041 Y358.599
N10545 X294.163 Y358.842
N10550 X294.225 Y359.021
N10555 X294.259 Y359.218
N10560 X294.231 Y359.417
N10565 X294.142 Y359.596
N10570 X294.001 Y359.739
N10575 X293.822 Y359.831
N10580 X293.624 Y359.863
N10585 X291.789
N10590 G3 X291.295 Y359.487 Z5.395 I0.019 J-0.537
N10595 X291.234 Y359.158 Z5.463 I1.322 J-0.414
N10600 X291.668 Y358.063 I1.383 J-0.086
N10605 G1 X291.754 Y357.989 Z5.44
N10610 X291.845 Y357.922 Z5.417
N10615 G3 X292.568 Y357.688 Z5.262 I0.772 J1.151
N10620 G1 X294.352
N10625 X294.565 Y357.699
N10630 X294.763 Y357.735
N10635 X294.964 Y357.8
N10640 X295.173 Y357.9
N10645 X295.368 Y358.028
N10650 X295.552 Y358.186
N10655 X295.727 Y358.382
N10660 X295.875 Y358.599
N10665 X295.997 Y358.844
N10670 X296.058 Y359.021
N10675 X296.093 Y359.218
N10680 X296.065 Y359.417
N10685 X295.975 Y359.596
N10690 X295.835 Y359.739
N10695 X295.656 Y359.831
N10700 X295.458 Y359.863
N10705 X293.624
N10710 G3 X293.141 Y359.519 Z5.389 I0.019 J-0.537
N10715 X293.057 Y359.161 Z5.463 I1.258 J-0.484
N10720 X293.456 Y358.072 I1.342 J-0.126
N10725 X294.352 Y357.688 Z5.262 I0.943 J0.963
N10730 G1 X296.136
N10735 X296.399 Y357.701
N10740 X296.597 Y357.738
N10745 X296.797 Y357.803
N10750 X297.006 Y357.903
N10755 X297.201 Y358.03
N10760 X297.385 Y358.188
N10765 X297.56 Y358.384
N10770 X297.707 Y358.601
N10775 X297.83 Y358.845
N10780 X297.89 Y359.021
N10785 X297.925 Y359.218
N10790 X297.896 Y359.417
N10795 X297.807 Y359.596
N10800 X297.667 Y359.739
N10805 X297.488 Y359.831
N10810 X297.29 Y359.863
N10815 X295.458
N10820 G3 X294.988 Y359.55 Z5.382 I0.019 J-0.538
N10825 X294.878 Y359.165 Z5.463 I1.194 J-0.549
N10830 X295.245 Y358.08 I1.304 J-0.164
N10835 G1 X295.328 Y358.002 Z5.44
N10840 X295.417 Y357.933 Z5.417
N10845 G3 X296.136 Y357.688 Z5.262 I0.764 J1.069
N10850 G1 X298.143
N10855 X298.292 Y357.695
N10860 X298.492 Y357.741
N10865 X298.698 Y357.817
N10870 X298.904 Y357.927
N10875 X299.096 Y358.063
N10880 X299.28 Y358.235
N10885 X299.448 Y358.439
N10890 X299.587 Y358.664
N10895 X299.704 Y358.922
N10900 X299.741 Y359.045
N10905 X299.767 Y359.24
N10910 X299.733 Y359.433
N10915 X299.642 Y359.607
N10920 X299.502 Y359.745
N10925 X299.326 Y359.833
N10930 X299.132 Y359.863
N10935 X297.29
N10940 G3 X296.785 Y359.444 Z5.404 I0.019 J-0.536
N10945 G1 X296.773 Y359.381 Z5.417
N10950 X296.757 Y359.269 Z5.44
N10955 X296.751 Y359.156 Z5.463
N10960 G3 X297.235 Y358.051 I1.442 J-0.026
N10965 X298.143 Y357.688 Z5.262 I0.958 J1.079
N10970 G1 X299.926
N10975 X300.076 Y357.695
N10980 X300.278 Y357.733
N10985 X300.476 Y357.798
N10990 X300.686 Y357.899
N10995 X300.883 Y358.029
N11000 X301.065 Y358.186
N11005 X301.24 Y358.384
N11010 X301.388 Y358.603
N11015 X301.51 Y358.847
N11020 X301.57 Y359.022
N11025 X301.604 Y359.22
N11030 X301.575 Y359.418
N11035 X301.485 Y359.597
N11040 X301.345 Y359.74
N11045 X301.167 Y359.831
N11050 X300.969 Y359.863
N11055 X299.132
N11060 G3 X298.636 Y359.478 Z5.397 I0.019 J-0.537
N11065 G1 X298.611 Y359.382 Z5.417
N11070 X298.592 Y359.27 Z5.44
N11075 X298.581 Y359.158 Z5.463
N11080 G3 X299.024 Y358.061 I1.394 J-0.074
N11085 G1 X299.11 Y357.987 Z5.44
N11090 X299.202 Y357.92 Z5.417
N11095 G3 X299.926 Y357.688 Z5.262 I0.773 J1.163
N11100 G1 X301.71
N11105 X301.909 Y357.698
N11110 X302.108 Y357.735
N11115 X302.308 Y357.799
N11120 X302.517 Y357.9
N11125 X302.713 Y358.027
N11130 X302.897 Y358.185
N11135 X303.072 Y358.381
N11140 X303.219 Y358.599
N11145 X303.342 Y358.844
N11150 X303.403 Y359.021
N11155 X303.438 Y359.218
N11160 X303.409 Y359.417
N11165 X303.32 Y359.596
N11170 X303.18 Y359.739
N11175 X303.001 Y359.831
N11180 X302.803 Y359.863
N11185 X300.969
N11190 G3 X300.483 Y359.51 Z5.39 I0.019 J-0.537
N11195 X300.405 Y359.16 Z5.463 I1.275 J-0.466
N11200 X300.813 Y358.07 I1.352 J-0.116
N11205 X301.71 Y357.688 Z5.262 I0.944 J0.975
N11210 G1 X303.494
N11215 X303.743 Y357.701
N11220 X303.942 Y357.737
N11225 X304.142 Y357.802
N11230 X304.351 Y357.902
N11235 X304.546 Y358.029
N11240 X304.73 Y358.187
N11245 X304.905 Y358.383
N11250 X305.052 Y358.6
N11255 X305.175 Y358.845
N11260 X305.236 Y359.021
N11265 X305.27 Y359.218
N11270 X305.242 Y359.417
N11275 X305.153 Y359.596
N11280 X305.012 Y359.739
N11285 X304.834 Y359.831
N11290 X304.636 Y359.863
N11295 X302.803
N11300 G3 X302.329 Y359.542 Z5.384 I0.019 J-0.538
N11305 X302.226 Y359.164 Z5.463 I1.21 J-0.532
N11310 X302.602 Y358.078 I1.313 J-0.154
N11315 X303.494 Y357.688 Z5.262 I0.938 J0.932
N11320 G1 X305.5
N11325 X305.65 Y357.695
N11330 X305.849 Y357.742
N11335 X306.057 Y357.821
N11340 X306.263 Y357.933
N11345 X306.454 Y358.071
N11350 X306.637 Y358.245
N11355 X306.804 Y358.451
N11360 X306.941 Y358.677
N11365 X307.056 Y358.938
N11370 X307.089 Y359.05
N11375 X307.114 Y359.244
N11380 X307.079 Y359.437
N11385 X306.987 Y359.609
N11390 X306.847 Y359.746
N11395 X306.673 Y359.833
N11400 X306.479 Y359.863
N11405 X304.636
N11410 G3 X304.129 Y359.436 Z5.406 I0.019 J-0.536
N11415 X304.099 Y359.155 Z5.463 I1.422 J-0.297
N11420 X304.592 Y358.049 I1.453 J-0.015
N11425 X305.5 Y357.688 Z5.262 I0.959 J1.091
N11430 G1 X307.284
N11435 X307.434 Y357.695
N11440 X307.636 Y357.735
N11445 X307.835 Y357.802
N11450 X308.044 Y357.905
N11455 X308.241 Y358.036
N11460 X308.422 Y358.195
N11465 X308.597 Y358.394
N11470 X308.744 Y358.616
N11475 X308.863 Y358.861
N11480 X308.919 Y359.027
N11485 X308.952 Y359.224
N11490 X308.922 Y359.421
N11495 X308.832 Y359.599
N11500 X308.691 Y359.741
N11505 X308.514 Y359.832
N11510 X308.317 Y359.863
N11515 X306.479
N11520 G3 X305.981 Y359.472 Z5.398 I0.019 J-0.537
N11525 X305.93 Y359.157 Z5.463 I1.352 J-0.38
N11530 X306.381 Y358.059 I1.403 J-0.066
N11535 X307.284 Y357.688 Z5.262 I0.952 J1.032
N11540 G1 X309.068
N11545 X309.257 Y357.697
N11550 X309.456 Y357.734
N11555 X309.655 Y357.799
N11560 X309.865 Y357.899
N11565 X310.061 Y358.027
N11570 X310.244 Y358.185
N11575 X310.42 Y358.381
N11580 X310.568 Y358.599
N11585 X310.69 Y358.843
N11590 X310.751 Y359.021
N11595 X310.786 Y359.218
N11600 X310.758 Y359.417
N11605 X310.668 Y359.596
N11610 X310.528 Y359.739
N11615 X310.349 Y359.831
N11620 X310.151 Y359.863
N11625 X308.317
N11630 G3 X307.828 Y359.504 Z5.392 I0.019 J-0.537
N11635 X307.755 Y359.16 Z5.463 I1.287 J-0.453
N11640 X308.17 Y358.068 I1.36 J-0.108
N11645 X309.068 Y357.688 Z5.262 I0.945 J0.984
N11650 G1 X310.852
N11655 X311.092 Y357.7
N11660 X311.29 Y357.737
N11665 X311.49 Y357.802
N11670 X311.699 Y357.902
N11675 X311.895 Y358.029
N11680 X312.078 Y358.187
N11685 X312.253 Y358.383
N11690 X312.401 Y358.6
N11695 X312.523 Y358.845
N11700 X312.584 Y359.021
N11705 X312.619 Y359.218
N11710 X312.59 Y359.417
N11715 X312.501 Y359.596
N11720 X312.36 Y359.739
N11725 X312.182 Y359.831
N11730 X311.984 Y359.863
N11735 X310.151
N11740 G3 X309.675 Y359.536 Z5.385 I0.019 J-0.538
N11745 X309.577 Y359.163 Z5.463 I1.223 J-0.52
N11750 X309.958 Y358.076 I1.321 J-0.147
N11755 G1 X310.042 Y357.999 Z5.44
N11760 X310.132 Y357.93 Z5.417
N11765 G3 X310.852 Y357.688 Z5.262 I0.766 J1.086
N11770 G1 X312.758
N11775 X312.924 Y357.696
N11780 X313.123 Y357.733
N11785 X313.324 Y357.798
N11790 X313.533 Y357.898
N11795 X313.729 Y358.026
N11800 X313.913 Y358.184
N11805 X314.088 Y358.38
N11810 X314.236 Y358.598
N11815 X314.358 Y358.843
N11820 X314.42 Y359.021
N11825 X314.455 Y359.218
N11830 X314.426 Y359.417
N11835 X314.337 Y359.596
N11840 X314.196 Y359.739
N11845 X314.018 Y359.831
N11850 X313.82 Y359.863
N11855 X311.984
N11860 G3 X311.491 Y359.49 Z5.395 I0.019 J-0.537
N11865 X311.428 Y359.158 Z5.463 I1.315 J-0.422
N11870 X311.858 Y358.064 I1.378 J-0.09
N11875 X312.758 Y357.688 Z5.262 I0.948 J1.004
N11880 G1 X314.642
N11885 X314.792 Y357.695
N11890 X314.991 Y357.737
N11895 X315.194 Y357.807
N11900 X315.402 Y357.912
N11905 X315.596 Y358.045
N11910 X315.78 Y358.21
N11915 X315.951 Y358.41
N11920 X316.095 Y358.631
N11925 X316.215 Y358.883
N11930 X316.263 Y359.033
N11935 X316.294 Y359.229
N11940 X316.262 Y359.425
N11945 X316.172 Y359.602
N11950 X316.031 Y359.742
N11955 X315.855 Y359.832
N11960 X315.659 Y359.863
N11965 X313.82
N11970 G3 X313.319 Y359.461 Z5.401 I0.019 J-0.537
N11975 X313.274 Y359.156 Z5.463 I1.373 J-0.356
N11980 X313.737 Y358.056 I1.417 J-0.051
N11985 X314.642 Y357.688 Z5.262 I0.954 J1.049
N11990 G1 X316.426
N11995 X316.598 Y357.697
N12000 X316.799 Y357.734
N12005 X316.997 Y357.798
N12010 X317.207 Y357.898
N12015 X317.404 Y358.027
N12020 X317.586 Y358.184
N12025 X317.762 Y358.38
N12030 X317.91 Y358.599
N12035 X318.032 Y358.842
N12040 X318.094 Y359.021
N12045 X318.129 Y359.218
N12050 X318.1 Y359.417
N12055 X318.011 Y359.596
N12060 X317.87 Y359.739
N12065 X317.692 Y359.831
N12070 X317.494 Y359.863
N12075 X315.659
N12080 G3 X315.167 Y359.494 Z5.394 I0.019 J-0.537
N12085 X315.101 Y359.159 Z5.463 I1.307 J-0.431
N12090 X315.526 Y358.065 I1.373 J-0.096
N12095 X316.426 Y357.688 Z5.262 I0.947 J0.998
N12100 G1 X318.209
N12105 X318.434 Y357.699
N12110 X318.633 Y357.736
N12115 X318.833 Y357.801
N12120 X319.042 Y357.901
N12125 X319.238 Y358.028
N12130 X319.421 Y358.186
N12135 X319.596 Y358.382
N12140 X319.744 Y358.6
N12145 X319.866 Y358.844
N12150 X319.927 Y359.021
N12155 X319.962 Y359.218
N12160 X319.933 Y359.417
N12165 X319.844 Y359.596
N12170 X319.704 Y359.739
N12175 X319.525 Y359.831
N12180 X319.327 Y359.863
N12185 X317.494
N12190 G3 X317.014 Y359.526 Z5.387 I0.019 J-0.538
N12195 X316.924 Y359.162 Z5.463 I1.242 J-0.5
N12200 X317.315 Y358.074 I1.332 J-0.135
N12205 G1 X317.399 Y357.997 Z5.44
N12210 X317.489 Y357.929 Z5.417
N12215 G3 X318.209 Y357.688 Z5.262 I0.767 J1.098
N12220 G1 X320.116
N12225 X320.267 Y357.696
N12230 X320.466 Y357.732
N12235 X320.667 Y357.797
N12240 X320.876 Y357.898
N12245 X321.072 Y358.025
N12250 X321.256 Y358.183
N12255 X321.431 Y358.38
N12260 X321.579 Y358.597
N12265 X321.702 Y358.842
N12270 X321.764 Y359.021
N12275 X321.798 Y359.218
N12280 X321.77 Y359.417
N12285 X321.681 Y359.596
N12290 X321.54 Y359.739
N12295 X321.361 Y359.831
N12300 X321.163 Y359.863
N12305 X319.327
N12310 G3 X318.832 Y359.481 Z5.396 I0.019 J-0.537
N12315 X318.775 Y359.158 Z5.463 I1.333 J-0.402
N12320 X319.214 Y358.062 I1.39 J-0.079
N12325 G1 X319.3 Y357.988 Z5.44
N12330 X319.392 Y357.921 Z5.417
N12335 G3 X320.116 Y357.688 Z5.262 I0.772 J1.158
N12340 G1 X322.
N12345 X322.15 Y357.695
N12350 X322.349 Y357.738
N12355 X322.553 Y357.812
N12360 X322.761 Y357.919
N12365 X322.954 Y358.053
N12370 X323.138 Y358.222
N12375 X323.307 Y358.424
N12380 X323.449 Y358.647
N12385 X323.567 Y358.901
N12390 X323.61 Y359.039
N12395 X323.639 Y359.234
N12400 X323.606 Y359.429
N12405 X323.515 Y359.604
N12410 X323.375 Y359.743
N12415 X323.199 Y359.832
N12420 X323.004 Y359.863
N12425 X321.163
N12430 G3 X320.66 Y359.453 Z5.402 I0.019 J-0.536
N12435 G1 X320.645 Y359.381 Z5.417
N12440 X320.628 Y359.269 Z5.44
N12445 X320.621 Y359.156 Z5.463
N12450 G3 X321.094 Y358.054 I1.429 J-0.039
N12455 X322. Y357.688 Z5.262 I0.956 J1.063
N12460 G1 X323.783
N12465 X323.943 Y357.696
N12470 X324.144 Y357.733
N12475 X324.342 Y357.797
N12480 X324.552 Y357.898
N12485 X324.75 Y358.026
N12490 X324.932 Y358.183
N12495 X325.107 Y358.38
N12500 X325.256 Y358.599
N12505 X325.378 Y358.842
N12510 X325.44 Y359.021
N12515 X325.474 Y359.218
N12520 X325.446 Y359.417
N12525 X325.357 Y359.596
N12530 X325.216 Y359.739
N12535 X325.038 Y359.831
N12540 X324.839 Y359.863
N12545 X323.004
N12550 G3 X322.51 Y359.487 Z5.395 I0.019 J-0.537
N12555 X322.449 Y359.158 Z5.463 I1.322 J-0.414
N12560 X322.883 Y358.063 I1.383 J-0.086
N12565 G1 X322.969 Y357.989 Z5.44
N12570 X323.06 Y357.922 Z5.417
N12575 G3 X323.783 Y357.688 Z5.262 I0.772 J1.151
N12580 G1 X325.567
N12585 X325.78 Y357.699
N12590 X325.978 Y357.735
N12595 X326.179 Y357.8
N12600 X326.388 Y357.9
N12605 X326.583 Y358.028
N12610 X326.767 Y358.186
N12615 X326.942 Y358.382
N12620 X327.09 Y358.599
N12625 X327.212 Y358.844
N12630 X327.273 Y359.021
N12635 X327.308 Y359.218
N12640 X327.28 Y359.417
N12645 X327.19 Y359.596
N12650 X327.05 Y359.739
N12655 X326.871 Y359.831
N12660 X326.673 Y359.863
N12665 X324.839
N12670 G3 X324.356 Y359.519 Z5.389 I0.019 J-0.537
N12675 X324.272 Y359.161 Z5.463 I1.258 J-0.484
N12680 X324.672 Y358.072 I1.342 J-0.126
N12685 X325.567 Y357.688 Z5.262 I0.943 J0.963
N12690 G1 X327.351
N12695 X327.614 Y357.701
N12700 X327.812 Y357.738
N12705 X328.012 Y357.803
N12710 X328.221 Y357.903
N12715 X328.416 Y358.03
N12720 X328.6 Y358.188
N12725 X328.775 Y358.384
N12730 X328.922 Y358.601
N12735 X329.045 Y358.845
N12740 X329.105 Y359.021
N12745 X329.14 Y359.218
N12750 X329.111 Y359.417
N12755 X329.022 Y359.596
N12760 X328.882 Y359.739
N12765 X328.703 Y359.831
N12770 X328.505 Y359.863
N12775 X326.673
N12780 G3 X326.203 Y359.55 Z5.382 I0.019 J-0.538
N12785 X326.093 Y359.165 Z5.463 I1.194 J-0.549
N12790 X326.46 Y358.08 I1.304 J-0.164
N12795 G1 X326.543 Y358.002 Z5.44
N12800 X326.632 Y357.933 Z5.417
N12805 G3 X327.351 Y357.688 Z5.262 I0.764 J1.069
N12810 G1 X329.358
N12815 X329.507 Y357.695
N12820 X329.707 Y357.741
N12825 X329.913 Y357.817
N12830 X330.119 Y357.927
N12835 X330.311 Y358.063
N12840 X330.495 Y358.235
N12845 X330.663 Y358.439
N12850 X330.802 Y358.664
N12855 X330.919 Y358.922
N12860 X330.956 Y359.045
N12865 X330.982 Y359.24
N12870 X330.948 Y359.433
N12875 X330.857 Y359.607
N12880 X330.717 Y359.745
N12885 X330.541 Y359.833
N12890 X330.348 Y359.863
N12895 X328.505
N12900 G3 X328. Y359.444 Z5.404 I0.019 J-0.536
N12905 G1 X327.988 Y359.381 Z5.417
N12910 X327.972 Y359.269 Z5.44
N12915 X327.966 Y359.156 Z5.463
N12920 G3 X328.45 Y358.051 I1.442 J-0.026
N12925 X329.358 Y357.688 Z5.262 I0.958 J1.079
N12930 G1 X331.141
N12935 X331.291 Y357.695
N12940 X331.493 Y357.733
N12945 X331.691 Y357.798
N12950 X331.901 Y357.899
N12955 X332.098 Y358.029
N12960 X332.28 Y358.186
N12965 X332.455 Y358.384
N12970 X332.603 Y358.603
N12975 X332.725 Y358.847
N12980 X332.785 Y359.022
N12985 X332.819 Y359.22
N12990 X332.79 Y359.418
N12995 X332.7 Y359.597
N13000 X332.56 Y359.74
N13005 X332.382 Y359.831
N13010 X332.184 Y359.863
N13015 X330.348
N13020 G3 X329.851 Y359.478 Z5.397 I0.019 J-0.537
N13025 X329.796 Y359.158 Z5.463 I1.339 J-0.395
N13030 X330.239 Y358.061 I1.394 J-0.074
N13035 G1 X330.326 Y357.987 Z5.44
N13040 X330.417 Y357.92 Z5.417
N13045 G3 X331.141 Y357.688 Z5.262 I0.773 J1.163
N13050 G1 X332.925
N13055 X333.124 Y357.698
N13060 X333.323 Y357.735
N13065 X333.523 Y357.799
N13070 X333.732 Y357.9
N13075 X333.928 Y358.027
N13080 X334.112 Y358.185
N13085 X334.287 Y358.381
N13090 X334.435 Y358.599
N13095 X334.557 Y358.844
N13100 X334.618 Y359.021
N13105 X334.653 Y359.218
N13110 X334.624 Y359.417
N13115 X334.535 Y359.596
N13120 X334.395 Y359.739
N13125 X334.216 Y359.831
N13130 X334.018 Y359.863
N13135 X332.184
N13140 G3 X331.698 Y359.51 Z5.39 I0.019 J-0.537
N13145 X331.62 Y359.16 Z5.463 I1.275 J-0.466
N13150 X332.028 Y358.07 I1.352 J-0.116
N13155 X332.925 Y357.688 Z5.262 I0.944 J0.975
N13160 G1 X334.709
N13165 X334.959 Y357.701
N13170 X335.157 Y357.737
N13175 X335.357 Y357.802
N13180 X335.566 Y357.902
N13185 X335.762 Y358.029
N13190 X335.945 Y358.187
N13195 X336.12 Y358.383
N13200 X336.267 Y358.6
N13205 X336.39 Y358.845
N13210 X336.451 Y359.021
N13215 X336.486 Y359.218
N13220 X336.457 Y359.417
N13225 X336.368 Y359.596
N13230 X336.227 Y359.739
N13235 X336.049 Y359.831
N13240 X335.851 Y359.863
N13245 X334.018
N13250 G3 X333.544 Y359.542 Z5.384 I0.019 J-0.538
N13255 X333.442 Y359.164 Z5.463 I1.21 J-0.532
N13260 X333.817 Y358.078 I1.313 J-0.154
N13265 X334.709 Y357.688 Z5.262 I0.938 J0.932
N13270 G1 X336.715
N13275 X336.865 Y357.695
N13280 X337.064 Y357.742
N13285 X337.272 Y357.821
N13290 X337.478 Y357.933
N13295 X337.669 Y358.071
N13300 X337.853 Y358.245
N13305 X338.019 Y358.451
N13310 X338.156 Y358.677
N13315 X338.271 Y358.938
N13320 X338.304 Y359.05
N13325 X338.329 Y359.244
N13330 X338.294 Y359.437
N13335 X338.202 Y359.609
N13340 X338.062 Y359.746
N13345 X337.888 Y359.833
N13350 X337.695 Y359.863
N13355 X335.851
N13360 G3 X335.344 Y359.436 Z5.406 I0.019 J-0.536
N13365 X335.314 Y359.155 Z5.463 I1.422 J-0.297
N13370 X335.807 Y358.049 I1.453 J-0.015
N13375 X336.715 Y357.688 Z5.262 I0.959 J1.091
N13380 G1 X338.499
N13385 X338.649 Y357.695
N13390 X338.851 Y357.735
N13395 X339.05 Y357.802
N13400 X339.259 Y357.905
N13405 X339.456 Y358.036
N13410 X339.638 Y358.195
N13415 X339.812 Y358.394
N13420 X339.959 Y358.616
N13425 X340.079 Y358.861
N13430 X340.134 Y359.027
N13435 X340.167 Y359.224
N13440 X340.137 Y359.421
N13445 X340.047 Y359.599
N13450 X339.906 Y359.741
N13455 X339.729 Y359.832
N13460 X339.532 Y359.863
N13465 X337.695
N13470 G3 X337.196 Y359.472 Z5.398 I0.019 J-0.537
N13475 X337.145 Y359.157 Z5.463 I1.352 J-0.38
N13480 X337.596 Y358.059 I1.403 J-0.066
N13485 G1 X337.683 Y357.986 Z5.44
N13490 X337.775 Y357.919 Z5.417
N13495 G3 X338.499 Y357.688 Z5.262 I0.773 J1.172
N13500 G1 X340.283
N13505 X340.472 Y357.697
N13510 X340.671 Y357.734
N13515 X340.87 Y357.799
N13520 X341.08 Y357.899
N13525 X341.276 Y358.027
N13530 X341.46 Y358.185
N13535 X341.635 Y358.381
N13540 X341.783 Y358.599
N13545 X341.905 Y358.843
N13550 X341.967 Y359.021
N13555 X342.001 Y359.218
N13560 X341.973 Y359.417
N13565 X341.883 Y359.596
N13570 X341.743 Y359.739
N13575 X341.564 Y359.831
N13580 X341.366 Y359.863
N13585 X339.532
N13590 G3 X339.043 Y359.504 Z5.392 I0.019 J-0.537
N13595 X338.97 Y359.16 Z5.463 I1.287 J-0.453
N13600 X339.385 Y358.068 I1.36 J-0.108
N13605 X340.283 Y357.688 Z5.262 I0.945 J0.984
N13610 G1 X342.067
N13615 X342.307 Y357.7
N13620 X342.505 Y357.737
N13625 X342.705 Y357.802
N13630 X342.914 Y357.902
N13635 X343.11 Y358.029
N13640 X343.294 Y358.187
N13645 X343.468 Y358.383
N13650 X343.616 Y358.6
N13655 X343.739 Y358.845
N13660 X343.799 Y359.021
N13665 X343.834 Y359.218
N13670 X343.805 Y359.417
N13675 X343.716 Y359.596
N13680 X343.576 Y359.739
N13685 X343.397 Y359.831
N13690 X343.199 Y359.863
N13695 X341.366
N13700 G3 X340.89 Y359.536 Z5.385 I0.019 J-0.538
N13705 X340.792 Y359.163 Z5.463 I1.223 J-0.52
N13710 X341.174 Y358.076 I1.321 J-0.147
N13715 G1 X341.257 Y357.999 Z5.44
N13720 X341.347 Y357.93 Z5.417
N13725 G3 X342.067 Y357.688 Z5.262 I0.766 J1.086
N13730 G1 X343.973
N13735 X344.139 Y357.696
N13740 X344.338 Y357.733
N13745 X344.539 Y357.798
N13750 X344.748 Y357.898
N13755 X344.944 Y358.026
N13760 X345.128 Y358.184
N13765 X345.303 Y358.38
N13770 X345.451 Y358.598
N13775 X345.573 Y358.843
N13780 X345.635 Y359.021
N13785 X345.67 Y359.218
N13790 X345.641 Y359.417
N13795 X345.552 Y359.596
N13800 X345.411 Y359.739
N13805 X345.233 Y359.831
N13810 X345.035 Y359.863
N13815 X343.199
N13820 G3 X342.706 Y359.49 Z5.395 I0.019 J-0.537
N13825 X342.643 Y359.158 Z5.463 I1.315 J-0.422
N13830 X343.073 Y358.064 I1.378 J-0.09
N13835 X343.973 Y357.688 Z5.262 I0.948 J1.004
N13840 G1 X345.857
N13845 X346.007 Y357.695
N13850 X346.206 Y357.737
N13855 X346.409 Y357.807
N13860 X346.617 Y357.912
N13865 X346.811 Y358.045
N13870 X346.995 Y358.21
N13875 X347.167 Y358.41
N13880 X347.31 Y358.631
N13885 X347.43 Y358.883
N13890 X347.478 Y359.033
N13895 X347.509 Y359.229
N13900 X347.477 Y359.425
N13905 X347.387 Y359.602
N13910 X347.246 Y359.742
N13915 X347.07 Y359.832
N13920 X346.874 Y359.863
N13925 X345.035
N13930 G3 X344.534 Y359.461 Z5.401 I0.019 J-0.537
N13935 X344.489 Y359.156 Z5.463 I1.373 J-0.356
N13940 X344.952 Y358.056 I1.417 J-0.051
N13945 X345.857 Y357.688 Z5.262 I0.954 J1.049
N13950 G1 X347.641
N13955 X347.813 Y357.697
N13960 X348.014 Y357.734
N13965 X348.212 Y357.798
N13970 X348.422 Y357.898
N13975 X348.619 Y358.027
N13980 X348.801 Y358.184
N13985 X348.977 Y358.38
N13990 X349.125 Y358.599
N13995 X349.247 Y358.842
N14000 X349.309 Y359.021
N14005 X349.344 Y359.218
N14010 X349.315 Y359.417
N14015 X349.226 Y359.596
N14020 X349.085 Y359.739
N14025 X348.907 Y359.831
N14030 X348.709 Y359.863
N14035 X346.874
N14040 G3 X346.382 Y359.494 Z5.394 I0.019 J-0.537
N14045 X346.316 Y359.159 Z5.463 I1.307 J-0.431
N14050 X346.741 Y358.065 I1.373 J-0.096
N14055 X347.641 Y357.688 Z5.262 I0.947 J0.998
N14060 G1 X349.424
N14065 X349.649 Y357.699
N14070 X349.848 Y357.736
N14075 X350.048 Y357.801
N14080 X350.257 Y357.901
N14085 X350.453 Y358.028
N14090 X350.636 Y358.186
N14095 X350.811 Y358.382
N14100 X350.959 Y358.6
N14105 X351.082 Y358.844
N14110 X351.142 Y359.021
N14115 X351.177 Y359.218
N14120 X351.149 Y359.417
N14125 X351.059 Y359.596
N14130 X350.919 Y359.739
N14135 X350.74 Y359.831
N14140 X350.542 Y359.863
N14145 X348.709
N14150 G3 X348.229 Y359.526 Z5.387 I0.019 J-0.538
N14155 X348.139 Y359.162 Z5.463 I1.243 J-0.5
N14160 X348.53 Y358.074 I1.332 J-0.135
N14165 G1 X348.614 Y357.997 Z5.44
N14170 X348.704 Y357.929 Z5.417
N14175 G3 X349.424 Y357.688 Z5.262 I0.767 J1.098
N14180 G1 X351.331
N14185 X351.482 Y357.696
N14190 X351.681 Y357.732
N14195 X351.882 Y357.797
N14200 X352.091 Y357.898
N14205 X352.287 Y358.025
N14210 X352.471 Y358.183
N14215 X352.646 Y358.38
N14220 X352.794 Y358.597
N14225 X352.917 Y358.842
N14230 X352.979 Y359.021
N14235 X353.013 Y359.218
N14240 X352.985 Y359.417
N14245 X352.896 Y359.596
N14250 X352.755 Y359.739
N14255 X352.577 Y359.831
N14260 X352.378 Y359.863
N14265 X350.542
N14270 G3 X350.047 Y359.481 Z5.396 I0.019 J-0.537
N14275 G1 X350.021 Y359.382 Z5.417
N14280 X350.001 Y359.271 Z5.44
N14285 X349.99 Y359.158 Z5.463
N14290 G3 X350.429 Y358.062 I1.39 J-0.079
N14295 X351.331 Y357.688 Z5.262 I0.95 J1.017
N14300 G1 X353.215
N14305 X353.365 Y357.695
N14310 X353.564 Y357.738
N14315 X353.768 Y357.812
N14320 X353.976 Y357.919
N14325 X354.169 Y358.053
N14330 X354.353 Y358.222
N14335 X354.522 Y358.424
N14340 X354.664 Y358.647
N14345 X354.782 Y358.901
N14350 X354.825 Y359.039
N14355 X354.854 Y359.234
N14360 X354.821 Y359.429
N14365 X354.73 Y359.604
N14370 X354.59 Y359.743
N14375 X354.414 Y359.832
N14380 X354.219 Y359.863
N14385 X352.378
N14390 G3 X351.875 Y359.453 Z5.402 I0.019 J-0.536
N14395 X351.836 Y359.156 Z5.463 I1.389 J-0.336
N14400 X352.309 Y358.054 I1.429 J-0.039
N14405 X353.215 Y357.688 Z5.262 I0.956 J1.063
N14410 G1 X354.999
N14415 X355.158 Y357.696
N14420 X355.359 Y357.733
N14425 X355.557 Y357.797
N14430 X355.767 Y357.898
N14435 X355.965 Y358.026
N14440 X356.147 Y358.183
N14445 X356.322 Y358.38
N14450 X356.471 Y358.599
N14455 X356.593 Y358.842
N14460 X356.655 Y359.021
N14465 X356.689 Y359.218
N14470 X356.661 Y359.417
N14475 X356.572 Y359.596
N14480 X356.431 Y359.739
N14485 X356.253 Y359.831
N14490 X356.054 Y359.863
N14495 X354.219
N14500 G3 X353.725 Y359.487 Z5.395 I0.019 J-0.537
N14505 X353.664 Y359.158 Z5.463 I1.322 J-0.414
N14510 X354.098 Y358.063 I1.383 J-0.086
N14515 G1 X354.184 Y357.989 Z5.44
N14520 X354.275 Y357.922 Z5.417
N14525 G3 X354.999 Y357.688 Z5.262 I0.772 J1.151
N14530 G1 X356.782
N14535 X356.995 Y357.699
N14540 X357.194 Y357.735
N14545 X357.394 Y357.8
N14550 X357.603 Y357.9
N14555 X357.798 Y358.028
N14560 X357.982 Y358.186
N14565 X358.157 Y358.382
N14570 X358.305 Y358.599
N14575 X358.427 Y358.844
N14580 X358.489 Y359.021
N14585 X358.523 Y359.218
N14590 X358.495 Y359.417
N14595 X358.405 Y359.596
N14600 X358.265 Y359.739
N14605 X358.086 Y359.831
N14610 X357.888 Y359.863
N14615 X356.054
N14620 G3 X355.571 Y359.519 Z5.389 I0.019 J-0.537
N14625 X355.487 Y359.161 Z5.463 I1.258 J-0.484
N14630 X355.887 Y358.072 I1.342 J-0.126
N14635 G1 X355.971 Y357.996 Z5.44
N14640 X356.061 Y357.927 Z5.417
N14645 G3 X356.782 Y357.688 Z5.262 I0.768 J1.108
N14650 G1 X358.566
N14655 X358.829 Y357.701
N14660 X359.027 Y357.738
N14665 X359.227 Y357.803
N14670 X359.436 Y357.903
N14675 X359.631 Y358.03
N14680 X359.815 Y358.188
N14685 X359.99 Y358.384
N14690 X360.137 Y358.601
N14695 X360.26 Y358.845
N14700 X360.32 Y359.021
N14705 X360.355 Y359.218
N14710 X360.327 Y359.417
N14715 X360.237 Y359.596
N14720 X360.097 Y359.739
N14725 X359.918 Y359.831
N14730 X359.72 Y359.863
N14735 X357.888
N14740 G3 X357.418 Y359.55 Z5.382 I0.019 J-0.538
N14745 X357.308 Y359.165 Z5.463 I1.194 J-0.549
N14750 X357.675 Y358.08 I1.304 J-0.164
N14755 X358.566 Y357.688 Z5.262 I0.937 J0.921
N14760 G1 X360.573
N14765 X360.722 Y357.695
N14770 X360.922 Y357.741
N14775 X361.128 Y357.817
N14780 X361.335 Y357.927
N14785 X361.526 Y358.063
N14790 X361.71 Y358.235
N14795 X361.878 Y358.439
N14800 X362.017 Y358.664
N14805 X362.134 Y358.922
N14810 X362.171 Y359.045
N14815 X362.197 Y359.24
N14820 X362.163 Y359.433
N14825 X362.072 Y359.607
N14830 X361.932 Y359.745
N14835 X361.757 Y359.833
N14840 X361.563 Y359.863
N14845 X359.72
N14850 G3 X359.215 Y359.444 Z5.404 I0.019 J-0.536
N14855 G1 X359.203 Y359.381 Z5.417
N14860 X359.187 Y359.269 Z5.44
N14865 X359.181 Y359.156 Z5.463
N14870 G3 X359.665 Y358.051 I1.442 J-0.026
N14875 X360.573 Y357.688 Z5.262 I0.958 J1.079
N14880 G1 X362.356
N14885 X362.506 Y357.695
N14890 X362.708 Y357.733
N14895 X362.906 Y357.798
N14900 X363.116 Y357.899
N14905 X363.313 Y358.029
N14910 X363.495 Y358.186
N14915 X363.67 Y358.384
N14920 X363.819 Y358.603
N14925 X363.94 Y358.847
N14930 X364. Y359.022
N14935 X364.034 Y359.22
N14940 X364.005 Y359.418
N14945 X363.915 Y359.597
N14950 X363.775 Y359.74
N14955 X363.597 Y359.831
N14960 X363.399 Y359.863
N14965 X361.563
N14970 G3 X361.066 Y359.478 Z5.397 I0.019 J-0.537
N14975 X361.011 Y359.158 Z5.463 I1.339 J-0.395
N14980 X361.454 Y358.061 I1.394 J-0.074
N14985 G1 X361.541 Y357.987 Z5.44
N14990 X361.632 Y357.92 Z5.417
N14995 G3 X362.356 Y357.688 Z5.262 I0.773 J1.163
N15000 G1 X364.14
N15005 X364.339 Y357.698
N15010 X364.538 Y357.735
N15015 X364.738 Y357.799
N15020 X364.947 Y357.9
N15025 X365.143 Y358.027
N15030 X365.327 Y358.185
N15035 X365.502 Y358.381
N15040 X365.65 Y358.599
N15045 X365.772 Y358.844
N15050 X365.833 Y359.021
N15055 X365.868 Y359.218
N15060 X365.84 Y359.417
N15065 X365.75 Y359.596
N15070 X365.61 Y359.739
N15075 X365.431 Y359.831
N15080 X365.233 Y359.863
N15085 X363.399
N15090 G3 X362.913 Y359.51 Z5.39 I0.019 J-0.537
N15095 X362.835 Y359.16 Z5.463 I1.275 J-0.466
N15100 X363.243 Y358.07 I1.352 J-0.116
N15105 X364.14 Y357.688 Z5.262 I0.944 J0.975
N15110 G1 X365.924
N15115 X366.174 Y357.701
N15120 X366.372 Y357.737
N15125 X366.572 Y357.802
N15130 X366.781 Y357.902
N15135 X366.977 Y358.029
N15140 X367.16 Y358.187
N15145 X367.335 Y358.383
N15150 X367.483 Y358.6
N15155 X367.605 Y358.845
N15160 X367.666 Y359.021
N15165 X367.701 Y359.218
N15170 X367.672 Y359.417
N15175 X367.583 Y359.596
N15180 X367.442 Y359.739
N15185 X367.264 Y359.831
N15190 X367.066 Y359.863
N15195 X365.233
N15200 G3 X364.759 Y359.542 Z5.384 I0.019 J-0.538
N15205 X364.657 Y359.164 Z5.463 I1.21 J-0.532
N15210 X365.032 Y358.078 I1.313 J-0.154
N15215 X365.924 Y357.688 Z5.262 I0.938 J0.932
N15220 G1 X367.93
N15225 X368.08 Y357.695
N15230 X368.279 Y357.742
N15235 X368.487 Y357.821
N15240 X368.693 Y357.933
N15245 X368.884 Y358.071
N15250 X369.068 Y358.245
N15255 X369.234 Y358.451
N15260 X369.371 Y358.677
N15265 X369.486 Y358.938
N15270 X369.519 Y359.05
N15275 X369.544 Y359.244
N15280 X369.509 Y359.437
N15285 X369.418 Y359.609
N15290 X369.278 Y359.746
N15295 X369.103 Y359.833
N15300 X368.91 Y359.863
N15305 X367.066
N15310 G3 X366.559 Y359.436 Z5.406 I0.019 J-0.536
N15315 X366.529 Y359.155 Z5.463 I1.422 J-0.297
N15320 X367.022 Y358.049 I1.453 J-0.015
N15325 X367.93 Y357.688 Z5.262 I0.959 J1.091
N15330 G1 X369.714
N15335 X369.864 Y357.695
N15340 X370.066 Y357.735
N15345 X370.265 Y357.802
N15350 X370.474 Y357.905
N15355 X370.671 Y358.036
N15360 X370.853 Y358.195
N15365 X371.027 Y358.394
N15370 X371.174 Y358.616
N15375 X371.294 Y358.861
N15380 X371.349 Y359.027
N15385 X371.382 Y359.224
N15390 X371.352 Y359.421
N15395 X371.262 Y359.599
N15400 X371.121 Y359.741
N15405 X370.944 Y359.832
N15410 X370.747 Y359.863
N15415 X368.91
N15420 G3 X368.411 Y359.472 Z5.398 I0.019 J-0.537
N15425 X368.36 Y359.157 Z5.463 I1.352 J-0.38
N15430 X368.811 Y358.059 I1.403 J-0.066
N15435 G1 X368.898 Y357.986 Z5.44
N15440 X368.99 Y357.919 Z5.417
N15445 G3 X369.714 Y357.688 Z5.262 I0.773 J1.172
N15450 G1 X371.498
N15455 X371.687 Y357.697
N15460 X371.886 Y357.734
N15465 X372.086 Y357.799
N15470 X372.295 Y357.899
N15475 X372.491 Y358.027
N15480 X372.675 Y358.185
N15485 X372.85 Y358.381
N15490 X372.998 Y358.599
N15495 X373.12 Y358.843
N15500 X373.182 Y359.021
N15505 X373.216 Y359.218
N15510 X373.188 Y359.417
N15515 X373.099 Y359.596
N15520 X372.958 Y359.739
N15525 X372.779 Y359.831
N15530 X372.581 Y359.863
N15535 X370.747
N15540 G3 X370.258 Y359.504 Z5.392 I0.019 J-0.537
N15545 X370.185 Y359.16 Z5.463 I1.287 J-0.453
N15550 X370.6 Y358.068 I1.36 J-0.108
N15555 X371.498 Y357.688 Z5.262 I0.945 J0.984
N15560 G1 X373.282
N15565 X373.522 Y357.7
N15570 X373.72 Y357.737
N15575 X373.92 Y357.802
N15580 X374.13 Y357.902
N15585 X374.325 Y358.029
N15590 X374.509 Y358.187
N15595 X374.683 Y358.383
N15600 X374.831 Y358.6
N15605 X374.954 Y358.845
N15610 X375.014 Y359.021
N15615 X375.049 Y359.218
N15620 X375.02 Y359.417
N15625 X374.931 Y359.596
N15630 X374.791 Y359.739
N15635 X374.612 Y359.831
N15640 X374.414 Y359.863
N15645 X372.581
N15650 G3 X372.105 Y359.536 Z5.385 I0.019 J-0.538
N15655 X372.007 Y359.163 Z5.463 I1.223 J-0.52
N15660 X372.389 Y358.076 I1.321 J-0.147
N15665 X373.282 Y357.688 Z5.262 I0.939 J0.94
N15670 G1 X375.188
N15675 X375.354 Y357.696
N15680 X375.553 Y357.733
N15685 X375.754 Y357.798
N15690 X375.963 Y357.898
N15695 X376.159 Y358.026
N15700 X376.343 Y358.184
N15705 X376.518 Y358.38
N15710 X376.666 Y358.598
N15715 X376.788 Y358.843
N15720 X376.85 Y359.021
N15725 X376.885 Y359.218
N15730 X376.856 Y359.417
N15735 X376.767 Y359.596
N15740 X376.626 Y359.739
N15745 X376.448 Y359.831
N15750 X376.25 Y359.863
N15755 X374.414
N15760 G3 X373.921 Y359.49 Z5.395 I0.019 J-0.537
N15765 X373.858 Y359.158 Z5.463 I1.315 J-0.422
N15770 X374.288 Y358.064 I1.378 J-0.09
N15775 X375.188 Y357.688 Z5.262 I0.948 J1.004
N15780 G1 X377.072
N15785 X377.222 Y357.695
N15790 X377.421 Y357.737
N15795 X377.624 Y357.807
N15800 X377.833 Y357.912
N15805 X378.026 Y358.045
N15810 X378.21 Y358.21
N15815 X378.382 Y358.41
N15820 X378.525 Y358.631
N15825 X378.645 Y358.883
N15830 X378.693 Y359.033
N15835 X378.724 Y359.229
N15840 X378.692 Y359.425
N15845 X378.602 Y359.602
N15850 X378.461 Y359.742
N15855 X378.285 Y359.832
N15860 X378.089 Y359.863
N15865 X376.25
N15870 G3 X375.749 Y359.461 Z5.401 I0.019 J-0.537
N15875 X375.704 Y359.156 Z5.463 I1.373 J-0.356
N15880 X376.167 Y358.056 I1.417 J-0.051
N15885 X377.072 Y357.688 Z5.262 I0.954 J1.049
N15890 G1 X378.856
N15895 X379.028 Y357.697
N15900 X379.229 Y357.734
N15905 X379.427 Y357.798
N15910 X379.637 Y357.898
N15915 X379.834 Y358.027
N15920 X380.017 Y358.184
N15925 X380.192 Y358.38
N15930 X380.34 Y358.599
N15935 X380.462 Y358.842
N15940 X380.524 Y359.021
N15945 X380.559 Y359.218
N15950 X380.53 Y359.417
N15955 X380.441 Y359.596
N15960 X380.3 Y359.739
N15965 X380.122 Y359.831
N15970 X379.924 Y359.863
N15975 X378.089
N15980 G3 X377.597 Y359.494 Z5.394 I0.019 J-0.537
N15985 X377.531 Y359.159 Z5.463 I1.307 J-0.431
N15990 X377.956 Y358.065 I1.373 J-0.096
N15995 G1 X378.042 Y357.991 Z5.44
N16000 X378.133 Y357.923 Z5.417
N16005 G3 X378.856 Y357.688 Z5.262 I0.771 J1.14
N16010 G1 X380.639
N16015 X380.864 Y357.699
N16020 X381.063 Y357.736
N16025 X381.263 Y357.801
N16030 X381.472 Y357.901
N16035 X381.668 Y358.028
N16040 X381.851 Y358.186
N16045 X382.026 Y358.382
N16050 X382.174 Y358.6
N16055 X382.297 Y358.844
N16060 X382.357 Y359.021
N16065 X382.392 Y359.218
N16070 X382.364 Y359.417
N16075 X382.274 Y359.596
N16080 X382.134 Y359.739
N16085 X381.955 Y359.831
N16090 X381.757 Y359.863
N16095 X379.924
N16100 G3 X379.444 Y359.526 Z5.387 I0.019 J-0.538
N16105 X379.354 Y359.162 Z5.463 I1.243 J-0.5
N16110 X379.745 Y358.074 I1.332 J-0.135
N16115 G1 X379.829 Y357.997 Z5.44
N16120 X379.919 Y357.929 Z5.417
N16125 G3 X380.639 Y357.688 Z5.262 I0.767 J1.098
N16130 G1 X382.546
N16135 X382.697 Y357.696
N16140 X382.897 Y357.732
N16145 X383.097 Y357.797
N16150 X383.307 Y357.898
N16155 X383.502 Y358.025
N16160 X383.686 Y358.183
N16165 X383.861 Y358.38
N16170 X384.009 Y358.597
N16175 X384.132 Y358.842
N16180 X384.18 Y358.98
N16185 X384.202 Y359.06
N16190 X384.224 Y359.253
N16195 X384.187 Y359.443
N16200 X384.094 Y359.613
N16205 X383.954 Y359.747
N16210 X383.781 Y359.833
N16215 X383.589 Y359.863
N16220 X381.757
N16225 G3 X381.262 Y359.481 Z5.396 I0.019 J-0.537
N16230 X381.205 Y359.158 Z5.463 I1.333 J-0.402
N16235 X381.644 Y358.062 I1.39 J-0.079
N16240 X382.546 Y357.688 Z5.262 I0.95 J1.017
N16245 G1 X387.328
N16250 X387.33 Y357.718
N16255 X387.317 Y357.745
N16260 X387.256 Y357.823 Z5.27
N16265 X387.197 Y357.899 Z5.294
N16270 X387.14 Y357.972 Z5.332
N16275 X387.088 Y358.039 Z5.384
N16280 X387.041 Y358.098 Z5.448
N16285 X387.001 Y358.149 Z5.524
N16290 X386.969 Y358.19 Z5.609
N16295 X386.946 Y358.22 Z5.701
N16300 X386.931 Y358.239 Z5.798
N16305 X386.926 Y358.245 Z5.898
N16310 G0 Z15.525
N16315 X391.682 Y359.317
N16320 Z6.532
N16325 G1 Z5.898 F1000.
N16330 X391.675 Y359.321 Z5.798
N16335 X391.655 Y359.333 Z5.701
N16340 X391.622 Y359.353 Z5.609
N16345 X391.578 Y359.379 Z5.524
N16350 X391.522 Y359.412 Z5.448
N16355 X391.457 Y359.451 Z5.384
N16360 X391.384 Y359.494 Z5.332
N16365 X391.305 Y359.541 Z5.294
N16370 X391.221 Y359.591 Z5.27
N16375 X391.136 Y359.642 Z5.262
N16380 G3 X390.382 Y359.863 I-0.809 J-1.36
N16385 G1 X383.589
N16390 G3 X383.005 Y359.415 I0.022 J-0.635
N16395 G1 X382.975 Y359.321 Z5.27
N16400 X382.947 Y359.228 Z5.294
N16405 X382.92 Y359.14 Z5.332
N16410 X382.895 Y359.059 Z5.384
N16415 X382.872 Y358.986 Z5.448
N16420 X382.853 Y358.925 Z5.524
N16425 X382.838 Y358.875 Z5.609
N16430 X382.827 Y358.838 Z5.701
N16435 X382.82 Y358.816 Z5.798
N16440 X382.817 Y358.809 Z5.898
N16445 G0 Z25.525
N16450 X6.053 Y329.61
N16455 Z15.525
N16460 Z7.898
N16465 G1 Z7.262 F1000.
N16470 Z5.262
N16475 G3 X9.51 Y329.113 I4.023 J15.704
N16480 G1 X10.28
N16485 X10.429 Y329.121
N16490 X10.741 Y329.295
N16495 X11.087 Y329.555
N16500 X11.461 Y329.921
N16505 X11.728 Y330.262
N16510 X11.825 Y330.438
N16515 X11.862 Y330.637
N16520 X11.835 Y330.837
N16525 X11.747 Y331.018
N16530 X11.606 Y331.163
N16535 X11.427 Y331.256
N16540 X11.227 Y331.288
N16545 G3 X10.28 Y331.011 Z5.463 I0.07 J-1.999
N16550 X9.621 Y330.38 I1.017 J-1.722
N16555 X9.53 Y329.674 I0.687 J-0.447
N16560 X10.28 Y329.113 Z5.262 I0.778 J0.258
N16565 G1 X12.064
N16570 X12.214 Y329.121
N16575 X12.412 Y329.163
N16580 X12.618 Y329.237
N16585 X12.825 Y329.344
N16590 X13.017 Y329.478
N16595 X13.202 Y329.647
N16600 X13.371 Y329.849
N16605 X13.513 Y330.071
N16610 X13.631 Y330.327
N16615 X13.674 Y330.464
N16620 X13.703 Y330.659
N16625 X13.67 Y330.854
N16630 X13.579 Y331.029
N16635 X13.439 Y331.168
N16640 X13.263 Y331.257
N16645 X13.068 Y331.288
N16650 X12.733
N16655 G3 X11.786 Y331.011 Z5.463 I0.07 J-1.999
N16660 X11.456 Y330.768 I1.017 J-1.722
N16665 X11.257 Y329.618 I0.641 J-0.704
N16670 X12.064 Y329.113 Z5.262 I0.84 J0.447
N16675 G1 X13.848
N16680 X14.007 Y329.121
N16685 X14.208 Y329.158
N16690 X14.406 Y329.222
N16695 X14.616 Y329.323
N16700 X14.814 Y329.451
N16705 X14.996 Y329.608
N16710 X15.171 Y329.805
N16715 X15.32 Y330.024
N16720 X15.442 Y330.267
N16725 X15.504 Y330.446
N16730 X15.538 Y330.643
N16735 X15.51 Y330.842
N16740 X15.421 Y331.021
N16745 X15.28 Y331.164
N16750 X15.101 Y331.256
N16755 X14.903 Y331.288
N16760 X13.068
N16765 G3 X12.574 Y330.911 Z5.395 I0.019 J-0.537
N16770 X12.513 Y330.583 Z5.463 I1.323 J-0.413
N16775 X12.948 Y329.488 I1.384 J-0.085
N16780 X13.848 Y329.113 Z5.262 I0.949 J1.01
N16785 G1 X15.633
N16790 X15.844 Y329.124
N16795 X16.042 Y329.16
N16800 X16.243 Y329.225
N16805 X16.452 Y329.325
N16810 X16.647 Y329.453
N16815 X16.831 Y329.611
N16820 X17.006 Y329.807
N16825 X17.154 Y330.024
N16830 X17.276 Y330.269
N16835 X17.337 Y330.446
N16840 X17.372 Y330.643
N16845 X17.344 Y330.842
N16850 X17.254 Y331.021
N16855 X17.114 Y331.164
N16860 X16.935 Y331.256
N16865 X16.737 Y331.288
N16870 X14.903
N16875 G3 X14.42 Y330.942 Z5.389 I0.019 J-0.537
N16880 G1 X14.377 Y330.809 Z5.417
N16885 X14.352 Y330.698 Z5.44
N16890 X14.337 Y330.586 Z5.463
N16895 G3 X14.737 Y329.496 I1.343 J-0.125
N16900 X15.633 Y329.113 Z5.262 I0.943 J0.965
N16905 G1 X17.417
N16910 X17.678 Y329.126
N16915 X17.876 Y329.163
N16920 X18.076 Y329.228
N16925 X18.285 Y329.327
N16930 X18.48 Y329.455
N16935 X18.664 Y329.613
N16940 X18.839 Y329.808
N16945 X18.986 Y330.026
N16950 X19.109 Y330.27
N16955 X19.17 Y330.446
N16960 X19.204 Y330.643
N16965 X19.176 Y330.842
N16970 X19.086 Y331.021
N16975 X18.946 Y331.164
N16980 X18.767 Y331.256
N16985 X18.569 Y331.288
N16990 X16.737
N16995 G3 X16.266 Y330.973 Z5.382 I0.019 J-0.538
N17000 X16.158 Y330.589 Z5.463 I1.197 J-0.546
N17005 X16.526 Y329.504 I1.305 J-0.162
N17010 G1 X16.609 Y329.427 Z5.44
N17015 X16.699 Y329.357 Z5.417
N17020 G3 X17.417 Y329.113 Z5.262 I0.765 J1.07
N17025 G1 X19.425
N17030 X19.575 Y329.121
N17035 X19.774 Y329.166
N17040 X19.98 Y329.243
N17045 X20.187 Y329.353
N17050 X20.378 Y329.49
N17055 X20.562 Y329.663
N17060 X20.73 Y329.867
N17065 X20.869 Y330.092
N17070 X20.985 Y330.351
N17075 X21.021 Y330.472
N17080 X21.047 Y330.666
N17085 X21.013 Y330.859
N17090 X20.921 Y331.033
N17095 X20.781 Y331.17
N17100 X20.606 Y331.258
N17105 X20.412 Y331.288
N17110 X18.569
N17115 G3 X18.064 Y330.867 Z5.405 I0.019 J-0.536
N17120 G1 X18.052 Y330.806 Z5.417
N17125 X18.037 Y330.694 Z5.44
N17130 X18.031 Y330.58 Z5.463
N17135 G3 X18.517 Y329.475 I1.445 J-0.023
N17140 X19.425 Y329.113 Z5.262 I0.958 J1.082
N17145 G1 X21.209
N17150 X21.359 Y329.121
N17155 X21.561 Y329.159
N17160 X21.76 Y329.224
N17165 X21.969 Y329.326
N17170 X22.166 Y329.456
N17175 X22.348 Y329.614
N17180 X22.523 Y329.812
N17185 X22.671 Y330.033
N17190 X22.791 Y330.277
N17195 X22.85 Y330.449
N17200 X22.884 Y330.646
N17205 X22.854 Y330.844
N17210 X22.765 Y331.023
N17215 X22.624 Y331.165
N17220 X22.446 Y331.257
N17225 X22.249 Y331.288
N17230 X20.412
N17235 G3 X19.915 Y330.901 Z5.398 I0.019 J-0.537
N17240 X19.861 Y330.582 Z5.463 I1.343 J-0.39
N17245 X20.307 Y329.485 I1.397 J-0.071
N17250 X21.209 Y329.113 Z5.262 I0.951 J1.026
N17255 G1 X22.994
N17260 X23.189 Y329.123
N17265 X23.388 Y329.159
N17270 X23.588 Y329.224
N17275 X23.797 Y329.325
N17280 X23.993 Y329.452
N17285 X24.177 Y329.61
N17290 X24.352 Y329.806
N17295 X24.499 Y330.024
N17300 X24.622 Y330.268
N17305 X24.683 Y330.446
N17310 X24.718 Y330.643
N17315 X24.689 Y330.842
N17320 X24.6 Y331.021
N17325 X24.459 Y331.164
N17330 X24.281 Y331.256
N17335 X24.083 Y331.288
N17340 X22.249
N17345 G3 X21.762 Y330.933 Z5.391 I0.019 J-0.537
N17350 X21.686 Y330.585 Z5.463 I1.28 J-0.46
N17355 X22.097 Y329.494 I1.356 J-0.113
N17360 X22.994 Y329.113 Z5.262 I0.945 J0.979
N17365 G1 X24.778
N17370 X25.023 Y329.125
N17375 X25.222 Y329.162
N17380 X25.422 Y329.227
N17385 X25.631 Y329.327
N17390 X25.827 Y329.454
N17395 X26.01 Y329.612
N17400 X26.185 Y329.808
N17405 X26.333 Y330.025
N17410 X26.455 Y330.27
N17415 X26.516 Y330.446
N17420 X26.551 Y330.643
N17425 X26.522 Y330.842
N17430 X26.433 Y331.021
N17435 X26.292 Y331.164
N17440 X26.114 Y331.256
N17445 X25.916 Y331.288
N17450 X24.083
N17455 G3 X23.608 Y330.964 Z5.384 I0.019 J-0.538
N17460 X23.508 Y330.588 Z5.463 I1.217 J-0.526
N17465 X23.886 Y329.502 I1.317 J-0.151
N17470 X24.778 Y329.113 Z5.262 I0.939 J0.936
N17475 G1 X26.686
N17480 X26.856 Y329.122
N17485 X27.055 Y329.158
N17490 X27.255 Y329.223
N17495 X27.465 Y329.323
N17500 X27.66 Y329.451
N17505 X27.844 Y329.609
N17510 X28.019 Y329.805
N17515 X28.167 Y330.023
N17520 X28.29 Y330.268
N17525 X28.351 Y330.446
N17530 X28.386 Y330.643
N17535 X28.357 Y330.842
N17540 X28.268 Y331.021
N17545 X28.128 Y331.164
N17550 X27.949 Y331.256
N17555 X27.751 Y331.288
N17560 X25.916
N17565 G3 X25.424 Y330.918 Z5.394 I0.019 J-0.537
N17570 X25.359 Y330.584 Z5.463 I1.31 J-0.427
N17575 X25.786 Y329.49 I1.375 J-0.093
N17580 G1 X25.871 Y329.415 Z5.44
N17585 X25.963 Y329.348 Z5.417
N17590 G3 X26.686 Y329.113 Z5.262 I0.771 J1.142
N17595 G1 X28.57
N17600 X28.72 Y329.121
N17605 X28.919 Y329.161
N17610 X29.123 Y329.231
N17615 X29.331 Y329.336
N17620 X29.525 Y329.468
N17625 X29.709 Y329.632
N17630 X29.88 Y329.832
N17635 X30.024 Y330.053
N17640 X30.144 Y330.304
N17645 X30.194 Y330.457
N17650 X30.225 Y330.653
N17655 X30.194 Y330.85
N17660 X30.103 Y331.026
N17665 X29.963 Y331.167
N17670 X29.786 Y331.257
N17675 X29.59 Y331.288
N17680 X27.751
N17685 G3 X27.251 Y330.888 Z5.4 I0.019 J-0.537
N17690 G1 X27.232 Y330.807 Z5.417
N17695 X27.214 Y330.695 Z5.44
N17700 X27.205 Y330.582 Z5.463
N17705 G3 X27.666 Y329.482 I1.415 J-0.054
N17710 X28.57 Y329.113 Z5.262 I0.954 J1.046
N17715 G1 X30.355
N17720 X30.53 Y329.122
N17725 X30.73 Y329.159
N17730 X30.928 Y329.223
N17735 X31.138 Y329.324
N17740 X31.335 Y329.452
N17745 X31.518 Y329.609
N17750 X31.693 Y329.805
N17755 X31.841 Y330.024
N17760 X31.964 Y330.267
N17765 X32.025 Y330.446
N17770 X32.06 Y330.643
N17775 X32.031 Y330.842
N17780 X31.942 Y331.021
N17785 X31.801 Y331.164
N17790 X31.623 Y331.256
N17795 X31.425 Y331.288
N17800 X29.59
N17805 G3 X29.099 Y330.921 Z5.393 I0.019 J-0.537
N17810 X29.032 Y330.584 Z5.463 I1.304 J-0.434
N17815 X29.456 Y329.491 I1.371 J-0.097
N17820 X30.355 Y329.113 Z5.262 I0.947 J0.996
N17825 G1 X32.139
N17830 X32.365 Y329.124
N17835 X32.564 Y329.161
N17840 X32.764 Y329.226
N17845 X32.973 Y329.326
N17850 X33.169 Y329.453
N17855 X33.352 Y329.611
N17860 X33.527 Y329.807
N17865 X33.675 Y330.025
N17870 X33.798 Y330.269
N17875 X33.858 Y330.446
N17880 X33.893 Y330.643
N17885 X33.865 Y330.842
N17890 X33.775 Y331.021
N17895 X33.635 Y331.164
N17900 X33.456 Y331.256
N17905 X33.258 Y331.288
N17910 X31.425
N17915 G3 X30.945 Y330.952 Z5.387 I0.019 J-0.538
N17920 X30.855 Y330.587 Z5.463 I1.241 J-0.501
N17925 X31.245 Y329.499 I1.332 J-0.136
N17930 X32.139 Y329.113 Z5.262 I0.941 J0.952
N17935 G1 X34.047
N17940 X34.198 Y329.121
N17945 X34.398 Y329.157
N17950 X34.598 Y329.222
N17955 X34.808 Y329.323
N17960 X35.003 Y329.45
N17965 X35.187 Y329.608
N17970 X35.362 Y329.805
N17975 X35.51 Y330.022
N17980 X35.633 Y330.267
N17985 X35.695 Y330.446
N17990 X35.729 Y330.643
N17995 X35.701 Y330.842
N18000 X35.612 Y331.021
N18005 X35.471 Y331.164
N18010 X35.293 Y331.256
N18015 X35.094 Y331.288
N18020 X33.258
N18025 G3 X32.763 Y330.906 Z5.396 I0.019 J-0.537
N18030 X32.706 Y330.583 Z5.463 I1.332 J-0.402
N18035 X33.145 Y329.487 I1.39 J-0.079
N18040 X34.047 Y329.113 Z5.262 I0.95 J1.017
N18045 G1 X35.931
N18050 X36.081 Y329.121
N18055 X36.28 Y329.164
N18060 X36.485 Y329.237
N18065 X36.693 Y329.344
N18070 X36.885 Y329.479
N18075 X37.069 Y329.647
N18080 X37.239 Y329.849
N18085 X37.38 Y330.072
N18090 X37.499 Y330.327
N18095 X37.541 Y330.464
N18100 X37.57 Y330.66
N18105 X37.537 Y330.854
N18110 X37.446 Y331.029
N18115 X37.306 Y331.168
N18120 X37.13 Y331.257
N18125 X36.935 Y331.288
N18130 X35.094
N18135 G3 X34.591 Y330.878 Z5.402 I0.019 J-0.536
N18140 X34.552 Y330.581 Z5.463 I1.39 J-0.335
N18145 X35.026 Y329.479 I1.429 J-0.039
N18150 X35.931 Y329.113 Z5.262 I0.956 J1.063
N18155 G1 X37.716
N18160 X37.874 Y329.121
N18165 X38.075 Y329.158
N18170 X38.274 Y329.222
N18175 X38.484 Y329.323
N18180 X38.681 Y329.451
N18185 X38.863 Y329.608
N18190 X39.039 Y329.805
N18195 X39.187 Y330.024
N18200 X39.309 Y330.267
N18205 X39.371 Y330.446
N18210 X39.406 Y330.643
N18215 X39.377 Y330.842
N18220 X39.288 Y331.021
N18225 X39.147 Y331.164
N18230 X38.969 Y331.256
N18235 X38.771 Y331.288
N18240 X36.935
N18245 G3 X36.441 Y330.911 Z5.395 I0.019 J-0.537
N18250 G1 X36.413 Y330.807 Z5.417
N18255 X36.392 Y330.696 Z5.44
N18260 X36.381 Y330.583 Z5.463
N18265 G3 X36.815 Y329.488 I1.384 J-0.085
N18270 X37.716 Y329.113 Z5.262 I0.949 J1.011
N18275 G1 X39.5
N18280 X39.711 Y329.124
N18285 X39.91 Y329.16
N18290 X40.11 Y329.225
N18295 X40.319 Y329.325
N18300 X40.515 Y329.453
N18305 X40.698 Y329.611
N18310 X40.873 Y329.807
N18315 X41.021 Y330.024
N18320 X41.144 Y330.269
N18325 X41.205 Y330.446
N18330 X41.239 Y330.643
N18335 X41.211 Y330.842
N18340 X41.122 Y331.021
N18345 X40.981 Y331.164
N18350 X40.803 Y331.256
N18355 X40.605 Y331.288
N18360 X38.771
N18365 G3 X38.287 Y330.942 Z5.389 I0.019 J-0.537
N18370 X38.204 Y330.586 Z5.463 I1.26 J-0.481
N18375 X38.605 Y329.496 I1.343 J-0.125
N18380 X39.5 Y329.113 Z5.262 I0.943 J0.965
N18385 G1 X41.285
N18390 X41.545 Y329.126
N18395 X41.743 Y329.163
