%
(SHELFLIP)
(MACHINE)
(  VENDOR AUTODESK)
(  MODEL GENERIC 3-AXIS ROUTER)
(  DESCRIPTION THIS MACHINE HAS XYZ AXIS ON THE HEAD)
(T20 D=6.35 CR=0. - ZMIN=0. - FLAT END MILL)
N10 G90 G94 G17 G91.1
N15 G21
N20 G53 G0 Z0.
(2D CONTOUR3)
N25 M0
(MANUAL TOOL CHANGE TO T20)
N30 S20000 M3
N35 G17 G90 G94
N40 G54
N45 G0 X455.295 Y251.777
N50 G43 Z25.525 H20
N55 G0 Z15.525
N60 G1 Z11.525 F833.33
N65 Z5.397
N70 G18 G2 X455.93 Z4.762 I0.635 K0. F2500.
N75 G1 X456.565
N80 G17 G3 X457.2 Y252.413 I0. J0.635
N85 G1 Y254.
N90 X454.025
N95 Y15.875
N100 X457.2
N105 Y252.413
N110 G3 X456.565 Y253.048 I-0.635 J0.
N115 G1 X455.93
N120 G18 G3 X455.295 Z5.397 I0. K0.635
N125 G0 Z25.525
N130 G17
(2D CONTOUR4)
N135 G0 X465.455 Y257.81
N140 Z25.525
N145 Z15.525
N150 G1 Z11.525 F833.33
N155 Z0.635
N160 G18 G3 X464.82 Z0. I-0.635 K0. F2500.
N165 G1 X464.185
N170 G17 G3 X463.55 Y257.175 I0. J-0.635
N175 G1 Y189.515
N180 Z3.
N185 Y171.165
N190 Z0. F833.33
N195 Y77.755 F2500.
N200 Z3.
N205 Y59.405
N210 Z0. F833.33
N215 Y12.7 F2500.
N220 G2 X460.375 Y9.525 I-3.175 J0.
N225 G1 X425.45
N230 G2 X422.275 Y12.7 I0. J3.175
N235 G1 Y24.48
N240 Z3.
N245 Y42.83
N250 Z0. F833.33
N255 Y136.24 F2500.
N260 Z3.
N265 Y154.59
N270 Z0. F833.33
N275 Y248. F2500.
N280 Z3.
N285 Y257.175
N290 G2 X425.45 Y260.35 I3.175 J0.
N295 G1 X428.625
N300 Z0. F833.33
N305 X460.375 F2500.
N310 G2 X463.55 Y257.175 I0. J-3.175
N315 G3 X464.185 Y256.54 I0.635 J0.
N320 G1 X464.82
N325 G18 G2 X465.455 Z0.635 I0. K0.635
N330 G0 Z25.525
N335 G17
N340 G53 G0 Z0.
N345 G53 G0 X0. Y0.
N350 M30
%
