%
(FRAMEENDSNRML)
(MACHINE)
(  VENDOR AUTODESK)
(  MODEL GENERIC 3-AXIS ROUTER)
(  DESCRIPTION THIS MACHINE HAS XYZ AXIS ON THE HEAD)
(T20 D=6.35 CR=0. - ZMIN=-9.525 - FLAT END MILL)
N10 G90 G94 G17 G91.1
N20 G21
(-ATTENTION- PROPERTY SAFE RETRACTS IS SET TO CLEARANCE HEIGHT.)
(ENSURE THE CLEARANCE HEIGHT WILL CLEAR THE PART AND OR FIXTURES.)
(RAISE THE Z-AXIS TO A SAFE HEIGHT BEFORE STARTING THE PROGRAM.)
(2D POCKET2)
N30 (T20 M6)
(FLAT END MILL D=6.35 4MM FLAT ENDMILL)
N40 S5000 M3
N50 G54
N60 G0 X22.917 Y-4.067
N70 Z15.
N80 G0 Z5.
N90 G1 Z-8.731 F333.33
N100 Z-8.89 F1000.
N110 X22.923 Y-4.062 Z-8.989
N120 X22.942 Y-4.048 Z-9.086
N130 X22.972 Y-4.025 Z-9.178
N140 X23.014 Y-3.994 Z-9.263
N150 X23.065 Y-3.954 Z-9.339
N160 X23.126 Y-3.909 Z-9.404
N170 X23.193 Y-3.857 Z-9.456
N180 X23.267 Y-3.802 Z-9.494
N190 X23.344 Y-3.743 Z-9.517
N200 X23.423 Y-3.683 Z-9.525
N210 X24.227 Y-3.073
N220 G3 X28.471 Y2.252 R13.82
N230 G1 X28.492 Y2.315
N240 X28.499 Y2.382
N250 X28.501 Y16.663
N260 Y16.664
N270 X28.494 Y16.73
N280 X28.473 Y16.794
N290 G3 X24.231 Y22.121 R13.82
N300 G1 X24.171 Y22.156
N310 X24.104 Y22.178
N320 X24.034 Y22.185
N330 X-2.189 Y21.839
N340 G3 X-2.502 Y21.517 R0.317
N350 X-2.185 Y21.204 R0.317
N360 G1 X15.875 Y21.222
N370 G2 X25.985 Y11.113 R10.11
N380 G1 Y7.938
N390 G2 X15.875 Y-2.172 R10.11
N400 G1 X-2.176 Y-2.154
N410 G2 X-2.481 Y-1.925 R0.318
N420 G1 X-3.378 Y1.182
N430 G2 X-3.161 Y1.575 R0.317
N440 X-3.073 Y1.587 R0.317
N450 G1 X15.875
N460 G3 X22.225 Y7.938 R6.35
N470 G1 Y11.113
N480 G3 X15.875 Y17.462 R6.35
N490 G1 X0.
N500 X-3.063
N510 X-3.163 Y17.47
N520 X-3.432 Y17.513
N530 X-3.53 Y17.529 Z-9.517
N540 X-3.626 Y17.544 Z-9.494
N550 X-3.717 Y17.558 Z-9.456
N560 X-3.801 Y17.571 Z-9.404
N570 X-3.876 Y17.583 Z-9.339
N580 X-3.94 Y17.593 Z-9.263
N590 X-3.991 Y17.602 Z-9.178
N600 X-4.029 Y17.607 Z-9.086
N610 X-4.052 Y17.611 Z-8.989
N620 X-4.059 Y17.612 Z-8.89
N630 G0 Z15.
N640 X22.917 Y14.983
N650 Z5.
N660 G1 Z-8.89 F333.33
N670 X22.923 Y14.988 Z-8.989 F1000.
N680 X22.942 Y15.002 Z-9.086
N690 X22.972 Y15.025 Z-9.178
N700 X23.014 Y15.056 Z-9.263
N710 X23.065 Y15.096 Z-9.339
N720 X23.126 Y15.141 Z-9.404
N730 X23.193 Y15.193 Z-9.456
N740 X23.267 Y15.248 Z-9.494
N750 X23.344 Y15.307 Z-9.517
N760 X23.423 Y15.367 Z-9.525
N770 X24.227 Y15.977
N780 G3 X28.471 Y21.302 R13.82
N790 G1 X28.492 Y21.365
N800 X28.499 Y21.432
N810 X28.501 Y35.713
N820 Y35.714
N830 X28.494 Y35.78
N840 X28.473 Y35.844
N850 G3 X24.231 Y41.171 R13.82
N860 G1 X24.171 Y41.206
N870 X24.104 Y41.228
N880 X24.034 Y41.235
N890 X-2.189 Y40.889
N900 G3 X-2.502 Y40.567 R0.317
N910 X-2.185 Y40.254 R0.317
N920 G1 X15.875 Y40.272
N930 G2 X25.985 Y30.163 R10.11
N940 G1 Y26.987
N950 G2 X15.875 Y16.878 R10.11
N960 G1 X-2.176 Y16.896
N970 G2 X-2.481 Y17.125 R0.317
N980 G1 X-3.378 Y20.232
N990 G2 X-3.161 Y20.625 R0.318
N1000 X-3.073 Y20.638 R0.318
N1010 G1 X15.875
N1020 G3 X22.225 Y26.987 R6.35
N1030 G1 Y30.163
N1040 G3 X15.875 Y36.513 R6.35
N1050 G1 X0.
N1060 X-3.063
N1070 X-3.163 Y36.52
N1080 X-3.432 Y36.563
N1090 X-3.53 Y36.579 Z-9.517
N1100 X-3.626 Y36.594 Z-9.494
N1110 X-3.717 Y36.608 Z-9.456
N1120 X-3.801 Y36.621 Z-9.404
N1130 X-3.876 Y36.633 Z-9.339
N1140 X-3.94 Y36.643 Z-9.263
N1150 X-3.991 Y36.652 Z-9.178
N1160 X-4.029 Y36.657 Z-9.086
N1170 X-4.052 Y36.661 Z-8.989
N1180 X-4.059 Y36.662 Z-8.89
N1190 G0 Z15.
N1200 X22.917 Y34.033
N1210 Z5.
N1220 G1 Z-8.89 F333.33
N1230 X22.923 Y34.038 Z-8.989 F1000.
N1240 X22.942 Y34.052 Z-9.086
N1250 X22.972 Y34.075 Z-9.178
N1260 X23.014 Y34.106 Z-9.263
N1270 X23.065 Y34.146 Z-9.339
N1280 X23.126 Y34.191 Z-9.404
N1290 X23.193 Y34.243 Z-9.456
N1300 X23.267 Y34.298 Z-9.494
N1310 X23.344 Y34.357 Z-9.517
N1320 X23.423 Y34.417 Z-9.525
N1330 X24.227 Y35.027
N1340 G3 X28.471 Y40.352 R13.82
N1350 G1 X28.492 Y40.415
N1360 X28.499 Y40.482
N1370 X28.501 Y54.763
N1380 Y54.764
N1390 X28.494 Y54.83
N1400 X28.473 Y54.894
N1410 G3 X24.231 Y60.221 R13.82
N1420 G1 X24.171 Y60.256
N1430 X24.104 Y60.278
N1440 X24.034 Y60.285
N1450 X-2.189 Y59.939
N1460 G3 X-2.502 Y59.617 R0.317
N1470 X-2.185 Y59.304 R0.317
N1480 G1 X15.875 Y59.322
N1490 G2 X25.985 Y49.213 R10.11
N1500 G1 Y46.037
N1510 G2 X15.875 Y35.928 R10.11
N1520 G1 X-2.176 Y35.946
N1530 G2 X-2.481 Y36.175 R0.318
N1540 G1 X-3.378 Y39.282
N1550 G2 X-3.161 Y39.675 R0.318
N1560 X-3.073 Y39.688 R0.318
N1570 G1 X15.875
N1580 G3 X22.225 Y46.037 R6.35
N1590 G1 Y49.213
N1600 G3 X15.875 Y55.563 R6.35
N1610 G1 X0.
N1620 X-3.063
N1630 X-3.163 Y55.57
N1640 X-3.432 Y55.613
N1650 X-3.53 Y55.629 Z-9.517
N1660 X-3.626 Y55.644 Z-9.494
N1670 X-3.717 Y55.658 Z-9.456
N1680 X-3.801 Y55.671 Z-9.404
N1690 X-3.876 Y55.683 Z-9.339
N1700 X-3.94 Y55.693 Z-9.263
N1710 X-3.991 Y55.702 Z-9.178
N1720 X-4.029 Y55.707 Z-9.086
N1730 X-4.052 Y55.711 Z-8.989
N1740 X-4.059 Y55.712 Z-8.89
N1750 G0 Z15.
N1760 X22.917 Y53.083
N1770 Z5.
N1780 G1 Z-8.89 F333.33
N1790 X22.923 Y53.088 Z-8.989 F1000.
N1800 X22.942 Y53.102 Z-9.086
N1810 X22.972 Y53.125 Z-9.178
N1820 X23.014 Y53.156 Z-9.263
N1830 X23.065 Y53.196 Z-9.339
N1840 X23.126 Y53.241 Z-9.404
N1850 X23.193 Y53.293 Z-9.456
N1860 X23.267 Y53.348 Z-9.494
N1870 X23.344 Y53.407 Z-9.517
N1880 X23.423 Y53.467 Z-9.525
N1890 X24.227 Y54.077
N1900 G3 X28.471 Y59.402 R13.82
N1910 G1 X28.492 Y59.465
N1920 X28.499 Y59.532
N1930 X28.501 Y73.813
N1940 Y73.814
N1950 X28.494 Y73.88
N1960 X28.473 Y73.944
N1970 G3 X24.231 Y79.271 R13.82
N1980 G1 X24.171 Y79.306
N1990 X24.104 Y79.328
N2000 X24.034 Y79.335
N2010 X-2.189 Y78.989
N2020 G3 X-2.502 Y78.667 R0.317
N2030 X-2.185 Y78.354 R0.317
N2040 G1 X15.875 Y78.372
N2050 G2 X25.985 Y68.262 R10.11
N2060 G1 Y65.088
N2070 G2 X15.875 Y54.978 R10.11
N2080 G1 X-2.176 Y54.996
N2090 G2 X-2.481 Y55.225 R0.318
N2100 G1 X-3.378 Y58.332
N2110 G2 X-3.161 Y58.725 R0.318
N2120 X-3.073 Y58.737 R0.318
N2130 G1 X15.875
N2140 G3 X22.225 Y65.088 R6.35
N2150 G1 Y68.262
N2160 G3 X15.875 Y74.613 R6.35
N2170 G1 X0.
N2180 X-3.063
N2190 X-3.163 Y74.62
N2200 X-3.432 Y74.663
N2210 X-3.53 Y74.679 Z-9.517
N2220 X-3.626 Y74.694 Z-9.494
N2230 X-3.717 Y74.708 Z-9.456
N2240 X-3.801 Y74.721 Z-9.404
N2250 X-3.876 Y74.733 Z-9.339
N2260 X-3.94 Y74.743 Z-9.263
N2270 X-3.991 Y74.752 Z-9.178
N2280 X-4.029 Y74.757 Z-9.086
N2290 X-4.052 Y74.761 Z-8.989
N2300 X-4.059 Y74.762 Z-8.89
N2310 G0 Z15.
N2320 X22.917 Y72.133
N2330 Z5.
N2340 G1 Z-8.89 F333.33
N2350 X22.923 Y72.138 Z-8.989 F1000.
N2360 X22.942 Y72.152 Z-9.086
N2370 X22.972 Y72.175 Z-9.178
N2380 X23.014 Y72.206 Z-9.263
N2390 X23.065 Y72.246 Z-9.339
N2400 X23.126 Y72.291 Z-9.404
N2410 X23.193 Y72.343 Z-9.456
N2420 X23.267 Y72.398 Z-9.494
N2430 X23.344 Y72.457 Z-9.517
N2440 X23.423 Y72.517 Z-9.525
N2450 X24.227 Y73.127
N2460 G3 X28.471 Y78.452 R13.82
N2470 G1 X28.492 Y78.515
N2480 X28.499 Y78.582
N2490 X28.501 Y92.863
N2500 Y92.864
N2510 X28.494 Y92.93
N2520 X28.473 Y92.994
N2530 G3 X24.231 Y98.321 R13.82
N2540 G1 X24.171 Y98.356
N2550 X24.104 Y98.378
N2560 X24.034 Y98.385
N2570 X-2.189 Y98.039
N2580 G3 X-2.502 Y97.717 R0.317
N2590 X-2.185 Y97.404 R0.317
N2600 G1 X15.875 Y97.423
N2610 G2 X25.985 Y87.313 R10.11
N2620 G1 Y84.137
N2630 G2 X15.875 Y74.027 R10.11
N2640 G1 X-2.176 Y74.046
N2650 G2 X-2.481 Y74.275 R0.318
N2660 G1 X-3.378 Y77.382
N2670 G2 X-3.161 Y77.775 R0.317
N2680 X-3.073 Y77.787 R0.317
N2690 G1 X15.875
N2700 G3 X22.225 Y84.137 R6.35
N2710 G1 Y87.313
N2720 G3 X15.875 Y93.662 R6.35
N2730 G1 X0.
N2740 X-3.063
N2750 X-3.163 Y93.67
N2760 X-3.432 Y93.713
N2770 X-3.53 Y93.729 Z-9.517
N2780 X-3.626 Y93.744 Z-9.494
N2790 X-3.717 Y93.758 Z-9.456
N2800 X-3.801 Y93.771 Z-9.404
N2810 X-3.876 Y93.783 Z-9.339
N2820 X-3.94 Y93.793 Z-9.263
N2830 X-3.991 Y93.802 Z-9.178
N2840 X-4.029 Y93.807 Z-9.086
N2850 X-4.052 Y93.811 Z-8.989
N2860 X-4.059 Y93.812 Z-8.89
N2870 G0 Z15.
N2880 X22.917 Y91.184
N2890 Z5.
N2900 G1 Z-8.89 F333.33
N2910 X22.923 Y91.188 Z-8.989 F1000.
N2920 X22.942 Y91.202 Z-9.086
N2930 X22.972 Y91.225 Z-9.178
N2940 X23.014 Y91.257 Z-9.263
N2950 X23.065 Y91.296 Z-9.339
N2960 X23.126 Y91.342 Z-9.404
N2970 X23.193 Y91.393 Z-9.456
N2980 X23.267 Y91.449 Z-9.494
N2990 X23.344 Y91.507 Z-9.517
N3000 X23.423 Y91.567 Z-9.525
N3010 X24.227 Y92.177
N3020 G3 X28.471 Y97.502 R13.82
N3030 G1 X28.492 Y97.566
N3040 X28.499 Y97.633
N3050 X28.5 Y111.915
N3060 X28.493 Y111.982
N3070 X28.472 Y112.046
N3080 G3 X24.229 Y117.372 R13.819
N3090 G1 X24.169 Y117.408
N3100 X24.102 Y117.429
N3110 X24.033 Y117.436
N3120 X-2.189 Y117.089
N3130 G3 X-2.503 Y116.767 R0.317
N3140 X-2.185 Y116.454 R0.317
N3150 G1 X15.875 Y116.472
N3160 G2 X25.985 Y106.364 R10.11
N3170 G1 Y103.188
N3180 G2 X15.875 Y93.078 R10.11
N3190 G1 X-2.176 Y93.096
N3200 G2 X-2.481 Y93.326 R0.318
N3210 G1 X-3.378 Y96.432
N3220 G2 X-3.161 Y96.826 R0.317
N3230 X-3.073 Y96.838 R0.317
N3240 G1 X15.875
N3250 G3 X22.225 Y103.188 R6.35
N3260 G1 Y106.363
N3270 G3 X20.365 Y110.853 R6.349
N3280 X15.875 Y112.712 R6.349
N3290 G1 X0.
N3300 X-3.063
N3310 X-3.163 Y112.72
N3320 X-3.432 Y112.763
N3330 X-3.53 Y112.778 Z-9.517
N3340 X-3.626 Y112.793 Z-9.494
N3350 X-3.717 Y112.808 Z-9.456
N3360 X-3.801 Y112.821 Z-9.404
N3370 X-3.876 Y112.833 Z-9.339
N3380 X-3.94 Y112.843 Z-9.263
N3390 X-3.991 Y112.851 Z-9.178
N3400 X-4.029 Y112.857 Z-9.086
N3410 X-4.052 Y112.861 Z-8.989
N3420 X-4.059 Y112.862 Z-8.89
N3430 G0 Z15.
N3440 M30
%
