%
(FRAMEENDSHZNTL)
(MACHINE)
(  VENDOR AUTODESK)
(  MODEL GENERIC 3-AXIS ROUTER)
(  DESCRIPTION THIS MACHINE HAS XYZ AXIS ON THE HEAD)
(T15 D=5. CR=0. - ZMIN=-9.525 - FLAT END MILL)
N10 G90 G94 G17 G91.1
N15 G21
N20 G53 G0 Z0.
(2D POCKET2)
N25 (T15 M6)
(FLAT END MILL D=5.)
N30 S5000 M3
N35 G54
N40 G0 X24.947 Y22.454
N45 Z15.
N50 G0 X15. Z24.947
N55 X5.
N60 G1 X-9.025 F333.33
N65 X-9.112 Y22.449 Z24.952 F1000.
N70 X-9.196 Y22.433 Z24.968
N75 X-9.275 Y22.407 Z24.994
N80 X-9.346 Y22.371 Z25.029
N85 X-9.408 Y22.327 Z25.073
N90 X-9.458 Y22.276 Z25.123
N95 X-9.495 Y22.22 Z25.178
N100 X-9.517 Y22.16 Z25.237
N105 X-9.525 Y22.099 Z25.298
N110 Y21.252 Z26.135
N115 G2 Y19.345 Z27.72 I0. J-10.139
N120 G1 Y19.3 Z27.745
N125 Y19.252 Z27.76
N130 Y19.202 Z27.765
N135 Y-0.158 Z27.761
N140 Y-0.208 Z27.756
N145 Y-0.256 Z27.741
N150 Y-0.301 Z27.716
N155 G2 Y-2.199 Z26.138 I0. J8.238
N160 G1 Y-2.234 Z26.095
N165 Y-2.259 Z26.045
N170 Y-2.272 Z25.991
N175 Y-2.87 Z21.116
N180 G2 Y-2.398 Z20.975 I0. J0.248
N185 G3 Y7.938 Z27.4 I0. J10.335
N190 G1 Y11.113
N195 G3 Y21.447 Z20.976 I0. J0.
N200 G1 Y21.463 Z20.937
N205 Y21.471 Z20.895
N210 Y21.472 Z20.852
N215 Y20.219 Z-2.229
N220 G3 Y19.72 Z-2.216 I0. J-0.25
N225 G1 Y19.737 Z15.875
N230 G2 Y11.113 Z24.5 I0. J-8.625
N235 G1 Y7.938
N240 G2 Y-0.688 Z15.875 I0. J0.
N245 G1 Y-0.67 Z-2.214
N250 G2 Y-0.439 Z-2.463 I0. J0.25
N255 G1 Y1.994 Z-2.647
N260 G2 Y2.263 Z-2.398 I0. J0.019
N265 G1 Z15.875
N270 G3 Y7.938 Z21.55 I0. J5.675
N275 G1 Y11.113
N280 G3 Y16.788 Z15.875 I0. J0.
N285 G1 Z0.
N290 Z-2.395
N295 Y16.794 Z-2.474
N300 Y16.861 Z-2.898
N305 X-9.517 Y16.874 Z-2.984
N310 X-9.495 Y16.888 Z-3.067
N315 X-9.458 Y16.9 Z-3.145
N320 X-9.408 Y16.911 Z-3.215
N325 X-9.346 Y16.921 Z-3.276
N330 X-9.275 Y16.929 Z-3.326
N335 X-9.196 Y16.934 Z-3.362
N340 X-9.112 Y16.938 Z-3.384
N345 X-9.025 Y16.939 Z-3.392
N350 G0 X15.
N355 Y41.504 Z24.947
N360 X5.
N365 G1 X-9.025 F333.33
N370 X-9.112 Y41.499 Z24.952 F1000.
N375 X-9.196 Y41.483 Z24.968
N380 X-9.275 Y41.457 Z24.994
N385 X-9.346 Y41.421 Z25.029
N390 X-9.408 Y41.377 Z25.073
N395 X-9.458 Y41.326 Z25.123
N400 X-9.495 Y41.27 Z25.178
N405 X-9.517 Y41.21 Z25.237
N410 X-9.525 Y41.149 Z25.298
N415 Y40.302 Z26.135
N420 G2 Y38.395 Z27.72 I0. J-10.139
N425 G1 Y38.35 Z27.745
N430 Y38.302 Z27.76
N435 Y38.252 Z27.765
N440 Y18.892 Z27.761
N445 Y18.842 Z27.756
N450 Y18.794 Z27.741
N455 Y18.749 Z27.716
N460 G2 Y16.851 Z26.138 I0. J8.238
N465 G1 Y16.816 Z26.095
N470 Y16.791 Z26.045
N475 Y16.778 Z25.991
N480 Y16.18 Z21.116
N485 G2 Y16.652 Z20.975 I0. J0.248
N490 G3 Y26.987 Z27.4 I0. J10.335
N495 G1 Y30.163
N500 G3 Y40.497 Z20.976 I0. J0.
N505 G1 Y40.513 Z20.937
N510 Y40.521 Z20.895
N515 Y40.522 Z20.852
N520 Y39.269 Z-2.229
N525 G3 Y38.77 Z-2.216 I0. J-0.25
N530 G1 Y38.787 Z15.875
N535 G2 Y30.163 Z24.5 I0. J-8.625
N540 G1 Y26.987
N545 G2 Y18.362 Z15.875 I0. J0.
N550 G1 Y18.38 Z-2.214
N555 G2 Y18.611 Z-2.463 I0. J0.25
N560 G1 Y21.044 Z-2.647
N565 G2 Y21.313 Z-2.398 I0. J0.019
N570 G1 Z15.875
N575 G3 Y26.987 Z21.55 I0. J5.675
N580 G1 Y30.163
N585 G3 Y35.838 Z15.875 I0. J0.
N590 G1 Z0.
N595 Z-2.395
N600 Y35.844 Z-2.474
N605 Y35.911 Z-2.898
N610 X-9.517 Y35.924 Z-2.984
N615 X-9.495 Y35.938 Z-3.067
N620 X-9.458 Y35.95 Z-3.145
N625 X-9.408 Y35.961 Z-3.215
N630 X-9.346 Y35.971 Z-3.276
N635 X-9.275 Y35.979 Z-3.326
N640 X-9.196 Y35.984 Z-3.362
N645 X-9.112 Y35.988 Z-3.384
N650 X-9.025 Y35.989 Z-3.392
N655 G0 X15.
N660 Y60.554 Z24.947
N665 X5.
N670 G1 X-9.025 F333.33
N675 X-9.112 Y60.549 Z24.952 F1000.
N680 X-9.196 Y60.533 Z24.968
N685 X-9.275 Y60.507 Z24.994
N690 X-9.346 Y60.471 Z25.029
N695 X-9.408 Y60.427 Z25.073
N700 X-9.458 Y60.376 Z25.123
N705 X-9.495 Y60.32 Z25.178
N710 X-9.517 Y60.26 Z25.237
N715 X-9.525 Y60.199 Z25.298
N720 Y59.352 Z26.135
N725 G2 Y57.445 Z27.72 I0. J-10.139
N730 G1 Y57.4 Z27.745
N735 Y57.352 Z27.76
N740 Y57.302 Z27.765
N745 Y37.942 Z27.761
N750 Y37.892 Z27.756
N755 Y37.844 Z27.741
N760 Y37.799 Z27.716
N765 G2 Y35.901 Z26.138 I0. J8.238
N770 G1 Y35.866 Z26.095
N775 Y35.841 Z26.045
N780 Y35.828 Z25.991
N785 Y35.23 Z21.116
N790 G2 Y35.702 Z20.975 I0. J0.248
N795 G3 Y46.037 Z27.4 I0. J10.335
N800 G1 Y49.213
N805 G3 Y59.547 Z20.976 I0. J0.
N810 G1 Y59.563 Z20.937
N815 Y59.571 Z20.895
N820 Y59.572 Z20.852
N825 Y58.319 Z-2.229
N830 G3 Y57.82 Z-2.216 I0. J-0.25
N835 G1 Y57.838 Z15.875
N840 G2 Y49.213 Z24.5 I0. J-8.625
N845 G1 Y46.037
N850 G2 Y37.412 Z15.875 I0. J0.
N855 G1 Y37.43 Z-2.214
N860 G2 Y37.661 Z-2.463 I0. J0.25
N865 G1 Y40.094 Z-2.647
N870 G2 Y40.362 Z-2.398 I0. J0.019
N875 G1 Z15.875
N880 G3 Y46.037 Z21.55 I0. J5.675
N885 G1 Y49.213
N890 G3 Y54.888 Z15.875 I0. J0.
N895 G1 Z0.
N900 Z-2.395
N905 Y54.894 Z-2.474
N910 Y54.961 Z-2.898
N915 X-9.517 Y54.974 Z-2.984
N920 X-9.495 Y54.988 Z-3.067
N925 X-9.458 Y55. Z-3.145
N930 X-9.408 Y55.011 Z-3.215
N935 X-9.346 Y55.021 Z-3.276
N940 X-9.275 Y55.029 Z-3.326
N945 X-9.196 Y55.034 Z-3.362
N950 X-9.112 Y55.038 Z-3.384
N955 X-9.025 Y55.039 Z-3.392
N960 G0 X15.
N965 Y79.604 Z24.947
N970 X5.
N975 G1 X-9.025 F333.33
N980 X-9.112 Y79.599 Z24.952 F1000.
N985 X-9.196 Y79.583 Z24.968
N990 X-9.275 Y79.557 Z24.994
N995 X-9.346 Y79.521 Z25.029
N1000 X-9.408 Y79.477 Z25.073
N1005 X-9.458 Y79.426 Z25.123
N1010 X-9.495 Y79.37 Z25.178
N1015 X-9.517 Y79.31 Z25.237
N1020 X-9.525 Y79.249 Z25.298
N1025 Y78.402 Z26.135
N1030 G2 Y76.495 Z27.72 I0. J-10.139
N1035 G1 Y76.45 Z27.745
N1040 Y76.402 Z27.76
N1045 Y76.352 Z27.765
N1050 Y56.992 Z27.761
N1055 Y56.942 Z27.756
N1060 Y56.894 Z27.741
N1065 Y56.849 Z27.716
N1070 G2 Y54.951 Z26.138 I0. J8.238
N1075 G1 Y54.916 Z26.095
N1080 Y54.891 Z26.045
N1085 Y54.878 Z25.991
N1090 Y54.28 Z21.116
N1095 G2 Y54.752 Z20.975 I0. J0.248
N1100 G3 Y65.088 Z27.4 I0. J10.335
N1105 G1 Y68.262
N1110 G3 Y78.597 Z20.976 I0. J0.
N1115 G1 Y78.613 Z20.937
N1120 Y78.621 Z20.895
N1125 Y78.622 Z20.852
N1130 Y77.369 Z-2.229
N1135 G3 Y76.87 Z-2.216 I0. J-0.25
N1140 G1 Y76.887 Z15.875
N1145 G2 Y68.262 Z24.5 I0. J-8.625
N1150 G1 Y65.088
N1155 G2 Y56.463 Z15.875 I0. J0.
N1160 G1 Y56.48 Z-2.214
N1165 G2 Y56.711 Z-2.463 I0. J0.25
N1170 G1 Y59.144 Z-2.647
N1175 G2 Y59.412 Z-2.398 I0. J0.019
N1180 G1 Z15.875
N1185 G3 Y65.088 Z21.55 I0. J5.675
N1190 G1 Y68.262
N1195 G3 Y73.938 Z15.875 I0. J0.
N1200 G1 Z0.
N1205 Z-2.395
N1210 Y73.944 Z-2.474
N1215 Y74.011 Z-2.898
N1220 X-9.517 Y74.024 Z-2.984
N1225 X-9.495 Y74.038 Z-3.067
N1230 X-9.458 Y74.05 Z-3.145
N1235 X-9.408 Y74.061 Z-3.215
N1240 X-9.346 Y74.071 Z-3.276
N1245 X-9.275 Y74.079 Z-3.326
N1250 X-9.196 Y74.084 Z-3.362
N1255 X-9.112 Y74.088 Z-3.384
N1260 X-9.025 Y74.089 Z-3.392
N1265 G0 X15.
N1270 Y98.654 Z24.947
N1275 X5.
N1280 G1 X-9.025 F333.33
N1285 X-9.112 Y98.649 Z24.952 F1000.
N1290 X-9.196 Y98.633 Z24.968
N1295 X-9.275 Y98.607 Z24.994
N1300 X-9.346 Y98.571 Z25.029
N1305 X-9.408 Y98.527 Z25.073
N1310 X-9.458 Y98.476 Z25.123
N1315 X-9.495 Y98.42 Z25.178
N1320 X-9.517 Y98.36 Z25.237
N1325 X-9.525 Y98.299 Z25.298
N1330 Y97.452 Z26.135
N1335 G2 Y95.545 Z27.72 I0. J-10.139
N1340 G1 Y95.5 Z27.745
N1345 Y95.452 Z27.76
N1350 Y95.402 Z27.765
N1355 Y76.042 Z27.761
N1360 Y75.992 Z27.756
N1365 Y75.944 Z27.741
N1370 Y75.899 Z27.716
N1375 G2 Y74.001 Z26.138 I0. J8.238
N1380 G1 Y73.966 Z26.095
N1385 Y73.941 Z26.045
N1390 Y73.928 Z25.991
N1395 Y73.33 Z21.116
N1400 G2 Y73.802 Z20.975 I0. J0.248
N1405 G3 Y84.137 Z27.4 I0. J10.335
N1410 G1 Y87.313
N1415 G3 Y97.647 Z20.976 I0. J0.
N1420 G1 Y97.663 Z20.937
N1425 Y97.671 Z20.895
N1430 Y97.672 Z20.852
N1435 Y96.419 Z-2.229
N1440 G3 Y95.92 Z-2.216 I0. J-0.25
N1445 G1 Y95.938 Z15.875
N1450 G2 Y87.313 Z24.5 I0. J-8.625
N1455 G1 Y84.137
N1460 G2 Y75.512 Z15.875 I0. J0.
N1465 G1 Y75.53 Z-2.214
N1470 G2 Y75.761 Z-2.463 I0. J0.25
N1475 G1 Y78.194 Z-2.647
N1480 G2 Y78.463 Z-2.398 I0. J0.019
N1485 G1 Z15.875
N1490 G3 Y84.137 Z21.55 I0. J5.675
N1495 G1 Y87.313
N1500 G3 Y92.988 Z15.875 I0. J0.
N1505 G1 Z0.
N1510 Z-2.395
N1515 Y92.994 Z-2.474
N1520 Y93.061 Z-2.898
N1525 X-9.517 Y93.074 Z-2.984
N1530 X-9.495 Y93.088 Z-3.067
N1535 X-9.458 Y93.1 Z-3.145
N1540 X-9.408 Y93.111 Z-3.215
N1545 X-9.346 Y93.121 Z-3.276
N1550 X-9.275 Y93.129 Z-3.326
N1555 X-9.196 Y93.134 Z-3.362
N1560 X-9.112 Y93.138 Z-3.384
N1565 X-9.025 Y93.139 Z-3.392
N1570 G0 X15.
N1575 Y117.7 Z24.951
N1580 X5.
N1585 G1 X-9.025 F333.33
N1590 X-9.112 Y117.695 Z24.956 F1000.
N1595 X-9.196 Y117.679 Z24.972
N1600 X-9.275 Y117.652 Z24.998
N1605 X-9.346 Y117.617 Z25.033
N1610 X-9.408 Y117.573 Z25.076
N1615 X-9.458 Y117.522 Z25.126
N1620 X-9.495 Y117.466 Z25.182
N1625 X-9.517 Y117.406 Z25.241
N1630 X-9.525 Y117.345 Z25.302
N1635 Y116.503 Z26.134
N1640 G2 Y114.597 Z27.719 I0. J-10.141
N1645 G1 Y114.552 Z27.743
N1650 Y114.504 Z27.759
N1655 Y114.454 Z27.764
N1660 Y95.093 Z27.761
N1665 Y95.042 Z27.756
N1670 Y94.994 Z27.741
N1675 Y94.95 Z27.716
N1680 G2 Y93.051 Z26.138 I0. J8.238
N1685 G1 Y93.016 Z26.095
N1690 Y92.992 Z26.045
N1695 Y92.979 Z25.991
N1700 Y92.38 Z21.116
N1705 G2 Y92.853 Z20.975 I0. J0.248
N1710 G3 Y103.188 Z27.4 I0. J10.335
N1715 G1 Y106.364
N1720 G3 Y116.698 Z20.975 I0. J-0.002
N1725 G1 Y116.713 Z20.935
N1730 Y116.722 Z20.893
N1735 Y116.723 Z20.85
N1740 Y115.469 Z-2.23
N1745 G3 Y114.969 Z-2.216 I0. J-0.25
N1750 G1 Y114.987 Z15.875
N1755 G2 Y106.364 Z24.5 I0. J-8.624
N1760 G1 Y103.188
N1765 G2 Y94.563 Z15.875 I0. J0.
N1770 G1 Y94.581 Z-2.214
N1775 G2 Y94.812 Z-2.463 I0. J0.25
N1780 G1 Y97.244 Z-2.647
N1785 G2 Y97.513 Z-2.398 I0. J0.019
N1790 G1 Z15.875
N1795 G3 Y103.188 Z21.55 I0. J5.675
N1800 G1 Y106.363
N1805 G3 Y112.037 Z15.875 I0. J0.
N1810 G1 Z0.
N1815 Z-2.395
N1820 Y112.043 Z-2.474
N1825 Y112.11 Z-2.898
N1830 X-9.517 Y112.124 Z-2.984
N1835 X-9.495 Y112.137 Z-3.067
N1840 X-9.458 Y112.149 Z-3.145
N1845 X-9.408 Y112.161 Z-3.215
N1850 X-9.346 Y112.17 Z-3.276
N1855 X-9.275 Y112.178 Z-3.326
N1860 X-9.196 Y112.184 Z-3.362
N1865 X-9.112 Y112.187 Z-3.384
N1870 X-9.025 Y112.189 Z-3.392
N1875 G0 X15.
N1880 G53 G0 Z0.
N1885 G53 G0 X0. Y0.
N1890 M30
%
