%
(32X64-SURFACE)
(MACHINE)
(  VENDOR AUTODESK)
(  MODEL GENERIC 3-AXIS ROUTER)
(  DESCRIPTION THIS MACHINE HAS XYZ AXIS ON THE HEAD)
(T22 D=12.7 CR=6.35 - ZMIN=25.154 - BALL END MILL)
N10 G90 G94 G17 G91.1
N20 G21
(-ATTENTION- PROPERTY SAFE RETRACTS IS SET TO CLEARANCE HEIGHT.)
(ENSURE THE CLEARANCE HEIGHT WILL CLEAR THE PART AND OR FIXTURES.)
(RAISE THE Z-AXIS TO A SAFE HEIGHT BEFORE STARTING THE PROGRAM.)
(CONTOUR1)
N30 T22 M6
N40 S20000 M3
N50 G17 G90 G94
N60 G54
N70 G0 X59.251 Y-1.691
N80 G43 Z54.154 H22
N90 G0 Z38.924
N100 G1 X59.258 Y-1.689 Z38.782 F5000.
N110 X59.282 Y-1.685 Z38.641
N120 X59.321 Y-1.679 Z38.504
N130 X59.375 Y-1.669 Z38.373
N140 X59.442 Y-1.658 Z38.248
N150 X59.524 Y-1.644 Z38.132
N160 X59.617 Y-1.628 Z38.026
N170 X59.722 Y-1.609 Z37.931
N180 X59.836 Y-1.59 Z37.849
N190 X59.959 Y-1.568 Z37.78
N200 X60.089 Y-1.546 Z37.725
N210 X60.224 Y-1.523 Z37.686
N220 X60.362 Y-1.499 Z37.662
N230 X60.502 Y-1.475 Z37.654
N240 G3 X61.538 Y-0.007 I-0.216 J1.251
N250 G2 X61.321 Y1.575 I22.622 J3.9
N260 G1 X60.509 Y7.073
N270 X59.713 Y12.574
N280 X58.932 Y18.076
N290 X58.167 Y23.581
N300 X57.417 Y29.088
N310 X56.683 Y34.597
N320 X55.964 Y40.108
N330 X55.262 Y45.622
N340 X54.574 Y51.137
N350 X53.903 Y56.654
N360 X53.247 Y62.173
N370 X52.606 Y67.693
N380 X51.982 Y73.216
N390 X51.372 Y78.74
N400 X50.779 Y84.266
N410 X50.201 Y89.794
N420 X49.639 Y95.323
N430 X49.092 Y100.854
N440 X48.562 Y106.387
N450 X48.046 Y111.921
N460 X47.547 Y117.456
N470 X47.063 Y122.993
N480 X46.595 Y128.531
N490 X46.143 Y134.07
N500 X45.706 Y139.611
N510 X45.285 Y145.152
N520 X44.879 Y150.695
N530 X44.49 Y156.24
N540 X44.116 Y161.785
N550 X43.757 Y167.331
N560 X43.415 Y172.878
N570 X43.088 Y178.426
N580 X42.777 Y183.975
N590 X42.481 Y189.525
N600 X42.202 Y195.076
N610 X41.938 Y200.628
N620 X41.689 Y206.18
N630 X41.457 Y211.733
N640 X41.24 Y217.286
N650 X41.039 Y222.841
N660 X40.853 Y228.395
N670 X40.684 Y233.951
N680 X40.53 Y239.506
N690 X40.392 Y245.062
N700 X40.258 Y250.864
N710 X40.14 Y256.666
N720 X40.038 Y262.469
N730 X39.951 Y268.272
N740 X39.88 Y274.075
N750 X39.825 Y279.878
N760 X39.785 Y285.681
N770 X39.76 Y291.485
N780 X39.752 Y297.288
N790 X39.758 Y303.091
N800 X39.781 Y308.895
N810 X39.818 Y314.698
N820 X39.872 Y320.501
N830 X39.941 Y326.304
N840 X40.028 Y332.817
N850 X40.131 Y339.329
N860 X40.249 Y345.841
N870 X40.383 Y352.353
N880 X40.532 Y358.864
N890 X40.697 Y365.375
N900 X40.876 Y371.885
N910 X41.072 Y378.396
N920 X41.283 Y384.905
N930 X41.509 Y391.414
N940 X41.75 Y397.923
N950 X42.007 Y404.431
N960 X42.304 Y411.942
N970 X42.616 Y419.452
N980 X42.944 Y426.961
N990 X43.287 Y434.47
N1000 X43.645 Y441.978
N1010 X44.018 Y449.486
N1020 X44.517 Y459.314
N1030 X45.029 Y469.141
N1040 X45.554 Y478.967
N1050 X46.092 Y488.793
N1060 X46.642 Y498.618
N1070 X47.206 Y508.442
N1080 X47.783 Y518.266
N1090 X49.178 Y542.471
N1100 X50.584 Y566.676
N1110 X51.21 Y577.629
N1120 X51.821 Y588.583
N1130 X52.418 Y599.538
N1140 X53.001 Y610.494
N1150 X53.569 Y621.45
N1160 X54.124 Y632.407
N1170 X54.665 Y643.365
N1180 X55.023 Y651.122
N1190 X55.368 Y658.88
N1200 X55.7 Y666.639
N1210 X56.02 Y674.398
N1220 X56.327 Y682.158
N1230 X56.621 Y689.918
N1240 X56.902 Y697.679
N1250 X57.171 Y705.44
N1260 X57.398 Y712.522
N1270 X57.61 Y719.604
N1280 X57.807 Y726.687
N1290 X57.989 Y733.771
N1300 X58.156 Y740.854
N1310 X58.307 Y747.939
N1320 X58.443 Y755.023
N1330 X58.564 Y762.108
N1340 X58.67 Y769.193
N1350 X58.761 Y776.278
N1360 X58.837 Y783.363
N1370 X58.897 Y790.449
N1380 X58.943 Y797.534
N1390 X58.973 Y804.62
N1400 X58.988 Y811.706
N1410 Y818.791
N1420 X58.962 Y825.947
N1430 X58.92 Y833.104
N1440 X58.863 Y840.26
N1450 X58.791 Y847.415
N1460 X58.704 Y854.571
N1470 X58.601 Y861.727
N1480 X58.483 Y868.882
N1490 X58.349 Y876.037
N1500 X58.201 Y883.192
N1510 X58.036 Y890.346
N1520 X57.857 Y897.5
N1530 X57.662 Y904.653
N1540 X57.452 Y911.807
N1550 X57.227 Y918.959
N1560 X56.987 Y926.111
N1570 X56.731 Y933.263
N1580 X56.459 Y940.414
N1590 X56.173 Y947.565
N1600 X55.871 Y954.715
N1610 X55.554 Y961.864
N1620 X55.223 Y969.261
N1630 X54.877 Y976.657
N1640 X54.517 Y984.053
N1650 X54.143 Y991.448
N1660 X53.754 Y998.843
N1670 X53.351 Y1006.236
N1680 X52.933 Y1013.629
N1690 X52.446 Y1022.117
N1700 X51.944 Y1030.604
N1710 X51.428 Y1039.09
N1720 X50.897 Y1047.575
N1730 X50.351 Y1056.059
N1740 X49.791 Y1064.543
N1750 X49.216 Y1073.025
N1760 X48.626 Y1081.506
N1770 X48.022 Y1089.987
N1780 X47.403 Y1098.466
N1790 X46.62 Y1109.252
N1800 X45.824 Y1120.037
N1810 X45.015 Y1130.821
N1820 X44.193 Y1141.604
N1830 X42.912 Y1158.473
N1840 X41.642 Y1175.344
N1850 X40.385 Y1192.215
N1860 X39.139 Y1209.088
N1870 X37.904 Y1225.961
N1880 X37.374 Y1233.629
N1890 X36.853 Y1241.298
N1900 X36.342 Y1248.967
N1910 X35.841 Y1256.637
N1920 X35.483 Y1262.32
N1930 X35.139 Y1268.003
N1940 X34.81 Y1273.687
N1950 X34.495 Y1279.372
N1960 X34.194 Y1285.058
N1970 X33.907 Y1290.744
N1980 X33.634 Y1296.431
N1990 X33.376 Y1302.119
N2000 X33.132 Y1307.808
N2010 X32.903 Y1313.497
N2020 X32.687 Y1319.186
N2030 X32.524 Y1324.152
N2040 X32.376 Y1329.118
N2050 X32.242 Y1334.085
N2060 X32.122 Y1339.052
N2070 X32.017 Y1344.019
N2080 X31.927 Y1348.987
N2090 X31.851 Y1353.955
N2100 X31.79 Y1358.923
N2110 X31.743 Y1363.891
N2120 X31.711 Y1368.859
N2130 X31.693 Y1373.828
N2140 X31.7 Y1378.696
N2150 X31.724 Y1383.564
N2160 X31.763 Y1388.432
N2170 X31.818 Y1393.3
N2180 X31.888 Y1398.168
N2190 X31.975 Y1403.036
N2200 X32.077 Y1407.903
N2210 X32.194 Y1412.77
N2220 X32.328 Y1417.636
N2230 X32.477 Y1422.502
N2240 X32.642 Y1427.368
N2250 X32.823 Y1432.233
N2260 X33.019 Y1437.097
N2270 X33.231 Y1441.961
N2280 X33.459 Y1446.824
N2290 X33.703 Y1451.686
N2300 X33.962 Y1456.547
N2310 X34.237 Y1461.408
N2320 X34.528 Y1466.268
N2330 X34.834 Y1471.126
N2340 X35.14 Y1475.923
N2350 X35.459 Y1480.719
N2360 X35.791 Y1485.514
N2370 X36.137 Y1490.309
N2380 X36.497 Y1495.102
N2390 X36.87 Y1499.894
N2400 X37.256 Y1504.685
N2410 X37.656 Y1509.475
N2420 X38.069 Y1514.264
N2430 X38.575 Y1519.978
N2440 X39.096 Y1525.691
N2450 X39.633 Y1531.403
N2460 X40.184 Y1537.113
N2470 X40.751 Y1542.822
N2480 X41.332 Y1548.529
N2490 X41.929 Y1554.235
N2500 X42.541 Y1559.939
N2510 X43.169 Y1565.642
N2520 X43.811 Y1571.342
N2530 X44.469 Y1577.041
N2540 X45.141 Y1582.739
N2550 X45.829 Y1588.434
N2560 X46.532 Y1594.128
N2570 X47.25 Y1599.819
N2580 X47.901 Y1604.98
N2590 X48.565 Y1610.139
N2600 X49.242 Y1615.297
N2610 X49.932 Y1620.453
N2620 X50.634 Y1625.607
N2630 G3 X50.399 Y1626.55 I-1.256 J0.188
N2640 G2 X51.413 Y1628.575 I1.021 J0.755
N2650 G1 X67.698 Y1628.669
N2660 G2 X68.61 Y1626.508 I0.007 J-1.27
N2670 G3 X68.245 Y1625.607 I0.905 J-0.891
N2680 G1 X68.246 Y1625.605
N2690 G2 X67.771 Y1622.827 I-81.902 J12.566
N2700 G1 X66.925 Y1618.024
N2710 X66.092 Y1613.219
N2720 X65.274 Y1608.411
N2730 X64.47 Y1603.6
N2740 X63.681 Y1598.788
N2750 X62.905 Y1593.973
N2760 X62.144 Y1589.155
N2770 X61.397 Y1584.336
N2780 X60.664 Y1579.514
N2790 X59.945 Y1574.69
N2800 X59.241 Y1569.864
N2810 X58.551 Y1565.036
N2820 X57.875 Y1560.206
N2830 X57.213 Y1555.374
N2840 X56.566 Y1550.541
N2850 X55.933 Y1545.705
N2860 X55.314 Y1540.867
N2870 X54.771 Y1536.468
N2880 X54.242 Y1532.067
N2890 X53.727 Y1527.665
N2900 X53.226 Y1523.261
N2910 X52.739 Y1518.855
N2920 X52.266 Y1514.448
N2930 X51.807 Y1510.039
N2940 X51.362 Y1505.629
N2950 X50.932 Y1501.218
N2960 X50.515 Y1496.805
N2970 X50.113 Y1492.391
N2980 X49.724 Y1487.975
N2990 X49.35 Y1483.559
N3000 X48.99 Y1479.141
N3010 X48.644 Y1474.722
N3020 X48.327 Y1470.436
N3030 X48.026 Y1466.148
N3040 X47.74 Y1461.86
N3050 X47.47 Y1457.57
N3060 X47.215 Y1453.28
N3070 X46.975 Y1448.988
N3080 X46.751 Y1444.696
N3090 X46.543 Y1440.403
N3100 X46.35 Y1436.109
N3110 X46.172 Y1431.815
N3120 X46.01 Y1427.52
N3130 X45.863 Y1423.224
N3140 X45.732 Y1418.928
N3150 X45.617 Y1414.632
N3160 X45.517 Y1410.335
N3170 X45.432 Y1406.038
N3180 X45.363 Y1401.74
N3190 X45.309 Y1397.443
N3200 X45.271 Y1393.145
N3210 X45.248 Y1388.847
N3220 X45.241 Y1384.549
N3230 X45.249 Y1380.251
N3240 X45.273 Y1375.953
N3250 X45.312 Y1371.655
N3260 X45.367 Y1367.357
N3270 X45.446 Y1362.992
N3280 X45.54 Y1358.627
N3290 X45.648 Y1354.263
N3300 X45.771 Y1349.899
N3310 X45.908 Y1345.535
N3320 X46.058 Y1341.172
N3330 X46.224 Y1336.809
N3340 X46.403 Y1332.447
N3350 X46.597 Y1328.086
N3360 X46.804 Y1323.725
N3370 X47.026 Y1319.365
N3380 X47.263 Y1315.006
N3390 X47.513 Y1310.647
N3400 X47.778 Y1306.289
N3410 X48.056 Y1301.932
N3420 X48.398 Y1296.703
N3430 X48.754 Y1291.475
N3440 X49.124 Y1286.248
N3450 X49.507 Y1281.022
N3460 X49.905 Y1275.797
N3470 X50.317 Y1270.573
N3480 X50.744 Y1265.35
N3490 X51.184 Y1260.128
N3500 X51.638 Y1254.908
N3510 X52.107 Y1249.688
N3520 X52.76 Y1242.464
N3530 X53.428 Y1235.241
N3540 X54.11 Y1228.019
N3550 X54.806 Y1220.799
N3560 X55.516 Y1213.58
N3570 X56.24 Y1206.363
N3580 X56.978 Y1199.147
N3590 X57.73 Y1191.932
N3600 X59.468 Y1175.235
N3610 X61.214 Y1158.539
N3620 X62.967 Y1141.844
N3630 X63.918 Y1132.652
N3640 X64.857 Y1123.459
N3650 X65.782 Y1114.264
N3660 X66.695 Y1105.068
N3670 X67.595 Y1095.87
N3680 X68.482 Y1086.672
N3690 X69.356 Y1077.472
N3700 X70.218 Y1068.271
N3710 X70.878 Y1060.948
N3720 X71.524 Y1053.624
N3730 X72.156 Y1046.298
N3740 X72.775 Y1038.972
N3750 X73.38 Y1031.644
N3760 X73.971 Y1024.315
N3770 X74.549 Y1016.985
N3780 X75.014 Y1010.836
N3790 X75.465 Y1004.686
N3800 X75.902 Y998.534
N3810 X76.324 Y992.382
N3820 X76.731 Y986.229
N3830 X77.124 Y980.074
N3840 X77.502 Y973.919
N3850 X77.865 Y967.763
N3860 X78.214 Y961.606
N3870 X78.549 Y955.449
N3880 X78.868 Y949.29
N3890 X79.174 Y943.131
N3900 X79.464 Y936.971
N3910 X79.74 Y930.81
N3920 X80.002 Y924.649
N3930 X80.248 Y918.487
N3940 X80.465 Y912.48
N3950 X80.667 Y906.473
N3960 X80.852 Y900.465
N3970 X81.021 Y894.456
N3980 X81.175 Y888.447
N3990 X81.313 Y882.438
N4000 X81.435 Y876.428
N4010 X81.541 Y870.418
N4020 X81.631 Y864.408
N4030 X81.706 Y858.397
N4040 X81.764 Y852.386
N4050 X81.807 Y846.376
N4060 X81.834 Y840.365
N4070 X81.845 Y834.354
N4080 X81.84 Y828.343
N4090 X81.819 Y822.332
N4100 X81.783 Y816.321
N4110 X81.73 Y810.31
N4120 X81.662 Y804.3
N4130 X81.578 Y798.289
N4140 X81.478 Y792.279
N4150 X81.362 Y786.269
N4160 X81.23 Y780.26
N4170 X81.083 Y774.251
N4180 X80.919 Y768.242
N4190 X80.74 Y762.234
N4200 X80.535 Y755.651
N4210 X80.314 Y749.069
N4220 X80.078 Y742.487
N4230 X79.825 Y735.906
N4240 X79.557 Y729.326
N4250 X79.272 Y722.746
N4260 X78.972 Y716.167
N4270 X78.656 Y709.589
N4280 X78.324 Y703.011
N4290 X77.976 Y696.434
N4300 X77.612 Y689.859
N4310 X77.196 Y682.474
N4320 X76.767 Y675.089
N4330 X76.324 Y667.706
N4340 X75.869 Y660.323
N4350 X75.399 Y652.941
N4360 X74.917 Y645.56
N4370 X74.421 Y638.18
N4380 X73.912 Y630.801
N4390 X73.389 Y623.423
N4400 X72.853 Y616.046
N4410 X72.026 Y604.636
N4420 X71.184 Y593.227
N4430 X70.327 Y581.82
N4440 X69.455 Y570.413
N4450 X68.568 Y559.008
N4460 X66.781 Y535.762
N4470 X65.001 Y512.515
N4480 X64.532 Y506.284
N4490 X63.902 Y497.926
N4500 X63.284 Y489.568
N4510 X62.678 Y481.208
N4520 X62.086 Y472.848
N4530 X61.506 Y464.487
N4540 X60.938 Y456.125
N4550 X60.384 Y447.762
N4560 X59.842 Y439.398
N4570 X59.313 Y431.033
N4580 X58.926 Y424.531
N4590 X58.551 Y418.027
N4600 X58.19 Y411.523
N4610 X57.841 Y405.018
N4620 X57.505 Y398.512
N4630 X57.181 Y392.006
N4640 X56.871 Y385.499
N4650 X56.571 Y378.788
N4660 X56.56 Y378.549
N4670 X56.278 Y371.838
N4680 X56.268 Y371.599
N4690 X55.996 Y364.649
N4700 X55.786 Y359.02
N4710 X55.591 Y353.39
N4720 X55.411 Y347.76
N4730 X55.246 Y342.129
N4740 X55.097 Y336.498
N4750 X54.963 Y330.866
N4760 X54.843 Y325.235
N4770 X54.739 Y319.602
N4780 X54.651 Y313.97
N4790 X54.577 Y308.337
N4800 X54.518 Y302.705
N4810 X54.475 Y297.072
N4820 X54.447 Y291.439
N4830 X54.434 Y285.806
N4840 X54.436 Y280.172
N4850 X54.453 Y274.539
N4860 X54.491 Y269.233
N4870 X54.545 Y263.926
N4880 X54.615 Y258.619
N4890 X54.701 Y253.313
N4900 X54.803 Y248.007
N4910 X54.921 Y242.702
N4920 X55.055 Y237.397
N4930 X55.205 Y232.092
N4940 X55.371 Y226.787
N4950 X55.552 Y221.484
N4960 X55.75 Y216.18
N4970 X55.963 Y210.878
N4980 X56.192 Y205.576
N4990 X56.438 Y200.275
N5000 X56.699 Y194.974
N5010 X56.956 Y190.138
N5020 X57.228 Y185.303
N5030 X57.515 Y180.469
N5040 X57.817 Y175.636
N5050 X58.134 Y170.804
N5060 X58.465 Y165.972
N5070 X58.811 Y161.142
N5080 X59.173 Y156.313
N5090 X59.548 Y151.485
N5100 X59.939 Y146.658
N5110 X60.345 Y141.833
N5120 X60.765 Y137.008
N5130 X61.2 Y132.185
N5140 X61.65 Y127.364
N5150 X62.115 Y122.543
N5160 X62.595 Y117.725
N5170 X63.089 Y112.907
N5180 X63.599 Y108.091
N5190 X64.123 Y103.277
N5200 X64.661 Y98.465
N5210 X65.215 Y93.654
N5220 X65.783 Y88.845
N5230 X66.366 Y84.037
N5240 X66.964 Y79.232
N5250 X67.577 Y74.428
N5260 X68.19 Y69.784
N5270 X68.817 Y65.142
N5280 X69.458 Y60.502
N5290 X70.114 Y55.863
N5300 X70.784 Y51.227
N5310 X71.469 Y46.593
N5320 X72.168 Y41.961
N5330 X72.881 Y37.332
N5340 X73.608 Y32.704
N5350 X74.35 Y28.079
N5360 X75.106 Y23.456
N5370 X75.876 Y18.836
N5380 X76.661 Y14.217
N5390 X77.459 Y9.602
N5400 X78.272 Y4.989
N5410 X79.099 Y0.378
N5420 G2 X79.142 Y-0.007 I-1.673 J-0.379
N5430 G3 X80.403 Y-1.286 I1.27 J-0.009
N5440 G1 X80.545 Y-1.287 Z37.662
N5450 X80.686 Y-1.288 Z37.686
N5460 X80.823 Y-1.289 Z37.725
N5470 X80.954 Z37.78
N5480 X81.079 Y-1.29 Z37.849
N5490 X81.195 Y-1.291 Z37.931
N5500 X81.301 Y-1.292 Z38.026
N5510 X81.396 Z38.132
N5520 X81.479 Y-1.293 Z38.248
N5530 X81.547 Z38.373
N5540 X81.602 Y-1.294 Z38.504
N5550 X81.641 Z38.641
N5560 X81.665 Z38.782
N5570 X81.673 Z38.924
N5580 G0 Z44.154
N5590 X53.569 Y-1.646
N5600 Z38.424
N5610 G1 X53.577 Y-1.645 Z38.282 F5000.
N5620 X53.6 Y-1.641 Z38.141
N5630 X53.639 Y-1.635 Z38.004
N5640 X53.693 Y-1.627 Z37.873
N5650 X53.761 Y-1.617 Z37.748
N5660 X53.843 Y-1.604 Z37.632
N5670 X53.936 Y-1.59 Z37.526
N5680 X54.041 Y-1.574 Z37.431
N5690 X54.156 Y-1.556 Z37.349
N5700 X54.279 Y-1.537 Z37.28
N5710 X54.41 Y-1.518 Z37.225
N5720 X54.545 Y-1.497 Z37.186
N5730 X54.684 Y-1.476 Z37.162
N5740 X54.824 Y-1.454 Z37.154
N5750 G3 X55.888 Y-0.007 I-0.192 J1.255
N5760 G2 X55.678 Y1.575 I28.435 J4.582
N5770 G1 X54.904 Y7.254
N5780 X54.145 Y12.934
N5790 X53.401 Y18.617
N5800 X52.672 Y24.302
N5810 X51.958 Y29.988
N5820 X51.259 Y35.677
N5830 X50.575 Y41.367
N5840 X49.906 Y47.059
N5850 X49.252 Y52.753
N5860 X48.613 Y58.448
N5870 X47.989 Y64.146
N5880 X47.38 Y69.844
N5890 X46.786 Y75.545
N5900 X46.208 Y81.247
N5910 X45.644 Y86.95
N5920 X45.095 Y92.655
N5930 X44.562 Y98.362
N5940 X44.043 Y104.069
N5950 X43.539 Y109.778
N5960 X43.051 Y115.489
N5970 X42.578 Y121.2
N5980 X42.119 Y126.913
N5990 X41.676 Y132.627
N6000 X41.248 Y138.343
N6010 X40.835 Y144.059
N6020 X40.437 Y149.776
N6030 X40.054 Y155.495
N6040 X39.686 Y161.214
N6050 X39.333 Y166.935
N6060 X38.999 Y172.71
N6070 X38.681 Y178.486
N6080 X38.377 Y184.263
N6090 X38.088 Y190.04
N6100 X37.814 Y195.819
N6110 X37.555 Y201.598
N6120 X37.311 Y207.377
N6130 X37.082 Y213.158
N6140 X36.868 Y218.939
N6150 X36.669 Y224.72
N6160 X36.484 Y230.502
N6170 X36.315 Y236.284
N6180 X36.161 Y242.067
N6190 X36.022 Y247.85
N6200 X35.898 Y253.634
N6210 X35.788 Y259.418
N6220 X35.694 Y265.202
N6230 X35.615 Y270.986
N6240 X35.55 Y276.77
N6250 X35.501 Y282.555
N6260 X35.466 Y288.34
N6270 X35.447 Y294.125
N6280 X35.442 Y299.909
N6290 X35.453 Y305.694
N6300 X35.47 Y311.59
N6310 X35.501 Y317.486
N6320 X35.544 Y323.382
N6330 X35.601 Y329.278
N6340 X35.671 Y335.174
N6350 X35.754 Y341.069
N6360 X35.85 Y346.964
N6370 X35.959 Y352.86
N6380 X36.081 Y358.754
N6390 X36.216 Y364.649
N6400 X36.347 Y369.921
N6410 X36.353 Y370.161
N6420 X36.381 Y371.359
N6430 X36.387 Y371.599
N6440 X36.53 Y376.871
N6450 X36.536 Y377.111
N6460 X36.567 Y378.309
N6470 X36.573 Y378.549
N6480 X36.727 Y383.821
N6490 X36.98 Y391.948
N6500 X37.247 Y400.074
N6510 X37.531 Y408.2
N6520 X37.829 Y416.325
N6530 X38.142 Y424.45
N6540 X38.471 Y432.574
N6550 X38.814 Y440.697
N6560 X39.173 Y448.82
N6570 X39.547 Y456.942
N6580 X39.936 Y465.063
N6590 X40.293 Y472.673
N6600 X40.662 Y480.282
N6610 X41.042 Y487.891
N6620 X41.433 Y495.499
N6630 X41.66 Y500.053
N6640 X41.894 Y504.606
N6650 X42.183 Y510.118
N6660 X43.579 Y536.719
N6670 X44.959 Y563.32
N6680 X46.325 Y589.922
N6690 X47.049 Y605.02
N6700 X47.762 Y620.119
N6710 X48.136 Y628.324
N6720 X48.496 Y636.53
N6730 X48.843 Y644.736
N6740 X49.176 Y652.943
N6750 X49.495 Y661.151
N6760 X49.801 Y669.359
N6770 X50.093 Y677.567
N6780 X50.371 Y685.776
N6790 X50.635 Y693.985
N6800 X50.886 Y702.195
N6810 X51.123 Y710.406
N6820 X51.346 Y718.616
N6830 X51.524 Y725.973
N6840 X51.686 Y733.331
N6850 X51.833 Y740.689
N6860 X51.965 Y748.047
N6870 X52.082 Y755.405
N6880 X52.184 Y762.764
N6890 X52.27 Y770.123
N6900 X52.341 Y777.482
N6910 X52.396 Y784.841
N6920 X52.437 Y792.2
N6930 X52.462 Y799.56
N6940 X52.472 Y806.919
N6950 X52.467 Y814.278
N6960 X52.446 Y821.638
N6970 X52.41 Y828.997
N6980 X52.359 Y836.356
N6990 X52.293 Y843.715
N7000 X52.204 Y851.246
N7010 X52.1 Y858.776
N7020 X51.982 Y866.306
N7030 X51.849 Y873.836
N7040 X51.702 Y881.366
N7050 X51.54 Y888.895
N7060 X51.363 Y896.424
N7070 X51.172 Y903.953
N7080 X50.966 Y911.481
N7090 X50.746 Y919.009
N7100 X50.511 Y926.536
N7110 X50.262 Y934.063
N7120 X49.998 Y941.589
N7130 X49.719 Y949.115
N7140 X49.426 Y956.641
N7150 X49.119 Y964.165
N7160 X48.797 Y971.69
N7170 X48.456 Y979.6
N7180 X48.102 Y987.509
N7190 X47.734 Y995.418
N7200 X47.352 Y1003.327
N7210 X46.956 Y1011.234
N7220 X46.545 Y1019.141
N7230 X46.067 Y1028.251
N7240 X45.572 Y1037.361
N7250 X45.063 Y1046.469
N7260 X44.539 Y1055.577
N7270 X43.999 Y1064.684
N7280 X43.444 Y1073.79
N7290 X42.874 Y1082.895
N7300 X42.289 Y1091.999
N7310 X41.688 Y1101.102
N7320 X40.714 Y1115.842
N7330 X39.729 Y1130.581
N7340 X38.731 Y1145.319
N7350 X37.722 Y1160.057
N7360 X36.529 Y1177.91
N7370 X35.348 Y1195.763
N7380 X34.177 Y1213.618
N7390 X33.018 Y1231.473
N7400 X32.545 Y1239.105
N7410 X32.088 Y1246.738
N7420 X31.647 Y1254.372
N7430 X31.222 Y1262.007
N7440 X30.812 Y1269.642
N7450 X30.418 Y1277.279
N7460 X30.04 Y1284.916
N7470 X29.787 Y1290.48
N7480 X29.549 Y1296.045
N7490 X29.327 Y1301.611
N7500 X29.12 Y1307.177
N7510 X28.929 Y1312.743
N7520 X28.753 Y1318.311
N7530 X28.594 Y1323.878
N7540 X28.45 Y1329.446
N7550 X28.321 Y1335.015
N7560 X28.209 Y1340.584
N7570 X28.112 Y1346.153
N7580 X28.03 Y1351.722
N7590 X27.964 Y1357.292
N7600 X27.929 Y1362.174
N7610 X27.908 Y1367.056
N7620 X27.901 Y1371.939
N7630 X27.909 Y1376.821
N7640 X27.932 Y1381.704
N7650 X27.97 Y1386.586
N7660 X28.022 Y1391.468
N7670 X28.089 Y1396.35
N7680 X28.17 Y1401.232
N7690 X28.267 Y1406.114
N7700 X28.377 Y1410.995
N7710 X28.503 Y1415.876
N7720 X28.643 Y1420.756
N7730 X28.798 Y1425.636
N7740 X28.968 Y1430.516
N7750 X29.152 Y1435.395
N7760 X29.35 Y1440.273
N7770 X29.564 Y1445.151
N7780 X29.792 Y1450.028
N7790 X30.035 Y1454.905
N7800 X30.292 Y1459.781
N7810 X30.564 Y1464.656
N7820 X30.872 Y1470.047
N7830 X31.194 Y1475.437
N7840 X31.529 Y1480.826
N7850 X31.879 Y1486.214
N7860 X32.243 Y1491.602
N7870 X32.62 Y1496.988
N7880 X33.012 Y1502.374
N7890 X33.417 Y1507.759
N7900 X33.836 Y1513.142
N7910 X34.27 Y1518.524
N7920 X34.717 Y1523.906
N7930 X35.178 Y1529.286
N7940 X35.654 Y1534.664
N7950 X36.143 Y1540.042
N7960 X36.646 Y1545.418
N7970 X36.965 Y1548.895
N7980 X37.294 Y1552.37
N7990 X37.632 Y1555.845
N8000 X37.979 Y1559.319
N8010 X38.585 Y1565.352
N8020 X39.205 Y1571.385
N8030 X39.839 Y1577.416
N8040 X40.486 Y1583.445
N8050 X41.147 Y1589.473
N8060 X41.821 Y1595.499
N8070 X42.51 Y1601.524
N8080 X43.212 Y1607.547
N8090 X43.928 Y1613.569
N8100 X44.658 Y1619.589
N8110 X45.402 Y1625.607
N8120 G3 X44.304 Y1627.028 I-1.259 J0.161
N8130 G1 X44.163 Y1627.046 Z37.162
N8140 X44.023 Y1627.064 Z37.186
N8150 X43.888 Y1627.082 Z37.225
N8160 X43.757 Y1627.098 Z37.28
N8170 X43.633 Y1627.114 Z37.349
N8180 X43.518 Y1627.129 Z37.431
N8190 X43.413 Y1627.142 Z37.526
N8200 X43.319 Y1627.155 Z37.632
N8210 X43.237 Y1627.165 Z37.748
N8220 X43.169 Y1627.174 Z37.873
N8230 X43.115 Y1627.181 Z38.004
N8240 X43.076 Y1627.186 Z38.141
N8250 X43.052 Y1627.189 Z38.282
N8260 X43.044 Y1627.19 Z38.424
N8270 G0 Z44.154
N8280 X74.038 Y1626.886
N8290 Z38.424
N8300 G1 X74.03 Z38.282 F5000.
N8310 X74.006 Z38.141
N8320 X73.967 Z38.004
N8330 X73.912 Y1626.885 Z37.873
N8340 X73.844 Z37.748
N8350 X73.761 Z37.632
N8360 X73.666 Z37.526
N8370 X73.56 Y1626.884 Z37.431
N8380 X73.444 Z37.349
N8390 X73.319 Y1626.883 Z37.28
N8400 X73.188 Z37.225
N8410 X73.051 Z37.186
N8420 X72.91 Y1626.882 Z37.162
N8430 X72.768 Z37.154
N8440 G3 X71.503 Y1625.607 I0.004 J-1.27
N8450 G2 X71.451 Y1625.224 I-1.418 J-0.004
N8460 G1 X70.632 Y1620.867
N8470 X69.829 Y1616.508
N8480 X69.041 Y1612.146
N8490 X68.269 Y1607.782
N8500 X67.513 Y1603.414
N8510 X66.729 Y1598.869
N8520 X65.96 Y1594.32
N8530 X65.206 Y1589.769
N8540 X64.466 Y1585.216
N8550 X63.74 Y1580.66
N8560 X63.03 Y1576.103
N8570 X62.333 Y1571.542
N8580 X61.652 Y1566.98
N8590 X60.985 Y1562.416
N8600 X60.333 Y1557.849
N8610 X59.695 Y1553.28
N8620 X59.072 Y1548.71
N8630 X58.464 Y1544.137
N8640 X57.87 Y1539.562
N8650 X57.291 Y1534.986
N8660 X56.726 Y1530.407
N8670 X56.177 Y1525.827
N8680 X55.642 Y1521.246
N8690 X55.121 Y1516.662
N8700 X54.67 Y1512.503
N8710 X54.233 Y1508.343
N8720 X53.809 Y1504.182
N8730 X53.399 Y1500.019
N8740 X53.003 Y1495.855
N8750 X52.621 Y1491.69
N8760 X52.252 Y1487.523
N8770 X51.897 Y1483.355
N8780 X51.556 Y1479.186
N8790 X51.228 Y1475.016
N8800 X50.915 Y1470.845
N8810 X50.615 Y1466.673
N8820 X50.329 Y1462.5
N8830 X50.06 Y1458.304
N8840 X49.807 Y1454.108
N8850 X49.57 Y1449.911
N8860 X49.348 Y1445.713
N8870 X49.141 Y1441.514
N8880 X48.95 Y1437.314
N8890 X48.774 Y1433.114
N8900 X48.613 Y1428.913
N8910 X48.468 Y1424.712
N8920 X48.339 Y1420.51
N8930 X48.225 Y1416.307
N8940 X48.126 Y1412.105
N8950 X48.043 Y1407.902
N8960 X47.975 Y1403.698
N8970 X47.923 Y1399.495
N8980 X47.886 Y1395.291
N8990 X47.865 Y1391.087
N9000 X47.859 Y1386.883
N9010 X47.868 Y1382.679
N9020 X47.893 Y1378.475
N9030 X47.934 Y1374.271
N9040 X47.99 Y1370.068
N9050 X48.061 Y1365.865
N9060 X48.148 Y1361.662
N9070 X48.25 Y1357.459
N9080 X48.368 Y1353.257
N9090 X48.501 Y1349.055
N9100 X48.649 Y1344.853
N9110 X48.813 Y1340.653
N9120 X48.993 Y1336.453
N9130 X49.188 Y1332.253
N9140 X49.398 Y1328.054
N9150 X49.634 Y1323.519
N9160 X49.883 Y1318.984
N9170 X50.145 Y1314.449
N9180 X50.421 Y1309.916
N9190 X50.711 Y1305.383
N9200 X51.014 Y1300.851
N9210 X51.331 Y1296.32
N9220 X51.661 Y1291.79
N9230 X52.005 Y1287.261
N9240 X52.362 Y1282.734
N9250 X52.732 Y1278.207
N9260 X53.243 Y1272.077
N9270 X53.768 Y1265.948
N9280 X54.309 Y1259.821
N9290 X54.865 Y1253.695
N9300 X55.436 Y1247.57
N9310 X56.023 Y1241.447
N9320 X56.625 Y1235.325
N9330 X57.242 Y1229.205
N9340 X57.874 Y1223.087
N9350 X58.732 Y1214.815
N9360 X59.605 Y1206.545
N9370 X60.492 Y1198.276
N9380 X61.393 Y1190.008
N9390 X62.309 Y1181.743
N9400 X63.24 Y1173.479
N9410 X64.9 Y1158.503
N9420 X66.547 Y1143.525
N9430 X68.179 Y1128.546
N9440 X69.797 Y1113.565
N9450 X70.638 Y1105.515
N9460 X71.469 Y1097.464
N9470 X72.29 Y1089.411
N9480 X73.1 Y1081.358
N9490 X73.899 Y1073.303
N9500 X74.562 Y1066.465
N9510 X75.211 Y1059.625
N9520 X75.847 Y1052.784
N9530 X76.468 Y1045.942
N9540 X77.076 Y1039.098
N9550 X77.67 Y1032.254
N9560 X78.25 Y1025.408
N9570 X78.816 Y1018.561
N9580 X79.368 Y1011.713
N9590 X79.827 Y1005.776
N9600 X80.27 Y999.838
N9610 X80.699 Y993.899
N9620 X81.112 Y987.959
N9630 X81.511 Y982.019
N9640 X81.895 Y976.077
N9650 X82.264 Y970.134
N9660 X82.619 Y964.19
N9670 X82.958 Y958.245
N9680 X83.283 Y952.3
N9690 X83.592 Y946.354
N9700 X83.887 Y940.407
N9710 X84.167 Y934.459
N9720 X84.432 Y928.51
N9730 X84.682 Y922.561
N9740 X84.901 Y916.832
N9750 X85.105 Y911.102
N9760 X85.293 Y905.371
N9770 X85.465 Y899.64
N9780 X85.622 Y893.909
N9790 X85.764 Y888.177
N9800 X85.89 Y882.444
N9810 X86. Y876.712
N9820 X86.095 Y870.979
N9830 X86.175 Y865.246
N9840 X86.239 Y859.512
N9850 X86.287 Y853.779
N9860 X86.32 Y848.045
N9870 X86.337 Y842.312
N9880 X86.339 Y836.578
N9890 X86.326 Y830.844
N9900 X86.296 Y825.111
N9910 X86.252 Y819.377
N9920 X86.192 Y813.644
N9930 X86.116 Y807.911
N9940 X86.025 Y802.178
N9950 X85.918 Y796.445
N9960 X85.796 Y790.713
N9970 X85.658 Y784.981
N9980 X85.505 Y779.249
N9990 X85.328 Y772.995
N10000 X85.136 Y766.741
N10010 X84.929 Y760.488
N10020 X84.706 Y754.235
N10030 X84.468 Y747.983
N10040 X84.215 Y741.732
N10050 X83.946 Y735.481
N10060 X83.662 Y729.231
N10070 X83.362 Y722.981
N10080 X83.048 Y716.733
N10090 X82.718 Y710.485
N10100 X82.372 Y704.238
N10110 X81.945 Y696.684
N10120 X81.502 Y689.132
N10130 X81.044 Y681.58
N10140 X80.571 Y674.03
N10150 X80.082 Y666.48
N10160 X79.579 Y658.931
N10170 X79.059 Y651.384
N10180 X78.525 Y643.837
N10190 X77.976 Y636.292
N10200 X77.411 Y628.747
N10210 X76.776 Y620.214
N10220 X76.129 Y611.681
N10230 X75.47 Y603.149
N10240 X74.799 Y594.618
N10250 X74.117 Y586.089
N10260 X74.064 Y585.369
N10270 X71.295 Y550.979
N10280 X68.52 Y516.589
N10290 X67.791 Y507.456
N10300 X67.076 Y498.322
N10310 X66.375 Y489.186
N10320 X65.687 Y480.05
N10330 X65.012 Y470.913
N10340 X64.351 Y461.775
N10350 X63.703 Y452.635
N10360 X63.069 Y443.495
N10370 X62.59 Y436.249
N10380 X62.127 Y429.002
N10390 X61.68 Y421.754
N10400 X61.249 Y414.504
N10410 X60.833 Y407.254
N10420 X60.433 Y400.003
N10430 X60.049 Y392.752
N10440 X59.68 Y385.499
N10450 X59.401 Y379.582
N10460 X59.136 Y373.665
N10470 X58.885 Y367.746
N10480 X58.65 Y361.828
N10490 X58.429 Y355.908
N10500 X58.223 Y349.989
N10510 X58.031 Y344.068
N10520 X57.854 Y338.147
N10530 X57.692 Y332.226
N10540 X57.545 Y326.305
N10550 X57.43 Y321.019
N10560 X57.33 Y315.733
N10570 X57.245 Y310.446
N10580 X57.175 Y305.16
N10590 X57.119 Y299.873
N10600 X57.079 Y294.586
N10610 X57.053 Y289.299
N10620 X57.042 Y284.013
N10630 X57.046 Y278.726
N10640 X57.064 Y273.439
N10650 X57.098 Y268.152
N10660 X57.146 Y262.865
N10670 X57.209 Y257.578
N10680 X57.287 Y252.292
N10690 X57.38 Y247.006
N10700 X57.487 Y241.72
N10710 X57.61 Y236.434
N10720 X57.742 Y231.637
N10730 X57.888 Y226.84
N10740 X58.048 Y222.044
N10750 X58.222 Y217.248
N10760 X58.41 Y212.453
N10770 X58.612 Y207.658
N10780 X58.827 Y202.864
N10790 X59.057 Y198.071
N10800 X59.301 Y193.278
N10810 X59.559 Y188.486
N10820 X59.83 Y183.695
N10830 X60.116 Y178.904
N10840 X60.415 Y174.115
N10850 X60.729 Y169.326
N10860 X61.056 Y164.538
N10870 X61.396 Y159.823
N10880 X61.751 Y155.109
N10890 X62.121 Y150.397
N10900 X62.506 Y145.685
N10910 X62.905 Y140.975
N10920 X63.319 Y136.266
N10930 X63.748 Y131.558
N10940 X64.192 Y126.852
N10950 X64.651 Y122.147
N10960 X65.124 Y117.444
N10970 X65.612 Y112.742
N10980 X66.115 Y108.042
N10990 X66.632 Y103.343
N11000 X67.165 Y98.646
N11010 X67.712 Y93.95
N11020 X68.274 Y89.257
N11030 X68.85 Y84.565
N11040 X69.442 Y79.875
N11050 X70.047 Y75.187
N11060 X70.668 Y70.5
N11070 X71.304 Y65.816
N11080 X71.954 Y61.134
N11090 X72.619 Y56.454
N11100 X73.311 Y51.741
N11110 X74.018 Y47.031
N11120 X74.741 Y42.323
N11130 X75.48 Y37.617
N11140 X76.234 Y32.914
N11150 X77.003 Y28.213
N11160 X77.788 Y23.515
N11170 X78.589 Y18.819
N11180 X79.405 Y14.127
N11190 X80.236 Y9.437
N11200 X81.083 Y4.749
N11210 X81.945 Y0.065
N11220 X81.941 Y0.027
N11230 Y0.009
N11240 Y0.
N11250 Y-0.007
N11260 G3 X83.208 Y-1.281 I1.27 J-0.004
N11270 G1 X83.35 Z37.162
N11280 X83.49 Y-1.282 Z37.186
N11290 X83.627 Z37.225
N11300 X83.759 Z37.28
N11310 X83.883 Y-1.283 Z37.349
N11320 X84. Z37.431
N11330 X84.106 Z37.526
N11340 X84.201 Y-1.284 Z37.632
N11350 X84.283 Z37.748
N11360 X84.352 Z37.873
N11370 X84.407 Z38.004
N11380 X84.446 Z38.141
N11390 X84.47 Z38.282
N11400 X84.478 Z38.424
N11410 G0 Z44.154
N11420 X49.092 Y-1.603
N11430 Z37.924
N11440 G1 X49.1 Y-1.602 Z37.782 F5000.
N11450 X49.123 Y-1.598 Z37.641
N11460 X49.162 Y-1.593 Z37.504
N11470 X49.216 Y-1.586 Z37.373
N11480 X49.285 Y-1.577 Z37.248
N11490 X49.366 Y-1.566 Z37.132
N11500 X49.46 Y-1.553 Z37.026
N11510 X49.566 Y-1.539 Z36.931
N11520 X49.681 Y-1.524 Z36.849
N11530 X49.804 Y-1.507 Z36.78
N11540 X49.935 Y-1.49 Z36.725
N11550 X50.07 Y-1.472 Z36.686
N11560 X50.21 Y-1.453 Z36.662
N11570 X50.351 Y-1.434 Z36.654
N11580 G3 X51.441 Y-0.007 I-0.168 J1.259
N11590 G1 X50.686 Y5.92
N11600 X49.947 Y11.848
N11610 X49.222 Y17.779
N11620 X48.512 Y23.711
N11630 X47.816 Y29.646
N11640 X47.136 Y35.581
N11650 X46.47 Y41.519
N11660 X45.819 Y47.458
N11670 X45.183 Y53.399
N11680 X44.562 Y59.341
N11690 X43.956 Y65.285
N11700 X43.364 Y71.231
N11710 X42.787 Y77.178
N11720 X42.226 Y83.126
N11730 X41.679 Y89.075
N11740 X41.147 Y95.026
N11750 X40.629 Y100.979
N11760 X40.127 Y106.932
N11770 X39.64 Y112.887
N11780 X39.167 Y118.843
N11790 X38.709 Y124.8
N11800 X38.266 Y130.759
N11810 X37.838 Y136.718
N11820 X37.425 Y142.679
N11830 X37.027 Y148.64
N11840 X36.641 Y154.78
N11850 X36.271 Y160.921
N11860 X35.918 Y167.063
N11870 X35.58 Y173.206
N11880 X35.258 Y179.349
N11890 X34.951 Y185.494
N11900 X34.661 Y191.639
N11910 X34.387 Y197.785
N11920 X34.129 Y203.932
N11930 X33.886 Y210.079
N11940 X33.66 Y216.227
N11950 X33.45 Y222.376
N11960 X33.255 Y228.525
N11970 X33.077 Y234.674
N11980 X32.914 Y240.824
N11990 X32.767 Y246.975
N12000 X32.637 Y253.125
N12010 X32.522 Y259.276
N12020 X32.423 Y265.428
N12030 X32.34 Y271.579
N12040 X32.273 Y277.731
N12050 X32.222 Y283.883
N12060 X32.187 Y290.035
N12070 X32.168 Y296.187
N12080 X32.165 Y302.339
N12090 X32.17 Y308.571
N12100 X32.189 Y314.802
N12110 X32.221 Y321.033
N12120 X32.267 Y327.265
N12130 X32.327 Y333.496
N12140 X32.401 Y339.727
N12150 X32.488 Y345.958
N12160 X32.589 Y352.188
N12170 X32.704 Y358.419
N12180 X32.833 Y364.649
N12190 X32.946 Y369.682
N12200 X32.951 Y369.921
N12210 X32.982 Y371.359
N12220 X32.987 Y371.599
N12230 X33.11 Y376.632
N12240 X33.116 Y376.871
N12250 X33.15 Y378.309
N12260 X33.155 Y378.549
N12270 X33.289 Y383.581
N12280 X33.521 Y391.804
N12290 X33.768 Y400.026
N12300 X34.03 Y408.247
N12310 X34.305 Y416.468
N12320 X34.595 Y424.688
N12330 X34.9 Y432.908
N12340 X35.219 Y441.128
N12350 X35.552 Y449.346
N12360 X35.9 Y457.564
N12370 X36.262 Y465.782
N12380 X36.685 Y475.489
N12390 X37.121 Y485.195
N12400 X37.568 Y494.901
N12410 X38.028 Y504.606
N12420 X38.271 Y509.639
N12430 X39.244 Y529.829
N12440 X40.208 Y550.019
N12450 X41.162 Y570.21
N12460 X42.107 Y590.402
N12470 X42.551 Y600.431
N12480 X42.983 Y610.461
N12490 X43.402 Y620.492
N12500 X43.808 Y630.523
N12510 X44.202 Y640.555
N12520 X44.583 Y650.587
N12530 X44.95 Y660.62
N12540 X45.222 Y668.687
N12550 X45.481 Y676.754
N12560 X45.726 Y684.822
N12570 X45.957 Y692.89
N12580 X46.174 Y700.958
N12590 X46.378 Y709.027
N12600 X46.568 Y717.096
N12610 X46.745 Y725.165
N12620 X46.908 Y733.235
N12630 X47.042 Y740.958
N12640 X47.16 Y748.681
N12650 X47.263 Y756.404
N12660 X47.351 Y764.128
N12670 X47.423 Y771.852
N12680 X47.48 Y779.575
N12690 X47.521 Y787.299
N12700 X47.547 Y795.023
N12710 X47.557 Y802.747
N12720 X47.552 Y810.471
N12730 X47.532 Y818.195
N12740 X47.496 Y825.919
N12750 X47.444 Y833.643
N12760 X47.377 Y841.367
N12770 X47.295 Y849.091
N12780 X47.197 Y856.814
N12790 X47.083 Y864.537
N12800 X46.955 Y872.26
N12810 X46.81 Y879.983
N12820 X46.651 Y887.705
N12830 X46.476 Y895.427
N12840 X46.285 Y903.149
N12850 X46.065 Y911.714
N12860 X45.828 Y920.278
N12870 X45.576 Y928.842
N12880 X45.308 Y937.405
N12890 X45.024 Y945.968
N12900 X44.724 Y954.53
N12910 X44.409 Y963.092
N12920 X44.077 Y971.653
N12930 X43.729 Y980.213
N12940 X43.366 Y988.773
N12950 X42.986 Y997.332
N12960 X42.648 Y1005.062
N12970 X42.297 Y1012.791
N12980 X41.934 Y1020.52
N12990 X41.557 Y1028.248
N13000 X41.101 Y1037.438
N13010 X40.63 Y1046.626
N13020 X40.146 Y1055.815
N13030 X39.649 Y1065.002
N13040 X39.138 Y1074.189
N13050 X38.613 Y1083.375
N13060 X38.075 Y1092.56
N13070 X37.523 Y1101.744
N13080 X36.957 Y1110.928
N13090 X36.505 Y1118.518
N13100 X36.041 Y1126.107
N13110 X35.566 Y1133.695
N13120 X34.307 Y1154.112
N13130 X33.062 Y1174.529
N13140 X31.832 Y1194.948
N13150 X30.616 Y1215.367
N13160 X29.415 Y1235.787
N13170 X28.988 Y1243.453
N13180 X28.576 Y1251.121
N13190 X28.18 Y1258.789
N13200 X27.801 Y1266.458
N13210 X27.437 Y1274.128
N13220 X27.089 Y1281.798
N13230 X26.757 Y1289.469
N13240 X26.546 Y1294.835
N13250 X26.349 Y1300.201
N13260 X26.166 Y1305.568
N13270 X25.996 Y1310.935
N13280 X25.841 Y1316.303
N13290 X25.699 Y1321.67
N13300 X25.572 Y1327.039
N13310 X25.458 Y1332.407
N13320 X25.358 Y1337.776
N13330 X25.273 Y1343.145
N13340 X25.201 Y1348.515
N13350 X25.143 Y1353.884
N13360 X25.099 Y1359.254
N13370 X25.069 Y1364.623
N13380 X25.053 Y1369.993
N13390 X25.063 Y1375.117
N13400 X25.089 Y1380.24
N13410 X25.129 Y1385.364
N13420 X25.183 Y1390.487
N13430 X25.253 Y1395.61
N13440 X25.337 Y1400.733
N13450 X25.436 Y1405.856
N13460 X25.55 Y1410.978
N13470 X25.679 Y1416.1
N13480 X25.823 Y1421.222
N13490 X25.981 Y1426.343
N13500 X26.154 Y1431.464
N13510 X26.342 Y1436.584
N13520 X26.545 Y1441.704
N13530 X26.763 Y1446.823
N13540 X26.995 Y1451.941
N13550 X27.242 Y1457.059
N13560 X27.504 Y1462.176
N13570 X27.78 Y1467.292
N13580 X28.097 Y1473.05
N13590 X28.428 Y1478.807
N13600 X28.773 Y1484.563
N13610 X29.133 Y1490.318
N13620 X29.507 Y1496.073
N13630 X29.895 Y1501.826
N13640 X30.298 Y1507.578
N13650 X30.715 Y1513.33
N13660 X31.146 Y1519.08
N13670 X31.592 Y1524.829
N13680 X32.052 Y1530.578
N13690 X32.526 Y1536.325
N13700 X33.015 Y1542.07
N13710 X33.518 Y1547.815
N13720 X33.974 Y1553.042
N13730 X34.443 Y1558.267
N13740 X34.924 Y1563.492
N13750 X35.417 Y1568.715
N13760 X35.923 Y1573.938
N13770 X36.557 Y1580.401
N13780 X37.205 Y1586.864
N13790 X37.867 Y1593.325
N13800 X38.543 Y1599.784
N13810 X39.233 Y1606.242
N13820 X39.938 Y1612.699
N13830 X40.656 Y1619.154
N13840 X41.389 Y1625.607
N13850 X41.397 Y1625.74
N13860 X41.391 Y1625.873
N13870 X41.372 Y1626.005
N13880 X41.338 Y1626.134
N13890 X41.292 Y1626.258
N13900 X41.232 Y1626.377
N13910 X41.161 Y1626.49
N13920 X41.078 Y1626.594
N13930 X40.984 Y1626.689
N13940 X40.882 Y1626.773
N13950 X40.771 Y1626.847
N13960 X40.653 Y1626.908
N13970 X40.529 Y1626.957
N13980 X40.401 Y1626.992
N13990 X40.27 Y1627.014
N14000 X40.128 Y1627.031 Z36.662
N14010 X39.989 Y1627.047 Z36.686
N14020 X39.853 Y1627.062 Z36.725
N14030 X39.722 Y1627.077 Z36.78
N14040 X39.598 Y1627.092 Z36.849
N14050 X39.483 Y1627.105 Z36.931
N14060 X39.378 Y1627.117 Z37.026
N14070 X39.283 Y1627.128 Z37.132
N14080 X39.201 Y1627.137 Z37.248
N14090 X39.133 Y1627.145 Z37.373
N14100 X39.079 Y1627.152 Z37.504
N14110 X39.04 Y1627.156 Z37.641
N14120 X39.016 Y1627.159 Z37.782
N14130 X39.008 Y1627.16 Z37.924
N14140 G0 Z44.154
N14150 X76.567 Y1626.884
N14160 Z37.924
N14170 G1 X76.559 Z37.782 F5000.
N14180 X76.535 Z37.641
N14190 X76.495 Z37.504
N14200 X76.441 Z37.373
N14210 X76.372 Z37.248
N14220 X76.289 Z37.132
N14230 X76.195 Y1626.883 Z37.026
N14240 X76.088 Z36.931
N14250 X75.972 Z36.849
N14260 X75.848 Y1626.882 Z36.78
N14270 X75.716 Z36.725
N14280 X75.579 Z36.686
N14290 X75.439 Y1626.881 Z36.662
N14300 X75.297 Z36.654
N14310 G3 X74.03 Y1625.607 I0.004 J-1.27
N14320 G2 X73.983 Y1625.224 I-1.52 J-0.006
N14330 G1 X73.107 Y1620.693
N14340 X72.246 Y1616.16
N14350 X71.399 Y1611.624
N14360 X70.567 Y1607.085
N14370 X69.75 Y1602.544
N14380 X68.948 Y1598.
N14390 X68.161 Y1593.453
N14400 X67.388 Y1588.904
N14410 X66.63 Y1584.352
N14420 X65.886 Y1579.798
N14430 X65.158 Y1575.242
N14440 X64.444 Y1570.683
N14450 X63.745 Y1566.122
N14460 X63.06 Y1561.559
N14470 X62.391 Y1556.993
N14480 X61.736 Y1552.425
N14490 X61.096 Y1547.856
N14500 X60.471 Y1543.284
N14510 X59.86 Y1538.71
N14520 X59.293 Y1534.297
N14530 X58.741 Y1529.882
N14540 X58.206 Y1525.464
N14550 X57.686 Y1521.045
N14560 X57.182 Y1516.624
N14570 X56.694 Y1512.201
N14580 X56.221 Y1507.777
N14590 X55.765 Y1503.351
N14600 X55.325 Y1498.923
N14610 X54.9 Y1494.494
N14620 X54.492 Y1490.063
N14630 X54.099 Y1485.631
N14640 X53.723 Y1481.197
N14650 X53.362 Y1476.762
N14660 X53.017 Y1472.326
N14670 X52.717 Y1468.191
N14680 X52.431 Y1464.055
N14690 X52.161 Y1459.918
N14700 X51.907 Y1455.78
N14710 X51.668 Y1451.642
N14720 X51.444 Y1447.502
N14730 X51.236 Y1443.361
N14740 X51.043 Y1439.22
N14750 X50.865 Y1435.078
N14760 X50.703 Y1430.936
N14770 X50.557 Y1426.793
N14780 X50.425 Y1422.649
N14790 X50.309 Y1418.505
N14800 X50.209 Y1414.361
N14810 X50.124 Y1410.216
N14820 X50.055 Y1406.071
N14830 X50. Y1401.925
N14840 X49.962 Y1397.78
N14850 X49.938 Y1393.634
N14860 X49.931 Y1389.489
N14870 X49.938 Y1385.343
N14880 X49.961 Y1381.197
N14890 X50. Y1377.052
N14900 X50.053 Y1372.906
N14910 X50.123 Y1368.761
N14920 X50.207 Y1364.616
N14930 X50.308 Y1360.472
N14940 X50.423 Y1356.328
N14950 X50.554 Y1352.184
N14960 X50.7 Y1348.041
N14970 X50.862 Y1343.899
N14980 X51.04 Y1339.757
N14990 X51.232 Y1335.616
N15000 X51.44 Y1331.475
N15010 X51.664 Y1327.335
N15020 X51.913 Y1322.865
N15030 X52.175 Y1318.395
N15040 X52.451 Y1313.926
N15050 X52.741 Y1309.458
N15060 X53.043 Y1304.99
N15070 X53.359 Y1300.524
N15080 X53.688 Y1296.058
N15090 X54.031 Y1291.594
N15100 X54.387 Y1287.13
N15110 X54.756 Y1282.668
N15120 X55.139 Y1278.207
N15130 X55.672 Y1272.077
N15140 X56.222 Y1265.948
N15150 X56.788 Y1259.82
N15160 X57.369 Y1253.694
N15170 X57.966 Y1247.569
N15180 X58.579 Y1241.446
N15190 X59.207 Y1235.325
N15200 X59.851 Y1229.205
N15210 X60.511 Y1223.087
N15220 X61.407 Y1214.815
N15230 X62.318 Y1206.544
N15240 X63.246 Y1198.275
N15250 X64.188 Y1190.008
N15260 X65.147 Y1181.742
N15270 X66.122 Y1173.479
N15280 X67.512 Y1161.499
N15290 X68.892 Y1149.517
N15300 X70.262 Y1137.534
N15310 X71.621 Y1125.551
N15320 X72.97 Y1113.566
N15330 X74.09 Y1103.262
N15340 X75.195 Y1092.957
N15350 X76.284 Y1082.65
N15360 X76.999 Y1075.732
N15370 X77.701 Y1068.812
N15380 X78.388 Y1061.892
N15390 X79.061 Y1054.97
N15400 X79.72 Y1048.046
N15410 X80.366 Y1041.122
N15420 X80.997 Y1034.196
N15430 X81.615 Y1027.269
N15440 X82.218 Y1020.34
N15450 X82.702 Y1014.548
N15460 X83.171 Y1008.755
N15470 X83.626 Y1002.96
N15480 X84.065 Y997.164
N15490 X84.49 Y991.367
N15500 X84.9 Y985.569
N15510 X85.295 Y979.77
N15520 X85.675 Y973.97
N15530 X86.04 Y968.169
N15540 X86.391 Y962.368
N15550 X86.726 Y956.565
N15560 X87.047 Y950.761
N15570 X87.353 Y944.957
N15580 X87.644 Y939.152
N15590 X87.921 Y933.346
N15600 X88.16 Y927.856
N15610 X88.385 Y922.366
N15620 X88.594 Y916.875
N15630 X88.789 Y911.383
N15640 X88.968 Y905.891
N15650 X89.133 Y900.399
N15660 X89.282 Y894.906
N15670 X89.416 Y889.412
N15680 X89.535 Y883.919
N15690 X89.64 Y878.425
N15700 X89.729 Y872.93
N15710 X89.802 Y867.436
N15720 X89.861 Y861.941
N15730 X89.905 Y856.446
N15740 X89.934 Y850.951
N15750 X89.947 Y845.456
N15760 X89.946 Y839.961
N15770 X89.929 Y834.466
N15780 X89.898 Y828.972
N15790 X89.851 Y823.477
N15800 X89.789 Y817.982
N15810 X89.712 Y812.488
N15820 X89.62 Y806.993
N15830 X89.513 Y801.499
N15840 X89.391 Y796.006
N15850 X89.254 Y790.513
N15860 X89.091 Y784.449
N15870 X88.912 Y778.386
N15880 X88.719 Y772.324
N15890 X88.511 Y766.261
N15900 X88.289 Y760.2
N15910 X88.051 Y754.139
N15920 X87.799 Y748.079
N15930 X87.531 Y742.019
N15940 X87.249 Y735.96
N15950 X86.953 Y729.901
N15960 X86.641 Y723.844
N15970 X86.315 Y717.787
N15980 X85.974 Y711.731
N15990 X85.618 Y705.676
N16000 X85.258 Y699.579
N16010 X84.887 Y693.484
N16020 X84.504 Y687.389
N16030 X84.108 Y681.295
N16040 X83.701 Y675.201
N16050 X83.281 Y669.109
N16060 X82.849 Y663.017
N16070 X82.173 Y653.667
N16080 X81.482 Y644.317
N16090 X80.775 Y634.969
N16100 X80.054 Y625.622
N16110 X79.317 Y616.276
N16120 X78.566 Y606.932
N16130 X77.799 Y597.588
N16140 X77.017 Y588.246
N16150 X75.968 Y575.543
N16160 X74.905 Y562.841
N16170 X73.83 Y550.141
N16180 X72.805 Y537.961
N16190 X71.792 Y525.78
N16200 X70.791 Y513.598
N16210 X69.802 Y501.415
N16220 X68.825 Y489.232
N16230 X67.86 Y477.047
N16240 X67.244 Y468.9
N16250 X66.641 Y460.753
N16260 X66.05 Y452.605
N16270 X65.472 Y444.455
N16280 X64.906 Y436.305
N16290 X64.467 Y429.76
N16300 X64.043 Y423.213
N16310 X63.634 Y416.665
N16320 X63.24 Y410.117
N16330 X62.861 Y403.567
N16340 X62.497 Y397.017
N16350 X62.148 Y390.466
N16360 X61.814 Y383.914
N16370 X61.495 Y377.361
N16380 X61.192 Y370.808
N16390 X60.903 Y364.254
N16400 X60.629 Y357.699
N16410 X60.418 Y352.08
N16420 X60.222 Y346.461
N16430 X60.041 Y340.841
N16440 X59.874 Y335.221
N16450 X59.723 Y329.6
N16460 X59.586 Y323.979
N16470 X59.464 Y318.357
N16480 X59.356 Y312.735
N16490 X59.264 Y307.113
N16500 X59.186 Y301.491
N16510 X59.122 Y295.869
N16520 X59.084 Y290.85
N16530 X59.06 Y285.831
N16540 X59.051 Y280.813
N16550 X59.055 Y275.794
N16560 X59.074 Y270.776
N16570 X59.107 Y265.757
N16580 X59.154 Y260.739
N16590 X59.215 Y255.72
N16600 X59.29 Y250.702
N16610 X59.379 Y245.684
N16620 X59.483 Y240.667
N16630 X59.6 Y235.65
N16640 X59.732 Y230.633
N16650 X59.878 Y225.616
N16660 X60.038 Y220.6
N16670 X60.213 Y215.584
N16680 X60.402 Y210.728
N16690 X60.607 Y205.872
N16700 X60.827 Y201.017
N16710 X61.062 Y196.163
N16720 X61.312 Y191.31
N16730 X61.577 Y186.457
N16740 X61.858 Y181.605
N16750 X62.153 Y176.754
N16760 X62.464 Y171.904
N16770 X62.79 Y167.055
N16780 X63.132 Y162.207
N16790 X63.488 Y157.36
N16800 X63.86 Y152.514
N16810 X64.246 Y147.67
N16820 X64.648 Y142.826
N16830 X65.065 Y137.984
N16840 X65.498 Y133.144
N16850 X65.93 Y128.475
N16860 X66.377 Y123.807
N16870 X66.841 Y119.141
N16880 X67.319 Y114.476
N16890 X67.813 Y109.814
N16900 X68.323 Y105.152
N16910 X68.848 Y100.493
N16920 X69.389 Y95.835
N16930 X69.945 Y91.179
N16940 X70.517 Y86.525
N16950 X71.104 Y81.873
N16960 X71.706 Y77.223
N16970 X72.324 Y72.575
N16980 X72.957 Y67.929
N16990 X73.606 Y63.285
N17000 X74.27 Y58.643
N17010 X74.95 Y54.004
N17020 X75.645 Y49.366
N17030 X76.356 Y44.732
N17040 X77.082 Y40.099
N17050 X77.823 Y35.469
N17060 X78.58 Y30.842
N17070 X79.352 Y26.217
N17080 X80.139 Y21.594
N17090 X80.942 Y16.974
N17100 X81.76 Y12.357
N17110 X82.509 Y8.283
N17120 X83.265 Y4.209
N17130 X84.028 Y0.137
N17140 X84.029 Y0.064
N17150 Y0.027
N17160 X84.03 Y0.009
N17170 Y0.
N17180 Y-0.007
N17190 G3 X85.297 Y-1.28 I1.27 J-0.003
N17200 G1 X85.439 Z36.662
N17210 X85.579 Y-1.281 Z36.686
N17220 X85.716 Z36.725
N17230 X85.848 Z36.78
N17240 X85.972 Y-1.282 Z36.849
N17250 X86.089 Z36.931
N17260 X86.195 Z37.026
N17270 X86.29 Z37.132
N17280 X86.372 Y-1.283 Z37.248
N17290 X86.441 Z37.373
N17300 X86.496 Z37.504
N17310 X86.535 Z37.641
N17320 X86.559 Z37.782
N17330 X86.567 Z37.924
N17340 G0 Z44.154
N17350 X45.271 Y-1.563
N17360 Z37.424
N17370 G1 X45.279 Y-1.562 Z37.282 F5000.
N17380 X45.302 Y-1.56 Z37.141
N17390 X45.341 Y-1.555 Z37.004
N17400 X45.396 Y-1.549 Z36.873
N17410 X45.464 Y-1.541 Z36.748
N17420 X45.546 Y-1.531 Z36.632
N17430 X45.64 Y-1.52 Z36.526
N17440 X45.746 Y-1.508 Z36.431
N17450 X45.861 Y-1.494 Z36.349
N17460 X45.985 Y-1.48 Z36.28
N17470 X46.115 Y-1.465 Z36.225
N17480 X46.251 Y-1.449 Z36.186
N17490 X46.391 Y-1.432 Z36.162
N17500 X46.532 Y-1.416 Z36.154
N17510 G3 X47.646 Y-0.007 I-0.147 J1.261
N17520 G1 X46.889 Y6.348
N17530 X46.147 Y12.705
N17540 X45.422 Y19.064
N17550 X44.712 Y25.425
N17560 X44.017 Y31.787
N17570 X43.339 Y38.151
N17580 X42.676 Y44.517
N17590 X42.029 Y50.885
N17600 X41.397 Y57.254
N17610 X40.782 Y63.624
N17620 X40.182 Y69.996
N17630 X39.598 Y76.37
N17640 X39.03 Y82.745
N17650 X38.477 Y89.121
N17660 X37.94 Y95.499
N17670 X37.419 Y101.878
N17680 X36.914 Y108.258
N17690 X36.425 Y114.64
N17700 X35.951 Y121.022
N17710 X35.493 Y127.406
N17720 X35.051 Y133.791
N17730 X34.625 Y140.177
N17740 X34.214 Y146.564
N17750 X33.845 Y152.686
N17760 X33.49 Y158.809
N17770 X33.15 Y164.933
N17780 X32.824 Y171.058
N17790 X32.514 Y177.184
N17800 X32.218 Y183.31
N17810 X31.938 Y189.437
N17820 X31.672 Y195.565
N17830 X31.421 Y201.693
N17840 X31.184 Y207.822
N17850 X30.963 Y213.951
N17860 X30.756 Y220.081
N17870 X30.565 Y226.211
N17880 X30.388 Y232.342
N17890 X30.226 Y238.473
N17900 X30.079 Y244.605
N17910 X29.946 Y250.737
N17920 X29.829 Y256.869
N17930 X29.726 Y263.002
N17940 X29.638 Y269.135
N17950 X29.565 Y275.267
N17960 X29.507 Y281.401
N17970 X29.464 Y287.534
N17980 X29.436 Y293.667
N17990 X29.422 Y299.801
N18000 X29.423 Y305.934
N18010 X29.432 Y312.458
N18020 X29.454 Y318.982
N18030 X29.491 Y325.507
N18040 X29.542 Y332.031
N18050 X29.607 Y338.555
N18060 X29.687 Y345.079
N18070 X29.78 Y351.602
N18080 X29.888 Y358.126
N18090 X30.01 Y364.649
N18100 X30.146 Y371.359
N18110 X30.15 Y371.599
N18120 X30.299 Y378.309
N18130 X30.304 Y378.549
N18140 X30.465 Y385.259
N18150 X30.698 Y394.032
N18160 X30.946 Y402.805
N18170 X31.209 Y411.578
N18180 X31.486 Y420.35
N18190 X31.778 Y429.122
N18200 X32.085 Y437.893
N18210 X32.407 Y446.663
N18220 X32.743 Y455.433
N18230 X33.094 Y464.203
N18240 X33.46 Y472.972
N18250 X33.893 Y483.517
N18260 X34.34 Y494.062
N18270 X34.801 Y504.606
N18280 X35.128 Y512.035
N18290 X36.004 Y531.626
N18300 X36.869 Y551.218
N18310 X37.723 Y570.809
N18320 X38.566 Y590.402
N18330 X38.965 Y600.136
N18340 X39.351 Y609.871
N18350 X39.725 Y619.606
N18360 X40.086 Y629.342
N18370 X40.435 Y639.078
N18380 X40.772 Y648.815
N18390 X41.096 Y658.552
N18400 X41.408 Y668.289
N18410 X41.654 Y676.615
N18420 X41.884 Y684.942
N18430 X42.1 Y693.269
N18440 X42.301 Y701.596
N18450 X42.487 Y709.923
N18460 X42.658 Y718.251
N18470 X42.814 Y726.58
N18480 X42.955 Y734.908
N18490 X43.081 Y743.237
N18500 X43.193 Y751.566
N18510 X43.289 Y759.895
N18520 X43.37 Y768.224
N18530 X43.422 Y776.462
N18540 X43.457 Y784.699
N18550 X43.477 Y792.936
N18560 X43.482 Y801.174
N18570 X43.471 Y809.411
N18580 X43.444 Y817.649
N18590 X43.402 Y825.886
N18600 X43.344 Y834.123
N18610 X43.27 Y842.36
N18620 X43.181 Y850.597
N18630 X43.077 Y858.834
N18640 X42.957 Y867.07
N18650 X42.821 Y875.307
N18660 X42.67 Y883.543
N18670 X42.503 Y891.778
N18680 X42.32 Y900.014
N18690 X42.122 Y908.249
N18700 X41.908 Y916.483
N18710 X41.679 Y924.718
N18720 X41.415 Y933.875
N18730 X41.136 Y943.031
N18740 X40.842 Y952.187
N18750 X40.532 Y961.343
N18760 X40.208 Y970.498
N18770 X39.868 Y979.653
N18780 X39.514 Y988.807
N18790 X39.145 Y997.96
N18800 X38.76 Y1007.113
N18810 X38.36 Y1016.265
N18820 X37.95 Y1025.667
N18830 X37.527 Y1035.069
N18840 X37.089 Y1044.47
N18850 X36.637 Y1053.871
N18860 X36.171 Y1063.271
N18870 X35.692 Y1072.67
N18880 X35.198 Y1082.068
N18890 X34.691 Y1091.466
N18900 X34.169 Y1100.863
N18910 X33.862 Y1106.375
N18920 X33.849 Y1106.615
N18930 X33.836 Y1106.854
N18940 X33.527 Y1112.366
N18950 X33.514 Y1112.606
N18960 X33.501 Y1112.846
N18970 X33.189 Y1118.358
N18980 X33.176 Y1118.597
N18990 X33.163 Y1118.837
N19000 X32.85 Y1124.349
N19010 X32.837 Y1124.589
N19020 X32.823 Y1124.828
N19030 X32.536 Y1129.861
N19040 X32.523 Y1130.101
N19050 X32.51 Y1130.34
N19060 X32.223 Y1135.373
N19070 X32.209 Y1135.613
N19080 X32.196 Y1135.852
N19090 X31.908 Y1140.885
N19100 X30.781 Y1160.822
N19110 X29.669 Y1180.761
N19120 X28.573 Y1200.7
N19130 X27.492 Y1220.639
N19140 X26.426 Y1240.58
N19150 X26.054 Y1247.917
N19160 X25.698 Y1255.255
N19170 X25.357 Y1262.593
N19180 X25.032 Y1269.932
N19190 X24.723 Y1277.272
N19200 X24.43 Y1284.613
N19210 X24.153 Y1291.954
N19220 X23.891 Y1299.295
N19230 X23.706 Y1305.174
N19240 X23.538 Y1311.053
N19250 X23.385 Y1316.933
N19260 X23.249 Y1322.813
N19270 X23.128 Y1328.694
N19280 X23.023 Y1334.575
N19290 X22.934 Y1340.456
N19300 X22.861 Y1346.337
N19310 X22.803 Y1352.218
N19320 X22.762 Y1358.1
N19330 X22.737 Y1363.981
N19340 X22.727 Y1369.863
N19350 X22.733 Y1375.745
N19360 X22.765 Y1380.991
N19370 X22.81 Y1386.238
N19380 X22.87 Y1391.484
N19390 X22.945 Y1396.73
N19400 X23.034 Y1401.976
N19410 X23.137 Y1407.222
N19420 X23.255 Y1412.467
N19430 X23.387 Y1417.712
N19440 X23.534 Y1422.957
N19450 X23.695 Y1428.201
N19460 X23.87 Y1433.445
N19470 X24.06 Y1438.688
N19480 X24.264 Y1443.931
N19490 X24.483 Y1449.173
N19500 X24.716 Y1454.414
N19510 X24.964 Y1459.655
N19520 X25.226 Y1464.895
N19530 X25.529 Y1470.858
N19540 X25.846 Y1476.82
N19550 X26.177 Y1482.781
N19560 X26.523 Y1488.741
N19570 X26.882 Y1494.701
N19580 X27.255 Y1500.66
N19590 X27.643 Y1506.617
N19600 X28.044 Y1512.574
N19610 X28.459 Y1518.53
N19620 X28.889 Y1524.485
N19630 X29.332 Y1530.439
N19640 X29.79 Y1536.392
N19650 X30.261 Y1542.344
N19660 X30.746 Y1548.294
N19670 X31.278 Y1554.744
N19680 X31.824 Y1561.192
N19690 X32.383 Y1567.639
N19700 X32.955 Y1574.085
N19710 X33.541 Y1580.53
N19720 X34.141 Y1586.974
N19730 X34.754 Y1593.416
N19740 X35.381 Y1599.857
N19750 X36.021 Y1606.296
N19760 X36.675 Y1612.735
N19770 X37.342 Y1619.172
N19780 X38.023 Y1625.607
N19790 X38.031 Y1625.74
N19800 X38.024 Y1625.873
N19810 X38.004 Y1626.004
N19820 X37.97 Y1626.133
N19830 X37.923 Y1626.258
N19840 X37.864 Y1626.376
N19850 X37.792 Y1626.488
N19860 X37.709 Y1626.592
N19870 X37.615 Y1626.687
N19880 X37.512 Y1626.771
N19890 X37.401 Y1626.844
N19900 X37.283 Y1626.905
N19910 X37.159 Y1626.953
N19920 X37.031 Y1626.989
N19930 X36.9 Y1627.01
N19940 X36.758 Y1627.026 Z36.162
N19950 X36.619 Y1627.041 Z36.186
N19960 X36.483 Y1627.056 Z36.225
N19970 X36.352 Y1627.071 Z36.28
N19980 X36.228 Y1627.085 Z36.349
N19990 X36.113 Y1627.098 Z36.431
N20000 X36.007 Y1627.109 Z36.526
N20010 X35.913 Y1627.12 Z36.632
N20020 X35.831 Y1627.129 Z36.748
N20030 X35.762 Y1627.137 Z36.873
N20040 X35.708 Y1627.143 Z37.004
N20050 X35.669 Y1627.147 Z37.141
N20060 X35.645 Y1627.15 Z37.282
N20070 X35.637 Y1627.151 Z37.424
N20080 G0 Z44.154
N20090 X78.727 Y1626.884
N20100 Z37.424
N20110 G1 X78.719 Z37.282 F5000.
N20120 X78.695 Z37.141
N20130 X78.656 Y1626.883 Z37.004
N20140 X78.601 Z36.873
N20150 X78.532 Z36.748
N20160 X78.45 Z36.632
N20170 X78.355 Z36.526
N20180 X78.249 Y1626.882 Z36.431
N20190 X78.133 Z36.349
N20200 X78.008 Z36.28
N20210 X77.877 Y1626.881 Z36.225
N20220 X77.74 Z36.186
N20230 X77.599 Z36.162
N20240 X77.457 Y1626.88 Z36.154
N20250 G3 X76.19 Y1625.607 I0.003 J-1.27
N20260 G2 X76.145 Y1625.224 I-1.6 J-0.006
N20270 G1 X75.269 Y1620.82
N20280 X74.406 Y1616.413
N20290 X73.559 Y1612.003
N20300 X72.725 Y1607.591
N20310 X71.907 Y1603.176
N20320 X71.103 Y1598.758
N20330 X70.313 Y1594.338
N20340 X69.538 Y1589.915
N20350 X68.778 Y1585.49
N20360 X68.032 Y1581.062
N20370 X67.3 Y1576.631
N20380 X66.584 Y1572.199
N20390 X65.882 Y1567.763
N20400 X65.194 Y1563.326
N20410 X64.521 Y1558.887
N20420 X63.863 Y1554.445
N20430 X63.219 Y1550.001
N20440 X62.59 Y1545.555
N20450 X61.975 Y1541.107
N20460 X61.419 Y1536.933
N20470 X60.877 Y1532.758
N20480 X60.35 Y1528.581
N20490 X59.838 Y1524.402
N20500 X59.341 Y1520.221
N20510 X58.859 Y1516.038
N20520 X58.391 Y1511.854
N20530 X57.939 Y1507.668
N20540 X57.502 Y1503.48
N20550 X57.079 Y1499.291
N20560 X56.672 Y1495.101
N20570 X56.28 Y1490.909
N20580 X55.902 Y1486.715
N20590 X55.54 Y1482.521
N20600 X55.192 Y1478.325
N20610 X54.86 Y1474.127
N20620 X54.542 Y1469.929
N20630 X54.252 Y1465.813
N20640 X53.978 Y1461.696
N20650 X53.719 Y1457.577
N20660 X53.476 Y1453.458
N20670 X53.249 Y1449.338
N20680 X53.037 Y1445.217
N20690 X52.84 Y1441.095
N20700 X52.66 Y1436.973
N20710 X52.495 Y1432.85
N20720 X52.345 Y1428.726
N20730 X52.212 Y1424.602
N20740 X52.094 Y1420.477
N20750 X51.991 Y1416.352
N20760 X51.904 Y1412.226
N20770 X51.833 Y1408.1
N20780 X51.778 Y1403.974
N20790 X51.738 Y1399.848
N20800 X51.714 Y1395.722
N20810 X51.705 Y1391.595
N20820 X51.712 Y1387.469
N20830 X51.735 Y1383.343
N20840 X51.773 Y1379.216
N20850 X51.827 Y1375.09
N20860 X51.897 Y1370.964
N20870 X51.982 Y1366.839
N20880 X52.083 Y1362.714
N20890 X52.2 Y1358.589
N20900 X52.332 Y1354.465
N20910 X52.48 Y1350.341
N20920 X52.643 Y1346.218
N20930 X52.822 Y1342.095
N20940 X53.017 Y1337.973
N20950 X53.227 Y1333.852
N20960 X53.453 Y1329.732
N20970 X53.719 Y1325.087
N20980 X53.999 Y1320.442
N20990 X54.294 Y1315.798
N21000 X54.604 Y1311.155
N21010 X54.928 Y1306.514
N21020 X55.266 Y1301.873
N21030 X55.619 Y1297.233
N21040 X55.987 Y1292.594
N21050 X56.369 Y1287.957
N21060 X56.765 Y1283.321
N21070 X57.176 Y1278.686
N21080 X57.697 Y1272.928
N21090 X58.231 Y1267.172
N21100 X58.78 Y1261.416
N21110 X59.342 Y1255.663
N21120 X59.919 Y1249.91
N21130 X60.509 Y1244.159
N21140 X61.113 Y1238.409
N21150 X61.732 Y1232.661
N21160 X62.364 Y1226.915
N21170 X63.01 Y1221.17
N21180 X63.81 Y1214.079
N21190 X64.621 Y1206.989
N21200 X65.444 Y1199.901
N21210 X66.279 Y1192.814
N21220 X67.125 Y1185.728
N21230 X67.984 Y1178.644
N21240 X68.854 Y1171.562
N21250 X70.598 Y1157.024
N21260 X72.332 Y1142.485
N21270 X74.057 Y1127.945
N21280 X75.014 Y1119.712
N21290 X75.958 Y1111.478
N21300 X76.887 Y1103.242
N21310 X77.803 Y1095.005
N21320 X78.704 Y1086.766
N21330 X79.591 Y1078.525
N21340 X80.464 Y1070.283
N21350 X81.324 Y1062.04
N21360 X81.995 Y1055.395
N21370 X82.651 Y1048.748
N21380 X83.292 Y1042.1
N21390 X83.918 Y1035.45
N21400 X84.528 Y1028.799
N21410 X85.123 Y1022.146
N21420 X85.703 Y1015.492
N21430 X86.268 Y1008.837
N21440 X86.709 Y1003.37
N21450 X87.136 Y997.902
N21460 X87.55 Y992.433
N21470 X87.949 Y986.964
N21480 X88.335 Y981.493
N21490 X88.707 Y976.021
N21500 X89.065 Y970.548
N21510 X89.409 Y965.074
N21520 X89.74 Y959.6
N21530 X90.056 Y954.125
N21540 X90.359 Y948.648
N21550 X90.648 Y943.172
N21560 X90.914 Y937.762
N21570 X91.164 Y932.352
N21580 X91.399 Y926.941
N21590 X91.618 Y921.529
N21600 X91.822 Y916.117
N21610 X92.011 Y910.704
N21620 X92.184 Y905.29
N21630 X92.342 Y899.877
N21640 X92.484 Y894.462
N21650 X92.612 Y889.048
N21660 X92.723 Y883.633
N21670 X92.819 Y878.218
N21680 X92.9 Y872.802
N21690 X92.966 Y867.386
N21700 X93.016 Y861.971
N21710 X93.05 Y856.555
N21720 X93.069 Y851.138
N21730 X93.073 Y845.722
N21740 X93.062 Y840.306
N21750 X93.035 Y834.89
N21760 X92.992 Y829.474
N21770 X92.934 Y824.058
N21780 X92.861 Y818.643
N21790 X92.773 Y813.227
N21800 X92.669 Y807.812
N21810 X92.549 Y802.398
N21820 X92.414 Y796.983
N21830 X92.26 Y791.191
N21840 X92.091 Y785.4
N21850 X91.907 Y779.609
N21860 X91.71 Y773.819
N21870 X91.498 Y768.029
N21880 X91.272 Y762.24
N21890 X91.031 Y756.451
N21900 X90.776 Y750.663
N21910 X90.507 Y744.875
N21920 X90.223 Y739.088
N21930 X89.926 Y733.302
N21940 X89.613 Y727.517
N21950 X89.287 Y721.732
N21960 X88.885 Y714.778
N21970 X88.469 Y707.825
N21980 X88.038 Y700.872
N21990 X87.591 Y693.921
N22000 X87.13 Y686.97
N22010 X86.654 Y680.021
N22020 X86.162 Y673.072
N22030 X85.656 Y666.125
N22040 X85.135 Y659.178
N22050 X84.599 Y652.233
N22060 X83.923 Y643.483
N22070 X83.234 Y634.734
N22080 X82.53 Y625.986
N22090 X81.813 Y617.239
N22100 X81.081 Y608.493
N22110 X80.336 Y599.749
N22120 X78.302 Y576.022
N22130 X76.252 Y552.297
N22140 X74.186 Y528.572
N22150 X73.521 Y520.663
N22160 X72.849 Y512.754
N22170 X72.307 Y506.284
N22180 X71.608 Y497.954
N22190 X70.923 Y489.622
N22200 X70.253 Y481.29
N22210 X69.596 Y472.956
N22220 X68.952 Y464.622
N22230 X68.323 Y456.286
N22240 X67.707 Y447.949
N22250 X67.106 Y439.612
N22260 X66.518 Y431.273
N22270 X66.082 Y424.736
N22280 X65.66 Y418.199
N22290 X65.252 Y411.66
N22300 X64.857 Y405.121
N22310 X64.476 Y398.581
N22320 X64.109 Y392.04
N22330 X63.755 Y385.499
N22340 X63.413 Y378.788
N22350 X63.401 Y378.549
N22360 X63.077 Y371.838
N22370 X63.066 Y371.599
N22380 X62.762 Y364.889
N22390 X62.522 Y359.366
N22400 X62.296 Y353.843
N22410 X62.086 Y348.319
N22420 X61.892 Y342.794
N22430 X61.712 Y337.269
N22440 X61.548 Y331.744
N22450 X61.399 Y326.218
N22460 X61.265 Y320.692
N22470 X61.146 Y315.165
N22480 X61.043 Y309.638
N22490 X60.955 Y304.111
N22500 X60.882 Y298.583
N22510 X60.825 Y293.056
N22520 X60.783 Y287.528
N22530 X60.756 Y282.
N22540 X60.744 Y276.472
N22550 X60.747 Y270.945
N22560 X60.771 Y265.925
N22570 X60.809 Y260.905
N22580 X60.863 Y255.885
N22590 X60.931 Y250.865
N22600 X61.015 Y245.846
N22610 X61.113 Y240.827
N22620 X61.227 Y235.808
N22630 X61.355 Y230.789
N22640 X61.499 Y225.771
N22650 X61.658 Y220.754
N22660 X61.832 Y215.737
N22670 X62.02 Y210.72
N22680 X62.224 Y205.704
N22690 X62.443 Y200.689
N22700 X62.677 Y195.674
N22710 X62.926 Y190.66
N22720 X63.181 Y185.92
N22730 X63.452 Y181.181
N22740 X63.738 Y176.443
N22750 X64.039 Y171.705
N22760 X64.356 Y166.969
N22770 X64.687 Y162.234
N22780 X65.034 Y157.5
N22790 X65.396 Y152.767
N22800 X65.773 Y148.035
N22810 X66.166 Y143.304
N22820 X66.573 Y138.575
N22830 X66.996 Y133.847
N22840 X67.434 Y129.12
N22850 X67.887 Y124.395
N22860 X68.356 Y119.671
N22870 X68.839 Y114.949
N22880 X69.338 Y110.228
N22890 X69.852 Y105.509
N22900 X70.381 Y100.792
N22910 X70.925 Y96.076
N22920 X71.484 Y91.362
N22930 X72.058 Y86.65
N22940 X72.637 Y82.076
N22950 X73.231 Y77.504
N22960 X73.841 Y72.934
N22970 X74.466 Y68.366
N22980 X75.108 Y63.8
N22990 X75.765 Y59.236
N23000 X76.437 Y54.675
N23010 X77.126 Y50.116
N23020 X77.83 Y45.56
N23030 X78.549 Y41.006
N23040 X79.285 Y36.454
N23050 X80.036 Y31.905
N23060 X80.802 Y27.358
N23070 X81.585 Y22.815
N23080 X82.383 Y18.274
N23090 X83.196 Y13.735
N23100 X84.025 Y9.2
N23110 X84.87 Y4.667
N23120 X85.73 Y0.138
N23130 X85.729 Y0.064
N23140 X85.73 Y0.027
N23150 Y0.009
N23160 Y0.
N23170 Y-0.007
N23180 G3 X86.997 Y-1.28 I1.27 J-0.002
N23190 G1 X87.14 Z36.162
N23200 X87.28 Z36.186
N23210 X87.417 Z36.225
N23220 X87.548 Y-1.281 Z36.28
N23230 X87.673 Z36.349
N23240 X87.789 Z36.431
N23250 X87.895 Z36.526
N23260 X87.99 Y-1.282 Z36.632
N23270 X88.073 Z36.748
N23280 X88.142 Z36.873
N23290 X88.196 Z37.004
N23300 X88.236 Z37.141
N23310 X88.259 Z37.282
N23320 X88.267 Z37.424
N23330 G0 Z44.154
N23340 X41.873 Y-1.545
N23350 Z36.924
N23360 G1 X41.881 Y-1.544 Z36.782 F5000.
N23370 X41.904 Y-1.542 Z36.641
N23380 X41.944 Y-1.538 Z36.504
N23390 X41.998 Y-1.532 Z36.373
N23400 X42.066 Y-1.524 Z36.248
N23410 X42.148 Y-1.515 Z36.132
N23420 X42.243 Y-1.505 Z36.026
N23430 X42.348 Y-1.493 Z35.931
N23440 X42.464 Y-1.481 Z35.849
N23450 X42.587 Y-1.467 Z35.78
N23460 X42.718 Y-1.453 Z35.725
N23470 X42.854 Y-1.438 Z35.686
N23480 X42.994 Y-1.423 Z35.662
N23490 X43.135 Y-1.408 Z35.654
N23500 G3 X44.26 Y-0.007 I-0.138 J1.262
N23510 G1 X43.472 Y7.112
N23520 X42.7 Y14.233
N23530 X41.944 Y21.355
N23540 X41.203 Y28.479
N23550 X40.477 Y35.605
N23560 X39.849 Y41.949
N23570 X39.236 Y48.295
N23580 X38.637 Y54.642
N23590 X38.053 Y60.99
N23600 X37.484 Y67.34
N23610 X36.93 Y73.691
N23620 X36.391 Y80.044
N23630 X35.867 Y86.397
N23640 X35.357 Y92.752
N23650 X34.862 Y99.108
N23660 X34.382 Y105.465
N23670 X33.917 Y111.824
N23680 X33.466 Y118.183
N23690 X33.03 Y124.543
N23700 X32.61 Y130.905
N23710 X32.204 Y137.267
N23720 X31.812 Y143.63
N23730 X31.436 Y149.994
N23740 X31.074 Y156.359
N23750 X30.728 Y162.725
N23760 X30.396 Y169.092
N23770 X30.082 Y175.547
N23780 X29.784 Y182.002
N23790 X29.502 Y188.459
N23800 X29.234 Y194.916
N23810 X28.982 Y201.374
N23820 X28.745 Y207.832
N23830 X28.524 Y214.291
N23840 X28.317 Y220.75
N23850 X28.126 Y227.21
N23860 X27.951 Y233.67
N23870 X27.79 Y240.131
N23880 X27.645 Y246.592
N23890 X27.515 Y253.053
N23900 X27.401 Y259.515
N23910 X27.302 Y265.977
N23920 X27.218 Y272.439
N23930 X27.149 Y278.901
N23940 X27.096 Y285.364
N23950 X27.058 Y291.826
N23960 X27.035 Y298.289
N23970 X27.028 Y304.752
N23980 X27.036 Y311.214
N23990 X27.059 Y317.677
N24000 X27.094 Y324.788
N24010 X27.143 Y331.898
N24020 X27.206 Y339.009
N24030 X27.284 Y346.119
N24040 X27.377 Y353.229
N24050 X27.484 Y360.339
N24060 X27.606 Y367.449
N24070 X27.742 Y374.558
N24080 X27.893 Y381.668
N24090 X28.059 Y388.776
N24100 X28.239 Y395.885
N24110 X28.434 Y402.993
N24120 X28.666 Y411.416
N24130 X28.911 Y419.839
N24140 X29.169 Y428.262
N24150 X29.441 Y436.684
N24160 X29.726 Y445.106
N24170 X30.025 Y453.527
N24180 X30.337 Y461.948
N24190 X30.805 Y474.371
N24200 X31.285 Y486.794
N24210 X31.777 Y499.216
N24220 X32.279 Y511.638
N24230 X32.793 Y524.059
N24240 X33.319 Y536.48
N24250 X34.282 Y560.205
N24260 X35.231 Y583.931
N24270 X35.638 Y594.474
N24280 X36.03 Y605.018
N24290 X36.409 Y615.562
N24300 X36.774 Y626.106
N24310 X37.126 Y636.651
N24320 X37.463 Y647.197
N24330 X37.787 Y657.743
N24340 X38.097 Y668.289
N24350 X38.337 Y677.288
N24360 X38.561 Y686.287
N24370 X38.769 Y695.287
N24380 X38.962 Y704.287
N24390 X39.139 Y713.288
N24400 X39.301 Y722.288
N24410 X39.447 Y731.289
N24420 X39.577 Y740.29
N24430 X39.691 Y749.292
N24440 X39.771 Y757.604
N24450 X39.836 Y765.917
N24460 X39.886 Y774.229
N24470 X39.92 Y782.542
N24480 X39.94 Y790.855
N24490 X39.945 Y799.168
N24500 X39.934 Y807.48
N24510 X39.909 Y815.793
N24520 X39.869 Y824.106
N24530 X39.813 Y832.418
N24540 X39.742 Y840.731
N24550 X39.657 Y849.043
N24560 X39.556 Y857.355
N24570 X39.441 Y865.667
N24580 X39.31 Y873.979
N24590 X39.164 Y882.29
N24600 X39.003 Y890.602
N24610 X38.827 Y898.912
N24620 X38.636 Y907.223
N24630 X38.43 Y915.985
N24640 X38.21 Y924.747
N24650 X37.976 Y933.509
N24660 X37.727 Y942.27
N24670 X37.464 Y951.031
N24680 X37.187 Y959.791
N24690 X36.896 Y968.551
N24700 X36.591 Y977.31
N24710 X36.271 Y986.069
N24720 X35.895 Y996.357
N24730 X35.504 Y1006.645
N24740 X35.098 Y1016.933
N24750 X34.678 Y1027.219
N24760 X34.243 Y1037.506
N24770 X33.793 Y1047.791
N24780 X33.328 Y1058.076
N24790 X32.849 Y1068.36
N24800 X32.355 Y1078.644
N24810 X31.846 Y1088.927
N24820 X31.323 Y1099.209
N24830 X30.785 Y1109.49
N24840 X29.438 Y1135.373
N24850 X28.077 Y1161.255
N24860 X28.021 Y1162.454
N24870 X26.783 Y1186.82
N24880 X25.552 Y1211.186
N24890 X24.328 Y1235.552
N24900 X23.957 Y1243.321
N24910 X23.601 Y1251.091
N24920 X23.26 Y1258.861
N24930 X22.933 Y1266.632
N24940 X22.622 Y1274.404
N24950 X22.325 Y1282.176
N24960 X22.042 Y1289.949
N24970 X21.843 Y1296.041
N24980 X21.66 Y1302.133
N24990 X21.493 Y1308.226
N25000 X21.342 Y1314.319
N25010 X21.207 Y1320.413
N25020 X21.087 Y1326.507
N25030 X20.984 Y1332.601
N25040 X20.897 Y1338.696
N25050 X20.825 Y1344.79
N25060 X20.769 Y1350.885
N25070 X20.73 Y1356.98
N25080 X20.706 Y1363.075
N25090 X20.698 Y1369.17
N25100 X20.707 Y1375.266
N25110 X20.741 Y1380.9
N25120 X20.791 Y1386.534
N25130 X20.857 Y1392.168
N25140 X20.938 Y1397.802
N25150 X21.035 Y1403.435
N25160 X21.148 Y1409.068
N25170 X21.276 Y1414.701
N25180 X21.42 Y1420.334
N25190 X21.579 Y1425.966
N25200 X21.754 Y1431.597
N25210 X21.944 Y1437.228
N25220 X22.15 Y1442.859
N25230 X22.372 Y1448.489
N25240 X22.609 Y1454.118
N25250 X22.862 Y1459.747
N25260 X23.131 Y1465.375
N25270 X23.442 Y1471.817
N25280 X23.769 Y1478.258
N25290 X24.111 Y1484.699
N25300 X24.468 Y1491.138
N25310 X24.839 Y1497.577
N25320 X25.225 Y1504.015
N25330 X25.627 Y1510.452
N25340 X26.043 Y1516.889
N25350 X26.474 Y1523.324
N25360 X26.92 Y1529.758
N25370 X27.38 Y1536.191
N25380 X27.856 Y1542.623
N25390 X28.347 Y1549.054
N25400 X28.852 Y1555.484
N25410 X29.283 Y1560.998
N25420 X29.725 Y1566.511
N25430 X30.18 Y1572.023
N25440 X30.646 Y1577.534
N25450 X31.123 Y1583.044
N25460 X31.745 Y1590.142
N25470 X32.381 Y1597.237
N25480 X33.032 Y1604.332
N25490 X33.698 Y1611.425
N25500 X34.378 Y1618.517
N25510 X35.073 Y1625.607
N25520 G3 X33.939 Y1627. I-1.263 J0.129
N25530 G1 X33.797 Y1627.014 Z35.662
N25540 X33.657 Y1627.029 Z35.686
N25550 X33.521 Y1627.043 Z35.725
N25560 X33.39 Y1627.056 Z35.78
N25570 X33.266 Y1627.069 Z35.849
N25580 X33.151 Y1627.08 Z35.931
N25590 X33.045 Y1627.091 Z36.026
N25600 X32.951 Y1627.101 Z36.132
N25610 X32.869 Y1627.109 Z36.248
N25620 X32.8 Y1627.116 Z36.373
N25630 X32.746 Y1627.122 Z36.504
N25640 X32.707 Y1627.126 Z36.641
N25650 X32.683 Y1627.128 Z36.782
N25660 X32.675 Y1627.129 Z36.924
N25670 G0 Z44.154
N25680 X80.645 Y1626.883
N25690 Z36.924
N25700 G1 X80.637 Z36.782 F5000.
N25710 X80.614 Z36.641
N25720 X80.574 Z36.504
N25730 X80.52 Z36.373
N25740 X80.451 Z36.248
N25750 X80.368 Y1626.882 Z36.132
N25760 X80.273 Z36.026
N25770 X80.167 Z35.931
N25780 X80.051 Z35.849
N25790 X79.926 Y1626.881 Z35.78
N25800 X79.795 Z35.725
N25810 X79.658 Z35.686
N25820 X79.518 Y1626.88 Z35.662
N25830 X79.375 Z35.654
N25840 G3 X78.108 Y1625.607 I0.003 J-1.27
N25850 G2 X78.066 Y1625.224 I-1.724 J-0.005
N25860 G1 X77.163 Y1620.779
N25870 X76.274 Y1616.331
N25880 X75.399 Y1611.88
N25890 X74.539 Y1607.426
N25900 X73.693 Y1602.97
N25910 X72.861 Y1598.511
N25920 X72.043 Y1594.049
N25930 X71.24 Y1589.585
N25940 X70.45 Y1585.118
N25950 X69.676 Y1580.649
N25960 X68.955 Y1576.393
N25970 X68.25 Y1572.135
N25980 X67.56 Y1567.875
N25990 X66.886 Y1563.611
N26000 X66.227 Y1559.346
N26010 X65.583 Y1555.078
N26020 X64.955 Y1550.808
N26030 X64.342 Y1546.535
N26040 X63.744 Y1542.261
N26050 X63.162 Y1537.984
N26060 X62.595 Y1533.705
N26070 X62.043 Y1529.424
N26080 X61.507 Y1525.141
N26090 X60.986 Y1520.857
N26100 X60.48 Y1516.57
N26110 X59.99 Y1512.282
N26120 X59.516 Y1507.992
N26130 X59.057 Y1503.7
N26140 X58.613 Y1499.407
N26150 X58.214 Y1495.327
N26160 X57.83 Y1491.245
N26170 X57.462 Y1487.162
N26180 X57.109 Y1483.078
N26190 X56.771 Y1478.992
N26200 X56.449 Y1474.905
N26210 X56.142 Y1470.817
N26220 X55.851 Y1466.728
N26230 X55.575 Y1462.638
N26240 X55.314 Y1458.546
N26250 X55.069 Y1454.454
N26260 X54.839 Y1450.361
N26270 X54.625 Y1446.267
N26280 X54.426 Y1442.172
N26290 X54.242 Y1438.077
N26300 X54.074 Y1433.981
N26310 X53.925 Y1429.88
N26320 X53.792 Y1425.778
N26330 X53.675 Y1421.676
N26340 X53.574 Y1417.574
N26350 X53.488 Y1413.471
N26360 X53.418 Y1409.368
N26370 X53.364 Y1405.264
N26380 X53.325 Y1401.161
N26390 X53.302 Y1397.057
N26400 X53.295 Y1392.953
N26410 X53.304 Y1388.85
N26420 X53.328 Y1384.746
N26430 X53.369 Y1380.643
N26440 X53.424 Y1376.539
N26450 X53.496 Y1372.436
N26460 X53.584 Y1368.333
N26470 X53.687 Y1364.231
N26480 X53.806 Y1360.129
N26490 X53.94 Y1356.027
N26500 X54.091 Y1351.926
N26510 X54.257 Y1347.826
N26520 X54.439 Y1343.726
N26530 X54.636 Y1339.627
N26540 X54.85 Y1335.529
N26550 X55.079 Y1331.432
N26560 X55.323 Y1327.336
N26570 X55.608 Y1322.698
N26580 X55.907 Y1318.061
N26590 X56.222 Y1313.426
N26600 X56.553 Y1308.791
N26610 X56.898 Y1304.158
N26620 X57.259 Y1299.525
N26630 X57.635 Y1294.894
N26640 X58.027 Y1290.264
N26650 X58.433 Y1285.636
N26660 X58.936 Y1280.052
N26670 X59.453 Y1274.469
N26680 X59.984 Y1268.887
N26690 X60.529 Y1263.307
N26700 X61.088 Y1257.728
N26710 X61.661 Y1252.15
N26720 X62.249 Y1246.574
N26730 X62.85 Y1241.
N26740 X63.466 Y1235.427
N26750 X64.095 Y1229.855
N26760 X64.739 Y1224.285
N26770 X65.562 Y1217.159
N26780 X66.399 Y1210.035
N26790 X67.249 Y1202.912
N26800 X68.113 Y1195.791
N26810 X68.989 Y1188.672
N26820 X69.879 Y1181.554
N26830 X70.783 Y1174.438
N26840 X72.808 Y1158.141
N26850 X74.825 Y1141.844
N26860 X75.471 Y1136.571
N26870 X75.5 Y1136.332
N26880 X76.141 Y1131.059
N26890 X76.778 Y1125.787
N26900 X76.807 Y1125.547
N26910 X77.497 Y1119.796
N26920 X77.525 Y1119.556
N26930 X78.208 Y1113.804
N26940 X78.237 Y1113.565
N26950 X78.885 Y1108.052
N26960 X78.913 Y1107.813
N26970 X78.941 Y1107.573
N26980 X79.582 Y1102.061
N26990 X80.385 Y1095.119
N27000 X81.174 Y1088.175
N27010 X81.949 Y1081.23
N27020 X82.709 Y1074.283
N27030 X83.455 Y1067.334
N27040 X84.186 Y1060.384
N27050 X84.904 Y1053.433
N27060 X85.607 Y1046.48
N27070 X86.296 Y1039.526
N27080 X86.97 Y1032.57
N27090 X87.63 Y1025.613
N27100 X88.136 Y1020.04
N27110 X88.627 Y1014.466
N27120 X89.102 Y1008.89
N27130 X89.563 Y1003.313
N27140 X90.009 Y997.735
N27150 X90.44 Y992.156
N27160 X90.856 Y986.576
N27170 X91.257 Y980.994
N27180 X91.644 Y975.412
N27190 X92.015 Y969.829
N27200 X92.371 Y964.244
N27210 X92.713 Y958.659
N27220 X93.039 Y953.073
N27230 X93.351 Y947.485
N27240 X93.628 Y942.13
N27250 X93.89 Y936.773
N27260 X94.135 Y931.416
N27270 X94.365 Y926.057
N27280 X94.58 Y920.699
N27290 X94.778 Y915.339
N27300 X94.961 Y909.979
N27310 X95.128 Y904.619
N27320 X95.279 Y899.258
N27330 X95.415 Y893.897
N27340 X95.534 Y888.535
N27350 X95.638 Y883.173
N27360 X95.726 Y877.811
N27370 X95.799 Y872.448
N27380 X95.855 Y867.085
N27390 X95.896 Y861.723
N27400 X95.921 Y856.36
N27410 X95.931 Y850.997
N27420 X95.924 Y845.634
N27430 X95.902 Y840.271
N27440 X95.864 Y834.908
N27450 X95.81 Y829.545
N27460 X95.741 Y824.182
N27470 X95.655 Y818.82
N27480 X95.554 Y813.458
N27490 X95.437 Y808.096
N27500 X95.305 Y802.735
N27510 X95.161 Y797.286
N27520 X95.003 Y791.837
N27530 X94.832 Y786.389
N27540 X94.648 Y780.941
N27550 X94.451 Y775.494
N27560 X94.239 Y770.047
N27570 X94.015 Y764.601
N27580 X93.777 Y759.155
N27590 X93.526 Y753.71
N27600 X93.261 Y748.265
N27610 X92.982 Y742.821
N27620 X92.717 Y737.789
N27630 X92.367 Y731.412
N27640 X92.002 Y725.036
N27650 X91.622 Y718.662
N27660 X91.228 Y712.288
N27670 X90.819 Y705.915
N27680 X90.486 Y700.882
N27690 X90.47 Y700.642
N27700 X90.129 Y695.61
N27710 X90.113 Y695.37
N27720 X89.752 Y690.158
N27730 X89.747 Y690.098
N27740 X89.39 Y685.065
N27750 X89.373 Y684.825
N27760 X88.991 Y679.553
N27770 X88.973 Y679.313
N27780 X88.583 Y674.041
N27790 X88.565 Y673.801
N27800 X88.186 Y668.769
N27810 X88.168 Y668.529
N27820 X87.763 Y663.257
N27830 X87.745 Y663.017
N27840 X87.352 Y657.984
N27850 X87.333 Y657.745
N27860 X87.314 Y657.505
N27870 X86.915 Y652.472
N27880 X86.453 Y646.72
N27890 X86.042 Y641.688
N27900 X85.136 Y630.837
N27910 X84.217 Y619.987
N27920 X83.286 Y609.138
N27930 X82.343 Y598.29
N27940 X81.387 Y587.444
N27950 X80.419 Y576.598
N27960 X79.439 Y565.754
N27970 X77.801 Y547.37
N27980 X76.178 Y528.984
N27990 X74.569 Y510.598
N28000 X74.092 Y505.086
N28010 X73.379 Y496.782
N28020 X72.681 Y488.478
N28030 X71.996 Y480.172
N28040 X71.326 Y471.865
N28050 X70.67 Y463.557
N28060 X70.029 Y455.248
N28070 X69.401 Y446.938
N28080 X68.788 Y438.627
N28090 X68.189 Y430.315
N28100 X67.736 Y423.718
N28110 X67.299 Y417.12
N28120 X66.877 Y410.521
N28130 X66.471 Y403.922
N28140 X66.08 Y397.321
N28150 X65.705 Y390.719
N28160 X65.345 Y384.117
N28170 X65.001 Y377.514
N28180 X64.672 Y370.91
N28190 X64.359 Y364.305
N28200 X64.062 Y357.699
N28210 X63.833 Y352.116
N28220 X63.619 Y346.533
N28230 X63.42 Y340.948
N28240 X63.237 Y335.364
N28250 X63.068 Y329.778
N28260 X62.915 Y324.193
N28270 X62.778 Y318.607
N28280 X62.655 Y313.02
N28290 X62.547 Y307.433
N28300 X62.455 Y301.846
N28310 X62.378 Y296.259
N28320 X62.316 Y290.672
N28330 X62.269 Y285.084
N28340 X62.245 Y279.87
N28350 X62.237 Y274.656
N28360 X62.246 Y269.443
N28370 X62.27 Y264.229
N28380 X62.31 Y259.015
N28390 X62.366 Y253.801
N28400 X62.438 Y248.588
N28410 X62.526 Y243.375
N28420 X62.63 Y238.162
N28430 X62.75 Y232.95
N28440 X62.886 Y227.737
N28450 X63.038 Y222.526
N28460 X63.205 Y217.315
N28470 X63.389 Y212.104
N28480 X63.589 Y206.894
N28490 X63.805 Y201.684
N28500 X64.028 Y196.83
N28510 X64.267 Y191.976
N28520 X64.521 Y187.123
N28530 X64.792 Y182.271
N28540 X65.079 Y177.42
N28550 X65.382 Y172.57
N28560 X65.7 Y167.721
N28570 X66.035 Y162.873
N28580 X66.385 Y158.026
N28590 X66.752 Y153.18
N28600 X67.134 Y148.336
N28610 X67.533 Y143.492
N28620 X67.947 Y138.65
N28630 X68.377 Y133.81
N28640 X68.823 Y128.971
N28650 X69.285 Y124.133
N28660 X69.763 Y119.297
N28670 X70.257 Y114.463
N28680 X70.767 Y109.63
N28690 X71.293 Y104.799
N28700 X71.801 Y100.296
N28710 X72.326 Y95.795
N28720 X72.865 Y91.296
N28730 X73.42 Y86.798
N28740 X73.99 Y82.303
N28750 X74.576 Y77.809
N28760 X75.177 Y73.318
N28770 X75.794 Y68.828
N28780 X76.426 Y64.341
N28790 X77.073 Y59.856
N28800 X77.736 Y55.373
N28810 X78.414 Y50.893
N28820 X79.107 Y46.414
N28830 X79.816 Y41.939
N28840 X80.54 Y37.465
N28850 X81.28 Y32.995
N28860 X82.034 Y28.526
N28870 X82.805 Y24.061
N28880 X83.59 Y19.598
N28890 X84.391 Y15.138
N28900 X85.207 Y10.68
N28910 X85.855 Y7.244
N28920 X86.511 Y3.809
N28930 X87.173 Y0.376
N28940 G2 X87.209 Y-0.007 I-1.967 J-0.375
N28950 G3 X88.477 Y-1.279 I1.27 J-0.002
N28960 G1 X88.619 Y-1.28 Z35.662
N28970 X88.759 Z35.686
N28980 X88.896 Z35.725
N28990 X89.028 Z35.78
N29000 X89.152 Y-1.281 Z35.849
N29010 X89.269 Z35.931
N29020 X89.375 Z36.026
N29030 X89.47 Z36.132
N29040 X89.552 Z36.248
N29050 X89.621 Z36.373
N29060 X89.675 Y-1.282 Z36.504
N29070 X89.715 Z36.641
N29080 X89.739 Z36.782
N29090 X89.747 Z36.924
N29100 G0 Z44.154
N29110 X38.757 Y-1.518
N29120 Z36.424
N29130 G1 X38.765 Z36.282 F5000.
N29140 X38.788 Y-1.515 Z36.141
N29150 X38.828 Y-1.512 Z36.004
N29160 X38.882 Y-1.506 Z35.873
N29170 X38.95 Y-1.499 Z35.748
N29180 X39.032 Y-1.491 Z35.632
N29190 X39.127 Y-1.482 Z35.526
N29200 X39.233 Y-1.472 Z35.431
N29210 X39.348 Y-1.461 Z35.349
N29220 X39.472 Y-1.448 Z35.28
N29230 X39.603 Y-1.436 Z35.225
N29240 X39.739 Y-1.422 Z35.186
N29250 X39.879 Y-1.409 Z35.162
N29260 X40.021 Y-1.395 Z35.154
N29270 G3 X41.161 Y-0.007 I-0.124 J1.264
N29280 G1 X40.463 Y6.737
N29290 X39.776 Y13.483
N29300 X39.099 Y20.23
N29310 X38.433 Y26.977
N29320 X37.806 Y33.516
N29330 X37.194 Y40.056
N29340 X36.597 Y46.598
N29350 X36.014 Y53.141
N29360 X35.445 Y59.685
N29370 X34.891 Y66.23
N29380 X34.352 Y72.777
N29390 X33.827 Y79.325
N29400 X33.316 Y85.873
N29410 X32.821 Y92.424
N29420 X32.339 Y98.975
N29430 X31.873 Y105.527
N29440 X31.42 Y112.08
N29450 X30.983 Y118.634
N29460 X30.56 Y125.189
N29470 X30.151 Y131.745
N29480 X29.757 Y138.302
N29490 X29.378 Y144.86
N29500 X29.013 Y151.419
N29510 X28.663 Y157.978
N29520 X28.327 Y164.538
N29530 X28.006 Y171.275
N29540 X27.701 Y178.012
N29550 X27.411 Y184.749
N29560 X27.137 Y191.488
N29570 X26.879 Y198.227
N29580 X26.636 Y204.967
N29590 X26.409 Y211.707
N29600 X26.198 Y218.447
N29610 X26.002 Y225.189
N29620 X25.822 Y231.93
N29630 X25.658 Y238.672
N29640 X25.51 Y245.415
N29650 X25.377 Y252.157
N29660 X25.26 Y258.9
N29670 X25.158 Y265.643
N29680 X25.072 Y272.387
N29690 X25.002 Y279.131
N29700 X24.948 Y285.874
N29710 X24.909 Y292.618
N29720 X24.886 Y299.362
N29730 X24.878 Y306.106
N29740 X24.886 Y312.85
N29750 X24.91 Y319.594
N29760 X24.936 Y326.031
N29770 X24.975 Y332.467
N29780 X25.026 Y338.904
N29790 X25.09 Y345.34
N29800 X25.166 Y351.777
N29810 X25.255 Y358.213
N29820 X25.357 Y364.649
N29830 X25.45 Y370.161
N29840 X25.454 Y370.401
N29850 X25.476 Y371.599
N29860 X25.578 Y377.111
N29870 X25.583 Y377.35
N29880 X25.606 Y378.549
N29890 X25.718 Y384.061
N29900 X25.918 Y392.977
N29910 X26.132 Y401.894
N29920 X26.359 Y410.81
N29930 X26.6 Y419.726
N29940 X26.854 Y428.641
N29950 X27.121 Y437.556
N29960 X27.402 Y446.47
N29970 X27.697 Y455.385
N29980 X28.004 Y464.298
N29990 X28.325 Y473.211
N30000 X28.694 Y483.677
N30010 X29.076 Y494.142
N30020 X29.472 Y504.606
N30030 X29.743 Y511.796
N30040 X30.501 Y531.447
N30050 X31.248 Y551.098
N30060 X31.983 Y570.75
N30070 X32.708 Y590.402
N30080 X33.061 Y600.61
N30090 X33.403 Y610.819
N30100 X33.736 Y621.029
N30110 X34.058 Y631.238
N30120 X34.369 Y641.448
N30130 X34.516 Y646.481
N30140 X34.523 Y646.72
N30150 X34.672 Y651.993
N30160 X34.679 Y652.232
N30170 X34.817 Y657.265
N30180 X34.823 Y657.505
N30190 X34.964 Y662.777
N30200 X34.97 Y663.017
N30210 X35.1 Y668.05
N30220 X35.106 Y668.289
N30230 X35.237 Y673.562
N30240 X35.243 Y673.801
N30250 X35.363 Y678.834
N30260 X35.369 Y679.074
N30270 X35.49 Y684.346
N30280 X35.496 Y684.586
N30290 X35.607 Y689.618
N30300 X35.612 Y689.858
N30310 X35.718 Y694.891
N30320 X35.825 Y700.163
N30330 X35.926 Y705.435
N30340 X36.068 Y713.344
N30350 X36.197 Y721.252
N30360 X36.315 Y729.161
N30370 X36.42 Y737.07
N30380 X36.479 Y742.102
N30390 X36.568 Y750.775
N30400 X36.641 Y759.447
N30410 X36.698 Y768.12
N30420 X36.74 Y776.792
N30430 X36.766 Y785.465
N30440 X36.776 Y794.138
N30450 X36.77 Y802.811
N30460 X36.749 Y811.483
N30470 X36.712 Y820.156
N30480 X36.66 Y828.829
N30490 X36.591 Y837.501
N30500 X36.508 Y846.174
N30510 X36.408 Y854.846
N30520 X36.293 Y863.518
N30530 X36.162 Y872.19
N30540 X36.015 Y880.861
N30550 X35.853 Y890.013
N30560 X35.676 Y899.165
N30570 X35.485 Y908.317
N30580 X35.28 Y917.468
N30590 X35.06 Y926.619
N30600 X34.826 Y935.769
N30610 X34.577 Y944.919
N30620 X34.314 Y954.069
N30630 X34.036 Y963.218
N30640 X33.744 Y972.367
N30650 X33.437 Y981.515
N30660 X33.075 Y992.368
N30670 X32.697 Y1003.22
N30680 X32.305 Y1014.072
N30690 X31.897 Y1024.923
N30700 X31.474 Y1035.773
N30710 X31.036 Y1046.623
N30720 X30.583 Y1057.473
N30730 X30.115 Y1068.321
N30740 X29.631 Y1079.169
N30750 X29.133 Y1090.016
N30760 X28.619 Y1100.863
N30770 X28.369 Y1106.135
N30780 X28.357 Y1106.375
N30790 X28.345 Y1106.615
N30800 X28.334 Y1106.854
N30810 X28.081 Y1112.127
N30820 X28.069 Y1112.366
N30830 X28.057 Y1112.606
N30840 X28.045 Y1112.846
N30850 X27.803 Y1117.878
N30860 X27.791 Y1118.118
N30870 X27.779 Y1118.358
N30880 X27.767 Y1118.597
N30890 X27.512 Y1123.87
N30900 X26.705 Y1140.357
N30910 X25.911 Y1156.844
N30920 X25.129 Y1173.332
N30930 X24.36 Y1189.821
N30940 X23.603 Y1206.311
N30950 X23.14 Y1215.895
N30960 X22.693 Y1225.479
N30970 X22.259 Y1235.065
N30980 X21.841 Y1244.651
N30990 X21.437 Y1254.238
N31000 X21.047 Y1263.825
N31010 X20.672 Y1273.413
N31020 X20.449 Y1279.745
N31030 X20.241 Y1286.078
N31040 X20.045 Y1292.412
N31050 X19.863 Y1298.745
N31060 X19.694 Y1305.079
N31070 X19.538 Y1311.414
N31080 X19.396 Y1317.749
N31090 X19.28 Y1323.935
N31100 X19.179 Y1330.122
N31110 X19.094 Y1336.309
N31120 X19.024 Y1342.497
N31130 X18.971 Y1348.684
N31140 X18.933 Y1354.872
N31150 X18.911 Y1361.06
N31160 X18.906 Y1367.247
N31170 X18.915 Y1373.435
N31180 X18.941 Y1379.623
N31190 X18.983 Y1385.81
N31200 X19.048 Y1391.405
N31210 X19.127 Y1396.999
N31220 X19.221 Y1402.592
N31230 X19.328 Y1408.186
N31240 X19.449 Y1413.779
N31250 X19.585 Y1419.372
N31260 X19.734 Y1424.965
N31270 X19.898 Y1430.557
N31280 X20.075 Y1436.149
N31290 X20.266 Y1441.74
N31300 X20.472 Y1447.331
N31310 X20.691 Y1452.921
N31320 X20.924 Y1458.511
N31330 X21.172 Y1464.1
N31340 X21.433 Y1469.688
N31350 X21.744 Y1476.293
N31360 X22.069 Y1482.897
N31370 X22.409 Y1489.5
N31380 X22.764 Y1496.102
N31390 X23.132 Y1502.704
N31400 X23.515 Y1509.304
N31410 X23.913 Y1515.904
N31420 X24.325 Y1522.503
N31430 X24.751 Y1529.101
N31440 X25.192 Y1535.699
N31450 X25.647 Y1542.295
N31460 X26.117 Y1548.89
N31470 X26.6 Y1555.484
N31480 X27.119 Y1562.501
N31490 X27.652 Y1569.518
N31500 X28.199 Y1576.533
N31510 X28.759 Y1583.547
N31520 X29.333 Y1590.56
N31530 X29.921 Y1597.572
N31540 X30.522 Y1604.583
N31550 X31.138 Y1611.592
N31560 X31.767 Y1618.601
N31570 X32.41 Y1625.608
N31580 X32.416 Y1625.749
N31590 X32.406 Y1625.891
N31600 X32.381 Y1626.03
N31610 X32.34 Y1626.166
N31620 X32.284 Y1626.297
N31630 X32.214 Y1626.42
N31640 X32.13 Y1626.535
N31650 X32.034 Y1626.64
N31660 X31.927 Y1626.733
N31670 X31.81 Y1626.814
N31680 X31.685 Y1626.882
N31690 X31.553 Y1626.934
N31700 X31.416 Y1626.972
N31710 X31.275 Y1626.994
N31720 X31.133 Y1627.008 Z35.162
N31730 X30.994 Y1627.022 Z35.186
N31740 X30.857 Y1627.035 Z35.225
N31750 X30.726 Y1627.048 Z35.28
N31760 X30.602 Y1627.06 Z35.349
N31770 X30.487 Y1627.071 Z35.431
N31780 X30.381 Y1627.081 Z35.526
N31790 X30.287 Y1627.091 Z35.632
N31800 X30.205 Y1627.099 Z35.748
N31810 X30.136 Y1627.105 Z35.873
N31820 X30.082 Y1627.111 Z36.004
N31830 X30.043 Y1627.114 Z36.141
N31840 X30.019 Y1627.117 Z36.282
N31850 X30.011 Y1627.118 Z36.424
N31860 G0 Z44.154
N31870 X82.417 Y1626.883
N31880 Z36.424
N31890 G1 X82.409 Z36.282 F5000.
N31900 X82.385 Z36.141
N31910 X82.345 Y1626.882 Z36.004
N31920 X82.291 Z35.873
N31930 X82.222 Z35.748
N31940 X82.14 Z35.632
N31950 X82.045 Z35.526
N31960 X81.938 Z35.431
N31970 X81.822 Y1626.881 Z35.349
N31980 X81.698 Z35.28
N31990 X81.566 Z35.225
N32000 X81.429 Y1626.88 Z35.186
N32010 X81.289 Z35.162
N32020 X81.147 Z35.154
N32030 G3 X79.879 Y1625.607 I0.003 J-1.27
N32040 G2 X79.84 Y1625.224 I-1.805 J-0.006
N32050 G1 X78.919 Y1620.806
N32060 X78.013 Y1616.386
N32070 X77.122 Y1611.962
N32080 X76.246 Y1607.536
N32090 X75.386 Y1603.106
N32100 X74.54 Y1598.674
N32110 X73.709 Y1594.239
N32120 X72.894 Y1589.801
N32130 X72.094 Y1585.36
N32140 X71.308 Y1580.917
N32150 X70.538 Y1576.47
N32160 X69.783 Y1572.022
N32170 X69.099 Y1567.889
N32180 X68.431 Y1563.754
N32190 X67.777 Y1559.617
N32200 X67.139 Y1555.477
N32210 X66.517 Y1551.335
N32220 X65.909 Y1547.19
N32230 X65.317 Y1543.043
N32240 X64.741 Y1538.894
N32250 X64.179 Y1534.743
N32260 X63.633 Y1530.59
N32270 X63.103 Y1526.435
N32280 X62.588 Y1522.278
N32290 X62.088 Y1518.12
N32300 X61.604 Y1513.959
N32310 X61.135 Y1509.796
N32320 X60.682 Y1505.632
N32330 X60.244 Y1501.466
N32340 X59.822 Y1497.299
N32350 X59.415 Y1493.13
N32360 X59.023 Y1488.96
N32370 X58.647 Y1484.788
N32380 X58.304 Y1480.737
N32390 X57.978 Y1476.685
N32400 X57.667 Y1472.632
N32410 X57.372 Y1468.578
N32420 X57.093 Y1464.522
N32430 X56.829 Y1460.466
N32440 X56.581 Y1456.408
N32450 X56.349 Y1452.35
N32460 X56.133 Y1448.29
N32470 X55.933 Y1444.23
N32480 X55.748 Y1440.169
N32490 X55.58 Y1436.108
N32500 X55.427 Y1432.046
N32510 X55.29 Y1427.983
N32520 X55.169 Y1423.92
N32530 X55.063 Y1419.856
N32540 X54.973 Y1415.792
N32550 X54.9 Y1411.727
N32560 X54.842 Y1407.663
N32570 X54.8 Y1403.598
N32580 X54.773 Y1399.533
N32590 X54.763 Y1395.468
N32600 X54.768 Y1391.403
N32610 X54.789 Y1387.338
N32620 X54.826 Y1383.273
N32630 X54.879 Y1379.208
N32640 X54.947 Y1375.144
N32650 X55.032 Y1371.079
N32660 X55.132 Y1367.015
N32670 X55.248 Y1362.952
N32680 X55.38 Y1358.889
N32690 X55.528 Y1354.827
N32700 X55.691 Y1350.765
N32710 X55.87 Y1346.704
N32720 X56.066 Y1342.643
N32730 X56.276 Y1338.584
N32740 X56.503 Y1334.525
N32750 X56.767 Y1330.046
N32760 X57.045 Y1325.568
N32770 X57.337 Y1321.091
N32780 X57.643 Y1316.614
N32790 X57.964 Y1312.139
N32800 X58.298 Y1307.665
N32810 X58.647 Y1303.191
N32820 X59.009 Y1298.719
N32830 X59.386 Y1294.248
N32840 X59.777 Y1289.779
N32850 X60.182 Y1285.31
N32860 X60.601 Y1280.843
N32870 X61.17 Y1274.892
N32880 X61.754 Y1268.943
N32890 X62.354 Y1262.995
N32900 X62.97 Y1257.049
N32910 X63.602 Y1251.105
N32920 X64.249 Y1245.162
N32930 X64.913 Y1239.221
N32940 X65.592 Y1233.282
N32950 X66.287 Y1227.345
N32960 X66.997 Y1221.409
N32970 X67.797 Y1214.729
N32980 X68.609 Y1208.05
N32990 X69.433 Y1201.372
N33000 X70.27 Y1194.696
N33010 X71.118 Y1188.022
N33020 X71.978 Y1181.348
N33030 X72.85 Y1174.677
N33040 X74.421 Y1162.458
N33050 X75.979 Y1150.238
N33060 X77.523 Y1138.015
N33070 X79.052 Y1125.791
N33080 X80.568 Y1113.566
N33090 X81.56 Y1105.3
N33100 X82.539 Y1097.032
N33110 X83.505 Y1088.763
N33120 X84.46 Y1080.493
N33130 X85.199 Y1073.949
N33140 X85.924 Y1067.403
N33150 X86.635 Y1060.855
N33160 X87.331 Y1054.306
N33170 X88.013 Y1047.755
N33180 X88.681 Y1041.203
N33190 X89.334 Y1034.65
N33200 X89.973 Y1028.095
N33210 X90.598 Y1021.538
N33220 X91.107 Y1015.949
N33230 X91.6 Y1010.358
N33240 X92.078 Y1004.766
N33250 X92.539 Y999.172
N33260 X92.985 Y993.577
N33270 X93.414 Y987.981
N33280 X93.828 Y982.383
N33290 X94.226 Y976.785
N33300 X94.608 Y971.185
N33310 X94.973 Y965.584
N33320 X95.323 Y959.983
N33330 X95.657 Y954.38
N33340 X95.975 Y948.776
N33350 X96.278 Y943.172
N33360 X96.538 Y937.922
N33370 X96.784 Y932.672
N33380 X97.013 Y927.422
N33390 X97.227 Y922.171
N33400 X97.424 Y916.919
N33410 X97.606 Y911.666
N33420 X97.773 Y906.413
N33430 X97.923 Y901.16
N33440 X98.058 Y895.906
N33450 X98.177 Y890.651
N33460 X98.28 Y885.397
N33470 X98.368 Y880.142
N33480 X98.44 Y874.887
N33490 X98.495 Y869.631
N33500 X98.536 Y864.376
N33510 X98.56 Y859.12
N33520 X98.569 Y853.865
N33530 X98.561 Y848.609
N33540 X98.538 Y843.353
N33550 X98.5 Y838.098
N33560 X98.445 Y832.842
N33570 X98.375 Y827.587
N33580 X98.289 Y822.332
N33590 X98.187 Y817.078
N33600 X98.07 Y811.823
N33610 X97.936 Y806.569
N33620 X97.786 Y800.959
N33630 X97.62 Y795.349
N33640 X97.439 Y789.74
N33650 X97.243 Y784.131
N33660 X97.031 Y778.522
N33670 X96.805 Y772.915
N33680 X96.563 Y767.308
N33690 X96.306 Y761.701
N33700 X96.033 Y756.095
N33710 X95.746 Y750.491
N33720 X95.403 Y744.015
N33730 X95.044 Y737.541
N33740 X94.67 Y731.067
N33750 X94.282 Y724.595
N33760 X93.877 Y718.123
N33770 X93.458 Y711.652
N33780 X93.023 Y705.182
N33790 X92.573 Y698.714
N33800 X92.108 Y692.246
N33810 X91.627 Y685.779
N33820 X91.132 Y679.314
N33830 X90.599 Y672.361
N33840 X90.054 Y665.409
N33850 X89.497 Y658.458
N33860 X88.928 Y651.508
N33870 X88.348 Y644.559
N33880 X87.755 Y637.611
N33890 X87.15 Y630.664
N33900 X86.141 Y619.158
N33910 X85.121 Y607.654
N33920 X84.089 Y596.15
N33930 X83.045 Y584.647
N33940 X81.99 Y573.145
N33950 X80.923 Y561.645
N33960 X79.438 Y545.349
N33970 X77.963 Y529.052
N33980 X76.5 Y512.754
N33990 X75.909 Y506.044
N34000 X75.179 Y497.739
N34010 X74.463 Y489.432
N34020 X73.762 Y481.124
N34030 X73.074 Y472.815
N34040 X72.402 Y464.505
N34050 X71.743 Y456.193
N34060 X71.099 Y447.881
N34070 X70.47 Y439.567
N34080 X69.854 Y431.252
N34090 X69.393 Y424.685
N34100 X68.946 Y418.116
N34110 X68.514 Y411.546
N34120 X68.095 Y404.976
N34130 X67.691 Y398.404
N34140 X67.301 Y391.832
N34150 X66.925 Y385.259
N34160 X66.573 Y378.788
N34170 X66.561 Y378.549
N34180 X66.549 Y378.309
N34190 X66.216 Y371.838
N34200 X66.204 Y371.599
N34210 X66.193 Y371.359
N34220 X66.181 Y371.12
N34230 X65.879 Y364.889
N34240 X65.628 Y359.485
N34250 X65.392 Y354.081
N34260 X65.17 Y348.676
N34270 X64.963 Y343.27
N34280 X64.77 Y337.864
N34290 X64.591 Y332.458
N34300 X64.428 Y327.051
N34310 X64.279 Y321.643
N34320 X64.144 Y316.236
N34330 X64.024 Y310.828
N34340 X63.919 Y305.419
N34350 X63.828 Y300.01
N34360 X63.751 Y294.602
N34370 X63.69 Y289.192
N34380 X63.642 Y283.783
N34390 X63.61 Y278.374
N34400 X63.603 Y273.191
N34410 X63.611 Y268.008
N34420 X63.633 Y262.825
N34430 X63.67 Y257.643
N34440 X63.722 Y252.46
N34450 X63.788 Y247.278
N34460 X63.868 Y242.096
N34470 X63.964 Y236.914
N34480 X64.069 Y232.08
N34490 X64.189 Y227.246
N34500 X64.325 Y222.412
N34510 X64.477 Y217.58
N34520 X64.644 Y212.747
N34530 X64.827 Y207.915
N34540 X65.026 Y203.084
N34550 X65.24 Y198.254
N34560 X65.469 Y193.424
N34570 X65.714 Y188.595
N34580 X65.975 Y183.766
N34590 X66.251 Y178.939
N34600 X66.543 Y174.113
N34610 X66.85 Y169.287
N34620 X67.173 Y164.463
N34630 X67.512 Y159.639
N34640 X67.866 Y154.817
N34650 X68.235 Y149.996
N34660 X68.62 Y145.176
N34670 X69.021 Y140.357
N34680 X69.437 Y135.54
N34690 X69.842 Y131.057
N34700 X70.263 Y126.576
N34710 X70.698 Y122.096
N34720 X71.148 Y117.618
N34730 X71.613 Y113.141
N34740 X72.093 Y108.666
N34750 X72.588 Y104.192
N34760 X73.097 Y99.72
N34770 X73.621 Y95.25
N34780 X74.161 Y90.781
N34790 X74.715 Y86.315
N34800 X75.283 Y81.85
N34810 X75.867 Y77.387
N34820 X76.465 Y72.926
N34830 X77.078 Y68.467
N34840 X77.706 Y64.01
N34850 X78.349 Y59.555
N34860 X79.006 Y55.102
N34870 X79.678 Y50.652
N34880 X80.335 Y46.449
N34890 X81.006 Y42.249
N34900 X81.691 Y38.05
N34910 X82.39 Y33.854
N34920 X83.103 Y29.661
N34930 X83.83 Y25.47
N34940 X84.571 Y21.281
N34950 X85.326 Y17.095
N34960 X86.095 Y12.911
N34970 X86.878 Y8.73
N34980 X87.674 Y4.551
N34990 X88.485 Y0.375
N35000 G2 X88.52 Y-0.007 I-1.97 J-0.374
N35010 G3 X89.788 Y-1.279 I1.27 J-0.002
N35020 G1 X89.931 Y-1.28 Z35.162
N35030 X90.071 Z35.186
N35040 X90.208 Z35.225
N35050 X90.339 Z35.28
N35060 X90.464 Z35.349
N35070 X90.58 Y-1.281 Z35.431
N35080 X90.686 Z35.526
N35090 X90.781 Z35.632
N35100 X90.864 Z35.748
N35110 X90.933 Z35.873
N35120 X90.987 Z36.004
N35130 X91.027 Z36.141
N35140 X91.05 Z36.282
N35150 X91.058 Z36.424
N35160 G0 Z44.154
N35170 X35.819 Y-1.497
N35180 Z35.924
N35190 G1 X35.827 Z35.782 F5000.
N35200 X35.851 Y-1.494 Z35.641
N35210 X35.89 Y-1.491 Z35.504
N35220 X35.944 Y-1.486 Z35.373
N35230 X36.013 Y-1.48 Z35.248
N35240 X36.095 Y-1.473 Z35.132
N35250 X36.189 Y-1.464 Z35.026
N35260 X36.295 Y-1.455 Z34.931
N35270 X36.411 Y-1.445 Z34.849
N35280 X36.535 Y-1.434 Z34.78
N35290 X36.666 Y-1.422 Z34.725
N35300 X36.802 Y-1.41 Z34.686
N35310 X36.942 Y-1.398 Z34.662
N35320 X37.084 Y-1.385 Z34.654
N35330 G3 X38.237 Y-0.008 I-0.112 J1.265
N35340 G1 X37.306 Y9.65
N35350 X36.385 Y19.309
N35360 X35.74 Y26.311
N35370 X35.11 Y33.314
N35380 X34.495 Y40.319
N35390 X33.895 Y47.325
N35400 X33.311 Y54.333
N35410 X32.742 Y61.342
N35420 X32.189 Y68.352
N35430 X31.65 Y75.363
N35440 X31.127 Y82.375
N35450 X30.62 Y89.389
N35460 X30.128 Y96.403
N35470 X29.651 Y103.419
N35480 X29.189 Y110.436
N35490 X28.743 Y117.453
N35500 X28.312 Y124.472
N35510 X27.897 Y131.492
N35520 X27.497 Y138.512
N35530 X27.112 Y145.533
N35540 X26.742 Y152.556
N35550 X26.4 Y159.51
N35560 X26.074 Y166.465
N35570 X25.764 Y173.42
N35580 X25.469 Y180.377
N35590 X25.19 Y187.334
N35600 X24.927 Y194.292
N35610 X24.679 Y201.25
N35620 X24.448 Y208.209
N35630 X24.232 Y215.168
N35640 X24.032 Y222.128
N35650 X23.847 Y229.088
N35660 X23.679 Y236.049
N35670 X23.526 Y243.01
N35680 X23.389 Y249.971
N35690 X23.268 Y256.932
N35700 X23.163 Y263.894
N35710 X23.073 Y270.856
N35720 X22.999 Y277.819
N35730 X22.941 Y284.781
N35740 X22.899 Y291.744
N35750 X22.873 Y298.706
N35760 X22.862 Y305.669
N35770 X22.867 Y312.631
N35780 X22.888 Y319.594
N35790 X22.91 Y326.065
N35800 X22.945 Y332.536
N35810 X22.991 Y339.007
N35820 X23.049 Y345.477
N35830 X23.12 Y351.948
N35840 X23.202 Y358.418
N35850 X23.296 Y364.889
N35860 X23.399 Y371.359
N35870 X23.402 Y371.599
N35880 X23.519 Y378.309
N35890 X23.523 Y378.549
N35900 X23.65 Y385.259
N35910 X23.844 Y394.439
N35920 X24.052 Y403.619
N35930 X24.272 Y412.799
N35940 X24.505 Y421.978
N35950 X24.752 Y431.157
N35960 X25.011 Y440.335
N35970 X25.284 Y449.514
N35980 X25.569 Y458.691
N35990 X25.868 Y467.869
N36000 X26.18 Y477.046
N36010 X26.483 Y486.233
N36020 X26.796 Y495.42
N36030 X27.119 Y504.606
N36040 X27.358 Y511.317
N36050 X28.006 Y529.29
N36060 X28.642 Y547.263
N36070 X29.266 Y565.237
N36080 X29.879 Y583.211
N36090 X30.48 Y601.186
N36100 X30.826 Y612.269
N36110 X31.157 Y623.352
N36120 X31.472 Y634.435
N36130 X31.772 Y645.519
N36140 X32.057 Y656.603
N36150 X32.326 Y667.688
N36160 X32.579 Y678.773
N36170 X32.817 Y689.858
N36180 X32.985 Y698.706
N36190 X33.138 Y707.553
N36200 X33.276 Y716.402
N36210 X33.4 Y725.25
N36220 X33.508 Y734.099
N36230 X33.601 Y742.947
N36240 X33.68 Y751.796
N36250 X33.744 Y760.645
N36260 X33.793 Y769.495
N36270 X33.827 Y778.344
N36280 X33.846 Y787.193
N36290 X33.85 Y796.042
N36300 X33.84 Y804.891
N36310 X33.803 Y814.224
N36320 X33.751 Y823.557
N36330 X33.684 Y832.89
N36340 X33.603 Y842.222
N36350 X33.507 Y851.555
N36360 X33.396 Y860.887
N36370 X33.271 Y870.219
N36380 X33.131 Y879.551
N36390 X32.976 Y888.882
N36400 X32.807 Y898.214
N36410 X32.623 Y907.545
N36420 X32.424 Y916.875
N36430 X32.211 Y926.206
N36440 X31.983 Y935.536
N36450 X31.74 Y944.866
N36460 X31.483 Y954.195
N36470 X31.237 Y963.183
N36480 X30.977 Y972.17
N36490 X30.704 Y981.157
N36500 X30.417 Y990.143
N36510 X30.058 Y1001.279
N36520 X29.685 Y1012.414
N36530 X29.298 Y1023.549
N36540 X28.896 Y1034.683
N36550 X28.48 Y1045.816
N36560 X28.05 Y1056.949
N36570 X27.605 Y1068.082
N36580 X27.146 Y1079.214
N36590 X26.672 Y1090.345
N36600 X26.184 Y1101.476
N36610 X25.682 Y1112.606
N36620 X25.453 Y1117.639
N36630 X25.443 Y1117.878
N36640 X25.422 Y1118.358
N36650 X25.412 Y1118.597
N36660 X25.183 Y1123.63
N36670 X24.28 Y1143.58
N36680 X23.394 Y1163.531
N36690 X22.523 Y1183.482
N36700 X21.669 Y1203.434
N36710 X21.376 Y1210.145
N36720 X20.945 Y1219.866
N36730 X20.529 Y1229.588
N36740 X20.128 Y1239.31
N36750 X19.742 Y1249.033
N36760 X19.371 Y1258.757
N36770 X19.015 Y1268.481
N36780 X18.674 Y1278.206
N36790 X18.47 Y1284.755
N36800 X18.281 Y1291.304
N36810 X18.107 Y1297.854
N36820 X17.948 Y1304.405
N36830 X17.804 Y1310.955
N36840 X17.675 Y1317.506
N36850 X17.561 Y1324.057
N36860 X17.462 Y1330.609
N36870 X17.378 Y1337.161
N36880 X17.315 Y1343.119
N36890 X17.269 Y1349.077
N36900 X17.238 Y1355.036
N36910 X17.222 Y1360.994
N36920 Y1366.953
N36930 X17.237 Y1372.911
N36940 X17.268 Y1378.87
N36950 X17.315 Y1384.828
N36960 X17.377 Y1390.786
N36970 X17.454 Y1396.744
N36980 X17.547 Y1402.702
N36990 X17.656 Y1408.66
N37000 X17.78 Y1414.617
N37010 X17.919 Y1420.574
N37020 X18.074 Y1426.53
N37030 X18.245 Y1432.487
N37040 X18.431 Y1438.442
N37050 X18.632 Y1444.397
N37060 X18.849 Y1450.352
N37070 X19.082 Y1456.306
N37080 X19.33 Y1462.259
N37090 X19.619 Y1469.119
N37100 X19.923 Y1475.977
N37110 X20.24 Y1482.835
N37120 X20.572 Y1489.692
N37130 X20.918 Y1496.549
N37140 X21.279 Y1503.405
N37150 X21.653 Y1510.26
N37160 X22.042 Y1517.114
N37170 X22.445 Y1523.968
N37180 X22.862 Y1530.821
N37190 X23.293 Y1537.672
N37200 X23.738 Y1544.523
N37210 X24.198 Y1551.373
N37220 X24.672 Y1558.222
N37230 X25.16 Y1565.07
N37240 X25.702 Y1572.641
N37250 X26.26 Y1580.211
N37260 X26.832 Y1587.78
N37270 X27.419 Y1595.348
N37280 X28.02 Y1602.914
N37290 X28.637 Y1610.48
N37300 X29.268 Y1618.044
N37310 X29.914 Y1625.607
N37320 X29.919 Y1625.74
N37330 X29.91 Y1625.873
N37340 X29.887 Y1626.004
N37350 X29.851 Y1626.132
N37360 X29.802 Y1626.256
N37370 X29.739 Y1626.374
N37380 X29.665 Y1626.484
N37390 X29.58 Y1626.586
N37400 X29.485 Y1626.679
N37410 X29.38 Y1626.761
N37420 X29.268 Y1626.832
N37430 X29.149 Y1626.891
N37440 X29.024 Y1626.937
N37450 X28.895 Y1626.97
N37460 X28.763 Y1626.989
N37470 X28.622 Y1627.002 Z34.662
N37480 X28.482 Y1627.015 Z34.686
N37490 X28.346 Y1627.027 Z34.725
N37500 X28.215 Y1627.039 Z34.78
N37510 X28.09 Y1627.051 Z34.849
N37520 X27.975 Y1627.061 Z34.931
N37530 X27.869 Y1627.071 Z35.026
N37540 X27.775 Y1627.08 Z35.132
N37550 X27.693 Y1627.087 Z35.248
N37560 X27.624 Y1627.094 Z35.373
N37570 X27.57 Y1627.099 Z35.504
N37580 X27.53 Y1627.102 Z35.641
N37590 X27.507 Y1627.105 Z35.782
N37600 X27.499 Z35.924
N37610 G0 Z44.154
N37620 X84.112 Y1626.882
N37630 Z35.924
N37640 G1 X84.104 Z35.782 F5000.
N37650 X84.081 Z35.641
N37660 X84.041 Z35.504
N37670 X83.987 Z35.373
N37680 X83.918 Z35.248
N37690 X83.835 Z35.132
N37700 X83.74 Z35.026
N37710 X83.634 Y1626.881 Z34.931
N37720 X83.518 Z34.849
N37730 X83.393 Z34.78
N37740 X83.262 Z34.725
N37750 X83.125 Y1626.88 Z34.686
N37760 X82.985 Z34.662
N37770 X82.842 Z34.654
N37780 G3 X81.575 Y1625.607 I0.003 J-1.27
N37790 G2 X81.486 Y1624.984 I-2.223 J-0.002
N37800 G1 X80.575 Y1620.735
N37810 X79.679 Y1616.482
N37820 X78.799 Y1612.226
N37830 X77.934 Y1607.968
N37840 X77.084 Y1603.706
N37850 X76.25 Y1599.441
N37860 X75.432 Y1595.172
N37870 X74.628 Y1590.901
N37880 X73.841 Y1586.628
N37890 X73.068 Y1582.351
N37900 X72.311 Y1578.072
N37910 X71.57 Y1573.789
N37920 X70.844 Y1569.505
N37930 X70.134 Y1565.217
N37940 X69.439 Y1560.927
N37950 X68.759 Y1556.635
N37960 X68.095 Y1552.34
N37970 X67.447 Y1548.043
N37980 X66.814 Y1543.743
N37990 X66.237 Y1539.666
N38000 X65.675 Y1535.587
N38010 X65.129 Y1531.506
N38020 X64.598 Y1527.423
N38030 X64.083 Y1523.338
N38040 X63.583 Y1519.251
N38050 X63.099 Y1515.162
N38060 X62.63 Y1511.072
N38070 X62.177 Y1506.979
N38080 X61.739 Y1502.885
N38090 X61.317 Y1498.789
N38100 X60.911 Y1494.692
N38110 X60.52 Y1490.593
N38120 X60.145 Y1486.493
N38130 X59.785 Y1482.391
N38140 X59.454 Y1478.367
N38150 X59.139 Y1474.341
N38160 X58.84 Y1470.314
N38170 X58.557 Y1466.286
N38180 X58.289 Y1462.257
N38190 X58.038 Y1458.227
N38200 X57.802 Y1454.196
N38210 X57.582 Y1450.164
N38220 X57.378 Y1446.132
N38230 X57.19 Y1442.098
N38240 X57.018 Y1438.064
N38250 X56.862 Y1434.029
N38260 X56.721 Y1429.994
N38270 X56.597 Y1425.958
N38280 X56.488 Y1421.921
N38290 X56.395 Y1417.884
N38300 X56.318 Y1413.847
N38310 X56.257 Y1409.81
N38320 X56.212 Y1405.772
N38330 X56.183 Y1401.734
N38340 X56.17 Y1397.697
N38350 X56.173 Y1393.659
N38360 X56.191 Y1389.621
N38370 X56.226 Y1385.583
N38380 X56.276 Y1381.546
N38390 X56.343 Y1377.508
N38400 X56.425 Y1373.471
N38410 X56.523 Y1369.435
N38420 X56.637 Y1365.398
N38430 X56.767 Y1361.362
N38440 X56.913 Y1357.327
N38450 X57.074 Y1353.293
N38460 X57.252 Y1349.259
N38470 X57.445 Y1345.225
N38480 X57.655 Y1341.193
N38490 X57.88 Y1337.161
N38500 X58.144 Y1332.675
N38510 X58.423 Y1328.19
N38520 X58.717 Y1323.705
N38530 X59.026 Y1319.222
N38540 X59.351 Y1314.74
N38550 X59.692 Y1310.258
N38560 X60.048 Y1305.779
N38570 X60.419 Y1301.3
N38580 X60.805 Y1296.822
N38590 X61.207 Y1292.346
N38600 X61.697 Y1286.961
N38610 X62.204 Y1281.578
N38620 X62.726 Y1276.195
N38630 X63.264 Y1270.815
N38640 X63.817 Y1265.436
N38650 X64.387 Y1260.058
N38660 X64.972 Y1254.683
N38670 X65.573 Y1249.309
N38680 X66.19 Y1243.937
N38690 X67.013 Y1236.846
N38700 X67.851 Y1229.757
N38710 X68.706 Y1222.67
N38720 X69.576 Y1215.585
N38730 X70.461 Y1208.502
N38740 X71.362 Y1201.421
N38750 X72.279 Y1194.342
N38760 X73.211 Y1187.264
N38770 X74.158 Y1180.189
N38780 X75.983 Y1166.412
N38790 X77.795 Y1152.633
N38800 X79.593 Y1138.852
N38810 X81.377 Y1125.069
N38820 X81.398 Y1124.828
N38830 X82.038 Y1119.796
N38840 X82.068 Y1119.556
N38850 X82.128 Y1119.077
N38860 X82.158 Y1118.837
N38870 X82.792 Y1113.804
N38880 X82.803 Y1113.719
N38890 X82.851 Y1113.325
N38900 X82.88 Y1113.085
N38910 X83.538 Y1107.813
N38920 X83.596 Y1107.333
N38930 X83.626 Y1107.094
N38940 X84.246 Y1102.061
N38950 X85.069 Y1095.337
N38960 X85.877 Y1088.612
N38970 X86.671 Y1081.885
N38980 X87.45 Y1075.156
N38990 X88.216 Y1068.425
N39000 X88.967 Y1061.693
N39010 X89.703 Y1054.959
N39020 X90.426 Y1048.224
N39030 X91.134 Y1041.487
N39040 X91.827 Y1034.749
N39050 X92.507 Y1028.009
N39060 X93.027 Y1022.608
N39070 X93.533 Y1017.206
N39080 X94.023 Y1011.802
N39090 X94.498 Y1006.397
N39100 X94.958 Y1000.99
N39110 X95.403 Y995.582
N39120 X95.832 Y990.173
N39130 X96.247 Y984.763
N39140 X96.646 Y979.351
N39150 X97.029 Y973.939
N39160 X97.398 Y968.525
N39170 X97.752 Y963.111
N39180 X98.09 Y957.695
N39190 X98.413 Y952.279
N39200 X98.69 Y947.265
N39210 X98.953 Y942.25
N39220 X99.2 Y937.234
N39230 X99.433 Y932.218
N39240 X99.651 Y927.201
N39250 X99.854 Y922.183
N39260 X100.043 Y917.165
N39270 X100.216 Y912.147
N39280 X100.375 Y907.127
N39290 X100.519 Y902.108
N39300 X100.647 Y897.088
N39310 X100.762 Y892.067
N39320 X100.861 Y887.047
N39330 X100.945 Y882.026
N39340 X101.015 Y877.005
N39350 X101.069 Y871.983
N39360 X101.109 Y866.962
N39370 X101.128 Y861.617
N39380 X101.131 Y856.273
N39390 X101.119 Y850.928
N39400 X101.091 Y845.584
N39410 X101.048 Y840.24
N39420 X100.988 Y834.896
N39430 X100.914 Y829.552
N39440 X100.824 Y824.208
N39450 X100.718 Y818.865
N39460 X100.596 Y813.522
N39470 X100.459 Y808.179
N39480 X100.307 Y802.837
N39490 X100.139 Y797.495
N39500 X99.955 Y792.154
N39510 X99.756 Y786.813
N39520 X99.541 Y781.473
N39530 X99.311 Y776.133
N39540 X99.047 Y770.218
N39550 X98.768 Y764.303
N39560 X98.475 Y758.388
N39570 X98.167 Y752.475
N39580 X97.845 Y746.562
N39590 X97.509 Y740.65
N39600 X97.158 Y734.739
N39610 X96.792 Y728.828
N39620 X96.412 Y722.919
N39630 X96.018 Y717.01
N39640 X95.609 Y711.103
N39650 X95.186 Y705.196
N39660 X94.628 Y697.549
N39670 X94.055 Y689.903
N39680 X93.467 Y682.259
N39690 X92.864 Y674.615
N39700 X92.244 Y666.973
N39710 X91.61 Y659.332
N39720 X90.96 Y651.692
N39730 X90.295 Y644.053
N39740 X89.614 Y636.416
N39750 X88.624 Y625.349
N39760 X87.622 Y614.284
N39770 X86.608 Y603.219
N39780 X85.581 Y592.156
N39790 X84.542 Y581.094
N39800 X83.49 Y570.032
N39810 X81.703 Y550.941
N39820 X79.928 Y531.849
N39830 X78.165 Y512.755
N39840 X77.332 Y503.492
N39850 X76.513 Y494.227
N39860 X75.708 Y484.961
N39870 X74.917 Y475.693
N39880 X74.14 Y466.425
N39890 X73.377 Y457.155
N39900 X72.857 Y450.646
N39910 X72.35 Y444.136
N39920 X71.856 Y437.624
N39930 X71.375 Y431.112
N39940 X70.908 Y424.598
N39950 X70.454 Y418.084
N39960 X70.013 Y411.569
N39970 X69.585 Y405.053
N39980 X69.171 Y398.536
N39990 X68.77 Y392.018
N40000 X68.382 Y385.499
N40010 X68.069 Y379.84
N40020 X67.769 Y374.179
N40030 X67.481 Y368.518
N40040 X67.207 Y362.857
N40050 X66.946 Y357.195
N40060 X66.699 Y351.532
N40070 X66.464 Y345.868
N40080 X66.242 Y340.204
N40090 X66.048 Y334.83
N40100 X65.869 Y329.454
N40110 X65.706 Y324.079
N40120 X65.557 Y318.702
N40130 X65.424 Y313.326
N40140 X65.307 Y307.949
N40150 X65.204 Y302.571
N40160 X65.117 Y297.194
N40170 X65.045 Y291.816
N40180 X64.988 Y286.438
N40190 X64.947 Y281.06
N40200 X64.92 Y275.682
N40210 X64.909 Y270.303
N40220 X64.914 Y264.925
N40230 X64.933 Y259.547
N40240 X64.968 Y254.169
N40250 X65.021 Y249.219
N40260 X65.089 Y244.27
N40270 X65.173 Y239.321
N40280 X65.271 Y234.372
N40290 X65.386 Y229.423
N40300 X65.515 Y224.475
N40310 X65.66 Y219.527
N40320 X65.82 Y214.58
N40330 X65.995 Y209.633
N40340 X66.186 Y204.687
N40350 X66.392 Y199.741
N40360 X66.614 Y194.796
N40370 X66.85 Y189.852
N40380 X67.102 Y184.909
N40390 X67.357 Y180.284
N40400 X67.627 Y175.661
N40410 X67.912 Y171.038
N40420 X68.213 Y166.417
N40430 X68.528 Y161.796
N40440 X68.859 Y157.177
N40450 X69.204 Y152.558
N40460 X69.565 Y147.941
N40470 X69.941 Y143.325
N40480 X70.332 Y138.71
N40490 X70.738 Y134.096
N40500 X71.16 Y129.484
N40510 X71.596 Y124.874
N40520 X72.047 Y120.264
N40530 X72.514 Y115.656
N40540 X72.996 Y111.05
N40550 X73.492 Y106.446
N40560 X74.004 Y101.843
N40570 X74.531 Y97.241
N40580 X75.073 Y92.642
N40590 X75.597 Y88.352
N40600 X76.137 Y84.064
N40610 X76.691 Y79.778
N40620 X77.259 Y75.494
N40630 X77.843 Y71.212
N40640 X78.442 Y66.931
N40650 X79.055 Y62.653
N40660 X79.683 Y58.378
N40670 X80.326 Y54.104
N40680 X80.984 Y49.833
N40690 X81.656 Y45.564
N40700 X82.343 Y41.297
N40710 X83.046 Y37.032
N40720 X83.762 Y32.771
N40730 X84.494 Y28.511
N40740 X85.24 Y24.254
N40750 X86.001 Y20.
N40760 X86.777 Y15.749
N40770 X87.568 Y11.5
N40780 X88.373 Y7.254
N40790 X89.193 Y3.011
N40800 G2 X89.753 Y0.138 I-71.247 J-15.383
N40810 G1 X89.746 Y0.064
N40820 X89.747 Y0.027
N40830 Y0.009
N40840 Y0.
N40850 Y-0.007
N40860 G3 X91.015 Y-1.279 I1.27 J-0.002
N40870 G1 X91.157 Z34.662
N40880 X91.298 Y-1.28 Z34.686
N40890 X91.434 Z34.725
N40900 X91.566 Z34.78
N40910 X91.691 Z34.849
N40920 X91.807 Z34.931
N40930 X91.913 Z35.026
