%
(6FT-12INLEFTBTM)
(MACHINE)
(  VENDOR AUTODESK)
(  MODEL GENERIC 3-AXIS ROUTER)
(  DESCRIPTION THIS MACHINE HAS XYZ AXIS ON THE HEAD)
(T21 D=12.7 CR=0. - ZMIN=-12.7 - FLAT END MILL)
N10 G90 G94 G17 G91.1
N20 G21
(-ATTENTION- PROPERTY SAFE RETRACTS IS SET TO CLEARANCE HEIGHT.)
(ENSURE THE CLEARANCE HEIGHT WILL CLEAR THE PART AND OR FIXTURES.)
(RAISE THE Z-AXIS TO A SAFE HEIGHT BEFORE STARTING THE PROGRAM.)
(2D POCKET8)
N30 (T21 M6)
(FLAT END MILL D=12.7 12 END MILL)
N40 S20000 M3
N45 G4 P5.0
N50 G54
N60 G0 X46.636 Y-7.568
N70 Z15.
N80 G0 Z5.
N90 G1 Z-11.557 F333.33
N100 X46.637 Y-7.561 Z-11.685 F3000.
N110 X46.64 Y-7.54 Z-11.811
N120 X46.646 Y-7.505 Z-11.935
N130 X46.653 Y-7.456 Z-12.053
N140 X46.663 Y-7.395 Z-12.165
N150 X46.675 Y-7.322 Z-12.27
N160 X46.688 Y-7.238 Z-12.365
N170 X46.703 Y-7.143 Z-12.451
N180 X46.719 Y-7.04 Z-12.525
N190 X46.737 Y-6.929 Z-12.587
N200 X46.755 Y-6.812 Z-12.636
N210 X46.775 Y-6.691 Z-12.671
N220 X46.794 Y-6.566 Z-12.693
N230 X46.814 Y-6.439 Z-12.7
N240 X46.816 Y-6.432
N250 X46.827 Y-6.333
N260 X46.831 Y-6.233
N270 Y0.
N280 Y114.3
N290 X42.069
N300 Y0.
N310 Y-6.244
N320 X42.073 Y-6.344
N330 X42.084 Y-6.443
N340 X42.092 Y-6.492
N350 X42.114 Y-6.632 Z-12.692
N360 X42.136 Y-6.771 Z-12.668
N370 X42.158 Y-6.906 Z-12.629
N380 X42.178 Y-7.036 Z-12.574
N390 X42.198 Y-7.159 Z-12.505
N400 X42.216 Y-7.274 Z-12.423
N410 X42.233 Y-7.379 Z-12.328
N420 X42.248 Y-7.472 Z-12.222
N430 X42.26 Y-7.554 Z-12.106
N440 X42.271 Y-7.622 Z-11.981
N450 X42.28 Y-7.676 Z-11.849
N460 X42.286 Y-7.714 Z-11.713
N470 X42.29 Y-7.738 Z-11.572
N480 X42.291 Y-7.746 Z-11.43
N490 G0 Z15.
N500 X-7.348 Y203.203
N510 Z5.
N520 G1 Z-11.43 F333.33
N530 X-7.341 Y203.207 Z-11.572 F3000.
N540 X-7.323 Y203.222 Z-11.713
N550 X-7.292 Y203.247 Z-11.849
N560 X-7.249 Y203.281 Z-11.981
N570 X-7.195 Y203.323 Z-12.106
N580 X-7.13 Y203.374 Z-12.222
N590 X-7.056 Y203.433 Z-12.328
N600 X-6.972 Y203.499 Z-12.423
N610 X-6.881 Y203.571 Z-12.505
N620 X-6.784 Y203.648 Z-12.574
N630 X-6.68 Y203.73 Z-12.629
N640 X-6.573 Y203.815 Z-12.668
N650 X-6.463 Y203.902 Z-12.692
N660 X-6.351 Y203.99 Z-12.7
N670 X-6.246 Y204.074
N680 G2 X0.64 Y207.625 I12.534 J-15.852
N690 G3 X0.713 Y207.911 I-0.048 J0.165
N700 G1 X-6.123 Y214.685
N710 X-6.247 Y214.809
N720 G3 X-7.334 Y214.368 I-0.452 J-0.446
N730 G1 X-7.515 Y189.898
N740 G3 X-6.25 Y189.814 I0.635 J-0.005
N750 G2 X15.33 Y197.202 I12.6 J-1.592
N760 G1 X69.707 Y142.825
N770 X73.075 Y146.193
N780 X-0.77 Y220.038
N790 G2 X-6.249 Y231.546 I13.47 J13.47
N800 G1 X-6.254 Y231.596
N810 X-6.268 Y231.737 Z-12.692
N820 X-6.283 Y231.877 Z-12.668
N830 X-6.297 Y232.013 Z-12.629
N840 X-6.311 Y232.144 Z-12.574
N850 X-6.323 Y232.268 Z-12.505
N860 X-6.335 Y232.383 Z-12.423
N870 X-6.346 Y232.489 Z-12.328
N880 X-6.356 Y232.583 Z-12.222
N890 X-6.365 Y232.665 Z-12.106
N900 X-6.372 Y232.734 Z-11.981
N910 X-6.377 Y232.788 Z-11.849
N920 X-6.381 Y232.827 Z-11.713
N930 X-6.384 Y232.851 Z-11.572
N940 X-6.385 Y232.859 Z-11.43
N950 G0 Z15.
N960 X-7.348 Y335.976
N970 Z5.
N980 G1 Z-11.43 F333.33
N990 X-7.341 Y335.98 Z-11.572 F3000.
N1000 X-7.323 Y335.995 Z-11.713
N1010 X-7.292 Y336.02 Z-11.849
N1020 X-7.249 Y336.054 Z-11.981
N1030 X-7.195 Y336.096 Z-12.106
N1040 X-7.13 Y336.147 Z-12.222
N1050 X-7.056 Y336.206 Z-12.328
N1060 X-6.972 Y336.272 Z-12.423
N1070 X-6.881 Y336.344 Z-12.505
N1080 X-6.784 Y336.421 Z-12.574
N1090 X-6.68 Y336.503 Z-12.629
N1100 X-6.573 Y336.588 Z-12.668
N1110 X-6.463 Y336.675 Z-12.692
N1120 X-6.351 Y336.763 Z-12.7
N1130 X-6.246 Y336.847
N1140 G2 X0.64 Y340.398 I12.534 J-15.852
N1150 G3 X0.713 Y340.684 I-0.048 J0.165
N1160 G1 X-6.123 Y347.458
N1170 X-6.247 Y347.582
N1180 G3 X-7.334 Y347.141 I-0.452 J-0.446
N1190 G1 X-7.515 Y322.671
N1200 G3 X-6.25 Y322.587 I0.635 J-0.005
N1210 G2 X15.33 Y329.975 I12.6 J-1.592
N1220 G1 X69.707 Y275.598
N1230 X73.075 Y278.966
N1240 X-0.77 Y352.811
N1250 G2 X-6.249 Y364.319 I13.47 J13.47
N1260 G1 X-6.254 Y364.369
N1270 X-6.268 Y364.51 Z-12.692
N1280 X-6.283 Y364.65 Z-12.668
N1290 X-6.297 Y364.786 Z-12.629
N1300 X-6.311 Y364.917 Z-12.574
N1310 X-6.323 Y365.041 Z-12.505
N1320 X-6.335 Y365.156 Z-12.423
N1330 X-6.346 Y365.262 Z-12.328
N1340 X-6.356 Y365.356 Z-12.222
N1350 X-6.365 Y365.438 Z-12.106
N1360 X-6.372 Y365.507 Z-11.981
N1370 X-6.377 Y365.561 Z-11.849
N1380 X-6.381 Y365.6 Z-11.713
N1390 X-6.384 Y365.624 Z-11.572
N1400 X-6.385 Y365.632 Z-11.43
N1410 G0 Z15.
N1420 X-7.348 Y468.748
N1430 Z5.
N1440 G1 Z-11.43 F333.33
N1450 X-7.341 Y468.752 Z-11.572 F3000.
N1460 X-7.323 Y468.767 Z-11.713
N1470 X-7.292 Y468.792 Z-11.849
N1480 X-7.249 Y468.826 Z-11.981
N1490 X-7.195 Y468.868 Z-12.106
N1500 X-7.13 Y468.919 Z-12.222
N1510 X-7.056 Y468.978 Z-12.328
N1520 X-6.972 Y469.044 Z-12.423
N1530 X-6.881 Y469.116 Z-12.505
N1540 X-6.784 Y469.193 Z-12.574
N1550 X-6.68 Y469.275 Z-12.629
N1560 X-6.573 Y469.36 Z-12.668
N1570 X-6.463 Y469.447 Z-12.692
N1580 X-6.351 Y469.535 Z-12.7
N1590 X-6.246 Y469.619
N1600 G2 X0.641 Y473.17 I12.534 J-15.852
N1610 G3 X0.714 Y473.456 I-0.048 J0.165
N1620 G1 X-6.123 Y480.231
N1630 X-6.247 Y480.355
N1640 G3 X-7.334 Y479.914 I-0.452 J-0.446
N1650 G1 X-7.515 Y455.443
N1660 G3 X-6.25 Y455.359 I0.635 J-0.005
N1670 G2 X15.33 Y462.747 I12.6 J-1.592
N1680 G1 X69.707 Y408.371
N1690 X73.075 Y411.739
N1700 X-0.77 Y485.584
N1710 G2 X-6.249 Y497.092 I13.47 J13.47
N1720 G1 X-6.254 Y497.142
N1730 X-6.268 Y497.283 Z-12.692
N1740 X-6.283 Y497.423 Z-12.668
N1750 X-6.297 Y497.559 Z-12.629
N1760 X-6.311 Y497.69 Z-12.574
N1770 X-6.323 Y497.814 Z-12.505
N1780 X-6.335 Y497.929 Z-12.423
N1790 X-6.346 Y498.035 Z-12.328
N1800 X-6.356 Y498.129 Z-12.222
N1810 X-6.365 Y498.211 Z-12.106
N1820 X-6.372 Y498.28 Z-11.981
N1830 X-6.377 Y498.334 Z-11.849
N1840 X-6.381 Y498.373 Z-11.713
N1850 X-6.384 Y498.397 Z-11.572
N1860 X-6.385 Y498.405 Z-11.43
N1870 G0 Z15.
N1880 X-7.348 Y601.521
N1890 Z5.
N1900 G1 Z-11.43 F333.33
N1910 X-7.341 Y601.525 Z-11.572 F3000.
N1920 X-7.323 Y601.54 Z-11.713
N1930 X-7.292 Y601.565 Z-11.849
N1940 X-7.249 Y601.599 Z-11.981
N1950 X-7.195 Y601.641 Z-12.106
N1960 X-7.13 Y601.692 Z-12.222
N1970 X-7.056 Y601.751 Z-12.328
N1980 X-6.972 Y601.817 Z-12.423
N1990 X-6.881 Y601.889 Z-12.505
N2000 X-6.784 Y601.966 Z-12.574
N2010 X-6.68 Y602.048 Z-12.629
N2020 X-6.573 Y602.133 Z-12.668
N2030 X-6.463 Y602.22 Z-12.692
N2040 X-6.351 Y602.308 Z-12.7
N2050 X-6.246 Y602.392
N2060 G2 X0.64 Y605.943 I12.534 J-15.852
N2070 G3 X0.713 Y606.229 I-0.048 J0.165
N2080 G1 X-6.123 Y613.003
N2090 X-6.247 Y613.128
N2100 G3 X-7.334 Y612.686 I-0.452 J-0.446
N2110 G1 X-7.515 Y588.216
N2120 G3 X-6.25 Y588.132 I0.635 J-0.005
N2130 G2 X15.33 Y595.52 I12.6 J-1.592
N2140 G1 X69.707 Y541.143
N2150 X73.075 Y544.511
N2160 X-0.77 Y618.356
N2170 G2 X-6.249 Y629.864 I13.471 J13.47
N2180 G1 X-6.254 Y629.914
N2190 X-6.268 Y630.055 Z-12.692
N2200 X-6.283 Y630.195 Z-12.668
N2210 X-6.297 Y630.331 Z-12.629
N2220 X-6.311 Y630.462 Z-12.574
N2230 X-6.323 Y630.586 Z-12.505
N2240 X-6.335 Y630.701 Z-12.423
N2250 X-6.346 Y630.807 Z-12.328
N2260 X-6.356 Y630.901 Z-12.222
N2270 X-6.365 Y630.983 Z-12.106
N2280 X-6.372 Y631.052 Z-11.981
N2290 X-6.377 Y631.106 Z-11.849
N2300 X-6.381 Y631.145 Z-11.713
N2310 X-6.384 Y631.169 Z-11.572
N2320 X-6.385 Y631.177 Z-11.43
N2330 G0 Z15.
N2340 X-7.348 Y734.294
N2350 Z5.
N2360 G1 Z-11.43 F333.33
N2370 X-7.341 Y734.298 Z-11.572 F3000.
N2380 X-7.323 Y734.313 Z-11.713
N2390 X-7.292 Y734.338 Z-11.849
N2400 X-7.249 Y734.372 Z-11.981
N2410 X-7.195 Y734.414 Z-12.106
N2420 X-7.13 Y734.465 Z-12.222
N2430 X-7.056 Y734.524 Z-12.328
N2440 X-6.972 Y734.59 Z-12.423
N2450 X-6.881 Y734.662 Z-12.505
N2460 X-6.784 Y734.739 Z-12.574
N2470 X-6.68 Y734.821 Z-12.629
N2480 X-6.573 Y734.906 Z-12.668
N2490 X-6.463 Y734.993 Z-12.692
N2500 X-6.351 Y735.081 Z-12.7
N2510 X-6.246 Y735.165
N2520 G2 X0.64 Y738.716 I12.534 J-15.852
N2530 G3 X0.713 Y739.002 I-0.048 J0.165
N2540 G1 X-6.123 Y745.776
N2550 X-6.247 Y745.901
N2560 G3 X-7.334 Y745.459 I-0.452 J-0.446
N2570 G1 X-7.515 Y720.989
N2580 G3 X-6.25 Y720.905 I0.635 J-0.005
N2590 G2 X15.33 Y728.293 I12.6 J-1.592
N2600 G1 X69.707 Y673.916
N2610 X73.075 Y677.284
N2620 X-0.77 Y751.129
N2630 G2 X-6.249 Y762.637 I13.47 J13.47
N2640 G1 X-6.254 Y762.687
N2650 X-6.268 Y762.828 Z-12.692
N2660 X-6.283 Y762.968 Z-12.668
N2670 X-6.297 Y763.104 Z-12.629
N2680 X-6.311 Y763.235 Z-12.574
N2690 X-6.323 Y763.359 Z-12.505
N2700 X-6.335 Y763.474 Z-12.423
N2710 X-6.346 Y763.58 Z-12.328
N2720 X-6.356 Y763.674 Z-12.222
N2730 X-6.365 Y763.756 Z-12.106
N2740 X-6.372 Y763.825 Z-11.981
N2750 X-6.377 Y763.879 Z-11.849
N2760 X-6.381 Y763.918 Z-11.713
N2770 X-6.384 Y763.942 Z-11.572
N2780 X-6.385 Y763.95 Z-11.43
N2790 G0 Z15.
N2800 X-7.348 Y867.067
N2810 Z5.
N2820 G1 Z-11.43 F333.33
N2830 X-7.341 Y867.071 Z-11.572 F3000.
N2840 X-7.323 Y867.086 Z-11.713
N2850 X-7.292 Y867.111 Z-11.849
N2860 X-7.249 Y867.145 Z-11.981
N2870 X-7.195 Y867.187 Z-12.106
N2880 X-7.13 Y867.238 Z-12.222
N2890 X-7.056 Y867.297 Z-12.328
N2900 X-6.972 Y867.363 Z-12.423
N2910 X-6.881 Y867.435 Z-12.505
N2920 X-6.784 Y867.512 Z-12.574
N2930 X-6.68 Y867.594 Z-12.629
N2940 X-6.573 Y867.679 Z-12.668
N2950 X-6.463 Y867.766 Z-12.692
N2960 X-6.351 Y867.854 Z-12.7
N2970 X-6.246 Y867.938
N2980 G2 X0.64 Y871.489 I12.534 J-15.852
N2990 G3 X0.713 Y871.775 I-0.048 J0.165
N3000 G1 X-6.123 Y878.549
N3010 X-6.247 Y878.673
N3020 G3 X-7.334 Y878.232 I-0.452 J-0.446
N3030 G1 X-7.515 Y853.762
N3040 G3 X-6.25 Y853.678 I0.635 J-0.005
N3050 G2 X15.33 Y861.066 I12.6 J-1.592
N3060 G1 X69.707 Y806.689
N3070 X73.075 Y810.057
N3080 X-0.77 Y883.902
N3090 G2 X-6.249 Y895.41 I13.47 J13.47
N3100 G1 X-6.254 Y895.46
N3110 X-6.268 Y895.601 Z-12.692
N3120 X-6.283 Y895.741 Z-12.668
N3130 X-6.297 Y895.877 Z-12.629
N3140 X-6.311 Y896.008 Z-12.574
N3150 X-6.323 Y896.132 Z-12.505
N3160 X-6.335 Y896.247 Z-12.423
N3170 X-6.346 Y896.353 Z-12.328
N3180 X-6.356 Y896.447 Z-12.222
N3190 X-6.365 Y896.529 Z-12.106
N3200 X-6.372 Y896.598 Z-11.981
N3210 X-6.377 Y896.652 Z-11.849
N3220 X-6.381 Y896.691 Z-11.713
N3230 X-6.384 Y896.715 Z-11.572
N3240 X-6.385 Y896.723 Z-11.43
N3250 G0 Z15.
N3260 X-7.348 Y999.839
N3270 Z5.
N3280 G1 Z-11.43 F333.33
N3290 X-7.341 Y999.844 Z-11.572 F3000.
N3300 X-7.323 Y999.858 Z-11.713
N3310 X-7.292 Y999.883 Z-11.849
N3320 X-7.249 Y999.917 Z-11.981
N3330 X-7.195 Y999.959 Z-12.106
N3340 X-7.13 Y1000.01 Z-12.222
N3350 X-7.056 Y1000.069 Z-12.328
N3360 X-6.972 Y1000.135 Z-12.423
N3370 X-6.881 Y1000.207 Z-12.505
N3380 X-6.784 Y1000.284 Z-12.574
N3390 X-6.68 Y1000.366 Z-12.629
N3400 X-6.573 Y1000.451 Z-12.668
N3410 X-6.463 Y1000.538 Z-12.692
N3420 X-6.351 Y1000.626 Z-12.7
N3430 X-6.246 Y1000.71
N3440 G2 X0.637 Y1004.26 I12.534 J-15.852
N3450 G3 X0.71 Y1004.546 I-0.048 J0.165
N3460 G1 X-6.123 Y1011.317
N3470 X-6.247 Y1011.441
N3480 G3 X-7.334 Y1011. I-0.452 J-0.446
N3490 G1 X-7.515 Y986.534
N3500 G3 X-6.25 Y986.45 I0.635 J-0.005
N3510 G2 X15.33 Y993.838 I12.6 J-1.592
N3520 G1 X69.707 Y939.462
N3530 X73.074 Y942.829
N3540 X-0.77 Y1016.67
N3550 G2 X-6.249 Y1028.178 I13.47 J13.471
N3560 G1 X-6.254 Y1028.228
N3570 X-6.268 Y1028.369 Z-12.692
N3580 X-6.283 Y1028.509 Z-12.668
N3590 X-6.297 Y1028.645 Z-12.629
N3600 X-6.311 Y1028.776 Z-12.574
N3610 X-6.323 Y1028.9 Z-12.505
N3620 X-6.335 Y1029.015 Z-12.423
N3630 X-6.346 Y1029.121 Z-12.328
N3640 X-6.356 Y1029.215 Z-12.222
N3650 X-6.365 Y1029.297 Z-12.106
N3660 X-6.372 Y1029.366 Z-11.981
N3670 X-6.377 Y1029.42 Z-11.849
N3680 X-6.381 Y1029.459 Z-11.713
N3690 X-6.384 Y1029.483 Z-11.572
N3700 X-6.385 Y1029.491 Z-11.43
N3710 G0 Z15.
N3720 X-7.347 Y1132.61
N3730 Z5.
N3740 G1 Z-11.43 F333.33
N3750 X-7.341 Y1132.615 Z-11.572 F3000.
N3760 X-7.322 Y1132.63 Z-11.713
N3770 X-7.291 Y1132.655 Z-11.849
N3780 X-7.249 Y1132.688 Z-11.981
N3790 X-7.194 Y1132.731 Z-12.106
N3800 X-7.13 Y1132.782 Z-12.222
N3810 X-7.055 Y1132.841 Z-12.328
N3820 X-6.972 Y1132.907 Z-12.423
N3830 X-6.881 Y1132.979 Z-12.505
N3840 X-6.783 Y1133.056 Z-12.574
N3850 X-6.68 Y1133.138 Z-12.629
N3860 X-6.573 Y1133.223 Z-12.668
N3870 X-6.462 Y1133.31 Z-12.692
N3880 X-6.351 Y1133.398 Z-12.7
N3890 X-6.245 Y1133.482
N3900 G2 X0.639 Y1137.032 I12.533 J-15.852
N3910 G3 X0.714 Y1137.324 I-0.049 J0.168
N3920 G1 X-6.123 Y1144.097
N3930 X-6.247 Y1144.221
N3940 G3 X-7.334 Y1143.78 I-0.452 J-0.446
N3950 G1 X-7.515 Y1119.306
N3960 G3 X-6.25 Y1119.222 I0.635 J-0.005
N3970 G2 X15.33 Y1126.61 I12.6 J-1.592
N3980 G1 X69.707 Y1072.235
N3990 X73.075 Y1075.605
N4000 X-0.77 Y1149.45
N4010 G2 X-6.249 Y1160.958 I13.47 J13.47
N4020 G1 X-6.254 Y1161.008
N4030 X-6.268 Y1161.149 Z-12.692
N4040 X-6.283 Y1161.289 Z-12.668
N4050 X-6.297 Y1161.425 Z-12.629
N4060 X-6.311 Y1161.556 Z-12.574
N4070 X-6.323 Y1161.68 Z-12.505
N4080 X-6.335 Y1161.795 Z-12.423
N4090 X-6.346 Y1161.901 Z-12.328
N4100 X-6.356 Y1161.995 Z-12.222
N4110 X-6.365 Y1162.077 Z-12.106
N4120 X-6.372 Y1162.146 Z-11.981
N4130 X-6.377 Y1162.2 Z-11.849
N4140 X-6.381 Y1162.239 Z-11.713
N4150 X-6.384 Y1162.263 Z-11.572
N4160 X-6.385 Y1162.271 Z-11.43
N4170 G0 Z15.
N4180 X-7.347 Y1265.38
N4190 Z5.
N4200 G1 Z-11.43 F333.33
N4210 X-7.341 Y1265.385 Z-11.572 F3000.
N4220 X-7.322 Y1265.4 Z-11.713
N4230 X-7.291 Y1265.425 Z-11.849
N4240 X-7.249 Y1265.458 Z-11.981
N4250 X-7.194 Y1265.501 Z-12.106
N4260 X-7.13 Y1265.552 Z-12.222
N4270 X-7.055 Y1265.611 Z-12.328
N4280 X-6.972 Y1265.677 Z-12.423
N4290 X-6.881 Y1265.749 Z-12.505
N4300 X-6.783 Y1265.826 Z-12.574
N4310 X-6.68 Y1265.908 Z-12.629
N4320 X-6.573 Y1265.993 Z-12.668
N4330 X-6.462 Y1266.08 Z-12.692
N4340 X-6.351 Y1266.168 Z-12.7
N4350 X-6.245 Y1266.252
N4360 G2 X0.639 Y1269.802 I12.533 J-15.852
N4370 G3 X0.714 Y1270.094 I-0.049 J0.168
N4380 G1 X-6.123 Y1276.867
N4390 X-6.247 Y1276.991
N4400 G3 X-7.334 Y1276.55 I-0.452 J-0.446
N4410 G1 X-7.515 Y1252.076
N4420 G3 X-6.25 Y1251.992 I0.635 J-0.005
N4430 G2 X15.33 Y1259.38 I12.6 J-1.592
N4440 G1 X69.707 Y1205.005
N4450 X73.075 Y1208.375
N4460 X-0.77 Y1282.22
N4470 G2 X-6.249 Y1293.728 I13.47 J13.47
N4480 G1 X-6.254 Y1293.778
N4490 X-6.268 Y1293.919 Z-12.692
N4500 X-6.283 Y1294.059 Z-12.668
N4510 X-6.297 Y1294.195 Z-12.629
N4520 X-6.311 Y1294.326 Z-12.574
N4530 X-6.323 Y1294.45 Z-12.505
N4540 X-6.335 Y1294.565 Z-12.423
N4550 X-6.346 Y1294.671 Z-12.328
N4560 X-6.356 Y1294.765 Z-12.222
N4570 X-6.365 Y1294.847 Z-12.106
N4580 X-6.372 Y1294.916 Z-11.981
N4590 X-6.377 Y1294.97 Z-11.849
N4600 X-6.381 Y1295.009 Z-11.713
N4610 X-6.384 Y1295.033 Z-11.572
N4620 X-6.385 Y1295.041 Z-11.43
N4630 G0 Z15.
N4632 G4 P0.5
N4635 G0 X0 Y0
N4640 M30
%
