%
(6FT-LEFTBTM)
(MACHINE)
(  VENDOR AUTODESK)
(  MODEL GENERIC 3-AXIS ROUTER)
(  DESCRIPTION THIS MACHINE HAS XYZ AXIS ON THE HEAD)
(T20 D=6.35 CR=0. - ZMIN=-12.7 - FLAT END MILL)
N10 G90 G94 G17 G91.1
N20 G21
(-ATTENTION- PROPERTY SAFE RETRACTS IS SET TO CLEARANCE HEIGHT.)
(ENSURE THE CLEARANCE HEIGHT WILL CLEAR THE PART AND OR FIXTURES.)
(RAISE THE Z-AXIS TO A SAFE HEIGHT BEFORE STARTING THE PROGRAM.)
(BOTTOMLEFT)
N30 (T20 M6)
(FLAT END MILL D=6.35 4MM FLAT ENDMILL)
N40 S20000 M3
N45 G4 P5.0
N50 G54
N60 G0 X46.291 Y-4.078
N70 Z15.
N80 G0 Z5.
N90 G1 Z-5.715 F1000.
N100 G19 G3 Y-3.443 Z-6.35 J0.635 K0. F3000.
N110 G1 Y-3.075
N120 Y113.441
N130 G17 G3 X45.972 Y113.76 I-0.319 J0.
N140 G1 X42.928
N150 G3 X42.609 Y113.441 I0. J-0.319
N160 G1 Y-3.07
N170 G3 X42.926 Y-3.387 I0.318 J0.
N180 G1 X49.689 Y-3.388
N190 G3 X50.006 Y-3.07 I0. J0.318
N200 G1 Y0.
N210 Y117.475
N220 X38.894
N230 Y0.
N240 Y-3.063
N250 G3 X39.151 Y-3.375 I0.317 J0.
N260 G1 X45.913 Y-4.686
N270 G3 X46.291 Y-4.375 I0.06 J0.312
N280 G19 G2 Y-3.74 Z-6.985 J0. K-0.635
N290 G1 Z-12.065
N300 G3 Y-3.105 Z-12.7 J0.635 K0.
N310 G1 Y-3.075
N320 Y113.441
N330 G17 G3 X45.972 Y113.76 I-0.319 J0.
N340 G1 X42.928
N350 G3 X42.609 Y113.441 I0. J-0.319
N360 G1 Y-3.07
N370 G3 X42.926 Y-3.387 I0.318 J0.
N380 G1 X49.689 Y-3.388
N390 G3 X50.006 Y-3.07 I0. J0.318
N400 G1 Y0.
N410 Y117.475
N420 X38.894
N430 Y0.
N440 Y-3.063
N450 X38.902 Y-3.163
N460 X38.944 Y-3.432
N470 X38.96 Y-3.53 Z-12.692
N480 X38.975 Y-3.626 Z-12.669
N490 X38.989 Y-3.717 Z-12.631
N500 X39.003 Y-3.801 Z-12.579
N510 X39.015 Y-3.876 Z-12.514
N520 X39.025 Y-3.94 Z-12.438
N530 X39.033 Y-3.991 Z-12.353
N540 X39.039 Y-4.029 Z-12.261
N550 X39.042 Y-4.052 Z-12.164
N560 X39.044 Y-4.059 Z-12.065
N570 G0 Z15.
N580 X-4.08 Y206.108
N590 Z5.
N600 G1 Z-5.715 F1000.
N610 X-4.073 Y206.111 Z-5.814 F3000.
N620 X-4.052 Y206.122 Z-5.911
N630 X-4.018 Y206.139 Z-6.003
N640 X-3.972 Y206.163 Z-6.088
N650 X-3.914 Y206.192 Z-6.164
N660 X-3.847 Y206.226 Z-6.229
N670 X-3.771 Y206.265 Z-6.281
N680 X-3.689 Y206.306 Z-6.319
N690 X-3.602 Y206.35 Z-6.342
N700 X-3.514 Y206.395 Z-6.35
N710 X-3.067 Y206.622
N720 G2 X-0.175 Y207.825 I9.351 J-18.4
N730 G3 X-0.107 Y208.116 I-0.055 J0.166
N740 X-3.068 Y211.049 I-311.148 J-311.149
N750 X-3.608 Y210.821 I-0.222 J-0.227
N760 G1 X-3.567 Y202.606
N770 G3 X-3.074 Y202.343 I0.317 J0.002
N780 G2 X7.829 Y205.108 I9.383 J-14.121
N790 G1 X7.873 Y205.112
N800 X7.913 Y205.131
N810 X7.945 Y205.162
N820 X7.963 Y205.202
N830 X7.967 Y205.246
N840 X7.956 Y205.289
N850 X7.93 Y205.325
N860 X-3.07 Y216.267
N870 G3 X-3.611 Y216.042 I-0.224 J-0.225
N880 G1 X-3.61 Y197.816
N890 G3 X-3.067 Y197.592 I0.317 J0.
N900 G2 X15.744 Y197.616 I9.417 J-9.37
N910 G1 X69.481 Y143.815
N920 G3 X69.933 I0.226 J0.226
N930 G1 X72.085 Y145.967
N940 G3 Y146.419 I-0.226 J0.226
N950 G1 X-1.184 Y219.624
N960 G2 X-3.07 Y221.811 I13.884 J13.884
N970 G3 X-3.643 Y221.622 I-0.255 J-0.189
N980 G1 X-3.706 Y189.647
N990 G3 X-3.075 Y189.601 I0.317 J-0.001
N1000 G2 X13.085 Y194.957 I9.425 J-1.379
N1010 G1 X69.707 Y138.335
N1020 X77.565 Y146.193
N1030 X1.475 Y222.283
N1040 G2 X-3.075 Y231.729 I11.225 J11.225
N1050 G3 X-3.708 Y231.705 I-0.315 J-0.036
N1060 G1 X-4.687 Y206.329
N1070 G3 X-4.226 Y206.033 I0.317 J-0.012
N1080 G1 X-4.137 Y206.078 Z-6.358
N1090 X-4.051 Y206.122 Z-6.381
N1100 X-3.969 Y206.164 Z-6.419
N1110 X-3.893 Y206.203 Z-6.471
N1120 X-3.826 Y206.237 Z-6.536
N1130 X-3.768 Y206.266 Z-6.612
N1140 X-3.722 Y206.29 Z-6.697
N1150 X-3.688 Y206.307 Z-6.789
N1160 X-3.667 Y206.318 Z-6.886
N1170 X-3.66 Y206.321 Z-6.985
N1180 Z-12.065
N1190 X-3.653 Y206.325 Z-12.164
N1200 X-3.632 Y206.335 Z-12.261
N1210 X-3.598 Y206.352 Z-12.353
N1220 X-3.552 Y206.376 Z-12.438
N1230 X-3.494 Y206.405 Z-12.514
N1240 X-3.426 Y206.44 Z-12.579
N1250 X-3.351 Y206.478 Z-12.631
N1260 X-3.269 Y206.52 Z-12.669
N1270 X-3.182 Y206.564 Z-12.692
N1280 X-3.094 Y206.609 Z-12.7
N1290 X-3.067 Y206.622
N1300 G2 X-0.175 Y207.825 I9.351 J-18.4
N1310 G3 X-0.107 Y208.116 I-0.055 J0.166
N1320 X-3.068 Y211.049 I-311.148 J-311.149
N1330 X-3.608 Y210.821 I-0.222 J-0.227
N1340 G1 X-3.567 Y202.606
N1350 G3 X-3.074 Y202.343 I0.317 J0.002
N1360 G2 X7.829 Y205.108 I9.383 J-14.121
N1370 G1 X7.873 Y205.112
N1380 X7.913 Y205.131
N1390 X7.945 Y205.162
N1400 X7.963 Y205.202
N1410 X7.967 Y205.246
N1420 X7.956 Y205.289
N1430 X7.93 Y205.325
N1440 X-3.07 Y216.267
N1450 G3 X-3.611 Y216.042 I-0.224 J-0.225
N1460 G1 X-3.61 Y197.816
N1470 G3 X-3.067 Y197.592 I0.317 J0.
N1480 G2 X15.744 Y197.616 I9.417 J-9.37
N1490 G1 X69.481 Y143.815
N1500 G3 X69.933 I0.226 J0.226
N1510 G1 X72.085 Y145.967
N1520 G3 Y146.419 I-0.226 J0.226
N1530 G1 X-1.184 Y219.624
N1540 G2 X-3.07 Y221.811 I13.884 J13.884
N1550 G3 X-3.643 Y221.622 I-0.255 J-0.189
N1560 G1 X-3.706 Y189.647
N1570 G3 X-3.075 Y189.601 I0.317 J-0.001
N1580 G2 X13.085 Y194.957 I9.425 J-1.379
N1590 G1 X69.707 Y138.335
N1600 X77.565 Y146.193
N1610 X1.475 Y222.283
N1620 G2 X-3.075 Y231.729 I11.225 J11.225
N1630 G1 X-3.117 Y232.099
N1640 X-3.128 Y232.197 Z-12.692
N1650 X-3.139 Y232.294 Z-12.669
N1660 X-3.149 Y232.385 Z-12.631
N1670 X-3.159 Y232.469 Z-12.579
N1680 X-3.167 Y232.545 Z-12.514
N1690 X-3.174 Y232.609 Z-12.438
N1700 X-3.18 Y232.661 Z-12.353
N1710 X-3.184 Y232.699 Z-12.261
N1720 X-3.187 Y232.722 Z-12.164
N1730 X-3.188 Y232.73 Z-12.065
N1740 G0 Z15.
N1750 X-4.08 Y338.881
N1760 Z5.
N1770 G1 Z-5.715 F1000.
N1780 X-4.073 Y338.884 Z-5.814 F3000.
N1790 X-4.052 Y338.895 Z-5.911
N1800 X-4.018 Y338.912 Z-6.003
N1810 X-3.972 Y338.936 Z-6.088
N1820 X-3.914 Y338.965 Z-6.164
N1830 X-3.847 Y338.999 Z-6.229
N1840 X-3.771 Y339.038 Z-6.281
N1850 X-3.689 Y339.079 Z-6.319
N1860 X-3.602 Y339.123 Z-6.342
N1870 X-3.514 Y339.168 Z-6.35
N1880 X-3.067 Y339.395
N1890 G2 X-0.175 Y340.598 I9.351 J-18.4
N1900 G3 X-0.107 Y340.889 I-0.055 J0.166
N1910 X-3.068 Y343.822 I-311.148 J-311.149
N1920 X-3.608 Y343.594 I-0.222 J-0.227
N1930 G1 X-3.567 Y335.379
N1940 G3 X-3.074 Y335.116 I0.317 J0.002
N1950 G2 X7.829 Y337.881 I9.383 J-14.121
N1960 G1 X7.873 Y337.885
N1970 X7.913 Y337.904
N1980 X7.945 Y337.935
N1990 X7.963 Y337.975
N2000 X7.967 Y338.019
N2010 X7.956 Y338.062
N2020 X7.93 Y338.098
N2030 X-3.07 Y349.04
N2040 G3 X-3.611 Y348.815 I-0.224 J-0.225
N2050 G1 X-3.61 Y330.589
N2060 G3 X-3.067 Y330.365 I0.317 J0.
N2070 G2 X15.744 Y330.389 I9.417 J-9.37
N2080 G1 X69.481 Y276.588
N2090 G3 X69.933 I0.226 J0.226
N2100 G1 X72.085 Y278.74
N2110 G3 Y279.192 I-0.226 J0.226
N2120 G1 X-1.184 Y352.397
N2130 G2 X-3.07 Y354.584 I13.884 J13.884
N2140 G3 X-3.643 Y354.395 I-0.255 J-0.189
N2150 G1 X-3.706 Y322.42
N2160 G3 X-3.075 Y322.374 I0.317 J-0.001
N2170 G2 X13.085 Y327.73 I9.425 J-1.379
N2180 G1 X69.707 Y271.108
N2190 X77.565 Y278.966
N2200 X1.475 Y355.056
N2210 G2 X-3.075 Y364.502 I11.225 J11.225
N2220 G3 X-3.708 Y364.478 I-0.315 J-0.036
N2230 G1 X-4.687 Y339.102
N2240 G3 X-4.226 Y338.806 I0.317 J-0.012
N2250 G1 X-4.137 Y338.851 Z-6.358
N2260 X-4.051 Y338.895 Z-6.381
N2270 X-3.969 Y338.937 Z-6.419
N2280 X-3.893 Y338.976 Z-6.471
N2290 X-3.826 Y339.01 Z-6.536
N2300 X-3.768 Y339.039 Z-6.612
N2310 X-3.722 Y339.063 Z-6.697
N2320 X-3.688 Y339.08 Z-6.789
N2330 X-3.667 Y339.091 Z-6.886
N2340 X-3.66 Y339.094 Z-6.985
N2350 Z-12.065
N2360 X-3.653 Y339.098 Z-12.164
N2370 X-3.632 Y339.108 Z-12.261
N2380 X-3.598 Y339.125 Z-12.353
N2390 X-3.552 Y339.149 Z-12.438
N2400 X-3.494 Y339.178 Z-12.514
N2410 X-3.426 Y339.213 Z-12.579
N2420 X-3.351 Y339.251 Z-12.631
N2430 X-3.269 Y339.293 Z-12.669
N2440 X-3.182 Y339.337 Z-12.692
N2450 X-3.094 Y339.382 Z-12.7
N2460 X-3.067 Y339.395
N2470 G2 X-0.175 Y340.598 I9.351 J-18.4
N2480 G3 X-0.107 Y340.889 I-0.055 J0.166
N2490 X-3.068 Y343.822 I-311.148 J-311.149
N2500 X-3.608 Y343.594 I-0.222 J-0.227
N2510 G1 X-3.567 Y335.379
N2520 G3 X-3.074 Y335.116 I0.317 J0.002
N2530 G2 X7.829 Y337.881 I9.383 J-14.121
N2540 G1 X7.873 Y337.885
N2550 X7.913 Y337.904
N2560 X7.945 Y337.935
N2570 X7.963 Y337.975
N2580 X7.967 Y338.019
N2590 X7.956 Y338.062
N2600 X7.93 Y338.098
N2610 X-3.07 Y349.04
N2620 G3 X-3.611 Y348.815 I-0.224 J-0.225
N2630 G1 X-3.61 Y330.589
N2640 G3 X-3.067 Y330.365 I0.317 J0.
N2650 G2 X15.744 Y330.389 I9.417 J-9.37
N2660 G1 X69.481 Y276.588
N2670 G3 X69.933 I0.226 J0.226
N2680 G1 X72.085 Y278.74
N2690 G3 Y279.192 I-0.226 J0.226
N2700 G1 X-1.184 Y352.397
N2710 G2 X-3.07 Y354.584 I13.884 J13.884
N2720 G3 X-3.643 Y354.395 I-0.255 J-0.189
N2730 G1 X-3.706 Y322.42
N2740 G3 X-3.075 Y322.374 I0.317 J-0.001
N2750 G2 X13.085 Y327.73 I9.425 J-1.379
N2760 G1 X69.707 Y271.108
N2770 X77.565 Y278.966
N2780 X1.475 Y355.056
N2790 G2 X-3.075 Y364.502 I11.225 J11.225
N2800 G1 X-3.117 Y364.872
N2810 X-3.128 Y364.97 Z-12.692
N2820 X-3.139 Y365.067 Z-12.669
N2830 X-3.149 Y365.158 Z-12.631
N2840 X-3.159 Y365.242 Z-12.579
N2850 X-3.167 Y365.318 Z-12.514
N2860 X-3.174 Y365.382 Z-12.438
N2870 X-3.18 Y365.434 Z-12.353
N2880 X-3.184 Y365.472 Z-12.261
N2890 X-3.187 Y365.495 Z-12.164
N2900 X-3.188 Y365.503 Z-12.065
N2910 G0 Z15.
N2920 X-4.08 Y471.653
N2930 Z5.
N2940 G1 Z-5.715 F1000.
N2950 X-4.073 Y471.656 Z-5.814 F3000.
N2960 X-4.052 Y471.667 Z-5.911
N2970 X-4.018 Y471.684 Z-6.003
N2980 X-3.972 Y471.708 Z-6.088
N2990 X-3.914 Y471.737 Z-6.164
N3000 X-3.847 Y471.771 Z-6.229
N3010 X-3.771 Y471.81 Z-6.281
N3020 X-3.689 Y471.851 Z-6.319
N3030 X-3.602 Y471.895 Z-6.342
N3040 X-3.514 Y471.94 Z-6.35
N3050 X-3.067 Y472.167
N3060 G2 X-0.174 Y473.371 I9.351 J-18.4
N3070 G3 X-0.106 Y473.661 I-0.055 J0.166
N3080 X-3.075 Y476.602 I-311.223 J-311.223
N3090 X-3.615 Y476.373 I-0.222 J-0.227
N3100 G1 X-3.567 Y468.151
N3110 G3 X-3.074 Y467.888 I0.317 J0.002
N3120 G2 X7.83 Y470.653 I9.383 J-14.121
N3130 G1 X7.874 Y470.657
N3140 X7.914 Y470.676
N3150 X7.946 Y470.707
N3160 X7.965 Y470.747
N3170 X7.968 Y470.791
N3180 X7.957 Y470.834
N3190 X7.931 Y470.87
N3200 X-3.068 Y481.812
N3210 G3 X-3.61 Y481.587 I-0.224 J-0.225
N3220 G1 Y463.361
N3230 G3 X-3.067 Y463.137 I0.317 J0.
N3240 G2 X15.744 Y463.161 I9.417 J-9.37
N3250 G1 X69.481 Y409.361
N3260 G3 X69.933 I0.226 J0.226
N3270 G1 X72.085 Y411.513
N3280 G3 Y411.964 I-0.226 J0.226
N3290 G1 X-1.184 Y485.17
N3300 G2 X-3.07 Y487.357 I13.884 J13.884
N3310 G3 X-3.643 Y487.168 I-0.255 J-0.189
N3320 G1 X-3.706 Y455.192
N3330 G3 X-3.075 Y455.146 I0.317 J-0.001
N3340 G2 X13.085 Y460.502 I9.425 J-1.379
N3350 G1 X69.707 Y403.881
N3360 X77.565 Y411.738
N3370 X1.475 Y487.829
N3380 G2 X-3.075 Y497.275 I11.225 J11.225
N3390 G3 X-3.708 Y497.251 I-0.315 J-0.036
N3400 G1 X-4.687 Y471.874
N3410 G3 X-4.226 Y471.578 I0.317 J-0.012
N3420 G1 X-4.137 Y471.623 Z-6.358
N3430 X-4.051 Y471.667 Z-6.381
N3440 X-3.969 Y471.709 Z-6.419
N3450 X-3.893 Y471.748 Z-6.471
N3460 X-3.826 Y471.782 Z-6.536
N3470 X-3.768 Y471.811 Z-6.612
N3480 X-3.722 Y471.835 Z-6.697
N3490 X-3.688 Y471.852 Z-6.789
N3500 X-3.667 Y471.863 Z-6.886
N3510 X-3.66 Y471.866 Z-6.985
N3520 Z-12.065
N3530 X-3.653 Y471.87 Z-12.164
N3540 X-3.632 Y471.88 Z-12.261
N3550 X-3.598 Y471.897 Z-12.353
N3560 X-3.552 Y471.921 Z-12.438
N3570 X-3.494 Y471.95 Z-12.514
N3580 X-3.426 Y471.985 Z-12.579
N3590 X-3.351 Y472.023 Z-12.631
N3600 X-3.269 Y472.065 Z-12.669
N3610 X-3.182 Y472.109 Z-12.692
N3620 X-3.094 Y472.154 Z-12.7
N3630 X-3.067 Y472.167
N3640 G2 X-0.174 Y473.371 I9.351 J-18.4
N3650 G3 X-0.106 Y473.661 I-0.055 J0.166
N3660 X-3.075 Y476.602 I-311.223 J-311.223
N3670 X-3.615 Y476.373 I-0.222 J-0.227
N3680 G1 X-3.567 Y468.151
N3690 G3 X-3.074 Y467.888 I0.317 J0.002
N3700 G2 X7.83 Y470.653 I9.383 J-14.121
N3710 G1 X7.874 Y470.657
N3720 X7.914 Y470.676
N3730 X7.946 Y470.707
N3740 X7.965 Y470.747
N3750 X7.968 Y470.791
N3760 X7.957 Y470.834
N3770 X7.931 Y470.87
N3780 X-3.068 Y481.812
N3790 G3 X-3.61 Y481.587 I-0.224 J-0.225
N3800 G1 Y463.361
N3810 G3 X-3.067 Y463.137 I0.317 J0.
N3820 G2 X15.744 Y463.161 I9.417 J-9.37
N3830 G1 X69.481 Y409.361
N3840 G3 X69.933 I0.226 J0.226
N3850 G1 X72.085 Y411.513
N3860 G3 Y411.964 I-0.226 J0.226
N3870 G1 X-1.184 Y485.17
N3880 G2 X-3.07 Y487.357 I13.884 J13.884
N3890 G3 X-3.643 Y487.168 I-0.255 J-0.189
N3900 G1 X-3.706 Y455.192
N3910 G3 X-3.075 Y455.146 I0.317 J-0.001
N3920 G2 X13.085 Y460.502 I9.425 J-1.379
N3930 G1 X69.707 Y403.881
N3940 X77.565 Y411.738
N3950 X1.475 Y487.829
N3960 G2 X-3.075 Y497.275 I11.225 J11.225
N3970 G1 X-3.117 Y497.645
N3980 X-3.128 Y497.743 Z-12.692
N3990 X-3.139 Y497.84 Z-12.669
N4000 X-3.149 Y497.931 Z-12.631
N4010 X-3.159 Y498.015 Z-12.579
N4020 X-3.167 Y498.091 Z-12.514
N4030 X-3.174 Y498.155 Z-12.438
N4040 X-3.18 Y498.207 Z-12.353
N4050 X-3.184 Y498.245 Z-12.261
N4060 X-3.187 Y498.268 Z-12.164
N4070 X-3.188 Y498.276 Z-12.065
N4080 G0 Z15.
N4090 X-4.08 Y604.426
N4100 Z5.
N4110 G1 Z-5.715 F1000.
N4120 X-4.073 Y604.429 Z-5.814 F3000.
N4130 X-4.052 Y604.44 Z-5.911
N4140 X-4.018 Y604.457 Z-6.003
N4150 X-3.972 Y604.481 Z-6.088
N4160 X-3.914 Y604.51 Z-6.164
N4170 X-3.847 Y604.544 Z-6.229
N4180 X-3.771 Y604.583 Z-6.281
N4190 X-3.689 Y604.624 Z-6.319
N4200 X-3.602 Y604.668 Z-6.342
N4210 X-3.514 Y604.713 Z-6.35
N4220 X-3.067 Y604.94
N4230 G2 X-0.175 Y606.143 I9.351 J-18.4
N4240 G3 X-0.107 Y606.434 I-0.055 J0.166
N4250 X-3.068 Y609.367 I-311.159 J-311.159
N4260 X-3.608 Y609.139 I-0.222 J-0.227
N4270 G1 X-3.567 Y600.924
N4280 G3 X-3.074 Y600.661 I0.317 J0.002
N4290 G2 X7.829 Y603.426 I9.383 J-14.121
N4300 G1 X7.873 Y603.43
N4310 X7.913 Y603.449
N4320 X7.945 Y603.48
N4330 X7.963 Y603.52
N4340 X7.967 Y603.564
N4350 X7.956 Y603.607
N4360 X7.93 Y603.643
N4370 X-3.07 Y614.585
N4380 G3 X-3.611 Y614.36 I-0.224 J-0.225
N4390 G1 X-3.61 Y596.134
N4400 G3 X-3.067 Y595.91 I0.317 J0.
N4410 G2 X15.744 Y595.934 I9.417 J-9.37
N4420 G1 X69.481 Y542.133
N4430 G3 X69.933 I0.226 J0.226
N4440 G1 X72.085 Y544.285
N4450 G3 Y544.737 I-0.226 J0.226
N4460 G1 X-1.184 Y617.942
N4470 G2 X-3.07 Y620.129 I13.884 J13.884
N4480 G3 X-3.643 Y619.94 I-0.255 J-0.189
N4490 G1 X-3.706 Y587.965
N4500 G3 X-3.075 Y587.919 I0.317 J-0.001
N4510 G2 X13.085 Y593.275 I9.425 J-1.379
N4520 G1 X69.707 Y536.653
N4530 X77.565 Y544.511
N4540 X1.475 Y620.601
N4550 G2 X-3.075 Y630.047 I11.226 J11.225
N4560 G3 X-3.708 Y630.023 I-0.315 J-0.036
N4570 G1 X-4.687 Y604.647
N4580 G3 X-4.226 Y604.351 I0.317 J-0.012
N4590 G1 X-4.137 Y604.396 Z-6.358
N4600 X-4.051 Y604.44 Z-6.381
N4610 X-3.969 Y604.482 Z-6.419
N4620 X-3.893 Y604.521 Z-6.471
N4630 X-3.826 Y604.555 Z-6.536
N4640 X-3.768 Y604.584 Z-6.612
N4650 X-3.722 Y604.608 Z-6.697
N4660 X-3.688 Y604.625 Z-6.789
N4670 X-3.667 Y604.636 Z-6.886
N4680 X-3.66 Y604.639 Z-6.985
N4690 Z-12.065
N4700 X-3.653 Y604.643 Z-12.164
N4710 X-3.632 Y604.653 Z-12.261
N4720 X-3.598 Y604.67 Z-12.353
N4730 X-3.552 Y604.694 Z-12.438
N4740 X-3.494 Y604.723 Z-12.514
N4750 X-3.426 Y604.758 Z-12.579
N4760 X-3.351 Y604.796 Z-12.631
N4770 X-3.269 Y604.838 Z-12.669
N4780 X-3.182 Y604.882 Z-12.692
N4790 X-3.094 Y604.927 Z-12.7
N4800 X-3.067 Y604.94
N4810 G2 X-0.175 Y606.143 I9.351 J-18.4
N4820 G3 X-0.107 Y606.434 I-0.055 J0.166
N4830 X-3.068 Y609.367 I-311.159 J-311.159
N4840 X-3.608 Y609.139 I-0.222 J-0.227
N4850 G1 X-3.567 Y600.924
N4860 G3 X-3.074 Y600.661 I0.317 J0.002
N4870 G2 X7.829 Y603.426 I9.383 J-14.121
N4880 G1 X7.873 Y603.43
N4890 X7.913 Y603.449
N4900 X7.945 Y603.48
N4910 X7.963 Y603.52
N4920 X7.967 Y603.564
N4930 X7.956 Y603.607
N4940 X7.93 Y603.643
N4950 X-3.07 Y614.585
N4960 G3 X-3.611 Y614.36 I-0.224 J-0.225
N4970 G1 X-3.61 Y596.134
N4980 G3 X-3.067 Y595.91 I0.317 J0.
N4990 G2 X15.744 Y595.934 I9.417 J-9.37
N5000 G1 X69.481 Y542.133
N5010 G3 X69.933 I0.226 J0.226
N5020 G1 X72.085 Y544.285
N5030 G3 Y544.737 I-0.226 J0.226
N5040 G1 X-1.184 Y617.942
N5050 G2 X-3.07 Y620.129 I13.884 J13.884
N5060 G3 X-3.643 Y619.94 I-0.255 J-0.189
N5070 G1 X-3.706 Y587.965
N5080 G3 X-3.075 Y587.919 I0.317 J-0.001
N5090 G2 X13.085 Y593.275 I9.425 J-1.379
N5100 G1 X69.707 Y536.653
N5110 X77.565 Y544.511
N5120 X1.475 Y620.601
N5130 G2 X-3.075 Y630.047 I11.226 J11.225
N5140 G1 X-3.117 Y630.417
N5150 X-3.128 Y630.515 Z-12.692
N5160 X-3.139 Y630.612 Z-12.669
N5170 X-3.149 Y630.703 Z-12.631
N5180 X-3.158 Y630.787 Z-12.579
N5190 X-3.167 Y630.863 Z-12.514
N5200 X-3.174 Y630.927 Z-12.438
N5210 X-3.18 Y630.979 Z-12.353
N5220 X-3.184 Y631.017 Z-12.261
N5230 X-3.187 Y631.04 Z-12.164
N5240 X-3.188 Y631.048 Z-12.065
N5250 G0 Z15.
N5260 X-4.08 Y737.199
N5270 Z5.
N5280 G1 Z-5.715 F1000.
N5290 X-4.073 Y737.202 Z-5.814 F3000.
N5300 X-4.052 Y737.213 Z-5.911
N5310 X-4.018 Y737.23 Z-6.003
N5320 X-3.972 Y737.254 Z-6.088
N5330 X-3.914 Y737.283 Z-6.164
N5340 X-3.847 Y737.317 Z-6.229
N5350 X-3.771 Y737.356 Z-6.281
N5360 X-3.689 Y737.397 Z-6.319
N5370 X-3.602 Y737.441 Z-6.342
N5380 X-3.514 Y737.486 Z-6.35
N5390 X-3.067 Y737.713
N5400 G2 X-0.175 Y738.916 I9.351 J-18.4
N5410 G3 X-0.107 Y739.207 I-0.055 J0.166
N5420 X-3.068 Y742.14 I-311.148 J-311.149
N5430 X-3.608 Y741.912 I-0.222 J-0.227
N5440 G1 X-3.567 Y733.697
N5450 G3 X-3.074 Y733.434 I0.317 J0.002
N5460 G2 X7.829 Y736.199 I9.383 J-14.121
N5470 G1 X7.873 Y736.203
N5480 X7.913 Y736.222
N5490 X7.945 Y736.253
N5500 X7.963 Y736.293
N5510 X7.967 Y736.337
N5520 X7.956 Y736.38
N5530 X7.93 Y736.416
N5540 X-3.07 Y747.358
N5550 G3 X-3.611 Y747.133 I-0.224 J-0.225
N5560 G1 X-3.61 Y728.907
N5570 G3 X-3.067 Y728.683 I0.317 J0.
N5580 G2 X15.744 Y728.707 I9.417 J-9.37
N5590 G1 X69.481 Y674.906
N5600 G3 X69.933 I0.226 J0.226
N5610 G1 X72.085 Y677.058
N5620 G3 Y677.51 I-0.226 J0.226
N5630 G1 X-1.184 Y750.715
N5640 G2 X-3.07 Y752.902 I13.884 J13.884
N5650 G3 X-3.643 Y752.713 I-0.255 J-0.189
N5660 G1 X-3.706 Y720.738
N5670 G3 X-3.075 Y720.692 I0.317 J-0.001
N5680 G2 X13.085 Y726.048 I9.425 J-1.379
N5690 G1 X69.707 Y669.426
N5700 X77.565 Y677.284
N5710 X1.475 Y753.374
N5720 G2 X-3.075 Y762.82 I11.225 J11.225
N5730 G3 X-3.708 Y762.797 I-0.315 J-0.036
N5740 G1 X-4.687 Y737.42
N5750 G3 X-4.226 Y737.124 I0.317 J-0.012
N5760 G1 X-4.137 Y737.169 Z-6.358
N5770 X-4.051 Y737.213 Z-6.381
N5780 X-3.969 Y737.255 Z-6.419
N5790 X-3.893 Y737.294 Z-6.471
N5800 X-3.826 Y737.328 Z-6.536
N5810 X-3.768 Y737.357 Z-6.612
N5820 X-3.722 Y737.381 Z-6.697
N5830 X-3.688 Y737.398 Z-6.789
N5840 X-3.667 Y737.409 Z-6.886
N5850 X-3.66 Y737.412 Z-6.985
N5860 Z-12.065
N5870 X-3.653 Y737.416 Z-12.164
N5880 X-3.632 Y737.426 Z-12.261
N5890 X-3.598 Y737.443 Z-12.353
N5900 X-3.552 Y737.467 Z-12.438
N5910 X-3.494 Y737.496 Z-12.514
N5920 X-3.426 Y737.531 Z-12.579
N5930 X-3.351 Y737.569 Z-12.631
N5940 X-3.269 Y737.611 Z-12.669
N5950 X-3.182 Y737.655 Z-12.692
N5960 X-3.094 Y737.7 Z-12.7
N5970 X-3.067 Y737.713
N5980 G2 X-0.175 Y738.916 I9.351 J-18.4
N5990 G3 X-0.107 Y739.207 I-0.055 J0.166
N6000 X-3.068 Y742.14 I-311.148 J-311.149
N6010 X-3.608 Y741.912 I-0.222 J-0.227
N6020 G1 X-3.567 Y733.697
N6030 G3 X-3.074 Y733.434 I0.317 J0.002
N6040 G2 X7.829 Y736.199 I9.383 J-14.121
N6050 G1 X7.873 Y736.203
N6060 X7.913 Y736.222
N6070 X7.945 Y736.253
N6080 X7.963 Y736.293
N6090 X7.967 Y736.337
N6100 X7.956 Y736.38
N6110 X7.93 Y736.416
N6120 X-3.07 Y747.358
N6130 G3 X-3.611 Y747.133 I-0.224 J-0.225
N6140 G1 X-3.61 Y728.907
N6150 G3 X-3.067 Y728.683 I0.317 J0.
N6160 G2 X15.744 Y728.707 I9.417 J-9.37
N6170 G1 X69.481 Y674.906
N6180 G3 X69.933 I0.226 J0.226
N6190 G1 X72.085 Y677.058
N6200 G3 Y677.51 I-0.226 J0.226
N6210 G1 X-1.184 Y750.715
N6220 G2 X-3.07 Y752.902 I13.884 J13.884
N6230 G3 X-3.643 Y752.713 I-0.255 J-0.189
N6240 G1 X-3.706 Y720.738
N6250 G3 X-3.075 Y720.692 I0.317 J-0.001
N6260 G2 X13.085 Y726.048 I9.425 J-1.379
N6270 G1 X69.707 Y669.426
N6280 X77.565 Y677.284
N6290 X1.475 Y753.374
N6300 G2 X-3.075 Y762.82 I11.225 J11.225
N6310 G1 X-3.117 Y763.19
N6320 X-3.128 Y763.288 Z-12.692
N6330 X-3.139 Y763.385 Z-12.669
N6340 X-3.149 Y763.476 Z-12.631
N6350 X-3.159 Y763.56 Z-12.579
N6360 X-3.167 Y763.636 Z-12.514
N6370 X-3.174 Y763.7 Z-12.438
N6380 X-3.18 Y763.752 Z-12.353
N6390 X-3.184 Y763.79 Z-12.261
N6400 X-3.187 Y763.813 Z-12.164
N6410 X-3.188 Y763.821 Z-12.065
N6420 G0 Z15.
N6430 X-4.08 Y869.972
N6440 Z5.
N6450 G1 Z-5.715 F1000.
N6460 X-4.073 Y869.975 Z-5.814 F3000.
N6470 X-4.052 Y869.986 Z-5.911
N6480 X-4.018 Y870.003 Z-6.003
N6490 X-3.972 Y870.027 Z-6.088
N6500 X-3.914 Y870.056 Z-6.164
N6510 X-3.847 Y870.09 Z-6.229
N6520 X-3.771 Y870.129 Z-6.281
N6530 X-3.689 Y870.17 Z-6.319
N6540 X-3.602 Y870.214 Z-6.342
N6550 X-3.514 Y870.259 Z-6.35
N6560 X-3.067 Y870.486
N6570 G2 X-0.175 Y871.689 I9.351 J-18.4
N6580 G3 X-0.107 Y871.98 I-0.055 J0.166
N6590 X-3.068 Y874.913 I-311.148 J-311.149
N6600 X-3.608 Y874.685 I-0.222 J-0.227
N6610 G1 X-3.567 Y866.47
N6620 G3 X-3.074 Y866.207 I0.317 J0.002
N6630 G2 X7.829 Y868.972 I9.383 J-14.121
N6640 G1 X7.873 Y868.976
N6650 X7.913 Y868.995
N6660 X7.945 Y869.026
N6670 X7.963 Y869.066
N6680 X7.967 Y869.11
N6690 X7.956 Y869.153
N6700 X7.93 Y869.189
N6710 X-3.07 Y880.131
N6720 G3 X-3.611 Y879.906 I-0.224 J-0.225
N6730 G1 X-3.61 Y861.68
N6740 G3 X-3.067 Y861.456 I0.317 J0.
N6750 G2 X15.744 Y861.48 I9.417 J-9.37
N6760 G1 X69.481 Y807.679
N6770 G3 X69.933 I0.226 J0.226
N6780 G1 X72.085 Y809.831
N6790 G3 Y810.283 I-0.226 J0.226
N6800 G1 X-1.184 Y883.488
N6810 G2 X-3.07 Y885.675 I13.884 J13.884
N6820 G3 X-3.643 Y885.486 I-0.255 J-0.189
N6830 G1 X-3.706 Y853.511
N6840 G3 X-3.075 Y853.465 I0.317 J-0.001
N6850 G2 X13.085 Y858.821 I9.425 J-1.379
N6860 G1 X69.707 Y802.199
N6870 X77.565 Y810.057
N6880 X1.475 Y886.147
N6890 G2 X-3.075 Y895.593 I11.225 J11.225
N6900 G3 X-3.708 Y895.57 I-0.315 J-0.036
N6910 G1 X-4.687 Y870.193
N6920 G3 X-4.226 Y869.897 I0.317 J-0.012
N6930 G1 X-4.137 Y869.942 Z-6.358
N6940 X-4.051 Y869.986 Z-6.381
N6950 X-3.969 Y870.028 Z-6.419
N6960 X-3.893 Y870.067 Z-6.471
N6970 X-3.826 Y870.101 Z-6.536
N6980 X-3.768 Y870.13 Z-6.612
N6990 X-3.722 Y870.154 Z-6.697
N7000 X-3.688 Y870.171 Z-6.789
N7010 X-3.667 Y870.182 Z-6.886
N7020 X-3.66 Y870.185 Z-6.985
N7030 Z-12.065
N7040 X-3.653 Y870.189 Z-12.164
N7050 X-3.632 Y870.199 Z-12.261
N7060 X-3.598 Y870.216 Z-12.353
N7070 X-3.552 Y870.24 Z-12.438
N7080 X-3.494 Y870.269 Z-12.514
N7090 X-3.426 Y870.304 Z-12.579
N7100 X-3.351 Y870.342 Z-12.631
N7110 X-3.269 Y870.384 Z-12.669
N7120 X-3.182 Y870.428 Z-12.692
N7130 X-3.094 Y870.473 Z-12.7
N7140 X-3.067 Y870.486
N7150 G2 X-0.175 Y871.689 I9.351 J-18.4
N7160 G3 X-0.107 Y871.98 I-0.055 J0.166
N7170 X-3.068 Y874.913 I-311.148 J-311.149
N7180 X-3.608 Y874.685 I-0.222 J-0.227
N7190 G1 X-3.567 Y866.47
N7200 G3 X-3.074 Y866.207 I0.317 J0.002
N7210 G2 X7.829 Y868.972 I9.383 J-14.121
N7220 G1 X7.873 Y868.976
N7230 X7.913 Y868.995
N7240 X7.945 Y869.026
N7250 X7.963 Y869.066
N7260 X7.967 Y869.11
N7270 X7.956 Y869.153
N7280 X7.93 Y869.189
N7290 X-3.07 Y880.131
N7300 G3 X-3.611 Y879.906 I-0.224 J-0.225
N7310 G1 X-3.61 Y861.68
N7320 G3 X-3.067 Y861.456 I0.317 J0.
N7330 G2 X15.744 Y861.48 I9.417 J-9.37
N7340 G1 X69.481 Y807.679
N7350 G3 X69.933 I0.226 J0.226
N7360 G1 X72.085 Y809.831
N7370 G3 Y810.283 I-0.226 J0.226
N7380 G1 X-1.184 Y883.488
N7390 G2 X-3.07 Y885.675 I13.884 J13.884
N7400 G3 X-3.643 Y885.486 I-0.255 J-0.189
N7410 G1 X-3.706 Y853.511
N7420 G3 X-3.075 Y853.465 I0.317 J-0.001
N7430 G2 X13.085 Y858.821 I9.425 J-1.379
N7440 G1 X69.707 Y802.199
N7450 X77.565 Y810.057
N7460 X1.475 Y886.147
N7470 G2 X-3.075 Y895.593 I11.225 J11.225
N7480 G1 X-3.117 Y895.963
N7490 X-3.128 Y896.061 Z-12.692
N7500 X-3.139 Y896.158 Z-12.669
N7510 X-3.149 Y896.249 Z-12.631
N7520 X-3.159 Y896.333 Z-12.579
N7530 X-3.167 Y896.409 Z-12.514
N7540 X-3.174 Y896.473 Z-12.438
N7550 X-3.18 Y896.525 Z-12.353
N7560 X-3.184 Y896.563 Z-12.261
N7570 X-3.187 Y896.586 Z-12.164
N7580 X-3.188 Y896.594 Z-12.065
N7590 G0 Z15.
N7600 X-4.08 Y1002.744
N7610 Z5.
N7620 G1 Z-5.715 F1000.
N7630 X-4.073 Y1002.747 Z-5.814 F3000.
N7640 X-4.052 Y1002.758 Z-5.911
N7650 X-4.018 Y1002.775 Z-6.003
N7660 X-3.972 Y1002.799 Z-6.088
N7670 X-3.914 Y1002.828 Z-6.164
N7680 X-3.847 Y1002.862 Z-6.229
N7690 X-3.771 Y1002.901 Z-6.281
N7700 X-3.689 Y1002.942 Z-6.319
N7710 X-3.602 Y1002.986 Z-6.342
N7720 X-3.514 Y1003.031 Z-6.35
N7730 X-3.067 Y1003.258
N7740 G2 X-0.178 Y1004.461 I9.351 J-18.4
N7750 G3 X-0.109 Y1004.751 I-0.055 J0.166
N7760 X-3.07 Y1007.683 I-310.85 J-310.867
N7770 X-3.61 Y1007.455 I-0.222 J-0.227
N7780 G1 X-3.567 Y999.242
N7790 G3 X-3.074 Y998.979 I0.317 J0.002
N7800 G2 X7.825 Y1001.745 I9.383 J-14.121
N7810 G1 X7.87 Y1001.748
N7820 X7.91 Y1001.767
N7830 X7.941 Y1001.798
N7840 X7.96 Y1001.839
N7850 X7.964 Y1001.883
N7860 X7.952 Y1001.925
N7870 X7.927 Y1001.962
N7880 X-3.074 Y1012.903
N7890 G3 X-3.615 Y1012.678 I-0.224 J-0.225
N7900 G1 X-3.61 Y994.452
N7910 G3 X-3.067 Y994.228 I0.317 J0.
N7920 G2 X15.744 Y994.252 I9.417 J-9.37
N7930 G1 X69.481 Y940.452
N7940 G3 X69.933 I0.226 J0.226
N7950 G1 X72.085 Y942.603
N7960 G3 Y943.055 I-0.226 J0.226
N7970 G1 X-1.184 Y1016.256
N7980 G2 X-3.07 Y1018.443 I13.884 J13.884
N7990 G3 X-3.643 Y1018.254 I-0.255 J-0.189
N8000 G1 X-3.706 Y986.283
N8010 G3 X-3.075 Y986.237 I0.317 J-0.001
N8020 G2 X13.085 Y991.593 I9.425 J-1.379
N8030 G1 X69.707 Y934.972
N8040 X77.565 Y942.829
N8050 X1.475 Y1018.915
N8060 G2 X-3.075 Y1028.361 I11.225 J11.225
N8070 G3 X-3.708 Y1028.337 I-0.315 J-0.036
N8080 G1 X-4.687 Y1002.965
N8090 G3 X-4.226 Y1002.669 I0.317 J-0.012
N8100 G1 X-4.137 Y1002.714 Z-6.358
N8110 X-4.051 Y1002.758 Z-6.381
N8120 X-3.969 Y1002.8 Z-6.419
N8130 X-3.893 Y1002.839 Z-6.471
N8140 X-3.826 Y1002.873 Z-6.536
N8150 X-3.768 Y1002.902 Z-6.612
N8160 X-3.722 Y1002.926 Z-6.697
N8170 X-3.688 Y1002.943 Z-6.789
N8180 X-3.667 Y1002.954 Z-6.886
N8190 X-3.66 Y1002.957 Z-6.985
N8200 Z-12.065
N8210 X-3.653 Y1002.961 Z-12.164
N8220 X-3.632 Y1002.971 Z-12.261
N8230 X-3.598 Y1002.988 Z-12.353
N8240 X-3.552 Y1003.012 Z-12.438
N8250 X-3.494 Y1003.041 Z-12.514
N8260 X-3.426 Y1003.076 Z-12.579
N8270 X-3.351 Y1003.114 Z-12.631
N8280 X-3.269 Y1003.156 Z-12.669
N8290 X-3.182 Y1003.2 Z-12.692
N8300 X-3.094 Y1003.245 Z-12.7
N8310 X-3.067 Y1003.258
N8320 G2 X-0.178 Y1004.461 I9.351 J-18.4
N8330 G3 X-0.109 Y1004.751 I-0.055 J0.166
N8340 X-3.07 Y1007.683 I-310.85 J-310.867
N8350 X-3.61 Y1007.455 I-0.222 J-0.227
N8360 G1 X-3.567 Y999.242
N8370 G3 X-3.074 Y998.979 I0.317 J0.002
N8380 G2 X7.825 Y1001.745 I9.383 J-14.121
N8390 G1 X7.87 Y1001.748
N8400 X7.91 Y1001.767
N8410 X7.941 Y1001.798
N8420 X7.96 Y1001.839
N8430 X7.964 Y1001.883
N8440 X7.952 Y1001.925
N8450 X7.927 Y1001.962
N8460 X-3.074 Y1012.903
N8470 G3 X-3.615 Y1012.678 I-0.224 J-0.225
N8480 G1 X-3.61 Y994.452
N8490 G3 X-3.067 Y994.228 I0.317 J0.
N8500 G2 X15.744 Y994.252 I9.417 J-9.37
N8510 G1 X69.481 Y940.452
N8520 G3 X69.933 I0.226 J0.226
N8530 G1 X72.085 Y942.603
N8540 G3 Y943.055 I-0.226 J0.226
N8550 G1 X-1.184 Y1016.256
N8560 G2 X-3.07 Y1018.443 I13.884 J13.884
N8570 G3 X-3.643 Y1018.254 I-0.255 J-0.189
N8580 G1 X-3.706 Y986.283
N8590 G3 X-3.075 Y986.237 I0.317 J-0.001
N8600 G2 X13.085 Y991.593 I9.425 J-1.379
N8610 G1 X69.707 Y934.972
N8620 X77.565 Y942.829
N8630 X1.475 Y1018.915
N8640 G2 X-3.075 Y1028.361 I11.225 J11.225
N8650 G1 X-3.117 Y1028.73
N8660 X-3.128 Y1028.829 Z-12.692
N8670 X-3.139 Y1028.925 Z-12.669
N8680 X-3.149 Y1029.017 Z-12.631
N8690 X-3.158 Y1029.101 Z-12.579
N8700 X-3.167 Y1029.177 Z-12.514
N8710 X-3.174 Y1029.241 Z-12.438
N8720 X-3.18 Y1029.293 Z-12.353
N8730 X-3.184 Y1029.331 Z-12.261
N8740 X-3.187 Y1029.354 Z-12.164
N8750 X-3.188 Y1029.361 Z-12.065
N8760 G0 Z15.
N8770 X-4.079 Y1135.515
N8780 Z5.
N8790 G1 Z-5.715 F1000.
N8800 X-4.072 Y1135.519 Z-5.814 F3000.
N8810 X-4.051 Y1135.529 Z-5.911
N8820 X-4.017 Y1135.547 Z-6.003
N8830 X-3.97 Y1135.57 Z-6.088
N8840 X-3.913 Y1135.6 Z-6.164
N8850 X-3.845 Y1135.634 Z-6.229
N8860 X-3.769 Y1135.672 Z-6.281
N8870 X-3.687 Y1135.714 Z-6.319
N8880 X-3.601 Y1135.758 Z-6.342
N8890 X-3.512 Y1135.803 Z-6.35
N8900 X-3.066 Y1136.03
N8910 G2 X-0.17 Y1137.234 I9.35 J-18.4
N8920 G3 X-0.102 Y1137.524 I-0.055 J0.166
N8930 X-3.072 Y1140.466 I-311.559 J-311.559
N8940 X-3.612 Y1140.238 I-0.222 J-0.227
N8950 G1 X-3.567 Y1132.014
N8960 G3 X-3.073 Y1131.751 I0.317 J0.002
N8970 G2 X7.829 Y1134.515 I9.382 J-14.121
N8980 G1 X7.874 Y1134.519
N8990 X7.915 Y1134.538
N9000 X7.947 Y1134.57
N9010 X7.966 Y1134.611
N9020 X7.97 Y1134.656
N9030 X7.958 Y1134.7
N9040 X7.932 Y1134.737
N9050 X-3.068 Y1145.678
N9060 G3 X-3.61 Y1145.453 I-0.224 J-0.225
N9070 G1 Y1127.224
N9080 G3 X-3.067 Y1127. I0.317 J0.
N9090 G2 X15.744 Y1127.024 I9.417 J-9.37
N9100 G1 X69.481 Y1073.225
N9110 G3 X69.932 I0.226 J0.226
N9120 G1 X72.085 Y1075.379
N9130 G3 Y1075.83 I-0.226 J0.226
N9140 G1 X-1.184 Y1149.036
N9150 G2 X-3.07 Y1151.223 I13.884 J13.884
N9160 G3 X-3.643 Y1151.034 I-0.255 J-0.189
N9170 G1 X-3.706 Y1119.055
N9180 G3 X-3.075 Y1119.009 I0.317 J-0.001
N9190 G2 X13.085 Y1124.365 I9.425 J-1.379
N9200 G1 X69.707 Y1067.745
N9210 X77.564 Y1075.605
N9220 X1.475 Y1151.695
N9230 G2 X-3.075 Y1161.141 I11.225 J11.225
N9240 G3 X-3.708 Y1161.117 I-0.315 J-0.036
N9250 G1 X-4.686 Y1135.736
N9260 G3 X-4.225 Y1135.441 I0.317 J-0.012
N9270 G1 X-4.136 Y1135.486 Z-6.358
N9280 X-4.05 Y1135.53 Z-6.381
N9290 X-3.967 Y1135.572 Z-6.419
N9300 X-3.892 Y1135.61 Z-6.471
N9310 X-3.824 Y1135.644 Z-6.536
N9320 X-3.767 Y1135.674 Z-6.612
N9330 X-3.72 Y1135.697 Z-6.697
N9340 X-3.686 Y1135.715 Z-6.789
N9350 X-3.665 Y1135.725 Z-6.886
N9360 X-3.658 Y1135.729 Z-6.985
N9370 Z-12.065
N9380 X-3.651 Y1135.732 Z-12.164
N9390 X-3.631 Y1135.743 Z-12.261
N9400 X-3.597 Y1135.76 Z-12.353
N9410 X-3.55 Y1135.784 Z-12.438
N9420 X-3.493 Y1135.813 Z-12.514
N9430 X-3.425 Y1135.847 Z-12.579
N9440 X-3.349 Y1135.886 Z-12.631
N9450 X-3.267 Y1135.928 Z-12.669
N9460 X-3.181 Y1135.971 Z-12.692
N9470 X-3.092 Y1136.016 Z-12.7
N9480 X-3.066 Y1136.03
N9490 G2 X-0.17 Y1137.234 I9.35 J-18.4
N9500 G3 X-0.102 Y1137.524 I-0.055 J0.166
N9510 X-3.072 Y1140.466 I-311.559 J-311.559
N9520 X-3.612 Y1140.238 I-0.222 J-0.227
N9530 G1 X-3.567 Y1132.014
N9540 G3 X-3.073 Y1131.751 I0.317 J0.002
N9550 G2 X7.829 Y1134.515 I9.382 J-14.121
N9560 G1 X7.874 Y1134.519
N9570 X7.915 Y1134.538
N9580 X7.947 Y1134.57
N9590 X7.966 Y1134.611
N9600 X7.97 Y1134.656
N9610 X7.958 Y1134.7
N9620 X7.932 Y1134.737
N9630 X-3.068 Y1145.678
N9640 G3 X-3.61 Y1145.453 I-0.224 J-0.225
N9650 G1 Y1127.224
N9660 G3 X-3.067 Y1127. I0.317 J0.
N9670 G2 X15.744 Y1127.024 I9.417 J-9.37
N9680 G1 X69.481 Y1073.225
N9690 G3 X69.932 I0.226 J0.226
N9700 G1 X72.085 Y1075.379
N9710 G3 Y1075.83 I-0.226 J0.226
N9720 G1 X-1.184 Y1149.036
N9730 G2 X-3.07 Y1151.223 I13.884 J13.884
N9740 G3 X-3.643 Y1151.034 I-0.255 J-0.189
N9750 G1 X-3.706 Y1119.055
N9760 G3 X-3.075 Y1119.009 I0.317 J-0.001
N9770 G2 X13.085 Y1124.365 I9.425 J-1.379
N9780 G1 X69.707 Y1067.745
N9790 X77.564 Y1075.605
N9800 X1.475 Y1151.695
N9810 G2 X-3.075 Y1161.141 I11.225 J11.225
N9820 G1 X-3.117 Y1161.511
N9830 X-3.128 Y1161.609 Z-12.692
N9840 X-3.139 Y1161.706 Z-12.669
N9850 X-3.149 Y1161.797 Z-12.631
N9860 X-3.159 Y1161.882 Z-12.579
N9870 X-3.167 Y1161.957 Z-12.514
N9880 X-3.174 Y1162.021 Z-12.438
N9890 X-3.18 Y1162.073 Z-12.353
N9900 X-3.184 Y1162.111 Z-12.261
N9910 X-3.187 Y1162.134 Z-12.164
N9920 X-3.188 Y1162.142 Z-12.065
N9930 G0 Z15.
N9940 X-4.079 Y1268.285
N9950 Z5.
N9960 G1 Z-5.715 F1000.
N9970 X-4.072 Y1268.289 Z-5.814 F3000.
N9980 X-4.051 Y1268.299 Z-5.911
N9990 X-4.017 Y1268.317 Z-6.003
N10000 X-3.97 Y1268.34 Z-6.088
N10010 X-3.913 Y1268.37 Z-6.164
N10020 X-3.845 Y1268.404 Z-6.229
N10030 X-3.769 Y1268.442 Z-6.281
N10040 X-3.687 Y1268.484 Z-6.319
N10050 X-3.601 Y1268.528 Z-6.342
N10060 X-3.512 Y1268.573 Z-6.35
N10070 X-3.066 Y1268.8
N10080 G2 X-0.17 Y1270.004 I9.35 J-18.4
N10090 G3 X-0.102 Y1270.294 I-0.055 J0.166
N10100 X-3.072 Y1273.236 I-311.559 J-311.559
N10110 X-3.612 Y1273.008 I-0.222 J-0.227
N10120 G1 X-3.567 Y1264.784
N10130 G3 X-3.073 Y1264.521 I0.317 J0.002
N10140 G2 X7.829 Y1267.285 I9.382 J-14.121
N10150 G1 X7.874 Y1267.289
N10160 X7.915 Y1267.308
N10170 X7.947 Y1267.34
N10180 X7.966 Y1267.381
N10190 X7.97 Y1267.426
N10200 X7.958 Y1267.47
N10210 X7.932 Y1267.507
N10220 X-3.068 Y1278.448
N10230 G3 X-3.61 Y1278.223 I-0.224 J-0.225
N10240 G1 Y1259.994
N10250 G3 X-3.067 Y1259.771 I0.317 J0.
N10260 G2 X15.744 Y1259.794 I9.417 J-9.37
N10270 G1 X69.481 Y1205.995
N10280 G3 X69.932 I0.226 J0.226
N10290 G1 X72.085 Y1208.149
N10300 G3 Y1208.6 I-0.226 J0.226
N10310 G1 X-1.184 Y1281.806
N10320 G2 X-3.07 Y1283.993 I13.884 J13.884
N10330 G3 X-3.643 Y1283.804 I-0.255 J-0.189
N10340 G1 X-3.706 Y1251.825
N10350 G3 X-3.075 Y1251.779 I0.317 J-0.001
N10360 G2 X13.085 Y1257.135 I9.425 J-1.379
N10370 G1 X69.705 Y1200.517
N10380 X77.564 Y1208.375
N10390 X1.475 Y1284.465
N10400 G2 X-3.075 Y1293.911 I11.225 J11.225
N10410 G3 X-3.708 Y1293.887 I-0.315 J-0.036
N10420 G1 X-4.686 Y1268.506
N10430 G3 X-4.225 Y1268.211 I0.317 J-0.012
N10440 G1 X-4.136 Y1268.256 Z-6.358
N10450 X-4.05 Y1268.3 Z-6.381
N10460 X-3.967 Y1268.342 Z-6.419
N10470 X-3.892 Y1268.38 Z-6.471
N10480 X-3.824 Y1268.414 Z-6.536
N10490 X-3.767 Y1268.444 Z-6.612
N10500 X-3.72 Y1268.467 Z-6.697
N10510 X-3.686 Y1268.485 Z-6.789
N10520 X-3.665 Y1268.495 Z-6.886
N10530 X-3.658 Y1268.499 Z-6.985
N10540 Z-12.065
N10550 X-3.651 Y1268.502 Z-12.164
N10560 X-3.631 Y1268.513 Z-12.261
N10570 X-3.597 Y1268.53 Z-12.353
N10580 X-3.55 Y1268.554 Z-12.438
N10590 X-3.493 Y1268.583 Z-12.514
N10600 X-3.425 Y1268.617 Z-12.579
N10610 X-3.349 Y1268.656 Z-12.631
N10620 X-3.267 Y1268.697 Z-12.669
N10630 X-3.181 Y1268.741 Z-12.692
N10640 X-3.092 Y1268.786 Z-12.7
N10650 X-3.066 Y1268.8
N10660 G2 X-0.17 Y1270.004 I9.35 J-18.4
N10670 G3 X-0.102 Y1270.294 I-0.055 J0.166
N10680 X-3.072 Y1273.236 I-311.559 J-311.559
N10690 X-3.612 Y1273.008 I-0.222 J-0.227
N10700 G1 X-3.567 Y1264.784
N10710 G3 X-3.073 Y1264.521 I0.317 J0.002
N10720 G2 X7.829 Y1267.285 I9.382 J-14.121
N10730 G1 X7.874 Y1267.289
N10740 X7.915 Y1267.308
N10750 X7.947 Y1267.34
N10760 X7.966 Y1267.381
N10770 X7.97 Y1267.426
N10780 X7.958 Y1267.47
N10790 X7.932 Y1267.507
N10800 X-3.068 Y1278.448
N10810 G3 X-3.61 Y1278.223 I-0.224 J-0.225
N10820 G1 Y1259.994
N10830 G3 X-3.067 Y1259.771 I0.317 J0.
N10840 G2 X15.744 Y1259.794 I9.417 J-9.37
N10850 G1 X69.481 Y1205.995
N10860 G3 X69.932 I0.226 J0.226
N10870 G1 X72.085 Y1208.149
N10880 G3 Y1208.6 I-0.226 J0.226
N10890 G1 X-1.184 Y1281.806
N10900 G2 X-3.07 Y1283.993 I13.884 J13.884
N10910 G3 X-3.643 Y1283.804 I-0.255 J-0.189
N10920 G1 X-3.706 Y1251.825
N10930 G3 X-3.075 Y1251.779 I0.317 J-0.001
N10940 G2 X13.085 Y1257.135 I9.425 J-1.379
N10950 G1 X69.705 Y1200.517
N10960 X77.564 Y1208.375
N10970 X1.475 Y1284.465
N10980 G2 X-3.075 Y1293.911 I11.225 J11.225
N10990 G1 X-3.117 Y1294.281
N11000 X-3.128 Y1294.379 Z-12.692
N11010 X-3.139 Y1294.476 Z-12.669
N11020 X-3.149 Y1294.567 Z-12.631
N11030 X-3.159 Y1294.651 Z-12.579
N11040 X-3.167 Y1294.727 Z-12.514
N11050 X-3.174 Y1294.791 Z-12.438
N11060 X-3.18 Y1294.843 Z-12.353
N11070 X-3.184 Y1294.881 Z-12.261
N11080 X-3.187 Y1294.904 Z-12.164
N11090 X-3.188 Y1294.912 Z-12.065
N11100 G0 Z15.
N11120 G4 P1.0
N11130 G0 X0 Y0
N11140 M30
%
