%
(6FT-RHTTOP)
(MACHINE)
(  VENDOR AUTODESK)
(  MODEL GENERIC 3-AXIS ROUTER)
(  DESCRIPTION THIS MACHINE HAS XYZ AXIS ON THE HEAD)
(T20 D=6.35 CR=0. - ZMIN=-12.7 - FLAT END MILL)
N10 G90 G94 G17 G91.1
N20 G21
(-ATTENTION- PROPERTY SAFE RETRACTS IS SET TO CLEARANCE HEIGHT.)
(ENSURE THE CLEARANCE HEIGHT WILL CLEAR THE PART AND OR FIXTURES.)
(RAISE THE Z-AXIS TO A SAFE HEIGHT BEFORE STARTING THE PROGRAM.)
(2D POCKET15)
N30 (T20 M6)
(FLAT END MILL D=6.35 4MM FLAT ENDMILL)
N40 S20000 M3
N45 G4 P5.0
N50 G54
N60 G0 X46.291 Y-4.078
N70 Z15.
N80 G0 Z5.
N90 G1 Z-5.715 F1000.
N100 G19 G3 Y-3.443 Z-6.35 J0.635 K0. F3000.
N110 G1 Y-3.075
N120 Y113.441
N130 G17 G3 X45.972 Y113.76 I-0.319 J0.
N140 G1 X42.928
N150 G3 X42.609 Y113.441 I0. J-0.319
N160 G1 Y-3.07
N170 G3 X42.926 Y-3.387 I0.318 J0.
N180 G1 X49.689 Y-3.388
N190 G3 X50.006 Y-3.07 I0. J0.318
N200 G1 Y0.
N210 Y117.475
N220 X38.894
N230 Y0.
N240 Y-3.063
N250 G3 X39.151 Y-3.375 I0.317 J0.
N260 G1 X45.913 Y-4.686
N270 G3 X46.291 Y-4.375 I0.06 J0.312
N280 G19 G2 Y-3.74 Z-6.985 J0. K-0.635
N290 G1 Z-12.065
N300 G3 Y-3.105 Z-12.7 J0.635 K0.
N310 G1 Y-3.075
N320 Y113.441
N330 G17 G3 X45.972 Y113.76 I-0.319 J0.
N340 G1 X42.928
N350 G3 X42.609 Y113.441 I0. J-0.319
N360 G1 Y-3.07
N370 G3 X42.926 Y-3.387 I0.318 J0.
N380 G1 X49.689 Y-3.388
N390 G3 X50.006 Y-3.07 I0. J0.318
N400 G1 Y0.
N410 Y117.475
N420 X38.894
N430 Y0.
N440 Y-3.063
N450 X38.902 Y-3.163
N460 X38.944 Y-3.432
N470 X38.96 Y-3.53 Z-12.692
N480 X38.975 Y-3.626 Z-12.669
N490 X38.989 Y-3.717 Z-12.631
N500 X39.003 Y-3.801 Z-12.579
N510 X39.015 Y-3.876 Z-12.514
N520 X39.025 Y-3.94 Z-12.438
N530 X39.033 Y-3.991 Z-12.353
N540 X39.039 Y-4.029 Z-12.261
N550 X39.042 Y-4.052 Z-12.164
N560 X39.044 Y-4.059 Z-12.065
N570 G0 Z15.
N580 X-4.078 Y156.26
N590 Z5.
N600 G1 Z-5.715 F1000.
N610 X-4.072 Y156.266 Z-5.814 F3000.
N620 X-4.056 Y156.282 Z-5.911
N630 X-4.028 Y156.309 Z-6.003
N640 X-3.991 Y156.345 Z-6.088
N650 X-3.945 Y156.39 Z-6.164
N660 X-3.891 Y156.443 Z-6.229
N670 X-3.83 Y156.503 Z-6.281
N680 X-3.765 Y156.567 Z-6.319
N690 X-3.695 Y156.635 Z-6.342
N700 X-3.625 Y156.705 Z-6.35
N710 X-3.066 Y157.253
N720 G3 X-0.107 Y160.184 I-308.189 J314.08
N730 X-0.175 Y160.475 I-0.124 J0.124
N740 G2 X-3.066 Y161.687 I6.546 J19.666
N750 G3 X-3.528 Y161.407 I-0.145 J-0.283
N760 G1 X-3.613 Y152.259
N770 G3 X-3.072 Y152.031 I0.317 J-0.003
N780 G1 X7.93 Y162.975
N790 X7.956 Y163.011
N800 X7.967 Y163.054
N810 X7.963 Y163.098
N820 X7.945 Y163.138
N830 X7.913 Y163.169
N840 X7.873 Y163.188
N850 X7.829 Y163.192
N860 G2 X-3.069 Y165.974 I-1.483 J16.927
N870 G3 X-3.562 Y165.711 I-0.176 J-0.264
N880 G1 X-3.646 Y146.676
N890 G3 X-3.073 Y146.485 I0.317 J-0.001
N900 G2 X-1.184 Y148.676 I15.773 J-11.693
N910 G1 X72.085 Y221.881
N920 G3 Y222.333 I-0.226 J0.226
N930 G1 X69.933 Y224.485
N940 G3 X69.481 I-0.226 J-0.226
N950 G1 X15.744 Y170.684
N960 G2 X-3.067 Y170.707 I-9.394 J9.394
N970 G3 X-3.61 Y170.484 I-0.225 J-0.224
N980 G1 X-3.707 Y136.616
N990 G3 X-3.074 Y136.579 I0.317 J-0.001
N1000 G2 X1.475 Y146.017 I15.774 J-1.788
N1010 G1 X77.565 Y222.107
N1020 X69.707 Y229.965
N1030 X13.085 Y173.343
N1040 G2 X-3.075 Y178.701 I-6.735 J6.735
N1050 G3 X-3.706 Y178.667 I-0.314 J-0.046
N1060 G1 X-4.534 Y156.581
N1070 G3 X-3.994 Y156.342 I0.317 J-0.012
N1080 G1 X-3.923 Y156.412 Z-6.358
N1090 X-3.854 Y156.48 Z-6.381
N1100 X-3.788 Y156.544 Z-6.419
N1110 X-3.728 Y156.604 Z-6.471
N1120 X-3.673 Y156.657 Z-6.536
N1130 X-3.627 Y156.702 Z-6.612
N1140 X-3.59 Y156.739 Z-6.697
N1150 X-3.563 Y156.765 Z-6.789
N1160 X-3.546 Y156.782 Z-6.886
N1170 X-3.541 Y156.787 Z-6.985
N1180 Z-12.065
N1190 X-3.535 Y156.793 Z-12.164
N1200 X-3.519 Y156.809 Z-12.261
N1210 X-3.491 Y156.836 Z-12.353
N1220 X-3.454 Y156.872 Z-12.438
N1230 X-3.408 Y156.917 Z-12.514
N1240 X-3.354 Y156.97 Z-12.579
N1250 X-3.293 Y157.03 Z-12.631
N1260 X-3.228 Y157.094 Z-12.669
N1270 X-3.158 Y157.162 Z-12.692
N1280 X-3.087 Y157.232 Z-12.7
N1290 X-3.066 Y157.253
N1300 G3 X-0.107 Y160.184 I-308.189 J314.08
N1310 X-0.175 Y160.475 I-0.124 J0.124
N1320 G2 X-3.066 Y161.687 I6.546 J19.666
N1330 G3 X-3.528 Y161.407 I-0.145 J-0.283
N1340 G1 X-3.613 Y152.259
N1350 G3 X-3.072 Y152.031 I0.317 J-0.003
N1360 G1 X7.93 Y162.975
N1370 X7.956 Y163.011
N1380 X7.967 Y163.054
N1390 X7.963 Y163.098
N1400 X7.945 Y163.138
N1410 X7.913 Y163.169
N1420 X7.873 Y163.188
N1430 X7.829 Y163.192
N1440 G2 X-3.069 Y165.974 I-1.483 J16.927
N1450 G3 X-3.562 Y165.711 I-0.176 J-0.264
N1460 G1 X-3.646 Y146.676
N1470 G3 X-3.073 Y146.485 I0.317 J-0.001
N1480 G2 X-1.184 Y148.676 I15.773 J-11.693
N1490 G1 X72.085 Y221.881
N1500 G3 Y222.333 I-0.226 J0.226
N1510 G1 X69.933 Y224.485
N1520 G3 X69.481 I-0.226 J-0.226
N1530 G1 X15.744 Y170.684
N1540 G2 X-3.067 Y170.707 I-9.394 J9.394
N1550 G3 X-3.61 Y170.484 I-0.225 J-0.224
N1560 G1 X-3.707 Y136.616
N1570 G3 X-3.074 Y136.579 I0.317 J-0.001
N1580 G2 X1.475 Y146.017 I15.774 J-1.788
N1590 G1 X77.565 Y222.107
N1600 X69.707 Y229.965
N1610 X13.085 Y173.343
N1620 G2 X-3.075 Y178.701 I-6.735 J6.735
N1630 G1 X-3.129 Y179.07
N1640 X-3.143 Y179.168 Z-12.692
N1650 X-3.157 Y179.264 Z-12.669
N1660 X-3.17 Y179.355 Z-12.631
N1670 X-3.183 Y179.439 Z-12.579
N1680 X-3.194 Y179.514 Z-12.514
N1690 X-3.203 Y179.578 Z-12.438
N1700 X-3.211 Y179.629 Z-12.353
N1710 X-3.216 Y179.667 Z-12.261
N1720 X-3.219 Y179.69 Z-12.164
N1730 X-3.221 Y179.698 Z-12.065
N1740 G0 Z15.
N1750 X-4.078 Y289.033
N1760 Z5.
N1770 G1 Z-5.715 F1000.
N1780 X-4.072 Y289.039 Z-5.814 F3000.
N1790 X-4.056 Y289.055 Z-5.911
N1800 X-4.028 Y289.082 Z-6.003
N1810 X-3.991 Y289.118 Z-6.088
N1820 X-3.945 Y289.163 Z-6.164
N1830 X-3.891 Y289.216 Z-6.229
N1840 X-3.83 Y289.276 Z-6.281
N1850 X-3.765 Y289.34 Z-6.319
N1860 X-3.695 Y289.408 Z-6.342
N1870 X-3.625 Y289.478 Z-6.35
N1880 X-3.066 Y290.026
N1890 G3 X-0.107 Y292.957 I-308.19 J314.081
N1900 X-0.175 Y293.248 I-0.124 J0.124
N1910 G2 X-3.066 Y294.46 I6.546 J19.666
N1920 G3 X-3.528 Y294.18 I-0.145 J-0.283
N1930 G1 X-3.613 Y285.032
N1940 G3 X-3.072 Y284.804 I0.317 J-0.003
N1950 G1 X7.93 Y295.748
N1960 X7.956 Y295.784
N1970 X7.967 Y295.827
N1980 X7.963 Y295.871
N1990 X7.945 Y295.911
N2000 X7.913 Y295.942
N2010 X7.873 Y295.961
N2020 X7.829 Y295.965
N2030 G2 X-3.069 Y298.747 I-1.483 J16.927
N2040 G3 X-3.562 Y298.484 I-0.176 J-0.264
N2050 G1 X-3.646 Y279.448
N2060 G3 X-3.074 Y279.258 I0.317 J-0.001
N2070 G2 X-1.184 Y281.449 I15.774 J-11.693
N2080 G1 X72.085 Y354.654
N2090 G3 Y355.106 I-0.226 J0.226
N2100 G1 X69.933 Y357.257
N2110 G3 X69.481 I-0.226 J-0.226
N2120 G1 X15.744 Y303.457
N2130 G2 X-3.067 Y303.48 I-9.394 J9.394
N2140 G3 X-3.61 Y303.257 I-0.225 J-0.224
N2150 G1 X-3.707 Y269.388
N2160 G3 X-3.074 Y269.351 I0.317 J-0.001
N2170 G2 X1.475 Y278.79 I15.774 J-1.787
N2180 G1 X77.565 Y354.88
N2190 X69.707 Y362.737
N2200 X13.085 Y306.116
N2210 G2 X-3.075 Y311.474 I-6.735 J6.735
N2220 G3 X-3.706 Y311.44 I-0.314 J-0.046
N2230 G1 X-4.534 Y289.354
N2240 G3 X-3.994 Y289.115 I0.317 J-0.012
N2250 G1 X-3.923 Y289.185 Z-6.358
N2260 X-3.854 Y289.253 Z-6.381
N2270 X-3.788 Y289.317 Z-6.419
N2280 X-3.728 Y289.377 Z-6.471
N2290 X-3.673 Y289.43 Z-6.536
N2300 X-3.627 Y289.475 Z-6.612
N2310 X-3.59 Y289.512 Z-6.697
N2320 X-3.563 Y289.538 Z-6.789
N2330 X-3.546 Y289.555 Z-6.886
N2340 X-3.541 Y289.56 Z-6.985
N2350 Z-12.065
N2360 X-3.535 Y289.566 Z-12.164
N2370 X-3.519 Y289.582 Z-12.261
N2380 X-3.491 Y289.609 Z-12.353
N2390 X-3.454 Y289.645 Z-12.438
N2400 X-3.408 Y289.69 Z-12.514
N2410 X-3.354 Y289.743 Z-12.579
N2420 X-3.293 Y289.803 Z-12.631
N2430 X-3.228 Y289.867 Z-12.669
N2440 X-3.158 Y289.935 Z-12.692
N2450 X-3.087 Y290.005 Z-12.7
N2460 X-3.066 Y290.026
N2470 G3 X-0.107 Y292.957 I-308.19 J314.081
N2480 X-0.175 Y293.248 I-0.124 J0.124
N2490 G2 X-3.066 Y294.46 I6.546 J19.666
N2500 G3 X-3.528 Y294.18 I-0.145 J-0.283
N2510 G1 X-3.613 Y285.032
N2520 G3 X-3.072 Y284.804 I0.317 J-0.003
N2530 G1 X7.93 Y295.748
N2540 X7.956 Y295.784
N2550 X7.967 Y295.827
N2560 X7.963 Y295.871
N2570 X7.945 Y295.911
N2580 X7.913 Y295.942
N2590 X7.873 Y295.961
N2600 X7.829 Y295.965
N2610 G2 X-3.069 Y298.747 I-1.483 J16.927
N2620 G3 X-3.562 Y298.484 I-0.176 J-0.264
N2630 G1 X-3.646 Y279.448
N2640 G3 X-3.074 Y279.258 I0.317 J-0.001
N2650 G2 X-1.184 Y281.449 I15.774 J-11.693
N2660 G1 X72.085 Y354.654
N2670 G3 Y355.106 I-0.226 J0.226
N2680 G1 X69.933 Y357.257
N2690 G3 X69.481 I-0.226 J-0.226
N2700 G1 X15.744 Y303.457
N2710 G2 X-3.067 Y303.48 I-9.394 J9.394
N2720 G3 X-3.61 Y303.257 I-0.225 J-0.224
N2730 G1 X-3.707 Y269.388
N2740 G3 X-3.074 Y269.351 I0.317 J-0.001
N2750 G2 X1.475 Y278.79 I15.774 J-1.787
N2760 G1 X77.565 Y354.88
N2770 X69.707 Y362.737
N2780 X13.085 Y306.116
N2790 G2 X-3.075 Y311.474 I-6.735 J6.735
N2800 G1 X-3.129 Y311.843
N2810 X-3.143 Y311.941 Z-12.692
N2820 X-3.157 Y312.037 Z-12.669
N2830 X-3.17 Y312.128 Z-12.631
N2840 X-3.183 Y312.212 Z-12.579
N2850 X-3.194 Y312.287 Z-12.514
N2860 X-3.203 Y312.351 Z-12.438
N2870 X-3.211 Y312.402 Z-12.353
N2880 X-3.216 Y312.44 Z-12.261
N2890 X-3.219 Y312.463 Z-12.164
N2900 X-3.221 Y312.471 Z-12.065
N2910 G0 Z15.
N2920 X-4.075 Y421.808
N2930 Z5.
N2940 G1 Z-5.715 F1000.
N2950 X-4.07 Y421.813 Z-5.814 F3000.
N2960 X-4.053 Y421.829 Z-5.911
N2970 X-4.026 Y421.856 Z-6.003
N2980 X-3.989 Y421.893 Z-6.088
N2990 X-3.943 Y421.938 Z-6.164
N3000 X-3.888 Y421.991 Z-6.229
N3010 X-3.828 Y422.051 Z-6.281
N3020 X-3.762 Y422.115 Z-6.319
N3030 X-3.693 Y422.183 Z-6.342
N3040 X-3.622 Y422.252 Z-6.35
N3050 X-3.075 Y422.789
N3060 G3 X-0.106 Y425.73 I-308.224 J314.134
N3070 X-0.175 Y426.02 I-0.124 J0.124
N3080 G2 X-3.066 Y427.232 I6.546 J19.666
N3090 G3 X-3.528 Y426.952 I-0.145 J-0.283
N3100 G1 X-3.613 Y417.804
N3110 G3 X-3.072 Y417.576 I0.317 J-0.003
N3120 G1 X7.931 Y428.52
N3130 X7.956 Y428.556
N3140 X7.968 Y428.599
N3150 X7.964 Y428.643
N3160 X7.945 Y428.683
N3170 X7.914 Y428.715
N3180 X7.874 Y428.733
N3190 X7.83 Y428.737
N3200 G2 X-3.068 Y431.519 I-1.483 J16.927
N3210 G3 X-3.561 Y431.256 I-0.176 J-0.264
N3220 G1 X-3.646 Y412.221
N3230 G3 X-3.073 Y412.03 I0.317 J-0.001
N3240 G2 X-1.184 Y414.221 I15.773 J-11.693
N3250 G1 X72.085 Y487.426
N3260 G3 Y487.878 I-0.226 J0.226
N3270 G1 X69.933 Y490.03
N3280 G3 X69.481 I-0.226 J-0.226
N3290 G1 X15.743 Y436.229
N3300 G2 X-3.068 Y436.254 I-9.393 J9.395
N3310 G3 X-3.61 Y436.031 I-0.225 J-0.224
N3320 G1 X-3.707 Y402.161
N3330 G3 X-3.074 Y402.124 I0.317 J-0.001
N3340 G2 X1.475 Y411.562 I15.774 J-1.788
N3350 G1 X77.565 Y487.652
N3360 X69.707 Y495.51
N3370 X13.085 Y438.888
N3380 G2 X-3.073 Y444.235 I-6.735 J6.736
N3390 G3 X-3.705 Y444.201 I-0.314 J-0.046
N3400 G1 X-4.542 Y422.118
N3410 G3 X-4.003 Y421.879 I0.317 J-0.012
N3420 G1 X-3.932 Y421.949 Z-6.358
N3430 X-3.862 Y422.016 Z-6.381
N3440 X-3.797 Y422.081 Z-6.419
N3450 X-3.736 Y422.14 Z-6.471
N3460 X-3.682 Y422.193 Z-6.536
N3470 X-3.636 Y422.239 Z-6.612
N3480 X-3.599 Y422.275 Z-6.697
N3490 X-3.571 Y422.302 Z-6.789
N3500 X-3.555 Y422.318 Z-6.886
N3510 X-3.549 Y422.324 Z-6.985
N3520 Z-12.065
N3530 X-3.544 Y422.329 Z-12.164
N3540 X-3.527 Y422.345 Z-12.261
N3550 X-3.5 Y422.372 Z-12.353
N3560 X-3.463 Y422.409 Z-12.438
N3570 X-3.417 Y422.454 Z-12.514
N3580 X-3.362 Y422.507 Z-12.579
N3590 X-3.302 Y422.567 Z-12.631
N3600 X-3.236 Y422.631 Z-12.669
N3610 X-3.167 Y422.699 Z-12.692
N3620 X-3.096 Y422.768 Z-12.7
N3630 X-3.075 Y422.789
N3640 G3 X-0.106 Y425.73 I-308.224 J314.134
N3650 X-0.175 Y426.02 I-0.124 J0.124
N3660 G2 X-3.066 Y427.232 I6.546 J19.666
N3670 G3 X-3.528 Y426.952 I-0.145 J-0.283
N3680 G1 X-3.613 Y417.804
N3690 G3 X-3.072 Y417.576 I0.317 J-0.003
N3700 G1 X7.931 Y428.52
N3710 X7.956 Y428.556
N3720 X7.968 Y428.599
N3730 X7.964 Y428.643
N3740 X7.945 Y428.683
N3750 X7.914 Y428.715
N3760 X7.874 Y428.733
N3770 X7.83 Y428.737
N3780 G2 X-3.068 Y431.519 I-1.483 J16.927
N3790 G3 X-3.561 Y431.256 I-0.176 J-0.264
N3800 G1 X-3.646 Y412.221
N3810 G3 X-3.073 Y412.03 I0.317 J-0.001
N3820 G2 X-1.184 Y414.221 I15.773 J-11.693
N3830 G1 X72.085 Y487.426
N3840 G3 Y487.878 I-0.226 J0.226
N3850 G1 X69.933 Y490.03
N3860 G3 X69.481 I-0.226 J-0.226
N3870 G1 X15.743 Y436.229
N3880 G2 X-3.068 Y436.254 I-9.393 J9.395
N3890 G3 X-3.61 Y436.031 I-0.225 J-0.224
N3900 G1 X-3.707 Y402.161
N3910 G3 X-3.074 Y402.124 I0.317 J-0.001
N3920 G2 X1.475 Y411.562 I15.774 J-1.788
N3930 G1 X77.565 Y487.652
N3940 X69.707 Y495.51
N3950 X13.085 Y438.888
N3960 G2 X-3.073 Y444.235 I-6.735 J6.736
N3970 G1 X-3.127 Y444.604
N3980 X-3.142 Y444.702 Z-12.692
N3990 X-3.156 Y444.798 Z-12.669
N4000 X-3.17 Y444.889 Z-12.631
N4010 X-3.182 Y444.973 Z-12.579
N4020 X-3.193 Y445.048 Z-12.514
N4030 X-3.202 Y445.112 Z-12.438
N4040 X-3.21 Y445.163 Z-12.353
N4050 X-3.216 Y445.201 Z-12.261
N4060 X-3.219 Y445.224 Z-12.164
N4070 X-3.22 Y445.232 Z-12.065
N4080 G0 Z15.
N4090 G4 P1.0
N4100 G0 X0 Y0
N4110 M30
%
