%
(6FT-LEFTTOP)
(MACHINE)
(  VENDOR AUTODESK)
(  MODEL GENERIC 3-AXIS ROUTER)
(  DESCRIPTION THIS MACHINE HAS XYZ AXIS ON THE HEAD)
(T20 D=6.35 CR=0. - ZMIN=-12.7 - FLAT END MILL)
N10 G90 G94 G17 G91.1
N20 G21
(-ATTENTION- PROPERTY SAFE RETRACTS IS SET TO CLEARANCE HEIGHT.)
(ENSURE THE CLEARANCE HEIGHT WILL CLEAR THE PART AND OR FIXTURES.)
(RAISE THE Z-AXIS TO A SAFE HEIGHT BEFORE STARTING THE PROGRAM.)
(2D POCKET14)
N30 (T20 M6)
(FLAT END MILL D=6.35 4MM FLAT ENDMILL)
N40 S20000 M3
N45 G4 P5.0
N50 G54
N60 G0 X46.291 Y-4.078
N70 Z15.
N80 G0 Z5.
N90 G1 Z-5.715 F1000.
N100 G19 G3 Y-3.443 Z-6.35 J0.635 K0. F3000.
N110 G1 Y-3.075
N120 Y113.441
N130 G17 G3 X45.972 Y113.76 I-0.319 J0.
N140 G1 X42.928
N150 G3 X42.609 Y113.441 I0. J-0.319
N160 G1 Y-3.07
N170 G3 X42.926 Y-3.387 I0.318 J0.
N180 G1 X49.689 Y-3.388
N190 G3 X50.006 Y-3.07 I0. J0.318
N200 G1 Y117.475
N210 X38.894
N220 Y0.
N230 Y-3.063
N240 G3 X39.151 Y-3.375 I0.317 J0.
N250 G1 X45.913 Y-4.686
N260 G3 X46.291 Y-4.375 I0.06 J0.312
N270 G19 G2 Y-3.74 Z-6.985 J0. K-0.635
N280 G1 Z-12.065
N290 G3 Y-3.105 Z-12.7 J0.635 K0.
N300 G1 Y-3.075
N310 Y113.441
N320 G17 G3 X45.972 Y113.76 I-0.319 J0.
N330 G1 X42.928
N340 G3 X42.609 Y113.441 I0. J-0.319
N350 G1 Y-3.07
N360 G3 X42.926 Y-3.387 I0.318 J0.
N370 G1 X49.689 Y-3.388
N380 G3 X50.006 Y-3.07 I0. J0.318
N390 G1 Y117.475
N400 X38.894
N410 Y0.
N420 Y-3.063
N430 X38.902 Y-3.163
N440 X38.944 Y-3.432
N450 X38.96 Y-3.53 Z-12.692
N460 X38.975 Y-3.626 Z-12.669
N470 X38.989 Y-3.717 Z-12.631
N480 X39.003 Y-3.801 Z-12.579
N490 X39.015 Y-3.876 Z-12.514
N500 X39.025 Y-3.94 Z-12.438
N510 X39.033 Y-3.991 Z-12.353
N520 X39.039 Y-4.029 Z-12.261
N530 X39.042 Y-4.052 Z-12.164
N540 X39.044 Y-4.059 Z-12.065
N550 G0 Z15.
N560 X92.966 Y162.185
N570 Z5.
N580 G1 Z-5.715 F1000.
N590 X92.959 Y162.182 Z-5.814 F3000.
N600 X92.938 Y162.171 Z-5.911
N610 X92.904 Y162.154 Z-6.003
N620 X92.858 Y162.13 Z-6.088
N630 X92.8 Y162.101 Z-6.164
N640 X92.733 Y162.067 Z-6.229
N650 X92.657 Y162.028 Z-6.281
N660 X92.575 Y161.987 Z-6.319
N670 X92.488 Y161.943 Z-6.342
N680 X92.4 Y161.898 Z-6.35
N690 X91.967 Y161.678
N700 G2 X89.075 Y160.475 I-9.351 J18.4
N710 G3 X89.007 Y160.184 I0.055 J-0.166
N720 X91.968 Y157.251 I311.15 J311.151
N730 X92.508 Y157.479 I0.222 J0.227
N740 G1 X92.467 Y165.694
N750 G3 X91.974 Y165.957 I-0.317 J-0.002
N760 G2 X81.071 Y163.192 I-9.383 J14.121
N770 G1 X81.027 Y163.188
N780 X80.987 Y163.169
N790 X80.955 Y163.138
N800 X80.937 Y163.098
N810 X80.933 Y163.054
N820 X80.944 Y163.011
N830 X80.97 Y162.975
N840 X91.97 Y152.033
N850 G3 X92.511 Y152.258 I0.224 J0.225
N860 G1 X92.51 Y170.484
N870 G3 X91.967 Y170.708 I-0.317 J0.
N880 G2 X73.156 Y170.684 I-9.417 J9.37
N890 G1 X19.419 Y224.485
N900 G3 X18.967 I-0.226 J-0.226
N910 G1 X16.815 Y222.333
N920 G3 Y221.881 I0.226 J-0.226
N930 G1 X90.084 Y148.676
N940 G2 X91.97 Y146.489 I-13.884 J-13.884
N950 G3 X92.543 Y146.678 I0.255 J0.189
N960 G1 X92.606 Y178.653
N970 G3 X91.975 Y178.699 I-0.317 J0.001
N980 G2 X75.815 Y173.343 I-9.425 J1.379
N990 G1 X19.193 Y229.965
N1000 X11.335 Y222.107
N1010 X87.425 Y146.017
N1020 G2 X91.975 Y136.571 I-11.225 J-11.225
N1030 G3 X92.608 Y136.594 I0.315 J0.036
N1040 G1 X93.587 Y161.971
N1050 G3 X93.126 Y162.267 I-0.317 J0.012
N1060 G1 X93.037 Y162.222 Z-6.358
N1070 X92.951 Y162.178 Z-6.381
N1080 X92.869 Y162.136 Z-6.419
N1090 X92.793 Y162.097 Z-6.471
N1100 X92.726 Y162.063 Z-6.536
N1110 X92.668 Y162.034 Z-6.612
N1120 X92.622 Y162.01 Z-6.697
N1130 X92.588 Y161.993 Z-6.789
N1140 X92.567 Y161.982 Z-6.886
N1150 X92.56 Y161.979 Z-6.985
N1160 Z-12.065
N1170 X92.553 Y161.975 Z-12.164
N1180 X92.532 Y161.965 Z-12.261
N1190 X92.498 Y161.948 Z-12.353
N1200 X92.452 Y161.924 Z-12.438
N1210 X92.394 Y161.895 Z-12.514
N1220 X92.326 Y161.86 Z-12.579
N1230 X92.251 Y161.822 Z-12.631
N1240 X92.169 Y161.78 Z-12.669
N1250 X92.082 Y161.736 Z-12.692
N1260 X91.994 Y161.691 Z-12.7
N1270 X91.967 Y161.678
N1280 G2 X89.075 Y160.475 I-9.351 J18.4
N1290 G3 X89.007 Y160.184 I0.055 J-0.166
N1300 X91.968 Y157.251 I311.15 J311.151
N1310 X92.508 Y157.479 I0.222 J0.227
N1320 G1 X92.467 Y165.694
N1330 G3 X91.974 Y165.957 I-0.317 J-0.002
N1340 G2 X81.071 Y163.192 I-9.383 J14.121
N1350 G1 X81.027 Y163.188
N1360 X80.987 Y163.169
N1370 X80.955 Y163.138
N1380 X80.937 Y163.098
N1390 X80.933 Y163.054
N1400 X80.944 Y163.011
N1410 X80.97 Y162.975
N1420 X91.97 Y152.033
N1430 G3 X92.511 Y152.258 I0.224 J0.225
N1440 G1 X92.51 Y170.484
N1450 G3 X91.967 Y170.708 I-0.317 J0.
N1460 G2 X73.156 Y170.684 I-9.417 J9.37
N1470 G1 X19.419 Y224.485
N1480 G3 X18.967 I-0.226 J-0.226
N1490 G1 X16.815 Y222.333
N1500 G3 Y221.881 I0.226 J-0.226
N1510 G1 X90.084 Y148.676
N1520 G2 X91.97 Y146.489 I-13.884 J-13.884
N1530 G3 X92.543 Y146.678 I0.255 J0.189
N1540 G1 X92.606 Y178.653
N1550 G3 X91.975 Y178.699 I-0.317 J0.001
N1560 G2 X75.815 Y173.343 I-9.425 J1.379
N1570 G1 X19.193 Y229.965
N1580 X11.335 Y222.107
N1590 X87.425 Y146.017
N1600 G2 X91.975 Y136.571 I-11.225 J-11.225
N1610 G1 X92.017 Y136.201
N1620 X92.028 Y136.103 Z-12.692
N1630 X92.039 Y136.006 Z-12.669
N1640 X92.049 Y135.915 Z-12.631
N1650 X92.059 Y135.831 Z-12.579
N1660 X92.067 Y135.755 Z-12.514
N1670 X92.074 Y135.691 Z-12.438
N1680 X92.08 Y135.639 Z-12.353
N1690 X92.084 Y135.601 Z-12.261
N1700 X92.087 Y135.578 Z-12.164
N1710 X92.088 Y135.57 Z-12.065
N1720 G0 Z15.
N1730 X92.966 Y294.958
N1740 Z5.
N1750 G1 Z-5.715 F1000.
N1760 X92.959 Y294.955 Z-5.814 F3000.
N1770 X92.938 Y294.944 Z-5.911
N1780 X92.904 Y294.927 Z-6.003
N1790 X92.858 Y294.903 Z-6.088
N1800 X92.8 Y294.874 Z-6.164
N1810 X92.733 Y294.84 Z-6.229
N1820 X92.657 Y294.801 Z-6.281
N1830 X92.575 Y294.76 Z-6.319
N1840 X92.488 Y294.716 Z-6.342
N1850 X92.4 Y294.671 Z-6.35
N1860 X91.967 Y294.451
N1870 G2 X89.075 Y293.248 I-9.351 J18.4
N1880 G3 X89.007 Y292.957 I0.055 J-0.166
N1890 X91.968 Y290.024 I311.165 J311.165
N1900 X92.508 Y290.252 I0.222 J0.227
N1910 G1 X92.467 Y298.467
N1920 G3 X91.974 Y298.73 I-0.317 J-0.002
N1930 G2 X81.071 Y295.965 I-9.383 J14.121
N1940 G1 X81.027 Y295.961
N1950 X80.987 Y295.942
N1960 X80.955 Y295.911
N1970 X80.937 Y295.871
N1980 X80.933 Y295.827
N1990 X80.944 Y295.784
N2000 X80.97 Y295.748
N2010 X91.97 Y284.806
N2020 G3 X92.511 Y285.031 I0.224 J0.225
N2030 G1 X92.51 Y303.257
N2040 G3 X91.967 Y303.481 I-0.317 J0.
N2050 G2 X73.156 Y303.457 I-9.417 J9.37
N2060 G1 X19.419 Y357.257
N2070 G3 X18.967 I-0.226 J-0.226
N2080 G1 X16.815 Y355.106
N2090 G3 Y354.654 I0.226 J-0.226
N2100 G1 X90.084 Y281.449
N2110 G2 X91.97 Y279.262 I-13.884 J-13.884
N2120 G3 X92.543 Y279.451 I0.255 J0.189
N2130 G1 X92.606 Y311.426
N2140 G3 X91.975 Y311.472 I-0.317 J0.001
N2150 G2 X75.815 Y306.116 I-9.425 J1.379
N2160 G1 X19.193 Y362.737
N2170 X11.335 Y354.88
N2180 X87.425 Y278.79
N2190 G2 X91.975 Y269.344 I-11.226 J-11.225
N2200 G3 X92.608 Y269.367 I0.316 J0.036
N2210 G1 X93.587 Y294.744
N2220 G3 X93.126 Y295.04 I-0.317 J0.012
N2230 G1 X93.037 Y294.995 Z-6.358
N2240 X92.951 Y294.951 Z-6.381
N2250 X92.869 Y294.909 Z-6.419
N2260 X92.793 Y294.87 Z-6.471
N2270 X92.726 Y294.836 Z-6.536
N2280 X92.668 Y294.807 Z-6.612
N2290 X92.622 Y294.783 Z-6.697
N2300 X92.588 Y294.766 Z-6.789
N2310 X92.567 Y294.755 Z-6.886
N2320 X92.56 Y294.752 Z-6.985
N2330 Z-12.065
N2340 X92.553 Y294.748 Z-12.164
N2350 X92.532 Y294.738 Z-12.261
N2360 X92.498 Y294.721 Z-12.353
N2370 X92.452 Y294.697 Z-12.438
N2380 X92.394 Y294.668 Z-12.514
N2390 X92.326 Y294.633 Z-12.579
N2400 X92.251 Y294.595 Z-12.631
N2410 X92.169 Y294.553 Z-12.669
N2420 X92.082 Y294.509 Z-12.692
N2430 X91.994 Y294.464 Z-12.7
N2440 X91.967 Y294.451
N2450 G2 X89.075 Y293.248 I-9.351 J18.4
N2460 G3 X89.007 Y292.957 I0.055 J-0.166
N2470 X91.968 Y290.024 I311.165 J311.165
N2480 X92.508 Y290.252 I0.222 J0.227
N2490 G1 X92.467 Y298.467
N2500 G3 X91.974 Y298.73 I-0.317 J-0.002
N2510 G2 X81.071 Y295.965 I-9.383 J14.121
N2520 G1 X81.027 Y295.961
N2530 X80.987 Y295.942
N2540 X80.955 Y295.911
N2550 X80.937 Y295.871
N2560 X80.933 Y295.827
N2570 X80.944 Y295.784
N2580 X80.97 Y295.748
N2590 X91.97 Y284.806
N2600 G3 X92.511 Y285.031 I0.224 J0.225
N2610 G1 X92.51 Y303.257
N2620 G3 X91.967 Y303.481 I-0.317 J0.
N2630 G2 X73.156 Y303.457 I-9.417 J9.37
N2640 G1 X19.419 Y357.257
N2650 G3 X18.967 I-0.226 J-0.226
N2660 G1 X16.815 Y355.106
N2670 G3 Y354.654 I0.226 J-0.226
N2680 G1 X90.084 Y281.449
N2690 G2 X91.97 Y279.262 I-13.884 J-13.884
N2700 G3 X92.543 Y279.451 I0.255 J0.189
N2710 G1 X92.606 Y311.426
N2720 G3 X91.975 Y311.472 I-0.317 J0.001
N2730 G2 X75.815 Y306.116 I-9.425 J1.379
N2740 G1 X19.193 Y362.737
N2750 X11.335 Y354.88
N2760 X87.425 Y278.79
N2770 G2 X91.975 Y269.344 I-11.226 J-11.225
N2780 G1 X92.017 Y268.974
N2790 X92.028 Y268.876 Z-12.692
N2800 X92.039 Y268.779 Z-12.669
N2810 X92.049 Y268.688 Z-12.631
N2820 X92.058 Y268.604 Z-12.579
N2830 X92.067 Y268.528 Z-12.514
N2840 X92.074 Y268.464 Z-12.438
N2850 X92.08 Y268.412 Z-12.353
N2860 X92.084 Y268.374 Z-12.261
N2870 X92.087 Y268.351 Z-12.164
N2880 X92.088 Y268.343 Z-12.065
N2890 G0 Z15.
N2900 X92.966 Y427.731
N2910 Z5.
N2920 G1 Z-5.715 F1000.
N2930 X92.959 Y427.728 Z-5.814 F3000.
N2940 X92.938 Y427.717 Z-5.911
N2950 X92.904 Y427.7 Z-6.003
N2960 X92.858 Y427.676 Z-6.088
N2970 X92.8 Y427.647 Z-6.164
N2980 X92.733 Y427.612 Z-6.229
N2990 X92.657 Y427.574 Z-6.281
N3000 X92.575 Y427.532 Z-6.319
N3010 X92.489 Y427.488 Z-6.342
N3020 X92.4 Y427.443 Z-6.35
N3030 X91.967 Y427.223
N3040 G2 X89.075 Y426.02 I-9.352 J18.4
N3050 G3 X89.006 Y425.73 I0.055 J-0.166
N3060 X91.975 Y422.789 I311.195 J311.195
N3070 X92.515 Y423.018 I0.222 J0.227
N3080 G1 X92.467 Y431.24
N3090 G3 X91.974 Y431.503 I-0.317 J-0.002
N3100 G2 X81.07 Y428.737 I-9.384 J14.121
N3110 G1 X81.026 Y428.733
N3120 X80.986 Y428.715
N3130 X80.955 Y428.683
N3140 X80.936 Y428.643
N3150 X80.932 Y428.599
N3160 X80.944 Y428.556
N3170 X80.969 Y428.52
N3180 X91.969 Y417.579
N3190 G3 X92.51 Y417.804 I0.224 J0.225
N3200 G1 Y436.029
N3210 G3 X91.967 Y436.253 I-0.317 J0.
N3220 G2 X73.156 Y436.229 I-9.418 J9.371
N3230 G1 X19.419 Y490.03
N3240 G3 X18.967 I-0.226 J-0.226
N3250 G1 X16.815 Y487.878
N3260 G3 Y487.426 I0.226 J-0.226
N3270 G1 X90.084 Y414.221
N3280 G2 X91.97 Y412.034 I-13.884 J-13.884
N3290 G3 X92.543 Y412.223 I0.255 J0.189
N3300 G1 X92.606 Y444.199
N3310 G3 X91.975 Y444.245 I-0.317 J0.001
N3320 G2 X75.815 Y438.888 I-9.425 J1.378
N3330 G1 X19.193 Y495.51
N3340 X11.335 Y487.652
N3350 X87.425 Y411.562
N3360 G2 X91.975 Y402.116 I-11.225 J-11.225
N3370 G3 X92.608 Y402.139 I0.315 J0.036
N3380 G1 X93.587 Y427.517
N3390 G3 X93.126 Y427.812 I-0.317 J0.012
N3400 G1 X93.037 Y427.767 Z-6.358
N3410 X92.951 Y427.723 Z-6.381
N3420 X92.869 Y427.682 Z-6.419
N3430 X92.793 Y427.643 Z-6.471
N3440 X92.726 Y427.609 Z-6.536
N3450 X92.668 Y427.58 Z-6.612
N3460 X92.622 Y427.556 Z-6.697
N3470 X92.588 Y427.539 Z-6.789
N3480 X92.567 Y427.528 Z-6.886
N3490 X92.56 Y427.525 Z-6.985
N3500 Z-12.065
N3510 X92.553 Y427.521 Z-12.164
N3520 X92.532 Y427.511 Z-12.261
N3530 X92.498 Y427.493 Z-12.353
N3540 X92.452 Y427.47 Z-12.438
N3550 X92.394 Y427.44 Z-12.514
N3560 X92.327 Y427.406 Z-12.579
N3570 X92.251 Y427.368 Z-12.631
N3580 X92.169 Y427.326 Z-12.669
N3590 X92.082 Y427.282 Z-12.692
N3600 X91.994 Y427.237 Z-12.7
N3610 X91.967 Y427.223
N3620 G2 X89.075 Y426.02 I-9.352 J18.4
N3630 G3 X89.006 Y425.73 I0.055 J-0.166
N3640 X91.975 Y422.789 I311.195 J311.195
N3650 X92.515 Y423.018 I0.222 J0.227
N3660 G1 X92.467 Y431.24
N3670 G3 X91.974 Y431.503 I-0.317 J-0.002
N3680 G2 X81.07 Y428.737 I-9.384 J14.121
N3690 G1 X81.026 Y428.733
N3700 X80.986 Y428.715
N3710 X80.955 Y428.683
N3720 X80.936 Y428.643
N3730 X80.932 Y428.599
N3740 X80.944 Y428.556
N3750 X80.969 Y428.52
N3760 X91.969 Y417.579
N3770 G3 X92.51 Y417.804 I0.224 J0.225
N3780 G1 Y436.029
N3790 G3 X91.967 Y436.253 I-0.317 J0.
N3800 G2 X73.156 Y436.229 I-9.418 J9.371
N3810 G1 X19.419 Y490.03
N3820 G3 X18.967 I-0.226 J-0.226
N3830 G1 X16.815 Y487.878
N3840 G3 Y487.426 I0.226 J-0.226
N3850 G1 X90.084 Y414.221
N3860 G2 X91.97 Y412.034 I-13.884 J-13.884
N3870 G3 X92.543 Y412.223 I0.255 J0.189
N3880 G1 X92.606 Y444.199
N3890 G3 X91.975 Y444.245 I-0.317 J0.001
N3900 G2 X75.815 Y438.888 I-9.425 J1.378
N3910 G1 X19.193 Y495.51
N3920 X11.335 Y487.652
N3930 X87.425 Y411.562
N3940 G2 X91.975 Y402.116 I-11.225 J-11.225
N3950 G1 X92.017 Y401.746
N3960 X92.028 Y401.648 Z-12.692
N3970 X92.039 Y401.551 Z-12.669
N3980 X92.049 Y401.46 Z-12.631
N3990 X92.059 Y401.376 Z-12.579
N4000 X92.067 Y401.3 Z-12.514
N4010 X92.074 Y401.236 Z-12.438
N4020 X92.08 Y401.184 Z-12.353
N4030 X92.084 Y401.146 Z-12.261
N4040 X92.087 Y401.123 Z-12.164
N4050 X92.088 Y401.115 Z-12.065
N4060 G0 Z15.
N4070 G4 P1.0
N4080 G0 X0 Y0
N4090 M30
%
