%
(6FT-BTMRHT)
(MACHINE)
(  VENDOR AUTODESK)
(  MODEL GENERIC 3-AXIS ROUTER)
(  DESCRIPTION THIS MACHINE HAS XYZ AXIS ON THE HEAD)
(T20 D=6.35 CR=0. - ZMIN=-12.7 - FLAT END MILL)
N10 G90 G94 G17 G91.1
N20 G21
(-ATTENTION- PROPERTY SAFE RETRACTS IS SET TO CLEARANCE HEIGHT.)
(ENSURE THE CLEARANCE HEIGHT WILL CLEAR THE PART AND OR FIXTURES.)
(RAISE THE Z-AXIS TO A SAFE HEIGHT BEFORE STARTING THE PROGRAM.)
(2D POCKET13)
N30 (T20 M6)
(FLAT END MILL D=6.35 4MM FLAT ENDMILL)
N40 S20000 M3
N45 G4 P5.0
N50 G54
N60 G0 X92.968 Y1008.662
N70 Z15.
N80 G0 Z5.
N90 G1 Z-5.715 F1000.
N100 X92.962 Y1008.657 Z-5.814 F3000.
N110 X92.946 Y1008.641 Z-5.911
N120 X92.919 Y1008.614 Z-6.003
N130 X92.881 Y1008.577 Z-6.088
N140 X92.835 Y1008.532 Z-6.164
N150 X92.781 Y1008.479 Z-6.229
N160 X92.72 Y1008.419 Z-6.281
N170 X92.655 Y1008.355 Z-6.319
N180 X92.586 Y1008.287 Z-6.342
N190 X92.515 Y1008.218 Z-6.35
N200 X91.967 Y1007.681
N210 G3 X89.009 Y1004.751 I307.869 J-313.774
N220 X89.078 Y1004.461 I0.124 J-0.124
N230 G2 X91.969 Y1003.248 I-6.549 J-19.665
N240 G3 X92.431 Y1003.528 I0.145 J0.283
N250 G1 X92.513 Y1012.673
N260 G3 X91.972 Y1012.901 I-0.317 J0.003
N270 G1 X80.973 Y1001.962
N280 X80.948 Y1001.925
N290 X80.937 Y1001.883
N300 X80.94 Y1001.839
N310 X80.959 Y1001.798
N320 X80.99 Y1001.767
N330 X81.031 Y1001.748
N340 X81.075 Y1001.745
N350 G2 X91.972 Y998.96 I1.479 J-16.927
N360 G3 X92.465 Y999.223 I0.176 J0.264
N370 G1 X92.546 Y1018.256
N380 G3 X91.973 Y1018.447 I-0.317 J0.001
N390 G2 X90.084 Y1016.256 I-15.773 J11.693
N400 G1 X16.815 Y943.055
N410 G3 Y942.603 I0.226 J-0.226
N420 G1 X18.967 Y940.452
N430 G3 X19.419 I0.226 J0.226
N440 G1 X73.156 Y994.252
N450 G2 X91.967 Y994.228 I9.394 J-9.394
N460 G3 X92.51 Y994.451 I0.225 J0.224
N470 G1 X92.607 Y1028.316
N480 G3 X91.974 Y1028.353 I-0.318 J0.001
N490 G2 X87.425 Y1018.915 I-15.774 J1.787
N500 G1 X11.335 Y942.829
N510 X19.193 Y934.972
N520 X75.815 Y991.593
N530 G2 X91.975 Y986.235 I6.735 J-6.735
N540 G3 X92.606 Y986.269 I0.314 J0.046
N550 G1 X93.435 Y1008.352
N560 G3 X92.895 Y1008.591 I-0.317 J0.012
N570 G1 X92.824 Y1008.521 Z-6.358
N580 X92.755 Y1008.454 Z-6.381
N590 X92.689 Y1008.389 Z-6.419
N600 X92.629 Y1008.33 Z-6.471
N610 X92.575 Y1008.277 Z-6.536
N620 X92.529 Y1008.231 Z-6.612
N630 X92.491 Y1008.195 Z-6.697
N640 X92.464 Y1008.168 Z-6.789
N650 X92.448 Y1008.152 Z-6.886
N660 X92.442 Y1008.146 Z-6.985
N670 Z-12.065
N680 X92.436 Y1008.141 Z-12.164
N690 X92.42 Y1008.124 Z-12.261
N700 X92.393 Y1008.098 Z-12.353
N710 X92.355 Y1008.061 Z-12.438
N720 X92.309 Y1008.016 Z-12.514
N730 X92.255 Y1007.963 Z-12.579
N740 X92.195 Y1007.903 Z-12.631
N750 X92.129 Y1007.839 Z-12.669
N760 X92.06 Y1007.771 Z-12.692
N770 X91.989 Y1007.702 Z-12.7
N780 X91.967 Y1007.681
N790 G3 X89.009 Y1004.751 I307.869 J-313.774
N800 X89.078 Y1004.461 I0.124 J-0.124
N810 G2 X91.969 Y1003.248 I-6.549 J-19.665
N820 G3 X92.431 Y1003.528 I0.145 J0.283
N830 G1 X92.513 Y1012.673
N840 G3 X91.972 Y1012.901 I-0.317 J0.003
N850 G1 X80.973 Y1001.962
N860 X80.948 Y1001.925
N870 X80.937 Y1001.883
N880 X80.94 Y1001.839
N890 X80.959 Y1001.798
N900 X80.99 Y1001.767
N910 X81.031 Y1001.748
N920 X81.075 Y1001.745
N930 G2 X91.972 Y998.96 I1.479 J-16.927
N940 G3 X92.465 Y999.223 I0.176 J0.264
N950 G1 X92.546 Y1018.256
N960 G3 X91.973 Y1018.447 I-0.317 J0.001
N970 G2 X90.084 Y1016.256 I-15.773 J11.693
N980 G1 X16.815 Y943.055
N990 G3 Y942.603 I0.226 J-0.226
N1000 G1 X18.967 Y940.452
N1010 G3 X19.419 I0.226 J0.226
N1020 G1 X73.156 Y994.252
N1030 G2 X91.967 Y994.228 I9.394 J-9.394
N1040 G3 X92.51 Y994.451 I0.225 J0.224
N1050 G1 X92.607 Y1028.316
N1060 G3 X91.974 Y1028.353 I-0.318 J0.001
N1070 G2 X87.425 Y1018.915 I-15.774 J1.787
N1080 G1 X11.335 Y942.829
N1090 X19.193 Y934.972
N1100 X75.815 Y991.593
N1110 G2 X91.975 Y986.235 I6.735 J-6.735
N1120 G1 X92.029 Y985.866
N1130 X92.043 Y985.768 Z-12.692
N1140 X92.057 Y985.672 Z-12.669
N1150 X92.07 Y985.581 Z-12.631
N1160 X92.083 Y985.497 Z-12.579
N1170 X92.094 Y985.422 Z-12.514
N1180 X92.103 Y985.358 Z-12.438
N1190 X92.111 Y985.307 Z-12.353
N1200 X92.116 Y985.269 Z-12.261
N1210 X92.119 Y985.246 Z-12.164
N1220 X92.121 Y985.238 Z-12.065
N1230 G0 Z15.
N1240 X92.967 Y1141.443
N1250 Z5.
N1260 G1 Z-5.715 F1000.
N1270 X92.962 Y1141.437 Z-5.814 F3000.
N1280 X92.945 Y1141.421 Z-5.911
N1290 X92.918 Y1141.394 Z-6.003
N1300 X92.881 Y1141.358 Z-6.088
N1310 X92.834 Y1141.313 Z-6.164
N1320 X92.78 Y1141.259 Z-6.229
N1330 X92.72 Y1141.2 Z-6.281
N1340 X92.654 Y1141.135 Z-6.319
N1350 X92.585 Y1141.068 Z-6.342
N1360 X92.514 Y1140.998 Z-6.35
N1370 X91.972 Y1140.467
N1380 G3 X89.002 Y1137.524 I308.593 J-314.506
N1390 X89.07 Y1137.234 I0.124 J-0.124
N1400 G2 X91.972 Y1136.017 I-6.541 J-19.667
N1410 G3 X92.435 Y1136.297 I0.145 J0.283
N1420 G1 X92.513 Y1145.453
N1430 G3 X91.972 Y1145.681 I-0.317 J0.003
N1440 G1 X80.968 Y1134.737
N1450 X80.942 Y1134.7
N1460 X80.93 Y1134.656
N1470 X80.934 Y1134.611
N1480 X80.953 Y1134.57
N1490 X80.985 Y1134.538
N1500 X81.026 Y1134.519
N1510 X81.071 Y1134.515
N1520 G2 X91.969 Y1131.733 I1.482 J-16.927
N1530 G3 X92.462 Y1131.996 I0.176 J0.264
N1540 G1 X92.546 Y1151.036
N1550 G3 X91.973 Y1151.227 I-0.317 J0.001
N1560 G2 X90.084 Y1149.036 I-15.773 J11.693
N1570 G1 X16.815 Y1075.83
N1580 G3 Y1075.379 I0.226 J-0.226
N1590 G1 X18.968 Y1073.225
N1600 G3 X19.419 I0.226 J0.226
N1610 G1 X73.156 Y1127.024
N1620 G2 X91.967 Y1127.001 I9.394 J-9.394
N1630 G3 X92.51 Y1127.224 I0.225 J0.224
N1640 G1 X92.607 Y1161.096
N1650 G3 X91.974 Y1161.133 I-0.318 J0.001
N1660 G2 X87.425 Y1151.695 I-15.774 J1.787
N1670 G1 X11.335 Y1075.605
N1680 X19.193 Y1067.745
N1690 X75.815 Y1124.365
N1700 G2 X91.975 Y1119.007 I6.735 J-6.735
N1710 G3 X92.606 Y1119.041 I0.314 J0.046
N1720 G1 X93.44 Y1141.138
N1730 G3 X92.9 Y1141.377 I-0.317 J0.012
N1740 G1 X92.829 Y1141.307 Z-6.358
N1750 X92.76 Y1141.239 Z-6.381
N1760 X92.694 Y1141.175 Z-6.419
N1770 X92.634 Y1141.115 Z-6.471
N1780 X92.58 Y1141.062 Z-6.536
N1790 X92.533 Y1141.017 Z-6.612
N1800 X92.496 Y1140.981 Z-6.697
N1810 X92.469 Y1140.954 Z-6.789
N1820 X92.452 Y1140.938 Z-6.886
N1830 X92.447 Y1140.932 Z-6.985
N1840 Z-12.065
N1850 X92.441 Y1140.927 Z-12.164
N1860 X92.425 Y1140.91 Z-12.261
N1870 X92.397 Y1140.884 Z-12.353
N1880 X92.36 Y1140.847 Z-12.438
N1890 X92.314 Y1140.802 Z-12.514
N1900 X92.26 Y1140.749 Z-12.579
N1910 X92.199 Y1140.689 Z-12.631
N1920 X92.134 Y1140.625 Z-12.669
N1930 X92.064 Y1140.557 Z-12.692
N1940 X91.994 Y1140.487 Z-12.7
N1950 X91.972 Y1140.467
N1960 G3 X89.002 Y1137.524 I308.593 J-314.506
N1970 X89.07 Y1137.234 I0.124 J-0.124
N1980 G2 X91.972 Y1136.017 I-6.541 J-19.667
N1990 G3 X92.435 Y1136.297 I0.145 J0.283
N2000 G1 X92.513 Y1145.453
N2010 G3 X91.972 Y1145.681 I-0.317 J0.003
N2020 G1 X80.968 Y1134.737
N2030 X80.942 Y1134.7
N2040 X80.93 Y1134.656
N2050 X80.934 Y1134.611
N2060 X80.953 Y1134.57
N2070 X80.985 Y1134.538
N2080 X81.026 Y1134.519
N2090 X81.071 Y1134.515
N2100 G2 X91.969 Y1131.733 I1.482 J-16.927
N2110 G3 X92.462 Y1131.996 I0.176 J0.264
N2120 G1 X92.546 Y1151.036
N2130 G3 X91.973 Y1151.227 I-0.317 J0.001
N2140 G2 X90.084 Y1149.036 I-15.773 J11.693
N2150 G1 X16.815 Y1075.83
N2160 G3 Y1075.379 I0.226 J-0.226
N2170 G1 X18.968 Y1073.225
N2180 G3 X19.419 I0.226 J0.226
N2190 G1 X73.156 Y1127.024
N2200 G2 X91.967 Y1127.001 I9.394 J-9.394
N2210 G3 X92.51 Y1127.224 I0.225 J0.224
N2220 G1 X92.607 Y1161.096
N2230 G3 X91.974 Y1161.133 I-0.318 J0.001
N2240 G2 X87.425 Y1151.695 I-15.774 J1.787
N2250 G1 X11.335 Y1075.605
N2260 X19.193 Y1067.745
N2270 X75.815 Y1124.365
N2280 G2 X91.975 Y1119.007 I6.735 J-6.735
N2290 G1 X92.029 Y1118.638
N2300 X92.043 Y1118.54 Z-12.692
N2310 X92.057 Y1118.444 Z-12.669
N2320 X92.07 Y1118.353 Z-12.631
N2330 X92.083 Y1118.269 Z-12.579
N2340 X92.094 Y1118.194 Z-12.514
N2350 X92.103 Y1118.13 Z-12.438
N2360 X92.111 Y1118.079 Z-12.353
N2370 X92.116 Y1118.041 Z-12.261
N2380 X92.119 Y1118.018 Z-12.164
N2390 X92.121 Y1118.01 Z-12.065
N2400 G0 Z15.
N2410 X92.967 Y1274.213
N2420 Z5.
N2430 G1 Z-5.715 F1000.
N2440 X92.962 Y1274.207 Z-5.814 F3000.
N2450 X92.945 Y1274.191 Z-5.911
N2460 X92.918 Y1274.164 Z-6.003
N2470 X92.881 Y1274.128 Z-6.088
N2480 X92.834 Y1274.082 Z-6.164
N2490 X92.78 Y1274.029 Z-6.229
N2500 X92.72 Y1273.97 Z-6.281
N2510 X92.654 Y1273.905 Z-6.319
N2520 X92.585 Y1273.838 Z-6.342
N2530 X92.514 Y1273.768 Z-6.35
N2540 X91.972 Y1273.237
N2550 G3 X89.002 Y1270.294 I308.593 J-314.506
N2560 X89.07 Y1270.004 I0.124 J-0.124
N2570 G2 X91.972 Y1268.787 I-6.541 J-19.667
N2580 G3 X92.435 Y1269.067 I0.145 J0.283
N2590 G1 X92.513 Y1278.223
N2600 G3 X91.972 Y1278.451 I-0.317 J0.003
N2610 G1 X80.968 Y1267.507
N2620 X80.942 Y1267.47
N2630 X80.93 Y1267.426
N2640 X80.934 Y1267.381
N2650 X80.953 Y1267.34
N2660 X80.985 Y1267.308
N2670 X81.026 Y1267.289
N2680 X81.071 Y1267.285
N2690 G2 X91.969 Y1264.503 I1.482 J-16.927
N2700 G3 X92.462 Y1264.766 I0.176 J0.264
N2710 G1 X92.546 Y1283.806
N2720 G3 X91.973 Y1283.997 I-0.317 J0.001
N2730 G2 X90.084 Y1281.806 I-15.773 J11.693
N2740 G1 X16.815 Y1208.6
N2750 G3 Y1208.149 I0.226 J-0.226
N2760 G1 X18.968 Y1205.995
N2770 G3 X19.419 I0.226 J0.226
N2780 G1 X73.156 Y1259.794
N2790 G2 X91.967 Y1259.771 I9.394 J-9.394
N2800 G3 X92.51 Y1259.994 I0.225 J0.224
N2810 G1 X92.607 Y1293.866
N2820 G3 X91.974 Y1293.903 I-0.318 J0.001
N2830 G2 X87.425 Y1284.465 I-15.774 J1.787
N2840 G1 X11.335 Y1208.375
N2850 X19.191 Y1200.517
N2860 X75.815 Y1257.135
N2870 G2 X91.975 Y1251.777 I6.735 J-6.735
N2880 G3 X92.606 Y1251.811 I0.314 J0.046
N2890 G1 X93.44 Y1273.908
N2900 G3 X92.9 Y1274.147 I-0.317 J0.012
N2910 G1 X92.829 Y1274.077 Z-6.358
N2920 X92.76 Y1274.009 Z-6.381
N2930 X92.694 Y1273.945 Z-6.419
N2940 X92.634 Y1273.885 Z-6.471
N2950 X92.58 Y1273.832 Z-6.536
N2960 X92.533 Y1273.787 Z-6.612
N2970 X92.496 Y1273.751 Z-6.697
N2980 X92.469 Y1273.724 Z-6.789
N2990 X92.452 Y1273.708 Z-6.886
N3000 X92.447 Y1273.702 Z-6.985
N3010 Z-12.065
N3020 X92.441 Y1273.697 Z-12.164
N3030 X92.425 Y1273.68 Z-12.261
N3040 X92.397 Y1273.654 Z-12.353
N3050 X92.36 Y1273.617 Z-12.438
N3060 X92.314 Y1273.572 Z-12.514
N3070 X92.26 Y1273.519 Z-12.579
N3080 X92.199 Y1273.459 Z-12.631
N3090 X92.134 Y1273.395 Z-12.669
N3100 X92.064 Y1273.327 Z-12.692
N3110 X91.994 Y1273.257 Z-12.7
N3120 X91.972 Y1273.237
N3130 G3 X89.002 Y1270.294 I308.593 J-314.506
N3140 X89.07 Y1270.004 I0.124 J-0.124
N3150 G2 X91.972 Y1268.787 I-6.541 J-19.667
N3160 G3 X92.435 Y1269.067 I0.145 J0.283
N3170 G1 X92.513 Y1278.223
N3180 G3 X91.972 Y1278.451 I-0.317 J0.003
N3190 G1 X80.968 Y1267.507
N3200 X80.942 Y1267.47
N3210 X80.93 Y1267.426
N3220 X80.934 Y1267.381
N3230 X80.953 Y1267.34
N3240 X80.985 Y1267.308
N3250 X81.026 Y1267.289
N3260 X81.071 Y1267.285
N3270 G2 X91.969 Y1264.503 I1.482 J-16.927
N3280 G3 X92.462 Y1264.766 I0.176 J0.264
N3290 G1 X92.546 Y1283.806
N3300 G3 X91.973 Y1283.997 I-0.317 J0.001
N3310 G2 X90.084 Y1281.806 I-15.773 J11.693
N3320 G1 X16.815 Y1208.6
N3330 G3 Y1208.149 I0.226 J-0.226
N3340 G1 X18.968 Y1205.995
N3350 G3 X19.419 I0.226 J0.226
N3360 G1 X73.156 Y1259.794
N3370 G2 X91.967 Y1259.771 I9.394 J-9.394
N3380 G3 X92.51 Y1259.994 I0.225 J0.224
N3390 G1 X92.607 Y1293.866
N3400 G3 X91.974 Y1293.903 I-0.318 J0.001
N3410 G2 X87.425 Y1284.465 I-15.774 J1.787
N3420 G1 X11.335 Y1208.375
N3430 X19.191 Y1200.517
N3440 X75.815 Y1257.135
N3450 G2 X91.975 Y1251.777 I6.735 J-6.735
N3460 G1 X92.029 Y1251.408
N3470 X92.043 Y1251.31 Z-12.692
N3480 X92.057 Y1251.214 Z-12.669
N3490 X92.07 Y1251.123 Z-12.631
N3500 X92.083 Y1251.039 Z-12.579
N3510 X92.094 Y1250.964 Z-12.514
N3520 X92.103 Y1250.9 Z-12.438
N3530 X92.111 Y1250.849 Z-12.353
N3540 X92.116 Y1250.811 Z-12.261
N3550 X92.119 Y1250.788 Z-12.164
N3560 X92.121 Y1250.78 Z-12.065
N3570 G0 Z15.
N3580 X46.291 Y-4.078
N3590 Z5.
N3600 G1 Z-5.715 F1000.
N3610 G19 G3 Y-3.443 Z-6.35 J0.635 K0. F3000.
N3620 G1 Y-3.075
N3630 Y113.441
N3640 G17 G3 X45.972 Y113.76 I-0.319 J0.
N3650 G1 X42.928
N3660 G3 X42.609 Y113.441 I0. J-0.319
N3670 G1 Y-3.07
N3680 G3 X42.926 Y-3.387 I0.318 J0.
N3690 G1 X49.689 Y-3.388
N3700 G3 X50.006 Y-3.07 I0. J0.318
N3710 G1 Y117.475
N3720 X38.894
N3730 Y0.
N3740 Y-3.063
N3750 G3 X39.151 Y-3.375 I0.317 J0.
N3760 G1 X45.913 Y-4.686
N3770 G3 X46.291 Y-4.375 I0.06 J0.312
N3780 G19 G2 Y-3.74 Z-6.985 J0. K-0.635
N3790 G1 Z-12.065
N3800 G3 Y-3.105 Z-12.7 J0.635 K0.
N3810 G1 Y-3.075
N3820 Y113.441
N3830 G17 G3 X45.972 Y113.76 I-0.319 J0.
N3840 G1 X42.928
N3850 G3 X42.609 Y113.441 I0. J-0.319
N3860 G1 Y-3.07
N3870 G3 X42.926 Y-3.387 I0.318 J0.
N3880 G1 X49.689 Y-3.388
N3890 G3 X50.006 Y-3.07 I0. J0.318
N3900 G1 Y117.475
N3910 X38.894
N3920 Y0.
N3930 Y-3.063
N3940 X38.902 Y-3.163
N3950 X38.944 Y-3.432
N3960 X38.96 Y-3.53 Z-12.692
N3970 X38.975 Y-3.626 Z-12.669
N3980 X38.989 Y-3.717 Z-12.631
N3990 X39.003 Y-3.801 Z-12.579
N4000 X39.015 Y-3.876 Z-12.514
N4010 X39.025 Y-3.94 Z-12.438
N4020 X39.033 Y-3.991 Z-12.353
N4030 X39.039 Y-4.029 Z-12.261
N4040 X39.042 Y-4.052 Z-12.164
N4050 X39.044 Y-4.059 Z-12.065
N4060 G0 Z15.
N4070 X92.967 Y212.029
N4080 Z5.
N4090 G1 Z-5.715 F1000.
N4100 X92.961 Y212.023 Z-5.814 F3000.
N4110 X92.945 Y212.007 Z-5.911
N4120 X92.917 Y211.98 Z-6.003
N4130 X92.88 Y211.944 Z-6.088
N4140 X92.834 Y211.899 Z-6.164
N4150 X92.78 Y211.846 Z-6.229
N4160 X92.719 Y211.786 Z-6.281
N4170 X92.654 Y211.722 Z-6.319
N4180 X92.584 Y211.654 Z-6.342
N4190 X92.513 Y211.584 Z-6.35
N4200 X91.966 Y211.047
N4210 G3 X89.007 Y208.116 I308.194 J-314.085
N4220 X89.075 Y207.825 I0.124 J-0.124
N4230 G2 X91.966 Y206.613 I-6.546 J-19.666
N4240 G3 X92.428 Y206.893 I0.145 J0.283
N4250 G1 X92.513 Y216.041
N4260 G3 X91.972 Y216.269 I-0.317 J0.003
N4270 G1 X80.97 Y205.325
N4280 X80.944 Y205.289
N4290 X80.933 Y205.246
N4300 X80.937 Y205.202
N4310 X80.955 Y205.162
N4320 X80.987 Y205.131
N4330 X81.027 Y205.112
N4340 X81.071 Y205.108
N4350 G2 X91.969 Y202.326 I1.483 J-16.927
N4360 G3 X92.462 Y202.589 I0.176 J0.264
N4370 G1 X92.546 Y221.624
N4380 G3 X91.973 Y221.815 I-0.317 J0.001
N4390 G2 X90.084 Y219.624 I-15.773 J11.693
N4400 G1 X16.815 Y146.419
N4410 G3 Y145.967 I0.226 J-0.226
N4420 G1 X18.967 Y143.815
N4430 G3 X19.419 I0.226 J0.226
N4440 G1 X73.156 Y197.616
N4450 G2 X91.967 Y197.593 I9.394 J-9.394
N4460 G3 X92.51 Y197.816 I0.225 J0.224
N4470 G1 X92.607 Y231.684
N4480 G3 X91.974 Y231.721 I-0.318 J0.001
N4490 G2 X87.425 Y222.283 I-15.774 J1.788
N4500 G1 X11.335 Y146.193
N4510 X19.193 Y138.335
N4520 X75.815 Y194.957
N4530 G2 X91.975 Y189.599 I6.735 J-6.735
N4540 G3 X92.606 Y189.633 I0.314 J0.046
N4550 G1 X93.434 Y211.719
N4560 G3 X92.894 Y211.958 I-0.317 J0.012
N4570 G1 X92.823 Y211.888 Z-6.358
N4580 X92.754 Y211.82 Z-6.381
N4590 X92.688 Y211.756 Z-6.419
N4600 X92.628 Y211.696 Z-6.471
N4610 X92.574 Y211.643 Z-6.536
N4620 X92.527 Y211.598 Z-6.612
N4630 X92.49 Y211.561 Z-6.697
N4640 X92.463 Y211.535 Z-6.789
N4650 X92.446 Y211.518 Z-6.886
N4660 X92.441 Y211.513 Z-6.985
N4670 Z-12.065
N4680 X92.435 Y211.507 Z-12.164
N4690 X92.419 Y211.491 Z-12.261
N4700 X92.391 Y211.464 Z-12.353
N4710 X92.354 Y211.428 Z-12.438
N4720 X92.308 Y211.383 Z-12.514
N4730 X92.254 Y211.33 Z-12.579
N4740 X92.193 Y211.27 Z-12.631
N4750 X92.128 Y211.206 Z-12.669
N4760 X92.058 Y211.138 Z-12.692
N4770 X91.988 Y211.068 Z-12.7
N4780 X91.966 Y211.047
N4790 G3 X89.007 Y208.116 I308.194 J-314.085
N4800 X89.075 Y207.825 I0.124 J-0.124
N4810 G2 X91.966 Y206.613 I-6.546 J-19.666
N4820 G3 X92.428 Y206.893 I0.145 J0.283
N4830 G1 X92.513 Y216.041
N4840 G3 X91.972 Y216.269 I-0.317 J0.003
N4850 G1 X80.97 Y205.325
N4860 X80.944 Y205.289
N4870 X80.933 Y205.246
N4880 X80.937 Y205.202
N4890 X80.955 Y205.162
N4900 X80.987 Y205.131
N4910 X81.027 Y205.112
N4920 X81.071 Y205.108
N4930 G2 X91.969 Y202.326 I1.483 J-16.927
N4940 G3 X92.462 Y202.589 I0.176 J0.264
N4950 G1 X92.546 Y221.624
N4960 G3 X91.973 Y221.815 I-0.317 J0.001
N4970 G2 X90.084 Y219.624 I-15.773 J11.693
N4980 G1 X16.815 Y146.419
N4990 G3 Y145.967 I0.226 J-0.226
N5000 G1 X18.967 Y143.815
N5010 G3 X19.419 I0.226 J0.226
N5020 G1 X73.156 Y197.616
N5030 G2 X91.967 Y197.593 I9.394 J-9.394
N5040 G3 X92.51 Y197.816 I0.225 J0.224
N5050 G1 X92.607 Y231.684
N5060 G3 X91.974 Y231.721 I-0.318 J0.001
N5070 G2 X87.425 Y222.283 I-15.774 J1.788
N5080 G1 X11.335 Y146.193
N5090 X19.193 Y138.335
N5100 X75.815 Y194.957
N5110 G2 X91.975 Y189.599 I6.735 J-6.735
N5120 G1 X92.029 Y189.23
N5130 X92.043 Y189.132 Z-12.692
N5140 X92.057 Y189.036 Z-12.669
N5150 X92.07 Y188.945 Z-12.631
N5160 X92.083 Y188.861 Z-12.579
N5170 X92.094 Y188.786 Z-12.514
N5180 X92.103 Y188.722 Z-12.438
N5190 X92.111 Y188.671 Z-12.353
N5200 X92.116 Y188.633 Z-12.261
N5210 X92.119 Y188.61 Z-12.164
N5220 X92.121 Y188.602 Z-12.065
N5230 G0 Z15.
N5240 X92.967 Y344.802
N5250 Z5.
N5260 G1 Z-5.715 F1000.
N5270 X92.961 Y344.796 Z-5.814 F3000.
N5280 X92.945 Y344.78 Z-5.911
N5290 X92.917 Y344.753 Z-6.003
N5300 X92.88 Y344.717 Z-6.088
N5310 X92.834 Y344.672 Z-6.164
N5320 X92.78 Y344.619 Z-6.229
N5330 X92.719 Y344.559 Z-6.281
N5340 X92.654 Y344.495 Z-6.319
N5350 X92.584 Y344.427 Z-6.342
N5360 X92.513 Y344.357 Z-6.35
N5370 X91.966 Y343.82
N5380 G3 X89.007 Y340.889 I308.194 J-314.085
N5390 X89.075 Y340.598 I0.124 J-0.124
N5400 G2 X91.966 Y339.386 I-6.546 J-19.666
N5410 G3 X92.428 Y339.666 I0.145 J0.283
N5420 G1 X92.513 Y348.814
N5430 G3 X91.972 Y349.042 I-0.317 J0.003
N5440 G1 X80.97 Y338.098
N5450 X80.944 Y338.062
N5460 X80.933 Y338.019
N5470 X80.937 Y337.975
N5480 X80.955 Y337.935
N5490 X80.987 Y337.904
N5500 X81.027 Y337.885
N5510 X81.071 Y337.881
N5520 G2 X91.969 Y335.099 I1.483 J-16.927
N5530 G3 X92.462 Y335.362 I0.176 J0.264
N5540 G1 X92.546 Y354.397
N5550 G3 X91.973 Y354.588 I-0.317 J0.001
N5560 G2 X90.084 Y352.397 I-15.773 J11.693
N5570 G1 X16.815 Y279.192
N5580 G3 Y278.74 I0.226 J-0.226
N5590 G1 X18.967 Y276.588
N5600 G3 X19.419 I0.226 J0.226
N5610 G1 X73.156 Y330.389
N5620 G2 X91.967 Y330.366 I9.394 J-9.394
N5630 G3 X92.51 Y330.589 I0.225 J0.224
N5640 G1 X92.607 Y364.457
N5650 G3 X91.974 Y364.494 I-0.318 J0.001
N5660 G2 X87.425 Y355.056 I-15.774 J1.788
N5670 G1 X11.335 Y278.966
N5680 X19.193 Y271.108
N5690 X75.815 Y327.73
N5700 G2 X91.975 Y322.372 I6.735 J-6.735
N5710 G3 X92.606 Y322.406 I0.314 J0.046
N5720 G1 X93.434 Y344.492
N5730 G3 X92.894 Y344.731 I-0.317 J0.012
N5740 G1 X92.823 Y344.661 Z-6.358
N5750 X92.754 Y344.593 Z-6.381
N5760 X92.688 Y344.529 Z-6.419
N5770 X92.628 Y344.469 Z-6.471
N5780 X92.574 Y344.416 Z-6.536
N5790 X92.527 Y344.371 Z-6.612
N5800 X92.49 Y344.334 Z-6.697
N5810 X92.463 Y344.308 Z-6.789
N5820 X92.446 Y344.291 Z-6.886
N5830 X92.441 Y344.286 Z-6.985
N5840 Z-12.065
N5850 X92.435 Y344.28 Z-12.164
N5860 X92.419 Y344.264 Z-12.261
N5870 X92.391 Y344.237 Z-12.353
N5880 X92.354 Y344.201 Z-12.438
N5890 X92.308 Y344.156 Z-12.514
N5900 X92.254 Y344.103 Z-12.579
N5910 X92.193 Y344.043 Z-12.631
N5920 X92.128 Y343.979 Z-12.669
N5930 X92.058 Y343.911 Z-12.692
N5940 X91.988 Y343.841 Z-12.7
N5950 X91.966 Y343.82
N5960 G3 X89.007 Y340.889 I308.194 J-314.085
N5970 X89.075 Y340.598 I0.124 J-0.124
N5980 G2 X91.966 Y339.386 I-6.546 J-19.666
N5990 G3 X92.428 Y339.666 I0.145 J0.283
N6000 G1 X92.513 Y348.814
N6010 G3 X91.972 Y349.042 I-0.317 J0.003
N6020 G1 X80.97 Y338.098
N6030 X80.944 Y338.062
N6040 X80.933 Y338.019
N6050 X80.937 Y337.975
N6060 X80.955 Y337.935
N6070 X80.987 Y337.904
N6080 X81.027 Y337.885
N6090 X81.071 Y337.881
N6100 G2 X91.969 Y335.099 I1.483 J-16.927
N6110 G3 X92.462 Y335.362 I0.176 J0.264
N6120 G1 X92.546 Y354.397
N6130 G3 X91.973 Y354.588 I-0.317 J0.001
N6140 G2 X90.084 Y352.397 I-15.773 J11.693
N6150 G1 X16.815 Y279.192
N6160 G3 Y278.74 I0.226 J-0.226
N6170 G1 X18.967 Y276.588
N6180 G3 X19.419 I0.226 J0.226
N6190 G1 X73.156 Y330.389
N6200 G2 X91.967 Y330.366 I9.394 J-9.394
N6210 G3 X92.51 Y330.589 I0.225 J0.224
N6220 G1 X92.607 Y364.457
N6230 G3 X91.974 Y364.494 I-0.318 J0.001
N6240 G2 X87.425 Y355.056 I-15.774 J1.788
N6250 G1 X11.335 Y278.966
N6260 X19.193 Y271.108
N6270 X75.815 Y327.73
N6280 G2 X91.975 Y322.372 I6.735 J-6.735
N6290 G1 X92.029 Y322.003
N6300 X92.043 Y321.905 Z-12.692
N6310 X92.057 Y321.809 Z-12.669
N6320 X92.07 Y321.718 Z-12.631
N6330 X92.083 Y321.634 Z-12.579
N6340 X92.094 Y321.559 Z-12.514
N6350 X92.103 Y321.495 Z-12.438
N6360 X92.111 Y321.444 Z-12.353
N6370 X92.116 Y321.406 Z-12.261
N6380 X92.119 Y321.383 Z-12.164
N6390 X92.121 Y321.375 Z-12.065
N6400 G0 Z15.
N6410 X92.97 Y477.578
N6420 Z5.
N6430 G1 Z-5.715 F1000.
N6440 X92.964 Y477.572 Z-5.814 F3000.
N6450 X92.947 Y477.556 Z-5.911
N6460 X92.92 Y477.529 Z-6.003
N6470 X92.883 Y477.493 Z-6.088
N6480 X92.837 Y477.447 Z-6.164
N6490 X92.783 Y477.394 Z-6.229
N6500 X92.722 Y477.335 Z-6.281
N6510 X92.656 Y477.27 Z-6.319
N6520 X92.587 Y477.203 Z-6.342
N6530 X92.516 Y477.133 Z-6.35
N6540 X91.975 Y476.602
N6550 G3 X89.006 Y473.661 I308.259 J-314.168
N6560 X89.075 Y473.371 I0.124 J-0.124
N6570 G2 X91.965 Y472.159 I-6.545 J-19.666
N6580 G3 X92.427 Y472.439 I0.145 J0.283
N6590 G1 X92.513 Y481.587
N6600 G3 X91.972 Y481.815 I-0.317 J0.003
N6610 G1 X80.969 Y470.87
N6620 X80.943 Y470.834
N6630 X80.932 Y470.791
N6640 X80.936 Y470.747
N6650 X80.954 Y470.707
N6660 X80.986 Y470.676
N6670 X81.026 Y470.657
N6680 X81.07 Y470.653
N6690 G2 X91.968 Y467.872 I1.484 J-16.927
N6700 G3 X92.461 Y468.135 I0.176 J0.264
N6710 G1 X92.546 Y487.17
N6720 G3 X91.973 Y487.361 I-0.317 J0.001
N6730 G2 X90.084 Y485.17 I-15.773 J11.693
N6740 G1 X16.815 Y411.964
N6750 G3 Y411.513 I0.226 J-0.226
N6760 G1 X18.967 Y409.361
N6770 G3 X19.419 I0.226 J0.226
N6780 G1 X73.156 Y463.161
N6790 G2 X91.967 Y463.138 I9.394 J-9.394
N6800 G3 X92.51 Y463.361 I0.225 J0.224
N6810 G1 X92.607 Y497.23
N6820 G3 X91.974 Y497.267 I-0.318 J0.001
N6830 G2 X87.425 Y487.829 I-15.774 J1.788
N6840 G1 X11.335 Y411.739
N6850 X19.193 Y403.881
N6860 X75.815 Y460.502
N6870 G2 X91.975 Y455.144 I6.735 J-6.735
N6880 G3 X92.606 Y455.177 I0.314 J0.046
N6890 G1 X93.442 Y477.273
N6900 G3 X92.902 Y477.512 I-0.317 J0.012
N6910 G1 X92.832 Y477.442 Z-6.358
N6920 X92.762 Y477.374 Z-6.381
N6930 X92.697 Y477.31 Z-6.419
N6940 X92.636 Y477.25 Z-6.471
N6950 X92.582 Y477.197 Z-6.536
N6960 X92.536 Y477.152 Z-6.612
N6970 X92.499 Y477.116 Z-6.697
N6980 X92.471 Y477.089 Z-6.789
N6990 X92.455 Y477.073 Z-6.886
N7000 X92.449 Y477.067 Z-6.985
N7010 Z-12.065
N7020 X92.444 Y477.062 Z-12.164
N7030 X92.427 Y477.045 Z-12.261
N7040 X92.4 Y477.019 Z-12.353
N7050 X92.363 Y476.982 Z-12.438
N7060 X92.316 Y476.937 Z-12.514
N7070 X92.262 Y476.884 Z-12.579
N7080 X92.202 Y476.824 Z-12.631
N7090 X92.136 Y476.76 Z-12.669
N7100 X92.067 Y476.692 Z-12.692
N7110 X91.996 Y476.622 Z-12.7
N7120 X91.975 Y476.602
N7130 G3 X89.006 Y473.661 I308.259 J-314.168
N7140 X89.075 Y473.371 I0.124 J-0.124
N7150 G2 X91.965 Y472.159 I-6.545 J-19.666
N7160 G3 X92.427 Y472.439 I0.145 J0.283
N7170 G1 X92.513 Y481.587
N7180 G3 X91.972 Y481.815 I-0.317 J0.003
N7190 G1 X80.969 Y470.87
N7200 X80.943 Y470.834
N7210 X80.932 Y470.791
N7220 X80.936 Y470.747
N7230 X80.954 Y470.707
N7240 X80.986 Y470.676
N7250 X81.026 Y470.657
N7260 X81.07 Y470.653
N7270 G2 X91.968 Y467.872 I1.484 J-16.927
N7280 G3 X92.461 Y468.135 I0.176 J0.264
N7290 G1 X92.546 Y487.17
N7300 G3 X91.973 Y487.361 I-0.317 J0.001
N7310 G2 X90.084 Y485.17 I-15.773 J11.693
N7320 G1 X16.815 Y411.964
N7330 G3 Y411.513 I0.226 J-0.226
N7340 G1 X18.967 Y409.361
N7350 G3 X19.419 I0.226 J0.226
N7360 G1 X73.156 Y463.161
N7370 G2 X91.967 Y463.138 I9.394 J-9.394
N7380 G3 X92.51 Y463.361 I0.225 J0.224
N7390 G1 X92.607 Y497.23
N7400 G3 X91.974 Y497.267 I-0.318 J0.001
N7410 G2 X87.425 Y487.829 I-15.774 J1.788
N7420 G1 X11.335 Y411.739
N7430 X19.193 Y403.881
N7440 X75.815 Y460.502
N7450 G2 X91.975 Y455.144 I6.735 J-6.735
N7460 G1 X92.029 Y454.775
N7470 X92.043 Y454.677 Z-12.692
N7480 X92.057 Y454.581 Z-12.669
N7490 X92.07 Y454.49 Z-12.631
N7500 X92.083 Y454.406 Z-12.579
N7510 X92.094 Y454.331 Z-12.514
N7520 X92.103 Y454.267 Z-12.438
N7530 X92.111 Y454.216 Z-12.353
N7540 X92.116 Y454.178 Z-12.261
N7550 X92.119 Y454.155 Z-12.164
N7560 X92.121 Y454.147 Z-12.065
N7570 G0 Z15.
N7580 X92.967 Y610.347
N7590 Z5.
N7600 G1 Z-5.715 F1000.
N7610 X92.961 Y610.341 Z-5.814 F3000.
N7620 X92.945 Y610.325 Z-5.911
N7630 X92.917 Y610.298 Z-6.003
N7640 X92.88 Y610.262 Z-6.088
N7650 X92.834 Y610.217 Z-6.164
N7660 X92.78 Y610.164 Z-6.229
N7670 X92.719 Y610.104 Z-6.281
N7680 X92.654 Y610.04 Z-6.319
N7690 X92.584 Y609.972 Z-6.342
N7700 X92.513 Y609.902 Z-6.35
N7710 X91.966 Y609.365
N7720 G3 X89.007 Y606.434 I308.191 J-314.082
N7730 X89.075 Y606.143 I0.124 J-0.124
N7740 G2 X91.966 Y604.931 I-6.546 J-19.666
N7750 G3 X92.428 Y605.211 I0.145 J0.283
N7760 G1 X92.513 Y614.359
N7770 G3 X91.972 Y614.587 I-0.317 J0.003
N7780 G1 X80.97 Y603.643
N7790 X80.944 Y603.607
N7800 X80.933 Y603.564
N7810 X80.937 Y603.52
N7820 X80.955 Y603.48
N7830 X80.987 Y603.449
N7840 X81.027 Y603.43
N7850 X81.071 Y603.426
N7860 G2 X91.969 Y600.644 I1.483 J-16.927
N7870 G3 X92.462 Y600.907 I0.176 J0.264
N7880 G1 X92.546 Y619.943
N7890 G3 X91.974 Y620.133 I-0.317 J0.001
N7900 G2 X90.084 Y617.942 I-15.774 J11.693
N7910 G1 X16.815 Y544.737
N7920 G3 Y544.285 I0.226 J-0.226
N7930 G1 X18.967 Y542.133
N7940 G3 X19.419 I0.226 J0.226
N7950 G1 X73.156 Y595.934
N7960 G2 X91.967 Y595.911 I9.394 J-9.394
N7970 G3 X92.51 Y596.134 I0.225 J0.224
N7980 G1 X92.607 Y630.003
N7990 G3 X91.974 Y630.04 I-0.317 J0.001
N8000 G2 X87.425 Y620.601 I-15.774 J1.787
N8010 G1 X11.335 Y544.511
N8020 X19.193 Y536.653
N8030 X75.815 Y593.275
N8040 G2 X91.975 Y587.917 I6.735 J-6.735
N8050 G3 X92.606 Y587.951 I0.314 J0.046
N8060 G1 X93.434 Y610.037
N8070 G3 X92.894 Y610.276 I-0.317 J0.012
N8080 G1 X92.823 Y610.206 Z-6.358
N8090 X92.754 Y610.138 Z-6.381
N8100 X92.688 Y610.074 Z-6.419
N8110 X92.628 Y610.014 Z-6.471
N8120 X92.573 Y609.961 Z-6.536
N8130 X92.527 Y609.916 Z-6.612
N8140 X92.49 Y609.879 Z-6.697
N8150 X92.463 Y609.853 Z-6.789
N8160 X92.446 Y609.836 Z-6.886
N8170 X92.441 Y609.831 Z-6.985
N8180 Z-12.065
N8190 X92.435 Y609.825 Z-12.164
N8200 X92.419 Y609.809 Z-12.261
N8210 X92.391 Y609.782 Z-12.353
N8220 X92.354 Y609.746 Z-12.438
N8230 X92.308 Y609.701 Z-12.514
N8240 X92.254 Y609.648 Z-12.579
N8250 X92.193 Y609.588 Z-12.631
N8260 X92.128 Y609.524 Z-12.669
N8270 X92.058 Y609.456 Z-12.692
N8280 X91.987 Y609.386 Z-12.7
N8290 X91.966 Y609.365
N8300 G3 X89.007 Y606.434 I308.191 J-314.082
N8310 X89.075 Y606.143 I0.124 J-0.124
N8320 G2 X91.966 Y604.931 I-6.546 J-19.666
N8330 G3 X92.428 Y605.211 I0.145 J0.283
N8340 G1 X92.513 Y614.359
N8350 G3 X91.972 Y614.587 I-0.317 J0.003
N8360 G1 X80.97 Y603.643
N8370 X80.944 Y603.607
N8380 X80.933 Y603.564
N8390 X80.937 Y603.52
N8400 X80.955 Y603.48
N8410 X80.987 Y603.449
N8420 X81.027 Y603.43
N8430 X81.071 Y603.426
N8440 G2 X91.969 Y600.644 I1.483 J-16.927
N8450 G3 X92.462 Y600.907 I0.176 J0.264
N8460 G1 X92.546 Y619.943
N8470 G3 X91.974 Y620.133 I-0.317 J0.001
N8480 G2 X90.084 Y617.942 I-15.774 J11.693
N8490 G1 X16.815 Y544.737
N8500 G3 Y544.285 I0.226 J-0.226
N8510 G1 X18.967 Y542.133
N8520 G3 X19.419 I0.226 J0.226
N8530 G1 X73.156 Y595.934
N8540 G2 X91.967 Y595.911 I9.394 J-9.394
N8550 G3 X92.51 Y596.134 I0.225 J0.224
N8560 G1 X92.607 Y630.003
N8570 G3 X91.974 Y630.04 I-0.317 J0.001
N8580 G2 X87.425 Y620.601 I-15.774 J1.787
N8590 G1 X11.335 Y544.511
N8600 X19.193 Y536.653
N8610 X75.815 Y593.275
N8620 G2 X91.975 Y587.917 I6.735 J-6.735
N8630 G1 X92.029 Y587.548
N8640 X92.043 Y587.45 Z-12.692
N8650 X92.057 Y587.354 Z-12.669
N8660 X92.07 Y587.263 Z-12.631
N8670 X92.083 Y587.179 Z-12.579
N8680 X92.094 Y587.104 Z-12.514
N8690 X92.103 Y587.04 Z-12.438
N8700 X92.111 Y586.989 Z-12.353
N8710 X92.116 Y586.951 Z-12.261
N8720 X92.119 Y586.928 Z-12.164
N8730 X92.121 Y586.92 Z-12.065
N8740 G0 Z15.
N8750 X92.967 Y743.12
N8760 Z5.
N8770 G1 Z-5.715 F1000.
N8780 X92.961 Y743.114 Z-5.814 F3000.
N8790 X92.945 Y743.098 Z-5.911
N8800 X92.917 Y743.071 Z-6.003
N8810 X92.88 Y743.035 Z-6.088
N8820 X92.834 Y742.99 Z-6.164
N8830 X92.78 Y742.937 Z-6.229
N8840 X92.719 Y742.877 Z-6.281
N8850 X92.654 Y742.813 Z-6.319
N8860 X92.584 Y742.745 Z-6.342
N8870 X92.513 Y742.675 Z-6.35
N8880 X91.966 Y742.138
N8890 G3 X89.007 Y739.207 I308.194 J-314.085
N8900 X89.075 Y738.916 I0.124 J-0.124
N8910 G2 X91.966 Y737.704 I-6.546 J-19.666
N8920 G3 X92.428 Y737.984 I0.145 J0.283
N8930 G1 X92.513 Y747.132
N8940 G3 X91.972 Y747.36 I-0.317 J0.003
N8950 G1 X80.97 Y736.416
N8960 X80.944 Y736.38
N8970 X80.933 Y736.337
N8980 X80.937 Y736.293
N8990 X80.955 Y736.253
N9000 X80.987 Y736.222
N9010 X81.027 Y736.203
N9020 X81.071 Y736.199
N9030 G2 X91.969 Y733.417 I1.483 J-16.927
N9040 G3 X92.462 Y733.68 I0.176 J0.264
N9050 G1 X92.546 Y752.715
N9060 G3 X91.973 Y752.906 I-0.317 J0.001
N9070 G2 X90.084 Y750.715 I-15.773 J11.693
N9080 G1 X16.815 Y677.51
N9090 G3 Y677.058 I0.226 J-0.226
N9100 G1 X18.967 Y674.906
N9110 G3 X19.419 I0.226 J0.226
N9120 G1 X73.156 Y728.707
N9130 G2 X91.967 Y728.684 I9.394 J-9.394
N9140 G3 X92.51 Y728.907 I0.225 J0.224
N9150 G1 X92.607 Y762.775
N9160 G3 X91.974 Y762.812 I-0.318 J0.001
N9170 G2 X87.425 Y753.374 I-15.774 J1.788
N9180 G1 X11.335 Y677.284
N9190 X19.193 Y669.426
N9200 X75.815 Y726.048
N9210 G2 X91.975 Y720.69 I6.735 J-6.735
N9220 G3 X92.606 Y720.724 I0.314 J0.046
N9230 G1 X93.434 Y742.81
N9240 G3 X92.894 Y743.049 I-0.317 J0.012
N9250 G1 X92.823 Y742.979 Z-6.358
N9260 X92.754 Y742.911 Z-6.381
N9270 X92.688 Y742.847 Z-6.419
N9280 X92.628 Y742.787 Z-6.471
N9290 X92.574 Y742.734 Z-6.536
N9300 X92.527 Y742.689 Z-6.612
N9310 X92.49 Y742.652 Z-6.697
N9320 X92.463 Y742.626 Z-6.789
N9330 X92.446 Y742.609 Z-6.886
N9340 X92.441 Y742.604 Z-6.985
N9350 Z-12.065
N9360 X92.435 Y742.598 Z-12.164
N9370 X92.419 Y742.582 Z-12.261
N9380 X92.391 Y742.555 Z-12.353
N9390 X92.354 Y742.519 Z-12.438
N9400 X92.308 Y742.474 Z-12.514
N9410 X92.254 Y742.421 Z-12.579
N9420 X92.193 Y742.361 Z-12.631
N9430 X92.128 Y742.297 Z-12.669
N9440 X92.058 Y742.229 Z-12.692
N9450 X91.988 Y742.159 Z-12.7
N9460 X91.966 Y742.138
N9470 G3 X89.007 Y739.207 I308.194 J-314.085
N9480 X89.075 Y738.916 I0.124 J-0.124
N9490 G2 X91.966 Y737.704 I-6.546 J-19.666
N9500 G3 X92.428 Y737.984 I0.145 J0.283
N9510 G1 X92.513 Y747.132
N9520 G3 X91.972 Y747.36 I-0.317 J0.003
N9530 G1 X80.97 Y736.416
N9540 X80.944 Y736.38
N9550 X80.933 Y736.337
N9560 X80.937 Y736.293
N9570 X80.955 Y736.253
N9580 X80.987 Y736.222
N9590 X81.027 Y736.203
N9600 X81.071 Y736.199
N9610 G2 X91.969 Y733.417 I1.483 J-16.927
N9620 G3 X92.462 Y733.68 I0.176 J0.264
N9630 G1 X92.546 Y752.715
N9640 G3 X91.973 Y752.906 I-0.317 J0.001
N9650 G2 X90.084 Y750.715 I-15.773 J11.693
N9660 G1 X16.815 Y677.51
N9670 G3 Y677.058 I0.226 J-0.226
N9680 G1 X18.967 Y674.906
N9690 G3 X19.419 I0.226 J0.226
N9700 G1 X73.156 Y728.707
N9710 G2 X91.967 Y728.684 I9.394 J-9.394
N9720 G3 X92.51 Y728.907 I0.225 J0.224
N9730 G1 X92.607 Y762.775
N9740 G3 X91.974 Y762.812 I-0.318 J0.001
N9750 G2 X87.425 Y753.374 I-15.774 J1.788
N9760 G1 X11.335 Y677.284
N9770 X19.193 Y669.426
N9780 X75.815 Y726.048
N9790 G2 X91.975 Y720.69 I6.735 J-6.735
N9800 G1 X92.029 Y720.321
N9810 X92.043 Y720.223 Z-12.692
N9820 X92.057 Y720.127 Z-12.669
N9830 X92.07 Y720.036 Z-12.631
N9840 X92.083 Y719.952 Z-12.579
N9850 X92.094 Y719.877 Z-12.514
N9860 X92.103 Y719.813 Z-12.438
N9870 X92.111 Y719.762 Z-12.353
N9880 X92.116 Y719.724 Z-12.261
N9890 X92.119 Y719.701 Z-12.164
N9900 X92.121 Y719.693 Z-12.065
N9910 G0 Z15.
N9920 X92.967 Y875.893
N9930 Z5.
N9940 G1 Z-5.715 F1000.
N9950 X92.961 Y875.887 Z-5.814 F3000.
N9960 X92.945 Y875.871 Z-5.911
N9970 X92.917 Y875.844 Z-6.003
N9980 X92.88 Y875.808 Z-6.088
N9990 X92.834 Y875.763 Z-6.164
N10000 X92.78 Y875.71 Z-6.229
N10010 X92.719 Y875.65 Z-6.281
N10020 X92.654 Y875.586 Z-6.319
N10030 X92.584 Y875.518 Z-6.342
N10040 X92.513 Y875.448 Z-6.35
N10050 X91.966 Y874.911
N10060 G3 X89.007 Y871.98 I308.194 J-314.085
N10070 X89.075 Y871.689 I0.124 J-0.124
N10080 G2 X91.966 Y870.477 I-6.546 J-19.666
N10090 G3 X92.428 Y870.757 I0.145 J0.283
N10100 G1 X92.513 Y879.905
N10110 G3 X91.972 Y880.133 I-0.317 J0.003
N10120 G1 X80.97 Y869.189
N10130 X80.944 Y869.153
N10140 X80.933 Y869.11
N10150 X80.937 Y869.066
N10160 X80.955 Y869.026
N10170 X80.987 Y868.995
N10180 X81.027 Y868.976
N10190 X81.071 Y868.972
N10200 G2 X91.969 Y866.19 I1.483 J-16.927
N10210 G3 X92.462 Y866.453 I0.176 J0.264
N10220 G1 X92.546 Y885.488
N10230 G3 X91.973 Y885.679 I-0.317 J0.001
N10240 G2 X90.084 Y883.488 I-15.773 J11.693
N10250 G1 X16.815 Y810.283
N10260 G3 Y809.831 I0.226 J-0.226
N10270 G1 X18.967 Y807.679
N10280 G3 X19.419 I0.226 J0.226
N10290 G1 X73.156 Y861.48
N10300 G2 X91.967 Y861.457 I9.394 J-9.394
N10310 G3 X92.51 Y861.68 I0.225 J0.224
N10320 G1 X92.607 Y895.548
N10330 G3 X91.974 Y895.585 I-0.318 J0.001
N10340 G2 X87.425 Y886.147 I-15.774 J1.788
N10350 G1 X11.335 Y810.057
N10360 X19.193 Y802.199
N10370 X75.815 Y858.821
N10380 G2 X91.975 Y853.463 I6.735 J-6.735
N10390 G3 X92.606 Y853.497 I0.314 J0.046
N10400 G1 X93.434 Y875.583
N10410 G3 X92.894 Y875.822 I-0.317 J0.012
N10420 G1 X92.823 Y875.752 Z-6.358
N10430 X92.754 Y875.684 Z-6.381
N10440 X92.688 Y875.62 Z-6.419
N10450 X92.628 Y875.56 Z-6.471
N10460 X92.574 Y875.507 Z-6.536
N10470 X92.527 Y875.462 Z-6.612
N10480 X92.49 Y875.425 Z-6.697
N10490 X92.463 Y875.399 Z-6.789
N10500 X92.446 Y875.382 Z-6.886
N10510 X92.441 Y875.377 Z-6.985
N10520 Z-12.065
N10530 X92.435 Y875.371 Z-12.164
N10540 X92.419 Y875.355 Z-12.261
N10550 X92.391 Y875.328 Z-12.353
N10560 X92.354 Y875.292 Z-12.438
N10570 X92.308 Y875.247 Z-12.514
N10580 X92.254 Y875.194 Z-12.579
N10590 X92.193 Y875.134 Z-12.631
N10600 X92.128 Y875.07 Z-12.669
N10610 X92.058 Y875.002 Z-12.692
N10620 X91.988 Y874.932 Z-12.7
N10630 X91.966 Y874.911
N10640 G3 X89.007 Y871.98 I308.194 J-314.085
N10650 X89.075 Y871.689 I0.124 J-0.124
N10660 G2 X91.966 Y870.477 I-6.546 J-19.666
N10670 G3 X92.428 Y870.757 I0.145 J0.283
N10680 G1 X92.513 Y879.905
N10690 G3 X91.972 Y880.133 I-0.317 J0.003
N10700 G1 X80.97 Y869.189
N10710 X80.944 Y869.153
N10720 X80.933 Y869.11
N10730 X80.937 Y869.066
N10740 X80.955 Y869.026
N10750 X80.987 Y868.995
N10760 X81.027 Y868.976
N10770 X81.071 Y868.972
N10780 G2 X91.969 Y866.19 I1.483 J-16.927
N10790 G3 X92.462 Y866.453 I0.176 J0.264
N10800 G1 X92.546 Y885.488
N10810 G3 X91.973 Y885.679 I-0.317 J0.001
N10820 G2 X90.084 Y883.488 I-15.773 J11.693
N10830 G1 X16.815 Y810.283
N10840 G3 Y809.831 I0.226 J-0.226
N10850 G1 X18.967 Y807.679
N10860 G3 X19.419 I0.226 J0.226
N10870 G1 X73.156 Y861.48
N10880 G2 X91.967 Y861.457 I9.394 J-9.394
N10890 G3 X92.51 Y861.68 I0.225 J0.224
N10900 G1 X92.607 Y895.548
N10910 G3 X91.974 Y895.585 I-0.318 J0.001
N10920 G2 X87.425 Y886.147 I-15.774 J1.788
N10930 G1 X11.335 Y810.057
N10940 X19.193 Y802.199
N10950 X75.815 Y858.821
N10960 G2 X91.975 Y853.463 I6.735 J-6.735
N10970 G1 X92.029 Y853.094
N10980 X92.043 Y852.996 Z-12.692
N10990 X92.057 Y852.9 Z-12.669
N11000 X92.07 Y852.809 Z-12.631
N11010 X92.083 Y852.725 Z-12.579
N11020 X92.094 Y852.65 Z-12.514
N11030 X92.103 Y852.586 Z-12.438
N11040 X92.111 Y852.535 Z-12.353
N11050 X92.116 Y852.497 Z-12.261
N11060 X92.119 Y852.474 Z-12.164
N11070 X92.121 Y852.466 Z-12.065
N11080 G0 Z15.
N11090 G4 P1.0
N11110 G0 X0 Y0
N11120 M30
%
