%
(6FT-RHTRAIL)
(MACHINE)
(  VENDOR AUTODESK)
(  MODEL GENERIC 3-AXIS ROUTER)
(  DESCRIPTION THIS MACHINE HAS XYZ AXIS ON THE HEAD)
(T20 D=6.35 CR=0. - ZMIN=-12.7 - FLAT END MILL)
N10 G90 G94 G17 G91.1
N20 G21
(-ATTENTION- PROPERTY SAFE RETRACTS IS SET TO CLEARANCE HEIGHT.)
(ENSURE THE CLEARANCE HEIGHT WILL CLEAR THE PART AND OR FIXTURES.)
(RAISE THE Z-AXIS TO A SAFE HEIGHT BEFORE STARTING THE PROGRAM.)
(2D POCKET11)
N30 (T20 M6)
(FLAT END MILL D=6.35 4MM FLAT ENDMILL)
N40 S20000 M3
N50 G54
N60 G0 X92.968 Y1008.662
N70 Z15.
N80 G0 Z5.
N90 G1 Z-12.065 F1000.
N100 X92.962 Y1008.657 Z-12.164 F3000.
N110 X92.946 Y1008.641 Z-12.261
N120 X92.919 Y1008.614 Z-12.353
N130 X92.881 Y1008.577 Z-12.438
N140 X92.835 Y1008.532 Z-12.514
N150 X92.781 Y1008.479 Z-12.579
N160 X92.72 Y1008.419 Z-12.631
N170 X92.655 Y1008.355 Z-12.669
N180 X92.586 Y1008.287 Z-12.692
N190 X92.515 Y1008.218 Z-12.7
N200 X91.967 Y1007.681
N210 G3 X89.009 Y1004.751 I307.869 J-313.774
N220 X89.078 Y1004.461 I0.124 J-0.124
N230 G2 X91.969 Y1003.248 I-6.549 J-19.665
N240 G3 X92.431 Y1003.528 I0.145 J0.283
N250 G1 X92.513 Y1012.673
N260 G3 X91.972 Y1012.901 I-0.317 J0.003
N270 G1 X80.973 Y1001.962
N280 X80.948 Y1001.925
N290 X80.937 Y1001.883
N300 X80.94 Y1001.839
N310 X80.959 Y1001.798
N320 X80.99 Y1001.767
N330 X81.031 Y1001.748
N340 X81.075 Y1001.745
N350 G2 X91.972 Y998.96 I1.479 J-16.927
N360 G3 X92.465 Y999.223 I0.176 J0.264
N370 G1 X92.546 Y1018.256
N380 G3 X91.973 Y1018.447 I-0.317 J0.001
N390 G2 X90.084 Y1016.256 I-15.773 J11.693
N400 G1 X16.815 Y943.055
N410 G3 Y942.603 I0.226 J-0.226
N420 G1 X18.967 Y940.452
N430 G3 X19.419 I0.226 J0.226
N440 G1 X73.156 Y994.252
N450 G2 X91.967 Y994.228 I9.394 J-9.394
N460 G3 X92.51 Y994.451 I0.225 J0.224
N470 G1 X92.607 Y1028.316
N480 G3 X91.974 Y1028.353 I-0.318 J0.001
N490 G2 X87.425 Y1018.915 I-15.774 J1.787
N500 G1 X11.335 Y942.829
N510 X19.193 Y934.972
N520 X75.815 Y991.593
N530 G2 X91.975 Y986.235 I6.735 J-6.735
N540 G1 X92.029 Y985.866
N550 X92.043 Y985.768 Z-12.692
N560 X92.057 Y985.672 Z-12.669
N570 X92.07 Y985.581 Z-12.631
N580 X92.083 Y985.497 Z-12.579
N590 X92.094 Y985.422 Z-12.514
N600 X92.103 Y985.358 Z-12.438
N610 X92.111 Y985.307 Z-12.353
N620 X92.116 Y985.269 Z-12.261
N630 X92.119 Y985.246 Z-12.164
N640 X92.121 Y985.238 Z-12.065
N650 G0 Z15.
N660 X92.967 Y1141.443
N670 Z5.
N680 G1 Z-12.065 F1000.
N690 X92.962 Y1141.437 Z-12.164 F3000.
N700 X92.945 Y1141.421 Z-12.261
N710 X92.918 Y1141.394 Z-12.353
N720 X92.881 Y1141.358 Z-12.438
N730 X92.834 Y1141.313 Z-12.514
N740 X92.78 Y1141.259 Z-12.579
N750 X92.72 Y1141.2 Z-12.631
N760 X92.654 Y1141.135 Z-12.669
N770 X92.585 Y1141.068 Z-12.692
N780 X92.514 Y1140.998 Z-12.7
N790 X91.972 Y1140.467
N800 G3 X89.002 Y1137.524 I308.593 J-314.506
N810 X89.07 Y1137.234 I0.124 J-0.124
N820 G2 X91.972 Y1136.017 I-6.541 J-19.667
N830 G3 X92.435 Y1136.297 I0.145 J0.283
N840 G1 X92.513 Y1145.453
N850 G3 X91.972 Y1145.681 I-0.317 J0.003
N860 G1 X80.968 Y1134.737
N870 X80.942 Y1134.7
N880 X80.93 Y1134.656
N890 X80.934 Y1134.611
N900 X80.953 Y1134.57
N910 X80.985 Y1134.538
N920 X81.026 Y1134.519
N930 X81.071 Y1134.515
N940 G2 X91.969 Y1131.733 I1.482 J-16.927
N950 G3 X92.462 Y1131.996 I0.176 J0.264
N960 G1 X92.546 Y1151.036
N970 G3 X91.973 Y1151.227 I-0.317 J0.001
N980 G2 X90.084 Y1149.036 I-15.773 J11.693
N990 G1 X16.815 Y1075.83
N1000 G3 Y1075.379 I0.226 J-0.226
N1010 G1 X18.968 Y1073.225
N1020 G3 X19.419 I0.226 J0.226
N1030 G1 X73.156 Y1127.024
N1040 G2 X91.967 Y1127.001 I9.394 J-9.394
N1050 G3 X92.51 Y1127.224 I0.225 J0.224
N1060 G1 X92.607 Y1161.096
N1070 G3 X91.974 Y1161.133 I-0.318 J0.001
N1080 G2 X87.425 Y1151.695 I-15.774 J1.787
N1090 G1 X11.335 Y1075.605
N1100 X19.193 Y1067.745
N1110 X75.815 Y1124.365
N1120 G2 X91.975 Y1119.007 I6.735 J-6.735
N1130 G1 X92.029 Y1118.638
N1140 X92.043 Y1118.54 Z-12.692
N1150 X92.057 Y1118.444 Z-12.669
N1160 X92.07 Y1118.353 Z-12.631
N1170 X92.083 Y1118.269 Z-12.579
N1180 X92.094 Y1118.194 Z-12.514
N1190 X92.103 Y1118.13 Z-12.438
N1200 X92.111 Y1118.079 Z-12.353
N1210 X92.116 Y1118.041 Z-12.261
N1220 X92.119 Y1118.018 Z-12.164
N1230 X92.121 Y1118.01 Z-12.065
N1240 G0 Z15.
N1250 X92.967 Y1274.213
N1260 Z5.
N1270 G1 Z-12.065 F1000.
N1280 X92.962 Y1274.207 Z-12.164 F3000.
N1290 X92.945 Y1274.191 Z-12.261
N1300 X92.918 Y1274.164 Z-12.353
N1310 X92.881 Y1274.128 Z-12.438
N1320 X92.834 Y1274.082 Z-12.514
N1330 X92.78 Y1274.029 Z-12.579
N1340 X92.72 Y1273.97 Z-12.631
N1350 X92.654 Y1273.905 Z-12.669
N1360 X92.585 Y1273.838 Z-12.692
N1370 X92.514 Y1273.768 Z-12.7
N1380 X91.972 Y1273.237
N1390 G3 X89.002 Y1270.294 I308.593 J-314.506
N1400 X89.07 Y1270.004 I0.124 J-0.124
N1410 G2 X91.972 Y1268.787 I-6.541 J-19.667
N1420 G3 X92.435 Y1269.067 I0.145 J0.283
N1430 G1 X92.513 Y1278.223
N1440 G3 X91.972 Y1278.451 I-0.317 J0.003
N1450 G1 X80.968 Y1267.507
N1460 X80.942 Y1267.47
N1470 X80.93 Y1267.426
N1480 X80.934 Y1267.381
N1490 X80.953 Y1267.34
N1500 X80.985 Y1267.308
N1510 X81.026 Y1267.289
N1520 X81.071 Y1267.285
N1530 G2 X91.969 Y1264.503 I1.482 J-16.927
N1540 G3 X92.462 Y1264.766 I0.176 J0.264
N1550 G1 X92.546 Y1283.806
N1560 G3 X91.973 Y1283.997 I-0.317 J0.001
N1570 G2 X90.084 Y1281.806 I-15.773 J11.693
N1580 G1 X16.815 Y1208.6
N1590 G3 Y1208.149 I0.226 J-0.226
N1600 G1 X18.968 Y1205.995
N1610 G3 X19.419 I0.226 J0.226
N1620 G1 X73.156 Y1259.794
N1630 G2 X91.967 Y1259.771 I9.394 J-9.394
N1640 G3 X92.51 Y1259.994 I0.225 J0.224
N1650 G1 X92.607 Y1293.866
N1660 G3 X91.974 Y1293.903 I-0.318 J0.001
N1670 G2 X87.425 Y1284.465 I-15.774 J1.787
N1680 G1 X11.335 Y1208.375
N1690 X19.191 Y1200.517
N1700 X75.815 Y1257.135
N1710 G2 X91.975 Y1251.777 I6.735 J-6.735
N1720 G1 X92.029 Y1251.408
N1730 X92.043 Y1251.31 Z-12.692
N1740 X92.057 Y1251.214 Z-12.669
N1750 X92.07 Y1251.123 Z-12.631
N1760 X92.083 Y1251.039 Z-12.579
N1770 X92.094 Y1250.964 Z-12.514
N1780 X92.103 Y1250.9 Z-12.438
N1790 X92.111 Y1250.849 Z-12.353
N1800 X92.116 Y1250.811 Z-12.261
N1810 X92.119 Y1250.788 Z-12.164
N1820 X92.121 Y1250.78 Z-12.065
N1830 G0 Z15.
N1840 X92.969 Y1406.983
N1850 Z5.
N1860 G1 Z-12.065 F1000.
N1870 X92.963 Y1406.978 Z-12.164 F3000.
N1880 X92.947 Y1406.961 Z-12.261
N1890 X92.92 Y1406.935 Z-12.353
N1900 X92.882 Y1406.898 Z-12.438
N1910 X92.836 Y1406.853 Z-12.514
N1920 X92.782 Y1406.8 Z-12.579
N1930 X92.721 Y1406.74 Z-12.631
N1940 X92.656 Y1406.676 Z-12.669
N1950 X92.587 Y1406.608 Z-12.692
N1960 X92.516 Y1406.538 Z-12.7
N1970 X91.969 Y1406.001
N1980 G3 X89.011 Y1403.072 I307.751 J-313.638
N1990 X89.08 Y1402.782 I0.124 J-0.124
N2000 G2 X91.97 Y1401.569 I-6.55 J-19.665
N2010 G3 X92.432 Y1401.849 I0.145 J0.283
N2020 G1 X92.513 Y1410.993
N2030 G3 X91.972 Y1411.221 I-0.317 J0.003
N2040 G1 X80.976 Y1400.284
N2050 X80.951 Y1400.248
N2060 X80.939 Y1400.205
N2070 X80.943 Y1400.161
N2080 X80.962 Y1400.121
N2090 X80.993 Y1400.089
N2100 X81.033 Y1400.071
N2110 X81.077 Y1400.067
N2120 G2 X91.974 Y1397.28 I1.476 J-16.927
N2130 G3 X92.468 Y1397.543 I0.176 J0.264
N2140 G1 X92.546 Y1416.577
N2150 G3 X91.973 Y1416.767 I-0.317 J0.001
N2160 G2 X90.084 Y1414.576 I-15.773 J11.693
N2170 G1 X16.815 Y1341.37
N2180 G3 Y1340.919 I0.226 J-0.226
N2190 G1 X18.967 Y1338.765
N2200 G3 X19.419 I0.226 J0.226
N2210 G1 X73.156 Y1392.574
N2220 G2 X91.967 Y1392.551 I9.394 J-9.394
N2230 G3 X92.51 Y1392.774 I0.225 J0.224
N2240 G1 X92.607 Y1426.636
N2250 G3 X91.974 Y1426.673 I-0.318 J0.001
N2260 G2 X87.425 Y1417.235 I-15.774 J1.788
N2270 G1 X11.335 Y1341.145
N2280 X19.191 Y1333.287
N2290 X75.815 Y1389.915
N2300 G2 X91.975 Y1384.557 I6.735 J-6.735
N2310 G1 X92.029 Y1384.188
N2320 X92.043 Y1384.09 Z-12.692
N2330 X92.057 Y1383.994 Z-12.669
N2340 X92.07 Y1383.903 Z-12.631
N2350 X92.083 Y1383.819 Z-12.579
N2360 X92.094 Y1383.744 Z-12.514
N2370 X92.103 Y1383.68 Z-12.438
N2380 X92.111 Y1383.629 Z-12.353
N2390 X92.116 Y1383.591 Z-12.261
N2400 X92.119 Y1383.568 Z-12.164
N2410 X92.121 Y1383.56 Z-12.065
N2420 G0 Z15.
N2430 X92.967 Y1539.763
N2440 Z5.
N2450 G1 Z-12.065 F1000.
N2460 X92.962 Y1539.757 Z-12.164 F3000.
N2470 X92.945 Y1539.741 Z-12.261
N2480 X92.918 Y1539.714 Z-12.353
N2490 X92.881 Y1539.678 Z-12.438
N2500 X92.834 Y1539.632 Z-12.514
N2510 X92.78 Y1539.579 Z-12.579
N2520 X92.72 Y1539.52 Z-12.631
N2530 X92.654 Y1539.455 Z-12.669
N2540 X92.585 Y1539.388 Z-12.692
N2550 X92.514 Y1539.318 Z-12.7
N2560 X91.972 Y1538.786
N2570 G3 X89.002 Y1535.844 I308.593 J-314.506
N2580 X89.07 Y1535.554 I0.124 J-0.124
N2590 G2 X91.972 Y1534.337 I-6.541 J-19.667
N2600 G3 X92.435 Y1534.617 I0.145 J0.283
N2610 G1 X92.513 Y1543.773
N2620 G3 X91.972 Y1544.001 I-0.317 J0.003
N2630 G1 X80.968 Y1533.057
N2640 X80.942 Y1533.02
N2650 X80.93 Y1532.976
N2660 X80.934 Y1532.931
N2670 X80.953 Y1532.89
N2680 X80.985 Y1532.858
N2690 X81.026 Y1532.839
N2700 X81.071 Y1532.835
N2710 G2 X91.969 Y1530.053 I1.482 J-16.927
N2720 G3 X92.462 Y1530.316 I0.176 J0.264
N2730 G1 X92.546 Y1549.356
N2740 G3 X91.973 Y1549.547 I-0.317 J0.001
N2750 G2 X90.084 Y1547.356 I-15.773 J11.693
N2760 G1 X16.815 Y1474.15
N2770 G3 Y1473.699 I0.226 J-0.226
N2780 G1 X18.968 Y1471.545
N2790 G3 X19.419 I0.226 J0.226
N2800 G1 X73.156 Y1525.344
N2810 G2 X91.967 Y1525.321 I9.394 J-9.394
N2820 G3 X92.51 Y1525.544 I0.225 J0.224
N2830 G1 X92.607 Y1559.416
N2840 G3 X91.974 Y1559.453 I-0.318 J0.001
N2850 G2 X87.425 Y1550.015 I-15.774 J1.788
N2860 G1 X11.335 Y1473.925
N2870 X19.193 Y1466.065
N2880 X75.815 Y1522.685
N2890 G2 X91.975 Y1517.327 I6.735 J-6.735
N2900 G1 X92.029 Y1516.958
N2910 X92.043 Y1516.86 Z-12.692
N2920 X92.057 Y1516.764 Z-12.669
N2930 X92.07 Y1516.673 Z-12.631
N2940 X92.083 Y1516.589 Z-12.579
N2950 X92.094 Y1516.514 Z-12.514
N2960 X92.103 Y1516.45 Z-12.438
N2970 X92.111 Y1516.399 Z-12.353
N2980 X92.116 Y1516.361 Z-12.261
N2990 X92.119 Y1516.338 Z-12.164
N3000 X92.121 Y1516.33 Z-12.065
N3010 G0 Z15.
N3020 X92.967 Y1672.533
N3030 Z5.
N3040 G1 Z-12.065 F1000.
N3050 X92.962 Y1672.527 Z-12.164 F3000.
N3060 X92.945 Y1672.511 Z-12.261
N3070 X92.918 Y1672.484 Z-12.353
N3080 X92.881 Y1672.448 Z-12.438
N3090 X92.834 Y1672.402 Z-12.514
N3100 X92.78 Y1672.349 Z-12.579
N3110 X92.72 Y1672.29 Z-12.631
N3120 X92.654 Y1672.225 Z-12.669
N3130 X92.585 Y1672.158 Z-12.692
N3140 X92.514 Y1672.088 Z-12.7
N3150 X91.972 Y1671.557
N3160 G3 X89.002 Y1668.614 I308.593 J-314.506
N3170 X89.07 Y1668.324 I0.124 J-0.124
N3180 G2 X91.972 Y1667.107 I-6.541 J-19.667
N3190 G3 X92.435 Y1667.387 I0.145 J0.283
N3200 G1 X92.513 Y1676.543
N3210 G3 X91.972 Y1676.771 I-0.317 J0.003
N3220 G1 X80.968 Y1665.827
N3230 X80.942 Y1665.79
N3240 X80.93 Y1665.746
N3250 X80.934 Y1665.701
N3260 X80.953 Y1665.66
N3270 X80.985 Y1665.628
N3280 X81.026 Y1665.609
N3290 X81.071 Y1665.605
N3300 G2 X91.969 Y1662.823 I1.482 J-16.927
N3310 G3 X92.462 Y1663.086 I0.176 J0.264
N3320 G1 X92.546 Y1682.126
N3330 G3 X91.973 Y1682.317 I-0.317 J0.001
N3340 G2 X90.084 Y1680.126 I-15.773 J11.693
N3350 G1 X16.815 Y1606.92
N3360 G3 Y1606.469 I0.226 J-0.226
N3370 G1 X18.968 Y1604.315
N3380 G3 X19.419 I0.226 J0.226
N3390 G1 X73.156 Y1658.114
N3400 G2 X91.967 Y1658.091 I9.394 J-9.394
N3410 G3 X92.51 Y1658.314 I0.225 J0.224
N3420 G1 X92.607 Y1692.186
N3430 G3 X91.974 Y1692.223 I-0.318 J0.001
N3440 G2 X87.425 Y1682.785 I-15.774 J1.787
N3450 G1 X11.335 Y1606.695
N3460 X19.191 Y1598.837
N3470 X75.815 Y1655.455
N3480 G2 X91.975 Y1650.097 I6.735 J-6.735
N3490 G1 X92.029 Y1649.728
N3500 X92.043 Y1649.63 Z-12.692
N3510 X92.057 Y1649.534 Z-12.669
N3520 X92.07 Y1649.443 Z-12.631
N3530 X92.083 Y1649.359 Z-12.579
N3540 X92.094 Y1649.284 Z-12.514
N3550 X92.103 Y1649.22 Z-12.438
N3560 X92.111 Y1649.169 Z-12.353
N3570 X92.116 Y1649.131 Z-12.261
N3580 X92.119 Y1649.108 Z-12.164
N3590 X92.121 Y1649.1 Z-12.065
N3600 G0 Z15.
N3610 X42.609 Y1832.869
N3620 Z5.
N3630 G1 Z-12.065 F1000.
N3640 G19 G2 Y1832.234 Z-12.7 J-0.635 K0. F3000.
N3650 G1 Y1831.874
N3660 Y1715.359
N3670 G17 G3 X42.928 Y1715.04 I0.319 J0.
N3680 G1 X45.972
N3690 G3 X46.291 Y1715.359 I0. J0.319
N3700 G1 Y1831.87
N3710 G3 X45.974 Y1832.187 I-0.317 J0.
N3720 G1 X39.211
N3730 G3 X38.894 Y1831.869 I0. J-0.318
N3740 G1 Y1828.8
N3750 Y1711.325
N3760 X50.006
N3770 Y1828.8
N3780 Y1831.863
N3790 X49.998 Y1831.963
N3800 X49.956 Y1832.232
N3810 X49.94 Y1832.33 Z-12.692
N3820 X49.925 Y1832.426 Z-12.669
N3830 X49.911 Y1832.517 Z-12.631
N3840 X49.897 Y1832.601 Z-12.579
N3850 X49.885 Y1832.676 Z-12.514
N3860 X49.875 Y1832.74 Z-12.438
N3870 X49.867 Y1832.791 Z-12.353
N3880 X49.861 Y1832.829 Z-12.261
N3890 X49.858 Y1832.852 Z-12.164
N3900 X49.856 Y1832.859 Z-12.065
N3910 G0 Z15.
N3920 X46.291 Y-4.078
N3930 Z5.
N3940 G1 Z-12.065 F1000.
N3950 G19 G3 Y-3.443 Z-12.7 J0.635 K0. F3000.
N3960 G1 Y-3.075
N3970 Y113.441
N3980 G17 G3 X45.972 Y113.76 I-0.319 J0.
N3990 G1 X42.928
N4000 G3 X42.609 Y113.441 I0. J-0.319
N4010 G1 Y-3.07
N4020 G3 X42.926 Y-3.387 I0.318 J0.
N4030 G1 X49.689 Y-3.388
N4040 G3 X50.006 Y-3.07 I0. J0.318
N4050 G1 Y117.475
N4060 X38.894
N4070 Y0.
N4080 Y-3.063
N4090 X38.902 Y-3.163
N4100 X38.944 Y-3.432
N4110 X38.96 Y-3.53 Z-12.692
N4120 X38.975 Y-3.626 Z-12.669
N4130 X38.989 Y-3.717 Z-12.631
N4140 X39.003 Y-3.801 Z-12.579
N4150 X39.015 Y-3.876 Z-12.514
N4160 X39.025 Y-3.94 Z-12.438
N4170 X39.033 Y-3.991 Z-12.353
N4180 X39.039 Y-4.029 Z-12.261
N4190 X39.042 Y-4.052 Z-12.164
N4200 X39.044 Y-4.059 Z-12.065
N4210 G0 Z15.
N4220 X92.967 Y212.029
N4230 Z5.
N4240 G1 Z-12.065 F1000.
N4250 X92.961 Y212.023 Z-12.164 F3000.
N4260 X92.945 Y212.007 Z-12.261
N4270 X92.917 Y211.98 Z-12.353
N4280 X92.88 Y211.944 Z-12.438
N4290 X92.834 Y211.899 Z-12.514
N4300 X92.78 Y211.846 Z-12.579
N4310 X92.719 Y211.786 Z-12.631
N4320 X92.654 Y211.722 Z-12.669
N4330 X92.584 Y211.654 Z-12.692
N4340 X92.513 Y211.584 Z-12.7
N4350 X91.966 Y211.047
N4360 G3 X89.007 Y208.116 I308.194 J-314.085
N4370 X89.075 Y207.825 I0.124 J-0.124
N4380 G2 X91.966 Y206.613 I-6.546 J-19.666
N4390 G3 X92.428 Y206.893 I0.145 J0.283
N4400 G1 X92.513 Y216.041
N4410 G3 X91.972 Y216.269 I-0.317 J0.003
N4420 G1 X80.97 Y205.325
N4430 X80.944 Y205.289
N4440 X80.933 Y205.246
N4450 X80.937 Y205.202
N4460 X80.955 Y205.162
N4470 X80.987 Y205.131
N4480 X81.027 Y205.112
N4490 X81.071 Y205.108
N4500 G2 X91.969 Y202.326 I1.483 J-16.927
N4510 G3 X92.462 Y202.589 I0.176 J0.264
N4520 G1 X92.546 Y221.624
N4530 G3 X91.973 Y221.815 I-0.317 J0.001
N4540 G2 X90.084 Y219.624 I-15.773 J11.693
N4550 G1 X16.815 Y146.419
N4560 G3 Y145.967 I0.226 J-0.226
N4570 G1 X18.967 Y143.815
N4580 G3 X19.419 I0.226 J0.226
N4590 G1 X73.156 Y197.616
N4600 G2 X91.967 Y197.593 I9.394 J-9.394
N4610 G3 X92.51 Y197.816 I0.225 J0.224
N4620 G1 X92.607 Y231.684
N4630 G3 X91.974 Y231.721 I-0.318 J0.001
N4640 G2 X87.425 Y222.283 I-15.774 J1.788
N4650 G1 X11.335 Y146.193
N4660 X19.193 Y138.335
N4670 X75.815 Y194.957
N4680 G2 X91.975 Y189.599 I6.735 J-6.735
N4690 G1 X92.029 Y189.23
N4700 X92.043 Y189.132 Z-12.692
N4710 X92.057 Y189.036 Z-12.669
N4720 X92.07 Y188.945 Z-12.631
N4730 X92.083 Y188.861 Z-12.579
N4740 X92.094 Y188.786 Z-12.514
N4750 X92.103 Y188.722 Z-12.438
N4760 X92.111 Y188.671 Z-12.353
N4770 X92.116 Y188.633 Z-12.261
N4780 X92.119 Y188.61 Z-12.164
N4790 X92.121 Y188.602 Z-12.065
N4800 G0 Z15.
N4810 X92.967 Y344.802
N4820 Z5.
N4830 G1 Z-12.065 F1000.
N4840 X92.961 Y344.796 Z-12.164 F3000.
N4850 X92.945 Y344.78 Z-12.261
N4860 X92.917 Y344.753 Z-12.353
N4870 X92.88 Y344.717 Z-12.438
N4880 X92.834 Y344.672 Z-12.514
N4890 X92.78 Y344.619 Z-12.579
N4900 X92.719 Y344.559 Z-12.631
N4910 X92.654 Y344.495 Z-12.669
N4920 X92.584 Y344.427 Z-12.692
N4930 X92.513 Y344.357 Z-12.7
N4940 X91.966 Y343.82
N4950 G3 X89.007 Y340.889 I308.194 J-314.085
N4960 X89.075 Y340.598 I0.124 J-0.124
N4970 G2 X91.966 Y339.386 I-6.546 J-19.666
N4980 G3 X92.428 Y339.666 I0.145 J0.283
N4990 G1 X92.513 Y348.814
N5000 G3 X91.972 Y349.042 I-0.317 J0.003
N5010 G1 X80.97 Y338.098
N5020 X80.944 Y338.062
N5030 X80.933 Y338.019
N5040 X80.937 Y337.975
N5050 X80.955 Y337.935
N5060 X80.987 Y337.904
N5070 X81.027 Y337.885
N5080 X81.071 Y337.881
N5090 G2 X91.969 Y335.099 I1.483 J-16.927
N5100 G3 X92.462 Y335.362 I0.176 J0.264
N5110 G1 X92.546 Y354.397
N5120 G3 X91.973 Y354.588 I-0.317 J0.001
N5130 G2 X90.084 Y352.397 I-15.773 J11.693
N5140 G1 X16.815 Y279.192
N5150 G3 Y278.74 I0.226 J-0.226
N5160 G1 X18.967 Y276.588
N5170 G3 X19.419 I0.226 J0.226
N5180 G1 X73.156 Y330.389
N5190 G2 X91.967 Y330.366 I9.394 J-9.394
N5200 G3 X92.51 Y330.589 I0.225 J0.224
N5210 G1 X92.607 Y364.457
N5220 G3 X91.974 Y364.494 I-0.318 J0.001
N5230 G2 X87.425 Y355.056 I-15.774 J1.788
N5240 G1 X11.335 Y278.966
N5250 X19.193 Y271.108
N5260 X75.815 Y327.73
N5270 G2 X91.975 Y322.372 I6.735 J-6.735
N5280 G1 X92.029 Y322.003
N5290 X92.043 Y321.905 Z-12.692
N5300 X92.057 Y321.809 Z-12.669
N5310 X92.07 Y321.718 Z-12.631
N5320 X92.083 Y321.634 Z-12.579
N5330 X92.094 Y321.559 Z-12.514
N5340 X92.103 Y321.495 Z-12.438
N5350 X92.111 Y321.444 Z-12.353
N5360 X92.116 Y321.406 Z-12.261
N5370 X92.119 Y321.383 Z-12.164
N5380 X92.121 Y321.375 Z-12.065
N5390 G0 Z15.
N5400 X92.97 Y477.578
N5410 Z5.
N5420 G1 Z-12.065 F1000.
N5430 X92.964 Y477.572 Z-12.164 F3000.
N5440 X92.947 Y477.556 Z-12.261
N5450 X92.92 Y477.529 Z-12.353
N5460 X92.883 Y477.493 Z-12.438
N5470 X92.837 Y477.447 Z-12.514
N5480 X92.783 Y477.394 Z-12.579
N5490 X92.722 Y477.335 Z-12.631
N5500 X92.656 Y477.27 Z-12.669
N5510 X92.587 Y477.203 Z-12.692
N5520 X92.516 Y477.133 Z-12.7
N5530 X91.975 Y476.602
N5540 G3 X89.006 Y473.661 I308.259 J-314.168
N5550 X89.075 Y473.371 I0.124 J-0.124
N5560 G2 X91.965 Y472.159 I-6.545 J-19.666
N5570 G3 X92.427 Y472.439 I0.145 J0.283
N5580 G1 X92.513 Y481.587
N5590 G3 X91.972 Y481.815 I-0.317 J0.003
N5600 G1 X80.969 Y470.87
N5610 X80.943 Y470.834
N5620 X80.932 Y470.791
N5630 X80.936 Y470.747
N5640 X80.954 Y470.707
N5650 X80.986 Y470.676
N5660 X81.026 Y470.657
N5670 X81.07 Y470.653
N5680 G2 X91.968 Y467.872 I1.484 J-16.927
N5690 G3 X92.461 Y468.135 I0.176 J0.264
N5700 G1 X92.546 Y487.17
N5710 G3 X91.973 Y487.361 I-0.317 J0.001
N5720 G2 X90.084 Y485.17 I-15.773 J11.693
N5730 G1 X16.815 Y411.964
N5740 G3 Y411.513 I0.226 J-0.226
N5750 G1 X18.967 Y409.361
N5760 G3 X19.419 I0.226 J0.226
N5770 G1 X73.156 Y463.161
N5780 G2 X91.967 Y463.138 I9.394 J-9.394
N5790 G3 X92.51 Y463.361 I0.225 J0.224
N5800 G1 X92.607 Y497.23
N5810 G3 X91.974 Y497.267 I-0.318 J0.001
N5820 G2 X87.425 Y487.829 I-15.774 J1.788
N5830 G1 X11.335 Y411.739
N5840 X19.193 Y403.881
N5850 X75.815 Y460.502
N5860 G2 X91.975 Y455.144 I6.735 J-6.735
N5870 G1 X92.029 Y454.775
N5880 X92.043 Y454.677 Z-12.692
N5890 X92.057 Y454.581 Z-12.669
N5900 X92.07 Y454.49 Z-12.631
N5910 X92.083 Y454.406 Z-12.579
N5920 X92.094 Y454.331 Z-12.514
N5930 X92.103 Y454.267 Z-12.438
N5940 X92.111 Y454.216 Z-12.353
N5950 X92.116 Y454.178 Z-12.261
N5960 X92.119 Y454.155 Z-12.164
N5970 X92.121 Y454.147 Z-12.065
N5980 G0 Z15.
N5990 X92.967 Y610.347
N6000 Z5.
N6010 G1 Z-12.065 F1000.
N6020 X92.961 Y610.341 Z-12.164 F3000.
N6030 X92.945 Y610.325 Z-12.261
N6040 X92.917 Y610.298 Z-12.353
N6050 X92.88 Y610.262 Z-12.438
N6060 X92.834 Y610.217 Z-12.514
N6070 X92.78 Y610.164 Z-12.579
N6080 X92.719 Y610.104 Z-12.631
N6090 X92.654 Y610.04 Z-12.669
N6100 X92.584 Y609.972 Z-12.692
N6110 X92.513 Y609.902 Z-12.7
N6120 X91.966 Y609.365
N6130 G3 X89.007 Y606.434 I308.191 J-314.082
N6140 X89.075 Y606.143 I0.124 J-0.124
N6150 G2 X91.966 Y604.931 I-6.546 J-19.666
N6160 G3 X92.428 Y605.211 I0.145 J0.283
N6170 G1 X92.513 Y614.359
N6180 G3 X91.972 Y614.587 I-0.317 J0.003
N6190 G1 X80.97 Y603.643
N6200 X80.944 Y603.607
N6210 X80.933 Y603.564
N6220 X80.937 Y603.52
N6230 X80.955 Y603.48
N6240 X80.987 Y603.449
N6250 X81.027 Y603.43
N6260 X81.071 Y603.426
N6270 G2 X91.969 Y600.644 I1.483 J-16.927
N6280 G3 X92.462 Y600.907 I0.176 J0.264
N6290 G1 X92.546 Y619.943
N6300 G3 X91.974 Y620.133 I-0.317 J0.001
N6310 G2 X90.084 Y617.942 I-15.774 J11.693
N6320 G1 X16.815 Y544.737
N6330 G3 Y544.285 I0.226 J-0.226
N6340 G1 X18.967 Y542.133
N6350 G3 X19.419 I0.226 J0.226
N6360 G1 X73.156 Y595.934
N6370 G2 X91.967 Y595.911 I9.394 J-9.394
N6380 G3 X92.51 Y596.134 I0.225 J0.224
N6390 G1 X92.607 Y630.003
N6400 G3 X91.974 Y630.04 I-0.317 J0.001
N6410 G2 X87.425 Y620.601 I-15.774 J1.787
N6420 G1 X11.335 Y544.511
N6430 X19.193 Y536.653
N6440 X75.815 Y593.275
N6450 G2 X91.975 Y587.917 I6.735 J-6.735
N6460 G1 X92.029 Y587.548
N6470 X92.043 Y587.45 Z-12.692
N6480 X92.057 Y587.354 Z-12.669
N6490 X92.07 Y587.263 Z-12.631
N6500 X92.083 Y587.179 Z-12.579
N6510 X92.094 Y587.104 Z-12.514
N6520 X92.103 Y587.04 Z-12.438
N6530 X92.111 Y586.989 Z-12.353
N6540 X92.116 Y586.951 Z-12.261
N6550 X92.119 Y586.928 Z-12.164
N6560 X92.121 Y586.92 Z-12.065
N6570 G0 Z15.
N6580 X92.967 Y743.12
N6590 Z5.
N6600 G1 Z-12.065 F1000.
N6610 X92.961 Y743.114 Z-12.164 F3000.
N6620 X92.945 Y743.098 Z-12.261
N6630 X92.917 Y743.071 Z-12.353
N6640 X92.88 Y743.035 Z-12.438
N6650 X92.834 Y742.99 Z-12.514
N6660 X92.78 Y742.937 Z-12.579
N6670 X92.719 Y742.877 Z-12.631
N6680 X92.654 Y742.813 Z-12.669
N6690 X92.584 Y742.745 Z-12.692
N6700 X92.513 Y742.675 Z-12.7
N6710 X91.966 Y742.138
N6720 G3 X89.007 Y739.207 I308.194 J-314.085
N6730 X89.075 Y738.916 I0.124 J-0.124
N6740 G2 X91.966 Y737.704 I-6.546 J-19.666
N6750 G3 X92.428 Y737.984 I0.145 J0.283
N6760 G1 X92.513 Y747.132
N6770 G3 X91.972 Y747.36 I-0.317 J0.003
N6780 G1 X80.97 Y736.416
N6790 X80.944 Y736.38
N6800 X80.933 Y736.337
N6810 X80.937 Y736.293
N6820 X80.955 Y736.253
N6830 X80.987 Y736.222
N6840 X81.027 Y736.203
N6850 X81.071 Y736.199
N6860 G2 X91.969 Y733.417 I1.483 J-16.927
N6870 G3 X92.462 Y733.68 I0.176 J0.264
N6880 G1 X92.546 Y752.715
N6890 G3 X91.973 Y752.906 I-0.317 J0.001
N6900 G2 X90.084 Y750.715 I-15.773 J11.693
N6910 G1 X16.815 Y677.51
N6920 G3 Y677.058 I0.226 J-0.226
N6930 G1 X18.967 Y674.906
N6940 G3 X19.419 I0.226 J0.226
N6950 G1 X73.156 Y728.707
N6960 G2 X91.967 Y728.684 I9.394 J-9.394
N6970 G3 X92.51 Y728.907 I0.225 J0.224
N6980 G1 X92.607 Y762.775
N6990 G3 X91.974 Y762.812 I-0.318 J0.001
N7000 G2 X87.425 Y753.374 I-15.774 J1.788
N7010 G1 X11.335 Y677.284
N7020 X19.193 Y669.426
N7030 X75.815 Y726.048
N7040 G2 X91.975 Y720.69 I6.735 J-6.735
N7050 G1 X92.029 Y720.321
N7060 X92.043 Y720.223 Z-12.692
N7070 X92.057 Y720.127 Z-12.669
N7080 X92.07 Y720.036 Z-12.631
N7090 X92.083 Y719.952 Z-12.579
N7100 X92.094 Y719.877 Z-12.514
N7110 X92.103 Y719.813 Z-12.438
N7120 X92.111 Y719.762 Z-12.353
N7130 X92.116 Y719.724 Z-12.261
N7140 X92.119 Y719.701 Z-12.164
N7150 X92.121 Y719.693 Z-12.065
N7160 G0 Z15.
N7170 X92.967 Y875.893
N7180 Z5.
N7190 G1 Z-12.065 F1000.
N7200 X92.961 Y875.887 Z-12.164 F3000.
N7210 X92.945 Y875.871 Z-12.261
N7220 X92.917 Y875.844 Z-12.353
N7230 X92.88 Y875.808 Z-12.438
N7240 X92.834 Y875.763 Z-12.514
N7250 X92.78 Y875.71 Z-12.579
N7260 X92.719 Y875.65 Z-12.631
N7270 X92.654 Y875.586 Z-12.669
N7280 X92.584 Y875.518 Z-12.692
N7290 X92.513 Y875.448 Z-12.7
N7300 X91.966 Y874.911
N7310 G3 X89.007 Y871.98 I308.194 J-314.085
N7320 X89.075 Y871.689 I0.124 J-0.124
N7330 G2 X91.966 Y870.477 I-6.546 J-19.666
N7340 G3 X92.428 Y870.757 I0.145 J0.283
N7350 G1 X92.513 Y879.905
N7360 G3 X91.972 Y880.133 I-0.317 J0.003
N7370 G1 X80.97 Y869.189
N7380 X80.944 Y869.153
N7390 X80.933 Y869.11
N7400 X80.937 Y869.066
N7410 X80.955 Y869.026
N7420 X80.987 Y868.995
N7430 X81.027 Y868.976
N7440 X81.071 Y868.972
N7450 G2 X91.969 Y866.19 I1.483 J-16.927
N7460 G3 X92.462 Y866.453 I0.176 J0.264
N7470 G1 X92.546 Y885.488
N7480 G3 X91.973 Y885.679 I-0.317 J0.001
N7490 G2 X90.084 Y883.488 I-15.773 J11.693
N7500 G1 X16.815 Y810.283
N7510 G3 Y809.831 I0.226 J-0.226
N7520 G1 X18.967 Y807.679
N7530 G3 X19.419 I0.226 J0.226
N7540 G1 X73.156 Y861.48
N7550 G2 X91.967 Y861.457 I9.394 J-9.394
N7560 G3 X92.51 Y861.68 I0.225 J0.224
N7570 G1 X92.607 Y895.548
N7580 G3 X91.974 Y895.585 I-0.318 J0.001
N7590 G2 X87.425 Y886.147 I-15.774 J1.788
N7600 G1 X11.335 Y810.057
N7610 X19.193 Y802.199
N7620 X75.815 Y858.821
N7630 G2 X91.975 Y853.463 I6.735 J-6.735
N7640 G1 X92.029 Y853.094
N7650 X92.043 Y852.996 Z-12.692
N7660 X92.057 Y852.9 Z-12.669
N7670 X92.07 Y852.809 Z-12.631
N7680 X92.083 Y852.725 Z-12.579
N7690 X92.094 Y852.65 Z-12.514
N7700 X92.103 Y852.586 Z-12.438
N7710 X92.111 Y852.535 Z-12.353
N7720 X92.116 Y852.497 Z-12.261
N7730 X92.119 Y852.474 Z-12.164
N7740 X92.121 Y852.466 Z-12.065
N7750 G0 Z15.
N7760 M30
%
