%
(8FT-RHT-BTM)
(MACHINE)
(  VENDOR AUTODESK)
(  MODEL GENERIC 3-AXIS ROUTER)
(  DESCRIPTION THIS MACHINE HAS XYZ AXIS ON THE HEAD)
(T21 D=12.7 CR=0. - ZMIN=-12.7 - FLAT END MILL)
N10 G90 G94 G17 G91.1
N20 G21
(-ATTENTION- PROPERTY SAFE RETRACTS IS SET TO CLEARANCE HEIGHT.)
(ENSURE THE CLEARANCE HEIGHT WILL CLEAR THE PART AND OR FIXTURES.)
(RAISE THE Z-AXIS TO A SAFE HEIGHT BEFORE STARTING THE PROGRAM.)
(2D POCKET22)
N30 M0
(MANUAL TOOL CHANGE TO T21)
N40 S20000 M3
N50 G17 G90 G94
N60 G54
N70 G0 X46.636 Y-7.568
N80 G43 Z15. H21
N90 G0 Z5.
N100 G1 Z-11.557 F500.
N110 X46.637 Y-7.561 Z-11.685 F5000.
N120 X46.64 Y-7.54 Z-11.811
N130 X46.646 Y-7.505 Z-11.935
N140 X46.653 Y-7.456 Z-12.053
N150 X46.663 Y-7.395 Z-12.165
N160 X46.675 Y-7.322 Z-12.27
N170 X46.688 Y-7.238 Z-12.365
N180 X46.703 Y-7.143 Z-12.451
N190 X46.719 Y-7.04 Z-12.525
N200 X46.737 Y-6.929 Z-12.587
N210 X46.755 Y-6.812 Z-12.636
N220 X46.775 Y-6.691 Z-12.671
N230 X46.794 Y-6.566 Z-12.693
N240 X46.814 Y-6.439 Z-12.7
N250 X46.816 Y-6.432
N260 X46.827 Y-6.333
N270 X46.831 Y-6.233
N280 Y114.3
N290 X42.069
N300 Y0.
N310 Y-6.244
N320 X42.073 Y-6.344
N330 X42.084 Y-6.443
N340 X42.092 Y-6.492
N350 X42.114 Y-6.632 Z-12.692
N360 X42.136 Y-6.771 Z-12.668
N370 X42.158 Y-6.906 Z-12.629
N380 X42.178 Y-7.036 Z-12.574
N390 X42.198 Y-7.159 Z-12.505
N400 X42.216 Y-7.274 Z-12.423
N410 X42.233 Y-7.379 Z-12.328
N420 X42.248 Y-7.472 Z-12.222
N430 X42.26 Y-7.554 Z-12.106
N440 X42.271 Y-7.622 Z-11.981
N450 X42.28 Y-7.676 Z-11.849
N460 X42.286 Y-7.714 Z-11.713
N470 X42.29 Y-7.738 Z-11.572
N480 X42.291 Y-7.746 Z-11.43
N490 G0 Z15.
N500 X96.139 Y215.815
N510 Z5.
N520 G1 Z-11.43 F500.
N530 X96.134 Y215.809 Z-11.572 F5000.
N540 X96.117 Y215.792 Z-11.713
N550 X96.089 Y215.764 Z-11.849
N560 X96.051 Y215.725 Z-11.981
N570 X96.002 Y215.676 Z-12.106
N580 X95.945 Y215.618 Z-12.222
N590 X95.878 Y215.55 Z-12.328
N600 X95.803 Y215.475 Z-12.423
N610 X95.722 Y215.392 Z-12.505
N620 X95.634 Y215.303 Z-12.574
N630 X95.542 Y215.21 Z-12.629
N640 X95.446 Y215.112 Z-12.668
N650 X95.347 Y215.012 Z-12.692
N660 X95.247 Y214.911 Z-12.7
N670 X95.147 Y214.81
N680 X95.023 Y214.685
N690 X88.187 Y207.911
N700 G3 X88.26 Y207.625 I0.121 J-0.121
N710 G2 X95.145 Y204.053 I-5.727 J-19.462
N720 G3 X96.175 Y204.545 I0.395 J0.497
N730 G1 X96.415 Y231.476
N740 G3 X95.149 Y231.547 I-0.635 J0.006
N750 G2 X89.67 Y220.038 I-18.949 J1.961
N760 G1 X15.825 Y146.193
N770 X19.193 Y142.825
N780 X73.57 Y197.202
N790 G2 X95.15 Y189.816 I8.98 J-8.98
N800 G1 X95.156 Y189.767
N810 X95.174 Y189.626 Z-12.692
N820 X95.191 Y189.486 Z-12.668
N830 X95.208 Y189.351 Z-12.629
N840 X95.225 Y189.22 Z-12.574
N850 X95.241 Y189.096 Z-12.505
N860 X95.255 Y188.981 Z-12.423
N870 X95.269 Y188.876 Z-12.328
N880 X95.28 Y188.782 Z-12.222
N890 X95.291 Y188.7 Z-12.106
N900 X95.299 Y188.632 Z-11.981
N910 X95.306 Y188.577 Z-11.849
N920 X95.311 Y188.538 Z-11.713
N930 X95.314 Y188.515 Z-11.572
N940 X95.315 Y188.507 Z-11.43
N950 G0 Z15.
N960 X96.139 Y345.196
N970 Z5.
N980 G1 Z-11.43 F500.
N990 X96.134 Y345.19 Z-11.572 F5000.
N1000 X96.117 Y345.173 Z-11.713
N1010 X96.089 Y345.145 Z-11.849
N1020 X96.051 Y345.107 Z-11.981
N1030 X96.003 Y345.058 Z-12.106
N1040 X95.945 Y344.999 Z-12.222
N1050 X95.878 Y344.931 Z-12.328
N1060 X95.803 Y344.856 Z-12.423
N1070 X95.722 Y344.773 Z-12.505
N1080 X95.634 Y344.684 Z-12.574
N1090 X95.542 Y344.591 Z-12.629
N1100 X95.446 Y344.493 Z-12.668
N1110 X95.347 Y344.393 Z-12.692
N1120 X95.247 Y344.292 Z-12.7
N1130 X95.147 Y344.191
N1140 X95.023 Y344.066
N1150 X88.187 Y337.292
N1160 G3 X88.26 Y337.006 I0.121 J-0.121
N1170 G2 X95.145 Y333.434 I-5.727 J-19.462
N1180 G3 X96.175 Y333.926 I0.395 J0.497
N1190 G1 X96.416 Y360.858
N1200 G3 X95.149 Y360.929 I-0.635 J0.006
N1210 G2 X89.67 Y349.419 I-18.949 J1.96
N1220 G1 X15.825 Y275.574
N1230 X19.193 Y272.206
N1240 X73.57 Y326.583
N1250 G2 X95.15 Y319.197 I8.98 J-8.98
N1260 G1 X95.156 Y319.148
N1270 X95.174 Y319.007 Z-12.692
N1280 X95.191 Y318.867 Z-12.668
N1290 X95.208 Y318.732 Z-12.629
N1300 X95.225 Y318.601 Z-12.574
N1310 X95.241 Y318.477 Z-12.505
N1320 X95.255 Y318.362 Z-12.423
N1330 X95.269 Y318.257 Z-12.328
N1340 X95.28 Y318.163 Z-12.222
N1350 X95.291 Y318.081 Z-12.106
N1360 X95.299 Y318.013 Z-11.981
N1370 X95.306 Y317.958 Z-11.849
N1380 X95.311 Y317.919 Z-11.713
N1390 X95.314 Y317.896 Z-11.572
N1400 X95.315 Y317.888 Z-11.43
N1410 G0 Z15.
N1420 X96.139 Y474.578
N1430 Z5.
N1440 G1 Z-11.43 F500.
N1450 X96.134 Y474.572 Z-11.572 F5000.
N1460 X96.117 Y474.555 Z-11.713
N1470 X96.089 Y474.527 Z-11.849
N1480 X96.051 Y474.488 Z-11.981
N1490 X96.002 Y474.439 Z-12.106
N1500 X95.945 Y474.381 Z-12.222
N1510 X95.878 Y474.313 Z-12.328
N1520 X95.803 Y474.238 Z-12.423
N1530 X95.722 Y474.155 Z-12.505
N1540 X95.634 Y474.066 Z-12.574
N1550 X95.542 Y473.973 Z-12.629
N1560 X95.446 Y473.875 Z-12.668
N1570 X95.347 Y473.775 Z-12.692
N1580 X95.247 Y473.674 Z-12.7
N1590 X95.147 Y473.573
N1600 X95.023 Y473.448
N1610 X88.187 Y466.674
N1620 G3 X88.26 Y466.388 I0.121 J-0.121
N1630 G2 X95.145 Y462.816 I-5.727 J-19.463
N1640 G3 X96.175 Y463.307 I0.395 J0.497
N1650 G1 X96.415 Y490.239
N1660 G3 X95.149 Y490.31 I-0.635 J0.006
N1670 G2 X89.67 Y478.801 I-18.949 J1.961
N1680 G1 X15.825 Y404.956
N1690 X19.193 Y401.588
N1700 X73.57 Y455.965
N1710 G2 X95.15 Y448.577 I8.98 J-8.981
N1720 G1 X95.156 Y448.528
N1730 X95.174 Y448.387 Z-12.692
N1740 X95.191 Y448.248 Z-12.668
N1750 X95.209 Y448.112 Z-12.629
N1760 X95.225 Y447.981 Z-12.574
N1770 X95.241 Y447.858 Z-12.505
N1780 X95.255 Y447.742 Z-12.423
N1790 X95.269 Y447.637 Z-12.328
N1800 X95.28 Y447.543 Z-12.222
N1810 X95.291 Y447.461 Z-12.106
N1820 X95.299 Y447.393 Z-11.981
N1830 X95.306 Y447.339 Z-11.849
N1840 X95.311 Y447.3 Z-11.713
N1850 X95.314 Y447.276 Z-11.572
N1860 X95.315 Y447.268 Z-11.43
N1870 G0 Z15.
N1880 X96.139 Y603.959
N1890 Z5.
N1900 G1 Z-11.43 F500.
N1910 X96.134 Y603.953 Z-11.572 F5000.
N1920 X96.117 Y603.936 Z-11.713
N1930 X96.089 Y603.908 Z-11.849
N1940 X96.051 Y603.87 Z-11.981
N1950 X96.002 Y603.82 Z-12.106
N1960 X95.945 Y603.762 Z-12.222
N1970 X95.878 Y603.694 Z-12.328
N1980 X95.803 Y603.619 Z-12.423
N1990 X95.722 Y603.536 Z-12.505
N2000 X95.634 Y603.447 Z-12.574
N2010 X95.542 Y603.354 Z-12.629
N2020 X95.446 Y603.256 Z-12.668
N2030 X95.347 Y603.156 Z-12.692
N2040 X95.247 Y603.055 Z-12.7
N2050 X95.147 Y602.954
N2060 X95.023 Y602.829
N2070 X88.187 Y596.055
N2080 G3 X88.26 Y595.769 I0.121 J-0.121
N2090 G2 X95.145 Y592.197 I-5.727 J-19.462
N2100 G3 X96.175 Y592.689 I0.395 J0.497
N2110 G1 X96.415 Y619.62
N2120 G3 X95.149 Y619.691 I-0.635 J0.006
N2130 G2 X89.67 Y608.182 I-18.949 J1.961
N2140 G1 X15.825 Y534.337
N2150 X19.193 Y530.969
N2160 X73.57 Y585.346
N2170 G2 X95.15 Y577.96 I8.98 J-8.98
N2180 G1 X95.156 Y577.911
N2190 X95.174 Y577.77 Z-12.692
N2200 X95.191 Y577.63 Z-12.668
N2210 X95.208 Y577.495 Z-12.629
N2220 X95.225 Y577.364 Z-12.574
N2230 X95.241 Y577.24 Z-12.505
N2240 X95.255 Y577.125 Z-12.423
N2250 X95.269 Y577.02 Z-12.328
N2260 X95.28 Y576.926 Z-12.222
N2270 X95.291 Y576.844 Z-12.106
N2280 X95.299 Y576.776 Z-11.981
N2290 X95.306 Y576.721 Z-11.849
N2300 X95.311 Y576.682 Z-11.713
N2310 X95.314 Y576.659 Z-11.572
N2320 X95.315 Y576.651 Z-11.43
N2330 G0 Z15.
N2340 X96.139 Y733.34
N2350 Z5.
N2360 G1 Z-11.43 F500.
N2370 X96.134 Y733.334 Z-11.572 F5000.
N2380 X96.117 Y733.317 Z-11.713
N2390 X96.089 Y733.289 Z-11.849
N2400 X96.051 Y733.251 Z-11.981
N2410 X96.002 Y733.201 Z-12.106
N2420 X95.945 Y733.143 Z-12.222
N2430 X95.878 Y733.075 Z-12.328
N2440 X95.803 Y733. Z-12.423
N2450 X95.722 Y732.917 Z-12.505
N2460 X95.634 Y732.828 Z-12.574
N2470 X95.542 Y732.735 Z-12.629
N2480 X95.446 Y732.637 Z-12.668
N2490 X95.347 Y732.537 Z-12.692
N2500 X95.247 Y732.436 Z-12.7
N2510 X95.147 Y732.335
N2520 X95.023 Y732.21
N2530 X88.187 Y725.436
N2540 G3 X88.26 Y725.15 I0.121 J-0.121
N2550 G2 X95.145 Y721.578 I-5.727 J-19.462
N2560 G3 X96.175 Y722.07 I0.395 J0.497
N2570 G1 X96.415 Y749.001
N2580 G3 X95.149 Y749.072 I-0.635 J0.006
N2590 G2 X89.67 Y737.563 I-18.949 J1.961
N2600 G1 X15.825 Y663.718
N2610 X19.193 Y660.35
N2620 X73.57 Y714.727
N2630 G2 X95.15 Y707.341 I8.98 J-8.98
N2640 G1 X95.156 Y707.292
N2650 X95.174 Y707.151 Z-12.692
N2660 X95.191 Y707.011 Z-12.668
N2670 X95.208 Y706.876 Z-12.629
N2680 X95.225 Y706.745 Z-12.574
N2690 X95.241 Y706.621 Z-12.505
N2700 X95.255 Y706.506 Z-12.423
N2710 X95.269 Y706.401 Z-12.328
N2720 X95.28 Y706.307 Z-12.222
N2730 X95.291 Y706.225 Z-12.106
N2740 X95.299 Y706.157 Z-11.981
N2750 X95.306 Y706.102 Z-11.849
N2760 X95.311 Y706.063 Z-11.713
N2770 X95.314 Y706.04 Z-11.572
N2780 X95.315 Y706.032 Z-11.43
N2790 G0 Z15.
N2800 X96.139 Y862.721
N2810 Z5.
N2820 G1 Z-11.43 F500.
N2830 X96.134 Y862.715 Z-11.572 F5000.
N2840 X96.117 Y862.698 Z-11.713
N2850 X96.089 Y862.67 Z-11.849
N2860 X96.051 Y862.632 Z-11.981
N2870 X96.003 Y862.583 Z-12.106
N2880 X95.945 Y862.524 Z-12.222
N2890 X95.878 Y862.456 Z-12.328
N2900 X95.803 Y862.381 Z-12.423
N2910 X95.722 Y862.298 Z-12.505
N2920 X95.634 Y862.209 Z-12.574
N2930 X95.542 Y862.116 Z-12.629
N2940 X95.446 Y862.018 Z-12.668
N2950 X95.347 Y861.918 Z-12.692
N2960 X95.247 Y861.817 Z-12.7
N2970 X95.147 Y861.716
N2980 X95.023 Y861.591
N2990 X88.187 Y854.817
N3000 G3 X88.26 Y854.531 I0.121 J-0.121
N3010 G2 X95.145 Y850.959 I-5.727 J-19.462
N3020 G3 X96.175 Y851.451 I0.395 J0.497
N3030 G1 X96.416 Y878.383
N3040 G3 X95.149 Y878.454 I-0.635 J0.006
N3050 G2 X89.67 Y866.944 I-18.949 J1.96
N3060 G1 X15.825 Y793.099
N3070 X19.193 Y789.731
N3080 X73.57 Y844.108
N3090 G2 X95.15 Y836.722 I8.98 J-8.98
N3100 G1 X95.156 Y836.673
N3110 X95.174 Y836.532 Z-12.692
N3120 X95.191 Y836.392 Z-12.668
N3130 X95.208 Y836.257 Z-12.629
N3140 X95.225 Y836.126 Z-12.574
N3150 X95.241 Y836.002 Z-12.505
N3160 X95.255 Y835.887 Z-12.423
N3170 X95.269 Y835.782 Z-12.328
N3180 X95.28 Y835.688 Z-12.222
N3190 X95.291 Y835.606 Z-12.106
N3200 X95.299 Y835.538 Z-11.981
N3210 X95.306 Y835.483 Z-11.849
N3220 X95.311 Y835.444 Z-11.713
N3230 X95.314 Y835.421 Z-11.572
N3240 X95.315 Y835.413 Z-11.43
N3250 G0 Z15.
N3260 X96.139 Y992.107
N3270 Z5.
N3280 G1 Z-11.43 F500.
N3290 X96.134 Y992.101 Z-11.572 F5000.
N3300 X96.117 Y992.084 Z-11.713
N3310 X96.089 Y992.056 Z-11.849
N3320 X96.051 Y992.018 Z-11.981
N3330 X96.003 Y991.969 Z-12.106
N3340 X95.945 Y991.91 Z-12.222
N3350 X95.878 Y991.842 Z-12.328
N3360 X95.803 Y991.767 Z-12.423
N3370 X95.722 Y991.684 Z-12.505
N3380 X95.634 Y991.595 Z-12.574
N3390 X95.542 Y991.502 Z-12.629
N3400 X95.446 Y991.404 Z-12.668
N3410 X95.347 Y991.304 Z-12.692
N3420 X95.247 Y991.203 Z-12.7
N3430 X95.147 Y991.102
N3440 X95.023 Y990.977
N3450 X88.186 Y984.203
N3460 G3 X88.261 Y983.911 I0.124 J-0.124
N3470 G2 X95.146 Y980.339 I-5.729 J-19.463
N3480 G3 X96.176 Y980.831 I0.395 J0.497
N3490 G1 X96.415 Y1007.768
N3500 G3 X95.149 Y1007.839 I-0.635 J0.006
N3510 G2 X89.67 Y996.33 I-18.949 J1.961
N3520 G1 X15.825 Y922.481
N3530 X19.193 Y919.113
N3540 X73.57 Y973.49
N3550 G2 X95.15 Y966.102 I8.98 J-8.981
N3560 G1 X95.156 Y966.053
N3570 X95.174 Y965.912 Z-12.692
N3580 X95.191 Y965.773 Z-12.668
N3590 X95.209 Y965.637 Z-12.629
N3600 X95.225 Y965.506 Z-12.574
N3610 X95.241 Y965.383 Z-12.505
N3620 X95.255 Y965.267 Z-12.423
N3630 X95.269 Y965.162 Z-12.328
N3640 X95.28 Y965.068 Z-12.222
N3650 X95.291 Y964.986 Z-12.106
N3660 X95.299 Y964.918 Z-11.981
N3670 X95.306 Y964.864 Z-11.849
N3680 X95.311 Y964.825 Z-11.713
N3690 X95.314 Y964.801 Z-11.572
N3700 X95.315 Y964.793 Z-11.43
N3710 G0 Z15.
N3720 X96.139 Y1121.487
N3730 Z5.
N3740 G1 Z-11.43 F500.
N3750 X96.134 Y1121.481 Z-11.572 F5000.
N3760 X96.117 Y1121.464 Z-11.713
N3770 X96.089 Y1121.436 Z-11.849
N3780 X96.051 Y1121.398 Z-11.981
N3790 X96.002 Y1121.349 Z-12.106
N3800 X95.945 Y1121.29 Z-12.222
N3810 X95.878 Y1121.222 Z-12.328
N3820 X95.803 Y1121.147 Z-12.423
N3830 X95.722 Y1121.064 Z-12.505
N3840 X95.634 Y1120.975 Z-12.574
N3850 X95.542 Y1120.882 Z-12.629
N3860 X95.446 Y1120.784 Z-12.668
N3870 X95.347 Y1120.684 Z-12.692
N3880 X95.247 Y1120.583 Z-12.7
N3890 X95.147 Y1120.482
N3900 X95.023 Y1120.357
N3910 X88.186 Y1113.584
N3920 G3 X88.261 Y1113.292 I0.124 J-0.124
N3930 G2 X95.146 Y1109.72 I-5.729 J-19.462
N3940 G3 X96.176 Y1110.211 I0.395 J0.497
N3950 G1 X96.415 Y1137.148
N3960 G3 X95.149 Y1137.219 I-0.635 J0.006
N3970 G2 X89.67 Y1125.71 I-18.949 J1.961
N3980 G1 X15.825 Y1051.865
N3990 X19.193 Y1048.495
N4000 X73.57 Y1102.87
N4010 G2 X95.15 Y1095.484 I8.98 J-8.98
N4020 G1 X95.156 Y1095.435
N4030 X95.174 Y1095.294 Z-12.692
N4040 X95.191 Y1095.154 Z-12.668
N4050 X95.208 Y1095.019 Z-12.629
N4060 X95.225 Y1094.888 Z-12.574
N4070 X95.241 Y1094.764 Z-12.505
N4080 X95.255 Y1094.649 Z-12.423
N4090 X95.269 Y1094.544 Z-12.328
N4100 X95.28 Y1094.45 Z-12.222
N4110 X95.291 Y1094.368 Z-12.106
N4120 X95.299 Y1094.299 Z-11.981
N4130 X95.306 Y1094.245 Z-11.849
N4140 X95.311 Y1094.206 Z-11.713
N4150 X95.314 Y1094.183 Z-11.572
N4160 X95.315 Y1094.175 Z-11.43
N4170 G0 Z15.
N4180 X96.139 Y1250.867
N4190 Z5.
N4200 G1 Z-11.43 F500.
N4210 X96.134 Y1250.861 Z-11.572 F5000.
N4220 X96.117 Y1250.844 Z-11.713
N4230 X96.089 Y1250.816 Z-11.849
N4240 X96.051 Y1250.778 Z-11.981
N4250 X96.002 Y1250.729 Z-12.106
N4260 X95.945 Y1250.67 Z-12.222
N4270 X95.878 Y1250.602 Z-12.328
N4280 X95.803 Y1250.527 Z-12.423
N4290 X95.722 Y1250.444 Z-12.505
N4300 X95.634 Y1250.355 Z-12.574
N4310 X95.542 Y1250.262 Z-12.629
N4320 X95.446 Y1250.164 Z-12.668
N4330 X95.347 Y1250.064 Z-12.692
N4340 X95.247 Y1249.963 Z-12.7
N4350 X95.147 Y1249.862
N4360 X95.023 Y1249.737
N4370 X88.186 Y1242.964
N4380 G3 X88.261 Y1242.672 I0.124 J-0.124
N4390 G2 X95.146 Y1239.1 I-5.729 J-19.462
N4400 G3 X96.176 Y1239.591 I0.395 J0.497
N4410 G1 X96.415 Y1266.528
N4420 G3 X95.149 Y1266.599 I-0.635 J0.006
N4430 G2 X89.67 Y1255.09 I-18.949 J1.961
N4440 G1 X15.825 Y1181.245
N4450 X19.193 Y1177.875
N4460 X73.57 Y1232.25
N4470 G2 X95.15 Y1224.864 I8.98 J-8.98
N4480 G1 X95.156 Y1224.815
N4490 X95.174 Y1224.674 Z-12.692
N4500 X95.191 Y1224.534 Z-12.668
N4510 X95.208 Y1224.399 Z-12.629
N4520 X95.225 Y1224.268 Z-12.574
N4530 X95.241 Y1224.144 Z-12.505
N4540 X95.255 Y1224.029 Z-12.423
N4550 X95.269 Y1223.924 Z-12.328
N4560 X95.28 Y1223.83 Z-12.222
N4570 X95.291 Y1223.748 Z-12.106
N4580 X95.299 Y1223.679 Z-11.981
N4590 X95.306 Y1223.625 Z-11.849
N4600 X95.311 Y1223.586 Z-11.713
N4610 X95.314 Y1223.563 Z-11.572
N4620 X95.315 Y1223.555 Z-11.43
N4630 G0 Z15.
N4640 X96.139 Y1380.247
N4650 Z5.
N4660 G1 Z-11.43 F500.
N4670 X96.134 Y1380.241 Z-11.572 F5000.
N4680 X96.117 Y1380.224 Z-11.713
N4690 X96.089 Y1380.196 Z-11.849
N4700 X96.051 Y1380.158 Z-11.981
N4710 X96.002 Y1380.109 Z-12.106
N4720 X95.945 Y1380.05 Z-12.222
N4730 X95.878 Y1379.982 Z-12.328
N4740 X95.803 Y1379.907 Z-12.423
N4750 X95.722 Y1379.824 Z-12.505
N4760 X95.634 Y1379.735 Z-12.574
N4770 X95.542 Y1379.642 Z-12.629
N4780 X95.446 Y1379.544 Z-12.668
N4790 X95.347 Y1379.444 Z-12.692
N4800 X95.247 Y1379.343 Z-12.7
N4810 X95.147 Y1379.242
N4820 X95.023 Y1379.117
N4830 X88.186 Y1372.344
N4840 G3 X88.261 Y1372.052 I0.124 J-0.124
N4850 G2 X95.146 Y1368.48 I-5.729 J-19.462
N4860 G3 X96.176 Y1368.971 I0.395 J0.497
N4870 G1 X96.415 Y1395.908
N4880 G3 X95.149 Y1395.979 I-0.635 J0.006
N4890 G2 X89.67 Y1384.47 I-18.949 J1.961
N4900 G1 X15.825 Y1310.625
N4910 X19.193 Y1307.255
N4920 X73.57 Y1361.63
N4930 G2 X95.15 Y1354.244 I8.98 J-8.98
N4940 G1 X95.156 Y1354.195
N4950 X95.174 Y1354.054 Z-12.692
N4960 X95.191 Y1353.914 Z-12.668
N4970 X95.208 Y1353.779 Z-12.629
N4980 X95.225 Y1353.648 Z-12.574
N4990 X95.241 Y1353.524 Z-12.505
N5000 X95.255 Y1353.409 Z-12.423
N5010 X95.269 Y1353.304 Z-12.328
N5020 X95.28 Y1353.21 Z-12.222
N5030 X95.291 Y1353.128 Z-12.106
N5040 X95.299 Y1353.059 Z-11.981
N5050 X95.306 Y1353.005 Z-11.849
N5060 X95.311 Y1352.966 Z-11.713
N5070 X95.314 Y1352.943 Z-11.572
N5080 X95.315 Y1352.935 Z-11.43
N5090 G0 Z15.
N5100 M30
%
