%
(BTMRHT-6FT-12IN)
(MACHINE)
(  VENDOR AUTODESK)
(  MODEL GENERIC 3-AXIS ROUTER)
(  DESCRIPTION THIS MACHINE HAS XYZ AXIS ON THE HEAD)
(T21 D=12.7 CR=0. - ZMIN=-12.7 - FLAT END MILL)
N10 G90 G94 G17 G91.1
N20 G21
(-ATTENTION- PROPERTY SAFE RETRACTS IS SET TO CLEARANCE HEIGHT.)
(ENSURE THE CLEARANCE HEIGHT WILL CLEAR THE PART AND OR FIXTURES.)
(RAISE THE Z-AXIS TO A SAFE HEIGHT BEFORE STARTING THE PROGRAM.)
(2D POCKET10)
N30 (T21 M6)
(FLAT END MILL D=12.7 12 END MILL)
N40 S20000 M3
N45 G4 P5.0
N50 G54
N60 G0 X46.636 Y-7.568
N70 Z15.
N80 G0 Z5.
N90 G1 Z-11.557 F333.33
N100 X46.637 Y-7.561 Z-11.685 F3000.
N110 X46.64 Y-7.54 Z-11.811
N120 X46.646 Y-7.505 Z-11.935
N130 X46.653 Y-7.456 Z-12.053
N140 X46.663 Y-7.395 Z-12.165
N150 X46.675 Y-7.322 Z-12.27
N160 X46.688 Y-7.238 Z-12.365
N170 X46.703 Y-7.143 Z-12.451
N180 X46.719 Y-7.04 Z-12.525
N190 X46.737 Y-6.929 Z-12.587
N200 X46.755 Y-6.812 Z-12.636
N210 X46.775 Y-6.691 Z-12.671
N220 X46.794 Y-6.566 Z-12.693
N230 X46.814 Y-6.439 Z-12.7
N240 X46.816 Y-6.432
N250 X46.827 Y-6.333
N260 X46.831 Y-6.233
N270 Y114.3
N280 X42.069
N290 Y0.
N300 Y-6.244
N310 X42.073 Y-6.344
N320 X42.084 Y-6.443
N330 X42.092 Y-6.492
N340 X42.114 Y-6.632 Z-12.692
N350 X42.136 Y-6.771 Z-12.668
N360 X42.158 Y-6.906 Z-12.629
N370 X42.178 Y-7.036 Z-12.574
N380 X42.198 Y-7.159 Z-12.505
N390 X42.216 Y-7.274 Z-12.423
N400 X42.233 Y-7.379 Z-12.328
N410 X42.248 Y-7.472 Z-12.222
N420 X42.26 Y-7.554 Z-12.106
N430 X42.271 Y-7.622 Z-11.981
N440 X42.28 Y-7.676 Z-11.849
N450 X42.286 Y-7.714 Z-11.713
N460 X42.29 Y-7.738 Z-11.572
N470 X42.291 Y-7.746 Z-11.43
N480 G0 Z15.
N490 X96.139 Y215.815
N500 Z5.
N510 G1 Z-11.43 F333.33
N520 X96.134 Y215.809 Z-11.572 F3000.
N530 X96.117 Y215.792 Z-11.713
N540 X96.089 Y215.764 Z-11.849
N550 X96.051 Y215.725 Z-11.981
N560 X96.002 Y215.676 Z-12.106
N570 X95.945 Y215.618 Z-12.222
N580 X95.878 Y215.55 Z-12.328
N590 X95.803 Y215.475 Z-12.423
N600 X95.722 Y215.392 Z-12.505
N610 X95.634 Y215.303 Z-12.574
N620 X95.542 Y215.21 Z-12.629
N630 X95.446 Y215.112 Z-12.668
N640 X95.347 Y215.012 Z-12.692
N650 X95.247 Y214.911 Z-12.7
N660 X95.147 Y214.81
N670 X95.023 Y214.685
N680 X88.187 Y207.911
N690 G3 X88.26 Y207.625 I0.121 J-0.121
N700 G2 X95.145 Y204.053 I-5.727 J-19.462
N710 G3 X96.175 Y204.545 I0.395 J0.497
N720 G1 X96.415 Y231.476
N730 G3 X95.149 Y231.547 I-0.635 J0.006
N740 G2 X89.67 Y220.038 I-18.949 J1.961
N750 G1 X15.825 Y146.193
N760 X19.193 Y142.825
N770 X73.57 Y197.202
N780 G2 X95.15 Y189.816 I8.98 J-8.98
N790 G1 X95.156 Y189.767
N800 X95.174 Y189.626 Z-12.692
N810 X95.191 Y189.486 Z-12.668
N820 X95.208 Y189.351 Z-12.629
N830 X95.225 Y189.22 Z-12.574
N840 X95.241 Y189.096 Z-12.505
N850 X95.255 Y188.981 Z-12.423
N860 X95.269 Y188.876 Z-12.328
N870 X95.28 Y188.782 Z-12.222
N880 X95.291 Y188.7 Z-12.106
N890 X95.299 Y188.632 Z-11.981
N900 X95.306 Y188.577 Z-11.849
N910 X95.311 Y188.538 Z-11.713
N920 X95.314 Y188.515 Z-11.572
N930 X95.315 Y188.507 Z-11.43
N940 G0 Z15.
N950 X96.139 Y348.588
N960 Z5.
N970 G1 Z-11.43 F333.33
N980 X96.134 Y348.582 Z-11.572 F3000.
N990 X96.117 Y348.565 Z-11.713
N1000 X96.089 Y348.537 Z-11.849
N1010 X96.051 Y348.498 Z-11.981
N1020 X96.002 Y348.449 Z-12.106
N1030 X95.945 Y348.391 Z-12.222
N1040 X95.878 Y348.323 Z-12.328
N1050 X95.803 Y348.248 Z-12.423
N1060 X95.722 Y348.165 Z-12.505
N1070 X95.634 Y348.076 Z-12.574
N1080 X95.542 Y347.983 Z-12.629
N1090 X95.446 Y347.885 Z-12.668
N1100 X95.347 Y347.785 Z-12.692
N1110 X95.247 Y347.684 Z-12.7
N1120 X95.147 Y347.583
N1130 X95.023 Y347.458
N1140 X88.187 Y340.684
N1150 G3 X88.26 Y340.398 I0.121 J-0.121
N1160 G2 X95.145 Y336.826 I-5.727 J-19.462
N1170 G3 X96.175 Y337.318 I0.395 J0.497
N1180 G1 X96.415 Y364.249
N1190 G3 X95.149 Y364.32 I-0.635 J0.006
N1200 G2 X89.67 Y352.811 I-18.949 J1.961
N1210 G1 X15.825 Y278.966
N1220 X19.193 Y275.598
N1230 X73.57 Y329.975
N1240 G2 X95.15 Y322.589 I8.98 J-8.98
N1250 G1 X95.156 Y322.54
N1260 X95.174 Y322.399 Z-12.692
N1270 X95.191 Y322.259 Z-12.668
N1280 X95.208 Y322.124 Z-12.629
N1290 X95.225 Y321.993 Z-12.574
N1300 X95.241 Y321.869 Z-12.505
N1310 X95.255 Y321.754 Z-12.423
N1320 X95.269 Y321.649 Z-12.328
N1330 X95.28 Y321.555 Z-12.222
N1340 X95.291 Y321.473 Z-12.106
N1350 X95.299 Y321.405 Z-11.981
N1360 X95.306 Y321.35 Z-11.849
N1370 X95.311 Y321.311 Z-11.713
N1380 X95.314 Y321.288 Z-11.572
N1390 X95.315 Y321.28 Z-11.43
N1400 G0 Z15.
N1410 X96.139 Y481.361
N1420 Z5.
N1430 G1 Z-11.43 F333.33
N1440 X96.134 Y481.355 Z-11.572 F3000.
N1450 X96.117 Y481.338 Z-11.713
N1460 X96.089 Y481.31 Z-11.849
N1470 X96.051 Y481.272 Z-11.981
N1480 X96.002 Y481.222 Z-12.106
N1490 X95.945 Y481.164 Z-12.222
N1500 X95.878 Y481.096 Z-12.328
N1510 X95.803 Y481.021 Z-12.423
N1520 X95.722 Y480.938 Z-12.505
N1530 X95.634 Y480.849 Z-12.574
N1540 X95.542 Y480.756 Z-12.629
N1550 X95.446 Y480.658 Z-12.668
N1560 X95.347 Y480.558 Z-12.692
N1570 X95.247 Y480.457 Z-12.7
N1580 X95.147 Y480.356
N1590 X95.023 Y480.231
N1600 X88.186 Y473.456
N1610 G3 X88.259 Y473.17 I0.121 J-0.121
N1620 G2 X95.145 Y469.599 I-5.727 J-19.462
N1630 G3 X96.174 Y470.09 I0.395 J0.497
N1640 G1 X96.415 Y497.022
N1650 G3 X95.149 Y497.093 I-0.635 J0.006
N1660 G2 X89.67 Y485.584 I-18.949 J1.961
N1670 G1 X15.825 Y411.739
N1680 X19.193 Y408.371
N1690 X73.57 Y462.747
N1700 G2 X95.15 Y455.361 I8.98 J-8.98
N1710 G1 X95.156 Y455.312
N1720 X95.174 Y455.171 Z-12.692
N1730 X95.191 Y455.031 Z-12.668
N1740 X95.208 Y454.896 Z-12.629
N1750 X95.225 Y454.765 Z-12.574
N1760 X95.241 Y454.641 Z-12.505
N1770 X95.255 Y454.526 Z-12.423
N1780 X95.269 Y454.421 Z-12.328
N1790 X95.28 Y454.327 Z-12.222
N1800 X95.291 Y454.245 Z-12.106
N1810 X95.299 Y454.176 Z-11.981
N1820 X95.306 Y454.122 Z-11.849
N1830 X95.311 Y454.083 Z-11.713
N1840 X95.314 Y454.06 Z-11.572
N1850 X95.315 Y454.052 Z-11.43
N1860 G0 Z15.
N1870 X96.139 Y614.133
N1880 Z5.
N1890 G1 Z-11.43 F333.33
N1900 X96.134 Y614.127 Z-11.572 F3000.
N1910 X96.117 Y614.11 Z-11.713
N1920 X96.089 Y614.082 Z-11.849
N1930 X96.051 Y614.044 Z-11.981
N1940 X96.003 Y613.995 Z-12.106
N1950 X95.945 Y613.936 Z-12.222
N1960 X95.878 Y613.868 Z-12.328
N1970 X95.803 Y613.793 Z-12.423
N1980 X95.722 Y613.71 Z-12.505
N1990 X95.634 Y613.621 Z-12.574
N2000 X95.542 Y613.528 Z-12.629
N2010 X95.446 Y613.43 Z-12.668
N2020 X95.347 Y613.33 Z-12.692
N2030 X95.247 Y613.229 Z-12.7
N2040 X95.147 Y613.128
N2050 X95.023 Y613.003
N2060 X88.187 Y606.229
N2070 G3 X88.26 Y605.943 I0.121 J-0.121
N2080 G2 X95.145 Y602.371 I-5.727 J-19.462
N2090 G3 X96.175 Y602.863 I0.395 J0.497
N2100 G1 X96.416 Y629.795
N2110 G3 X95.149 Y629.866 I-0.635 J0.006
N2120 G2 X89.67 Y618.356 I-18.949 J1.96
N2130 G1 X15.825 Y544.511
N2140 X19.193 Y541.143
N2150 X73.57 Y595.52
N2160 G2 X95.15 Y588.134 I8.98 J-8.98
N2170 G1 X95.156 Y588.085
N2180 X95.174 Y587.944 Z-12.692
N2190 X95.191 Y587.804 Z-12.668
N2200 X95.208 Y587.669 Z-12.629
N2210 X95.225 Y587.538 Z-12.574
N2220 X95.241 Y587.414 Z-12.505
N2230 X95.255 Y587.299 Z-12.423
N2240 X95.269 Y587.194 Z-12.328
N2250 X95.28 Y587.1 Z-12.222
N2260 X95.291 Y587.018 Z-12.106
N2270 X95.299 Y586.95 Z-11.981
N2280 X95.306 Y586.895 Z-11.849
N2290 X95.311 Y586.856 Z-11.713
N2300 X95.314 Y586.833 Z-11.572
N2310 X95.315 Y586.825 Z-11.43
N2320 G0 Z15.
N2330 X96.139 Y746.906
N2340 Z5.
N2350 G1 Z-11.43 F333.33
N2360 X96.134 Y746.9 Z-11.572 F3000.
N2370 X96.117 Y746.883 Z-11.713
N2380 X96.089 Y746.855 Z-11.849
N2390 X96.051 Y746.816 Z-11.981
N2400 X96.002 Y746.767 Z-12.106
N2410 X95.945 Y746.709 Z-12.222
N2420 X95.878 Y746.641 Z-12.328
N2430 X95.803 Y746.566 Z-12.423
N2440 X95.722 Y746.483 Z-12.505
N2450 X95.634 Y746.394 Z-12.574
N2460 X95.542 Y746.301 Z-12.629
N2470 X95.446 Y746.203 Z-12.668
N2480 X95.347 Y746.103 Z-12.692
N2490 X95.247 Y746.002 Z-12.7
N2500 X95.147 Y745.901
N2510 X95.023 Y745.776
N2520 X88.187 Y739.002
N2530 G3 X88.26 Y738.716 I0.121 J-0.121
N2540 G2 X95.145 Y735.144 I-5.727 J-19.462
N2550 G3 X96.175 Y735.636 I0.395 J0.497
N2560 G1 X96.415 Y762.567
N2570 G3 X95.149 Y762.638 I-0.635 J0.006
N2580 G2 X89.67 Y751.129 I-18.949 J1.961
N2590 G1 X15.825 Y677.284
N2600 X19.193 Y673.916
N2610 X73.57 Y728.293
N2620 G2 X95.15 Y720.907 I8.98 J-8.98
N2630 G1 X95.156 Y720.858
N2640 X95.174 Y720.717 Z-12.692
N2650 X95.191 Y720.577 Z-12.668
N2660 X95.208 Y720.442 Z-12.629
N2670 X95.225 Y720.311 Z-12.574
N2680 X95.241 Y720.187 Z-12.505
N2690 X95.255 Y720.072 Z-12.423
N2700 X95.269 Y719.967 Z-12.328
N2710 X95.28 Y719.873 Z-12.222
N2720 X95.291 Y719.791 Z-12.106
N2730 X95.299 Y719.723 Z-11.981
N2740 X95.306 Y719.668 Z-11.849
N2750 X95.311 Y719.629 Z-11.713
N2760 X95.314 Y719.606 Z-11.572
N2770 X95.315 Y719.598 Z-11.43
N2780 G0 Z15.
N2790 X96.139 Y879.679
N2800 Z5.
N2810 G1 Z-11.43 F333.33
N2820 X96.134 Y879.673 Z-11.572 F3000.
N2830 X96.117 Y879.656 Z-11.713
N2840 X96.089 Y879.628 Z-11.849
N2850 X96.051 Y879.589 Z-11.981
N2860 X96.002 Y879.54 Z-12.106
N2870 X95.945 Y879.482 Z-12.222
N2880 X95.878 Y879.414 Z-12.328
N2890 X95.803 Y879.339 Z-12.423
N2900 X95.722 Y879.256 Z-12.505
N2910 X95.634 Y879.167 Z-12.574
N2920 X95.542 Y879.074 Z-12.629
N2930 X95.446 Y878.976 Z-12.668
N2940 X95.347 Y878.876 Z-12.692
N2950 X95.247 Y878.775 Z-12.7
N2960 X95.147 Y878.674
N2970 X95.023 Y878.549
N2980 X88.187 Y871.775
N2990 G3 X88.26 Y871.489 I0.121 J-0.121
N3000 G2 X95.145 Y867.917 I-5.727 J-19.462
N3010 G3 X96.175 Y868.409 I0.395 J0.497
N3020 G1 X96.415 Y895.34
N3030 G3 X95.149 Y895.411 I-0.635 J0.006
N3040 G2 X89.67 Y883.902 I-18.949 J1.961
N3050 G1 X15.825 Y810.057
N3060 X19.193 Y806.689
N3070 X73.57 Y861.066
N3080 G2 X95.15 Y853.68 I8.98 J-8.98
N3090 G1 X95.156 Y853.631
N3100 X95.174 Y853.49 Z-12.692
N3110 X95.191 Y853.35 Z-12.668
N3120 X95.208 Y853.215 Z-12.629
N3130 X95.225 Y853.084 Z-12.574
N3140 X95.241 Y852.96 Z-12.505
N3150 X95.255 Y852.845 Z-12.423
N3160 X95.269 Y852.74 Z-12.328
N3170 X95.28 Y852.646 Z-12.222
N3180 X95.291 Y852.564 Z-12.106
N3190 X95.299 Y852.496 Z-11.981
N3200 X95.306 Y852.441 Z-11.849
N3210 X95.311 Y852.402 Z-11.713
N3220 X95.314 Y852.379 Z-11.572
N3230 X95.315 Y852.371 Z-11.43
N3240 G0 Z15.
N3250 X96.139 Y1012.447
N3260 Z5.
N3270 G1 Z-11.43 F333.33
N3280 X96.133 Y1012.441 Z-11.572 F3000.
N3290 X96.117 Y1012.424 Z-11.713
N3300 X96.089 Y1012.396 Z-11.849
N3310 X96.051 Y1012.357 Z-11.981
N3320 X96.002 Y1012.308 Z-12.106
N3330 X95.944 Y1012.25 Z-12.222
N3340 X95.878 Y1012.182 Z-12.328
N3350 X95.803 Y1012.106 Z-12.423
N3360 X95.722 Y1012.024 Z-12.505
N3370 X95.634 Y1011.935 Z-12.574
N3380 X95.542 Y1011.841 Z-12.629
N3390 X95.445 Y1011.744 Z-12.668
N3400 X95.347 Y1011.644 Z-12.692
N3410 X95.247 Y1011.543 Z-12.7
N3420 X95.147 Y1011.441
N3430 X95.023 Y1011.317
N3440 X88.19 Y1004.546
N3450 G3 X88.263 Y1004.26 I0.121 J-0.121
N3460 G2 X95.148 Y1000.687 I-5.73 J-19.461
N3470 G3 X96.177 Y1001.179 I0.395 J0.497
N3480 G1 X96.415 Y1028.108
N3490 G3 X95.149 Y1028.179 I-0.635 J0.006
N3500 G2 X89.67 Y1016.67 I-18.949 J1.961
N3510 G1 X15.826 Y942.829
N3520 X19.193 Y939.462
N3530 X73.57 Y993.838
N3540 G2 X95.15 Y986.452 I8.98 J-8.98
N3550 G1 X95.156 Y986.403
N3560 X95.174 Y986.262 Z-12.692
N3570 X95.191 Y986.122 Z-12.668
N3580 X95.208 Y985.987 Z-12.629
N3590 X95.225 Y985.856 Z-12.574
N3600 X95.241 Y985.732 Z-12.505
N3610 X95.255 Y985.617 Z-12.423
N3620 X95.269 Y985.512 Z-12.328
N3630 X95.28 Y985.418 Z-12.222
N3640 X95.291 Y985.336 Z-12.106
N3650 X95.299 Y985.267 Z-11.981
N3660 X95.306 Y985.213 Z-11.849
N3670 X95.311 Y985.174 Z-11.713
N3680 X95.314 Y985.151 Z-11.572
N3690 X95.315 Y985.143 Z-11.43
N3700 G0 Z15.
N3710 X96.139 Y1145.227
N3720 Z5.
N3730 G1 Z-11.43 F333.33
N3740 X96.134 Y1145.221 Z-11.572 F3000.
N3750 X96.117 Y1145.204 Z-11.713
N3760 X96.089 Y1145.176 Z-11.849
N3770 X96.051 Y1145.138 Z-11.981
N3780 X96.002 Y1145.088 Z-12.106
N3790 X95.945 Y1145.03 Z-12.222
N3800 X95.878 Y1144.962 Z-12.328
N3810 X95.803 Y1144.887 Z-12.423
N3820 X95.722 Y1144.804 Z-12.505
N3830 X95.634 Y1144.715 Z-12.574
N3840 X95.542 Y1144.622 Z-12.629
N3850 X95.446 Y1144.524 Z-12.668
N3860 X95.347 Y1144.424 Z-12.692
N3870 X95.247 Y1144.323 Z-12.7
N3880 X95.147 Y1144.222
N3890 X95.023 Y1144.097
N3900 X88.186 Y1137.324
N3910 G3 X88.261 Y1137.032 I0.124 J-0.124
N3920 G2 X95.146 Y1133.46 I-5.729 J-19.462
N3930 G3 X96.176 Y1133.951 I0.395 J0.497
N3940 G1 X96.415 Y1160.888
N3950 G3 X95.149 Y1160.959 I-0.635 J0.006
N3960 G2 X89.67 Y1149.45 I-18.949 J1.961
N3970 G1 X15.825 Y1075.605
N3980 X19.193 Y1072.235
N3990 X73.57 Y1126.61
N4000 G2 X95.15 Y1119.224 I8.98 J-8.98
N4010 G1 X95.156 Y1119.175
N4020 X95.174 Y1119.034 Z-12.692
N4030 X95.191 Y1118.894 Z-12.668
N4040 X95.208 Y1118.759 Z-12.629
N4050 X95.225 Y1118.628 Z-12.574
N4060 X95.241 Y1118.504 Z-12.505
N4070 X95.255 Y1118.389 Z-12.423
N4080 X95.269 Y1118.284 Z-12.328
N4090 X95.28 Y1118.19 Z-12.222
N4100 X95.291 Y1118.108 Z-12.106
N4110 X95.299 Y1118.039 Z-11.981
N4120 X95.306 Y1117.985 Z-11.849
N4130 X95.311 Y1117.946 Z-11.713
N4140 X95.314 Y1117.923 Z-11.572
N4150 X95.315 Y1117.915 Z-11.43
N4160 G0 Z15.
N4170 X96.139 Y1277.997
N4180 Z5.
N4190 G1 Z-11.43 F333.33
N4200 X96.134 Y1277.991 Z-11.572 F3000.
N4210 X96.117 Y1277.974 Z-11.713
N4220 X96.089 Y1277.946 Z-11.849
N4230 X96.051 Y1277.908 Z-11.981
N4240 X96.002 Y1277.859 Z-12.106
N4250 X95.945 Y1277.8 Z-12.222
N4260 X95.878 Y1277.732 Z-12.328
N4270 X95.803 Y1277.657 Z-12.423
N4280 X95.722 Y1277.574 Z-12.505
N4290 X95.634 Y1277.485 Z-12.574
N4300 X95.542 Y1277.392 Z-12.629
N4310 X95.446 Y1277.294 Z-12.668
N4320 X95.347 Y1277.194 Z-12.692
N4330 X95.247 Y1277.093 Z-12.7
N4340 X95.147 Y1276.992
N4350 X95.023 Y1276.867
N4360 X88.186 Y1270.094
N4370 G3 X88.261 Y1269.802 I0.124 J-0.124
N4380 G2 X95.146 Y1266.23 I-5.729 J-19.462
N4390 G3 X96.176 Y1266.721 I0.395 J0.497
N4400 G1 X96.415 Y1293.658
N4410 G3 X95.149 Y1293.729 I-0.635 J0.006
N4420 G2 X89.67 Y1282.22 I-18.949 J1.961
N4430 G1 X15.825 Y1208.375
N4440 X19.193 Y1205.005
N4450 X73.57 Y1259.38
N4460 G2 X95.15 Y1251.994 I8.98 J-8.98
N4470 G1 X95.156 Y1251.945
N4480 X95.174 Y1251.804 Z-12.692
N4490 X95.191 Y1251.664 Z-12.668
N4500 X95.208 Y1251.529 Z-12.629
N4510 X95.225 Y1251.398 Z-12.574
N4520 X95.241 Y1251.274 Z-12.505
N4530 X95.255 Y1251.159 Z-12.423
N4540 X95.269 Y1251.054 Z-12.328
N4550 X95.28 Y1250.96 Z-12.222
N4560 X95.291 Y1250.878 Z-12.106
N4570 X95.299 Y1250.809 Z-11.981
N4580 X95.306 Y1250.755 Z-11.849
N4590 X95.311 Y1250.716 Z-11.713
N4600 X95.314 Y1250.693 Z-11.572
N4610 X95.315 Y1250.685 Z-11.43
N4620 G0 Z15.
N4622 G4 P0.5
N4625 G0 X0 Y0  
N4630 M30
%
