%
(LEFTTOP-6FT12IN)
(MACHINE)
(  VENDOR AUTODESK)
(  MODEL GENERIC 3-AXIS ROUTER)
(  DESCRIPTION THIS MACHINE HAS XYZ AXIS ON THE HEAD)
(T21 D=12.7 CR=0. - ZMIN=-12.7 - FLAT END MILL)
N10 G90 G94 G17 G91.1
N20 G21
(-ATTENTION- PROPERTY SAFE RETRACTS IS SET TO CLEARANCE HEIGHT.)
(ENSURE THE CLEARANCE HEIGHT WILL CLEAR THE PART AND OR FIXTURES.)
(RAISE THE Z-AXIS TO A SAFE HEIGHT BEFORE STARTING THE PROGRAM.)
(2D POCKET9)
N30 (T21 M6)
(FLAT END MILL D=12.7 12 END MILL)
N40 S20000 M3
N45 G4 P5.0
N50 G54
N60 G0 X46.636 Y-7.568
N70 Z15.
N80 G0 Z5.
N90 G1 Z-11.557 F333.33
N100 X46.637 Y-7.561 Z-11.685 F3000.
N110 X46.64 Y-7.54 Z-11.811
N120 X46.646 Y-7.505 Z-11.935
N130 X46.653 Y-7.456 Z-12.053
N140 X46.663 Y-7.395 Z-12.165
N150 X46.675 Y-7.322 Z-12.27
N160 X46.688 Y-7.238 Z-12.365
N170 X46.703 Y-7.143 Z-12.451
N180 X46.719 Y-7.04 Z-12.525
N190 X46.737 Y-6.929 Z-12.587
N200 X46.755 Y-6.812 Z-12.636
N210 X46.775 Y-6.691 Z-12.671
N220 X46.794 Y-6.566 Z-12.693
N230 X46.814 Y-6.439 Z-12.7
N240 X46.816 Y-6.432
N250 X46.827 Y-6.333
N260 X46.831 Y-6.233
N270 Y114.3
N280 X42.069
N290 Y0.
N300 Y-6.244
N310 X42.073 Y-6.344
N320 X42.084 Y-6.443
N330 X42.092 Y-6.492
N340 X42.114 Y-6.632 Z-12.692
N350 X42.136 Y-6.771 Z-12.668
N360 X42.158 Y-6.906 Z-12.629
N370 X42.178 Y-7.036 Z-12.574
N380 X42.198 Y-7.159 Z-12.505
N390 X42.216 Y-7.274 Z-12.423
N400 X42.233 Y-7.379 Z-12.328
N410 X42.248 Y-7.472 Z-12.222
N420 X42.26 Y-7.554 Z-12.106
N430 X42.271 Y-7.622 Z-11.981
N440 X42.28 Y-7.676 Z-11.849
N450 X42.286 Y-7.714 Z-11.713
N460 X42.29 Y-7.738 Z-11.572
N470 X42.291 Y-7.746 Z-11.43
N480 G0 Z15.
N490 X96.248 Y165.097
N500 Z5.
N510 G1 Z-11.43 F333.33
N520 X96.241 Y165.093 Z-11.572 F3000.
N530 X96.223 Y165.078 Z-11.713
N540 X96.192 Y165.053 Z-11.849
N550 X96.149 Y165.019 Z-11.981
N560 X96.095 Y164.977 Z-12.106
N570 X96.03 Y164.926 Z-12.222
N580 X95.956 Y164.867 Z-12.328
N590 X95.872 Y164.801 Z-12.423
N600 X95.781 Y164.729 Z-12.505
N610 X95.684 Y164.652 Z-12.574
N620 X95.58 Y164.57 Z-12.629
N630 X95.473 Y164.485 Z-12.668
N640 X95.363 Y164.398 Z-12.692
N650 X95.251 Y164.31 Z-12.7
N660 X95.146 Y164.226
N670 G2 X88.26 Y160.675 I-12.534 J15.852
N680 G3 X88.187 Y160.389 I0.048 J-0.165
N690 G1 X95.023 Y153.615
N700 X95.147 Y153.491
N710 G3 X96.234 Y153.932 I0.452 J0.446
N720 G1 X96.415 Y178.402
N730 G3 X95.15 Y178.486 I-0.635 J0.005
N740 G2 X73.57 Y171.098 I-12.6 J1.592
N750 G1 X19.193 Y225.475
N760 X15.825 Y222.107
N770 X89.67 Y148.262
N780 G2 X95.149 Y136.754 I-13.47 J-13.47
N790 G1 X95.154 Y136.704
N800 X95.168 Y136.563 Z-12.692
N810 X95.183 Y136.423 Z-12.668
N820 X95.197 Y136.287 Z-12.629
N830 X95.211 Y136.156 Z-12.574
N840 X95.223 Y136.032 Z-12.505
N850 X95.235 Y135.917 Z-12.423
N860 X95.246 Y135.811 Z-12.328
N870 X95.256 Y135.717 Z-12.222
N880 X95.265 Y135.635 Z-12.106
N890 X95.272 Y135.566 Z-11.981
N900 X95.277 Y135.512 Z-11.849
N910 X95.281 Y135.473 Z-11.713
N920 X95.284 Y135.449 Z-11.572
N930 X95.285 Y135.441 Z-11.43
N940 G0 Z15.
N950 X96.248 Y297.87
N960 Z5.
N970 G1 Z-11.43 F333.33
N980 X96.241 Y297.866 Z-11.572 F3000.
N990 X96.223 Y297.851 Z-11.713
N1000 X96.192 Y297.826 Z-11.849
N1010 X96.149 Y297.792 Z-11.981
N1020 X96.095 Y297.75 Z-12.106
N1030 X96.03 Y297.699 Z-12.222
N1040 X95.956 Y297.64 Z-12.328
N1050 X95.872 Y297.574 Z-12.423
N1060 X95.781 Y297.502 Z-12.505
N1070 X95.684 Y297.425 Z-12.574
N1080 X95.58 Y297.343 Z-12.629
N1090 X95.473 Y297.258 Z-12.668
N1100 X95.363 Y297.171 Z-12.692
N1110 X95.251 Y297.083 Z-12.7
N1120 X95.146 Y296.999
N1130 G2 X88.26 Y293.448 I-12.534 J15.852
N1140 G3 X88.187 Y293.162 I0.048 J-0.165
N1150 G1 X95.023 Y286.388
N1160 X95.147 Y286.263
N1170 G3 X96.234 Y286.705 I0.452 J0.446
N1180 G1 X96.415 Y311.175
N1190 G3 X95.15 Y311.259 I-0.635 J0.005
N1200 G2 X73.57 Y303.871 I-12.6 J1.592
N1210 G1 X19.193 Y358.247
N1220 X15.826 Y354.88
N1230 X89.67 Y281.035
N1240 G2 X95.149 Y269.527 I-13.471 J-13.47
N1250 G1 X95.154 Y269.477
N1260 X95.168 Y269.336 Z-12.692
N1270 X95.183 Y269.196 Z-12.668
N1280 X95.197 Y269.06 Z-12.629
N1290 X95.211 Y268.929 Z-12.574
N1300 X95.223 Y268.805 Z-12.505
N1310 X95.235 Y268.69 Z-12.423
N1320 X95.246 Y268.584 Z-12.328
N1330 X95.256 Y268.49 Z-12.222
N1340 X95.265 Y268.408 Z-12.106
N1350 X95.272 Y268.339 Z-11.981
N1360 X95.277 Y268.285 Z-11.849
N1370 X95.281 Y268.246 Z-11.713
N1380 X95.284 Y268.222 Z-11.572
N1390 X95.285 Y268.214 Z-11.43
N1400 G0 Z15.
N1410 X96.248 Y430.643
N1420 Z5.
N1430 G1 Z-11.43 F333.33
N1440 X96.241 Y430.638 Z-11.572 F3000.
N1450 X96.223 Y430.624 Z-11.713
N1460 X96.192 Y430.599 Z-11.849
N1470 X96.149 Y430.565 Z-11.981
N1480 X96.095 Y430.523 Z-12.106
N1490 X96.03 Y430.471 Z-12.222
N1500 X95.956 Y430.413 Z-12.328
N1510 X95.873 Y430.347 Z-12.423
N1520 X95.781 Y430.275 Z-12.505
N1530 X95.684 Y430.197 Z-12.574
N1540 X95.58 Y430.116 Z-12.629
N1550 X95.473 Y430.031 Z-12.668
N1560 X95.363 Y429.944 Z-12.692
N1570 X95.251 Y429.856 Z-12.7
N1580 X95.146 Y429.772
N1590 G2 X88.26 Y426.22 I-12.535 J15.852
N1600 G3 X88.187 Y425.934 I0.048 J-0.165
N1610 G1 X95.023 Y419.16
N1620 X95.147 Y419.035
N1630 G3 X96.234 Y419.477 I0.452 J0.446
N1640 G1 X96.415 Y443.948
N1650 G3 X95.15 Y444.032 I-0.635 J0.005
N1660 G2 X73.57 Y436.642 I-12.6 J1.592
N1670 G1 X19.193 Y491.02
N1680 X15.825 Y487.652
N1690 X89.67 Y413.807
N1700 G2 X95.149 Y402.299 I-13.47 J-13.47
N1710 G1 X95.154 Y402.249
N1720 X95.168 Y402.108 Z-12.692
N1730 X95.183 Y401.968 Z-12.668
N1740 X95.197 Y401.832 Z-12.629
N1750 X95.211 Y401.701 Z-12.574
N1760 X95.223 Y401.577 Z-12.505
N1770 X95.235 Y401.462 Z-12.423
N1780 X95.246 Y401.356 Z-12.328
N1790 X95.256 Y401.262 Z-12.222
N1800 X95.265 Y401.18 Z-12.106
N1810 X95.272 Y401.111 Z-11.981
N1820 X95.277 Y401.057 Z-11.849
N1830 X95.281 Y401.018 Z-11.713
N1840 X95.284 Y400.994 Z-11.572
N1850 X95.285 Y400.986 Z-11.43
N1860 G0 Z15.
N1862 G4 P0.5
N1865 G0 X0 Y0
N1870 M30
%
