%
(RAILGROOVES)
(MACHINE)
(  VENDOR AUTODESK)
(  MODEL GENERIC 3-AXIS ROUTER)
(  DESCRIPTION THIS MACHINE HAS XYZ AXIS ON THE HEAD)
(T20 D=6.35 CR=0. - ZMIN=-12.7 - FLAT END MILL)
N10 G90 G94 G17 G91.1
N20 G21
N30 G53 G0 Z0.
(2D POCKET16)
N40 (T20 M6)
(FLAT END MILL D=6.35 4MM FLAT ENDMILL)
N50 S20000 M3
N55 G4 P5.0
N60 G54
N70 G0 X42.609 Y-4.068
N80 Z15.
N90 G0 Z5.
N100 G1 Z0.159 F1000.
N110 Z-5.715 F3000.
N120 G19 G3 Y-3.433 Z-6.35 J0.635 K0.
N130 G1 Y-3.065
N140 Y1527.07
N150 G17 G2 X42.927 Y1527.387 I0.318 J0.
N160 G1 X45.974 Y1527.382
N170 G2 X46.291 Y1527.065 I0. J-0.318
N180 G1 Y-3.07
N190 G2 X45.974 Y-3.387 I-0.318 J0.
N200 G1 X39.211 Y-3.39
N210 G2 X38.894 Y-3.072 I0. J0.318
N220 G1 Y1524.
N230 Y1527.063
N240 G2 X39.211 Y1527.381 I0.318 J0.
N250 G1 X49.689 Y1527.39
N260 G2 X50.006 Y1527.072 I0. J-0.318
N270 G1 Y0.
N280 Y-3.063
N290 G2 X49.749 Y-3.375 I-0.318 J0.
N300 G1 X42.986 Y-4.677
N310 G2 X42.609 Y-4.365 I-0.06 J0.312
N320 G19 G2 Y-3.73 Z-6.985 J0. K-0.635
N330 G1 Z-12.065
N340 G3 Y-3.095 Z-12.7 J0.635 K0.
N350 G1 Y-3.065
N360 Y1527.07
N370 G17 G2 X42.927 Y1527.387 I0.318 J0.
N380 G1 X45.974 Y1527.382
N390 G2 X46.291 Y1527.065 I0. J-0.318
N400 G1 Y-3.07
N410 G2 X45.974 Y-3.387 I-0.318 J0.
N420 G1 X39.211 Y-3.39
N430 G2 X38.894 Y-3.072 I0. J0.318
N440 G1 Y1524.
N450 Y1527.063
N460 G2 X39.211 Y1527.381 I0.318 J0.
N470 G1 X49.689 Y1527.39
N480 G2 X50.006 Y1527.072 I0. J-0.318
N490 G1 Y0.
N500 Y-3.063
N510 X49.998 Y-3.163
N520 X49.956 Y-3.432
N530 X49.94 Y-3.53 Z-12.692
N540 X49.925 Y-3.626 Z-12.669
N550 X49.911 Y-3.717 Z-12.631
N560 X49.897 Y-3.801 Z-12.579
N570 X49.886 Y-3.876 Z-12.514
N580 X49.875 Y-3.94 Z-12.438
N590 X49.867 Y-3.991 Z-12.353
N600 X49.861 Y-4.029 Z-12.261
N610 X49.858 Y-4.052 Z-12.164
N620 X49.856 Y-4.059 Z-12.065
N630 G0 Z15.
N640 G53 G0 Z0.
N650 G53 G0 X0. Y0.
N660 M30
%
