%
(RAIL-12IN)
(MACHINE)
(  VENDOR AUTODESK)
(  MODEL GENERIC 3-AXIS ROUTER)
(  DESCRIPTION THIS MACHINE HAS XYZ AXIS ON THE HEAD)
(T21 D=12.7 CR=0. - ZMIN=-12.7 - FLAT END MILL)
N10 G90 G94 G17 G91.1
N20 G21
(-ATTENTION- PROPERTY SAFE RETRACTS IS SET TO CLEARANCE HEIGHT.)
(ENSURE THE CLEARANCE HEIGHT WILL CLEAR THE PART AND OR FIXTURES.)
(RAISE THE Z-AXIS TO A SAFE HEIGHT BEFORE STARTING THE PROGRAM.)
(2D POCKET12)
N30 (T21 M6)
(FLAT END MILL D=12.7 12 END MILL)
N40 S20000 M3
N45 G4 P5.0
N50 G54
N60 G0 X42.264 Y1531.568
N70 Z15.
N80 G0 Z5.
N90 G1 Z-11.557 F333.33
N100 X42.263 Y1531.561 Z-11.685 F3000.
N110 X42.26 Y1531.54 Z-11.811
N120 X42.254 Y1531.505 Z-11.935
N130 X42.247 Y1531.457 Z-12.053
N140 X42.237 Y1531.395 Z-12.165
N150 X42.225 Y1531.322 Z-12.27
N160 X42.212 Y1531.238 Z-12.365
N170 X42.197 Y1531.143 Z-12.451
N180 X42.181 Y1531.04 Z-12.525
N190 X42.163 Y1530.929 Z-12.587
N200 X42.145 Y1530.812 Z-12.636
N210 X42.125 Y1530.691 Z-12.671
N220 X42.106 Y1530.566 Z-12.693
N230 X42.086 Y1530.439 Z-12.7
N240 X42.084 Y1530.432
N250 X42.073 Y1530.333
N260 X42.069 Y1530.233
N270 Y-6.244
N280 G3 X42.706 Y-6.879 I0.635 J0.
N290 G1 X46.198 Y-6.868
N300 G3 X46.831 Y-6.233 I-0.002 J0.635
N310 G1 Y1530.244
N320 X46.827 Y1530.344
N330 X46.816 Y1530.443
N340 X46.808 Y1530.492
N350 X46.786 Y1530.632 Z-12.692
N360 X46.764 Y1530.771 Z-12.668
N370 X46.742 Y1530.906 Z-12.629
N380 X46.722 Y1531.036 Z-12.574
N390 X46.702 Y1531.159 Z-12.505
N400 X46.684 Y1531.274 Z-12.423
N410 X46.667 Y1531.379 Z-12.328
N420 X46.653 Y1531.472 Z-12.222
N430 X46.64 Y1531.554 Z-12.106
N440 X46.629 Y1531.622 Z-11.981
N450 X46.62 Y1531.676 Z-11.849
N460 X46.614 Y1531.715 Z-11.713
N470 X46.61 Y1531.738 Z-11.572
N480 X46.609 Y1531.746 Z-11.43
N490 G0 Z15.
N500 M30
%
