%
(RHTTOP-6FT-12IN)
(MACHINE)
(  VENDOR AUTODESK)
(  MODEL GENERIC 3-AXIS ROUTER)
(  DESCRIPTION THIS MACHINE HAS XYZ AXIS ON THE HEAD)
(T21 D=12.7 CR=0. - ZMIN=-12.7 - FLAT END MILL)
N10 G90 G94 G17 G91.1
N20 G21
N30 G53 G0 Z0.
(2D POCKET17)
N40 (T21 M6)
(FLAT END MILL D=12.7 12 END MILL)
N50 S20000 M3
N55 G4 P5.0
N60 G54
N70 G0 X46.636 Y-7.568
N80 Z15.
N90 G0 Z5.
N100 G1 Z-11.557 F333.33
N110 X46.637 Y-7.561 Z-11.685 F3000.
N120 X46.64 Y-7.54 Z-11.811
N130 X46.646 Y-7.505 Z-11.935
N140 X46.653 Y-7.456 Z-12.053
N150 X46.663 Y-7.395 Z-12.165
N160 X46.675 Y-7.322 Z-12.27
N170 X46.688 Y-7.238 Z-12.365
N180 X46.703 Y-7.143 Z-12.451
N190 X46.719 Y-7.04 Z-12.525
N200 X46.737 Y-6.929 Z-12.587
N210 X46.755 Y-6.812 Z-12.636
N220 X46.775 Y-6.691 Z-12.671
N230 X46.794 Y-6.566 Z-12.693
N240 X46.814 Y-6.439 Z-12.7
N250 X46.816 Y-6.432
N260 X46.827 Y-6.333
N270 X46.831 Y-6.233
N280 Y0.
N290 Y114.3
N300 X42.069
N310 Y0.
N320 Y-6.244
N330 X42.073 Y-6.344
N340 X42.084 Y-6.443
N350 X42.092 Y-6.492
N360 X42.114 Y-6.632 Z-12.692
N370 X42.136 Y-6.771 Z-12.668
N380 X42.158 Y-6.906 Z-12.629
N390 X42.178 Y-7.036 Z-12.574
N400 X42.198 Y-7.159 Z-12.505
N410 X42.216 Y-7.274 Z-12.423
N420 X42.233 Y-7.379 Z-12.328
N430 X42.248 Y-7.472 Z-12.222
N440 X42.26 Y-7.554 Z-12.106
N450 X42.271 Y-7.622 Z-11.981
N460 X42.28 Y-7.676 Z-11.849
N470 X42.286 Y-7.714 Z-11.713
N480 X42.29 Y-7.738 Z-11.572
N490 X42.291 Y-7.746 Z-11.43
N500 G0 Z15.
N510 X-7.25 Y152.474
N520 Z5.
N530 G1 Z-11.43 F333.33
N540 X-7.244 Y152.48 Z-11.572 F3000.
N550 X-7.228 Y152.497 Z-11.713
N560 X-7.2 Y152.525 Z-11.849
N570 X-7.162 Y152.563 Z-11.981
N580 X-7.113 Y152.612 Z-12.106
N590 X-7.055 Y152.671 Z-12.222
N600 X-6.989 Y152.739 Z-12.328
N610 X-6.914 Y152.814 Z-12.423
N620 X-6.833 Y152.897 Z-12.505
N630 X-6.745 Y152.986 Z-12.574
N640 X-6.653 Y153.079 Z-12.629
N650 X-6.557 Y153.177 Z-12.668
N660 X-6.458 Y153.277 Z-12.692
N670 X-6.358 Y153.378 Z-12.7
N680 X-6.247 Y153.49
N690 X-6.123 Y153.615
N700 X0.713 Y160.389
N710 G3 X0.64 Y160.675 I-0.121 J0.121
N720 G2 X-6.245 Y164.247 I5.727 J19.462
N730 G3 X-7.275 Y163.755 I-0.395 J-0.497
N740 G1 X-7.515 Y136.824
N750 G3 X-6.249 Y136.753 I0.635 J-0.006
N760 G2 X-0.77 Y148.262 I18.949 J-1.961
N770 G1 X73.075 Y222.107
N780 X69.707 Y225.475
N790 X15.33 Y171.098
N800 G2 X-6.25 Y178.484 I-8.98 J8.98
N810 G1 X-6.256 Y178.533
N820 X-6.274 Y178.674 Z-12.692
N830 X-6.291 Y178.814 Z-12.668
N840 X-6.308 Y178.949 Z-12.629
N850 X-6.325 Y179.08 Z-12.574
N860 X-6.341 Y179.204 Z-12.505
N870 X-6.355 Y179.319 Z-12.423
N880 X-6.369 Y179.424 Z-12.328
N890 X-6.38 Y179.518 Z-12.222
N900 X-6.391 Y179.6 Z-12.106
N910 X-6.399 Y179.668 Z-11.981
N920 X-6.406 Y179.723 Z-11.849
N930 X-6.411 Y179.762 Z-11.713
N940 X-6.414 Y179.785 Z-11.572
N950 X-6.415 Y179.793 Z-11.43
N960 G0 Z15.
N970 X-7.25 Y285.247
N980 Z5.
N990 G1 Z-11.43 F333.33
N1000 X-7.245 Y285.252 Z-11.572 F3000.
N1010 X-7.228 Y285.269 Z-11.713
N1020 X-7.2 Y285.297 Z-11.849
N1030 X-7.162 Y285.336 Z-11.981
N1040 X-7.113 Y285.385 Z-12.106
N1050 X-7.056 Y285.444 Z-12.222
N1060 X-6.989 Y285.512 Z-12.328
N1070 X-6.914 Y285.587 Z-12.423
N1080 X-6.833 Y285.67 Z-12.505
N1090 X-6.745 Y285.758 Z-12.574
N1100 X-6.653 Y285.852 Z-12.629
N1110 X-6.557 Y285.95 Z-12.668
N1120 X-6.458 Y286.049 Z-12.692
N1130 X-6.358 Y286.151 Z-12.7
N1140 X-6.247 Y286.263
N1150 X-6.123 Y286.388
N1160 X0.713 Y293.162
N1170 G3 X0.64 Y293.448 I-0.121 J0.121
N1180 G2 X-6.245 Y297.02 I5.727 J19.462
N1190 G3 X-7.275 Y296.528 I-0.395 J-0.497
N1200 G1 X-7.515 Y269.596
N1210 G3 X-6.249 Y269.525 I0.635 J-0.006
N1220 G2 X-0.77 Y281.035 I18.949 J-1.96
N1230 G1 X73.074 Y354.88
N1240 X69.707 Y358.247
N1250 X15.33 Y303.871
N1260 G2 X-6.25 Y311.257 I-8.98 J8.98
N1270 G1 X-6.256 Y311.306
N1280 X-6.274 Y311.447 Z-12.692
N1290 X-6.291 Y311.587 Z-12.668
N1300 X-6.308 Y311.722 Z-12.629
N1310 X-6.325 Y311.853 Z-12.574
N1320 X-6.341 Y311.977 Z-12.505
N1330 X-6.355 Y312.092 Z-12.423
N1340 X-6.369 Y312.197 Z-12.328
N1350 X-6.38 Y312.291 Z-12.222
N1360 X-6.391 Y312.373 Z-12.106
N1370 X-6.399 Y312.442 Z-11.981
N1380 X-6.406 Y312.496 Z-11.849
N1390 X-6.411 Y312.535 Z-11.713
N1400 X-6.414 Y312.558 Z-11.572
N1410 X-6.415 Y312.566 Z-11.43
N1420 G0 Z15.
N1430 X-7.25 Y418.019
N1440 Z5.
N1450 G1 Z-11.43 F333.33
N1460 X-7.244 Y418.025 Z-11.572 F3000.
N1470 X-7.228 Y418.042 Z-11.713
N1480 X-7.2 Y418.07 Z-11.849
N1490 X-7.162 Y418.108 Z-11.981
N1500 X-7.113 Y418.157 Z-12.106
N1510 X-7.055 Y418.216 Z-12.222
N1520 X-6.989 Y418.284 Z-12.328
N1530 X-6.914 Y418.359 Z-12.423
N1540 X-6.833 Y418.442 Z-12.505
N1550 X-6.745 Y418.531 Z-12.574
N1560 X-6.653 Y418.624 Z-12.629
N1570 X-6.557 Y418.722 Z-12.668
N1580 X-6.458 Y418.822 Z-12.692
N1590 X-6.358 Y418.923 Z-12.7
N1600 X-6.247 Y419.035
N1610 X-6.123 Y419.16
N1620 X0.713 Y425.934
N1630 G3 X0.641 Y426.22 I-0.121 J0.121
N1640 G2 X-6.245 Y429.792 I5.727 J19.463
N1650 G3 X-7.275 Y429.301 I-0.395 J-0.497
N1660 G1 X-7.515 Y402.369
N1670 G3 X-6.249 Y402.298 I0.635 J-0.006
N1680 G2 X-0.77 Y413.807 I18.949 J-1.961
N1690 G1 X73.075 Y487.652
N1700 X69.707 Y491.02
N1710 X15.33 Y436.643
N1720 G2 X-6.25 Y444.031 I-8.98 J8.981
N1730 G1 X-6.256 Y444.08
N1740 X-6.274 Y444.221 Z-12.692
N1750 X-6.291 Y444.36 Z-12.668
N1760 X-6.309 Y444.496 Z-12.629
N1770 X-6.325 Y444.627 Z-12.574
N1780 X-6.341 Y444.75 Z-12.505
N1790 X-6.355 Y444.866 Z-12.423
N1800 X-6.369 Y444.971 Z-12.328
N1810 X-6.38 Y445.065 Z-12.222
N1820 X-6.391 Y445.147 Z-12.106
N1830 X-6.399 Y445.215 Z-11.981
N1840 X-6.406 Y445.269 Z-11.849
N1850 X-6.411 Y445.308 Z-11.713
N1860 X-6.414 Y445.332 Z-11.572
N1870 X-6.415 Y445.34 Z-11.43
N1880 G0 Z15.
N1890 G4 P0.5
N1900 G0 X0. Y0.
N1910 M30
%
