%
(LEFTISLANDDRAWER)
(MACHINE)
(  VENDOR AUTODESK)
(  MODEL GENERIC 3-AXIS ROUTER)
(  DESCRIPTION THIS MACHINE HAS XYZ AXIS ON THE HEAD)
(T20 D=6.35 CR=0. - ZMIN=-12.7 - FLAT END MILL)
N10 G90 G94 G17 G91.1
N15 G21
N20 G53 G0 Z0.
(2D POCKET1)
N25 M0
(MANUAL TOOL CHANGE TO T20)
N30 S18000 M3
N35 G4 P3.0
N40 G17 G90 G94
N45 G54
N50 G0 X43.407 Y14.981
N55 G43 Z15. H20
N60 G0 Z5.
N65 G1 Z-2.54 F333.33
N70 G19 G3 Y15.616 Z-3.175 J0.635 K0. F2500.
N75 G1 Y15.977
N80 Y568.214
N85 G17 G2 X43.723 Y568.532 I0.318 J0.
N90 G1 X45.174 Y568.54
N95 G2 X45.493 Y568.222 I0.002 J-0.318
N100 G1 Y15.985
N105 G2 X45.175 Y15.667 I-0.317 J0.
N110 G1 X41.593 Y15.666
N115 X41.592
N120 G2 X41.275 Y15.983 I0. J0.318
N125 G1 Y565.15
N130 Y568.213
N135 G2 X41.592 Y568.531 I0.317 J0.
N140 G1 X47.307 Y568.533
N145 G2 X47.625 Y568.216 I0. J-0.318
N150 G1 Y19.05
N155 Y15.987
N160 G2 X47.416 Y15.688 I-0.318 J0.
N165 G1 X43.834 Y14.379
N170 G2 X43.407 Y14.677 I-0.109 J0.298
N175 G19 G2 Y15.312 Z-3.81 J0. K-0.635
N180 G1 Z-5.715
N185 G3 Y15.947 Z-6.35 J0.635 K0.
N190 G1 Y15.977
N195 Y568.214
N200 G17 G2 X43.723 Y568.532 I0.318 J0.
N205 G1 X45.174 Y568.54
N210 G2 X45.493 Y568.222 I0.002 J-0.318
N215 G1 Y15.985
N220 G2 X45.175 Y15.667 I-0.317 J0.
N225 G1 X41.593 Y15.666
N230 X41.592
N235 G2 X41.275 Y15.983 I0. J0.318
N240 G1 Y565.15
N245 Y568.213
N250 G2 X41.592 Y568.531 I0.317 J0.
N255 G1 X47.307 Y568.533
N260 G2 X47.625 Y568.216 I0. J-0.318
N265 G1 Y19.05
N270 Y15.987
N275 X47.617 Y15.887
N280 X47.574 Y15.618
N285 X47.559 Y15.52 Z-6.342
N290 X47.544 Y15.424 Z-6.319
N295 X47.529 Y15.333 Z-6.281
N300 X47.516 Y15.249 Z-6.229
N305 X47.504 Y15.174 Z-6.164
N310 X47.494 Y15.11 Z-6.088
N315 X47.486 Y15.059 Z-6.003
N320 X47.48 Y15.021 Z-5.911
N325 X47.476 Y14.998 Z-5.814
N330 X47.475 Y14.991 Z-5.715
N335 G0 Z15.
N340 X163.275 Y569.225
N345 Z5.
N350 G1 Z-2.54 F333.33
N355 G19 G2 Y568.59 Z-3.175 J-0.635 K0. F2500.
N360 G1 Y568.222
N365 X163.253 Y19.05
N370 Y15.987
N375 G17 G2 X162.938 Y15.669 I-0.318 J0.
N380 G1 X161.532 Y15.659
N385 G2 X161.212 Y15.977 I-0.002 J0.317
N390 G1 Y568.214
N395 G2 X161.53 Y568.532 I0.318 J0.
N400 G1 X165.112 Y568.533
N405 X165.113
N410 G2 X165.43 Y568.216 I0. J-0.318
N415 G1 Y19.05
N420 Y15.987
N425 G2 X165.113 Y15.669 I-0.317 J0.
N430 G1 X159.398 Y15.666
N435 G2 X159.08 Y15.983 I0. J0.318
N440 G1 Y565.15
N445 Y568.213
N450 G2 X159.288 Y568.511 I0.318 J0.
N455 G1 X162.848 Y569.82
N460 G2 X163.275 Y569.522 I0.11 J-0.298
N465 G19 G3 Y568.887 Z-3.81 J0. K-0.635
N470 G1 Z-5.715
N475 G2 Y568.252 Z-6.35 J-0.635 K0.
N480 G1 Y568.222
N485 X163.253 Y19.05
N490 Y15.987
N495 G17 G2 X162.938 Y15.669 I-0.318 J0.
N500 G1 X161.532 Y15.659
N505 G2 X161.212 Y15.977 I-0.002 J0.317
N510 G1 Y568.214
N515 G2 X161.53 Y568.532 I0.318 J0.
N520 G1 X165.112 Y568.533
N525 X165.113
N530 G2 X165.43 Y568.216 I0. J-0.318
N535 G1 Y19.05
N540 Y15.987
N545 G2 X165.113 Y15.669 I-0.317 J0.
N550 G1 X159.398 Y15.666
N555 G2 X159.08 Y15.983 I0. J0.318
N560 G1 Y565.15
N565 Y568.213
N570 X159.088 Y568.313
N575 X159.131 Y568.582
N580 X159.146 Y568.68 Z-6.342
N585 X159.161 Y568.776 Z-6.319
N590 X159.176 Y568.867 Z-6.281
N595 X159.189 Y568.951 Z-6.229
N600 X159.201 Y569.026 Z-6.164
N605 X159.211 Y569.09 Z-6.088
N610 X159.219 Y569.141 Z-6.003
N615 X159.225 Y569.179 Z-5.911
N620 X159.229 Y569.202 Z-5.814
N625 X159.23 Y569.209 Z-5.715
N630 G0 Z15.
N635 X282.183 Y333.475
N640 Z5.
N645 G1 Z1. F333.33
N650 Z-2.54 F2500.
N655 X282.176 Y333.473 Z-2.639
N660 X282.154 Y333.466 Z-2.736
N665 X282.117 Y333.455 Z-2.828
N670 X282.067 Y333.44 Z-2.913
N675 X282.005 Y333.422 Z-2.989
N680 X281.933 Y333.4 Z-3.054
N685 X281.851 Y333.375 Z-3.106
N690 X281.763 Y333.349 Z-3.144
N695 X281.67 Y333.321 Z-3.167
N700 X281.575 Y333.292 Z-3.175
N705 X281.515 Y333.274
N710 G3 X280.281 Y332.853 I5.166 J-17.146
N715 G2 X279.331 I-0.475 J1.241
N720 G3 X278.104 Y333.272 I-6.4 J-16.725
N725 G2 X278.235 Y333.891 I0.092 J0.304
N730 G1 X301.947 Y330.895
N735 G2 X301.908 Y330.262 I-0.04 J-0.315
N740 G1 X301.907
N745 X286.156 Y330.273
N750 G3 X283.065 Y329.87 I0. J-12.061
N755 X280.163 Y328.729 I3.467 J-13.074
N760 G2 X279.449 I-0.357 J0.669
N765 G3 X276.547 Y329.87 I-6.368 J-11.933
N770 X273.456 Y330.273 I-3.091 J-11.658
N775 G1 X257.694 Y330.262
N780 X257.669
N785 X257.57 Z-3.167
N790 X257.473 Z-3.144
N795 X257.381 Z-3.106
N800 X257.296 Z-3.054
N805 X257.22 Z-2.989
N810 X257.155 Z-2.913
N815 X257.103 Z-2.828
N820 X257.065 Z-2.736
N825 X257.042 Z-2.639
N830 X257.034 Z-2.54
N835 X302.926 Y326.551
N840 X302.918 Z-2.639
N845 X302.895 Z-2.736
N850 X302.857 Z-2.828
N855 X302.805 Z-2.913
N860 X302.74 Y326.552 Z-2.989
N865 X302.664 Z-3.054
N870 X302.579 Z-3.106
N875 X302.487 Z-3.144
N880 X302.39 Z-3.167
N885 X302.291 Z-3.175
N890 X301.931
N895 X286.156 Y326.562
N900 G3 X282.864 Y325.92 I0. J-8.752
N905 X280.033 Y324.121 I3.517 J-8.662
N910 G2 X279.579 I-0.227 J0.245
N915 G3 X276.748 Y325.92 I-6.348 J-6.864
N920 X273.456 Y326.562 I-3.292 J-8.109
N925 G1 X257.682 Y326.552
N930 X257.657
N935 X257.558 Z-3.167
N940 X257.461 Z-3.144
N945 X257.369 Z-3.106
N950 X257.284 Z-3.054
N955 X257.208 Z-2.989
N960 X257.143 Z-2.913
N965 X257.091 Z-2.828
N970 X257.053 Z-2.736
N975 X257.03 Z-2.639
N980 X257.022 Z-2.54
N985 X302.925 Y322.842
N990 X302.917 Z-2.639
N995 X302.894 Z-2.736
N1000 X302.855 Z-2.828
N1005 X302.803 Z-2.913
N1010 X302.739 Z-2.989
N1015 X302.663 Z-3.054
N1020 X302.578 Z-3.106
N1025 X302.486 Z-3.144
N1030 X302.389 Z-3.167
N1035 X302.29 Z-3.175
N1040 X301.929
N1045 X286.156 Y322.852
N1050 G3 X280.804 Y317.5 I0. J-5.352
N1055 G1 X280.849 Y288.127
N1060 G2 X280.529 Y287.807 I-0.319 J0.
N1065 G1 X279.083
N1070 G2 X278.763 Y288.127 I0. J0.319
N1075 G1 X278.808 Y317.5
N1080 G3 X273.456 Y322.852 I-5.352 J0.
N1085 G1 X257.682 Y322.842
N1090 X257.657
N1095 X257.558 Z-3.167
N1100 X257.461 Z-3.144
N1105 X257.369 Z-3.106
N1110 X257.284 Z-3.054
N1115 X257.208 Z-2.989
N1120 X257.143 Z-2.913
N1125 X257.091 Z-2.828
N1130 X257.053 Z-2.736
N1135 X257.03 Z-2.639
N1140 X257.022 Z-2.54
N1145 X302.926 Y320.826
N1150 Z-2.603 F333.33
N1155 X302.919 Y320.825 Z-2.693 F2500.
N1160 X302.898 Y320.822 Z-2.78
N1165 X302.864 Y320.816 Z-2.863
N1170 X302.818 Y320.809 Z-2.939
N1175 X302.761 Y320.8 Z-3.008
N1180 X302.693 Y320.789 Z-3.066
N1185 X302.618 Y320.777 Z-3.113
N1190 X302.536 Y320.764 Z-3.147
N1195 X302.45 Y320.751 Z-3.168
N1200 X302.361 Y320.737 Z-3.175
N1205 X302.022 Y320.683
N1210 X301.923 Y320.675
N1215 X286.156
N1220 G3 X282.981 Y317.5 I0. J-3.175
N1225 G1 Y285.675
N1230 X276.631
N1235 Y317.5
N1240 G3 X273.456 Y320.675 I-3.175 J0.
N1245 G1 X260.756
N1250 X257.693
N1255 G2 X257.559 Y321.281 I0. J0.318
N1260 G1 X282.984 Y333.057
N1265 G3 X282.759 Y333.649 I-0.133 J0.288
N1270 G1 X282.664 Y333.62 Z-3.183
N1275 X282.571 Y333.592 Z-3.206
N1280 X282.483 Y333.566 Z-3.244
N1285 X282.402 Y333.541 Z-3.296
N1290 X282.329 Y333.519 Z-3.361
N1295 X282.267 Y333.501 Z-3.437
N1300 X282.217 Y333.486 Z-3.522
N1305 X282.181 Y333.475 Z-3.614
N1310 X282.159 Y333.468 Z-3.711
N1315 X282.151 Y333.466 Z-3.81
N1320 Z-5.715
N1325 X282.144 Y333.463 Z-5.814
N1330 X282.121 Y333.457 Z-5.911
N1335 X282.085 Y333.446 Z-6.003
N1340 X282.035 Y333.431 Z-6.088
N1345 X281.973 Y333.412 Z-6.164
N1350 X281.9 Y333.39 Z-6.229
N1355 X281.819 Y333.366 Z-6.281
N1360 X281.731 Y333.339 Z-6.319
N1365 X281.638 Y333.311 Z-6.342
N1370 X281.543 Y333.282 Z-6.35
N1375 X281.515 Y333.274
N1380 G3 X280.281 Y332.853 I5.166 J-17.146
N1385 G2 X279.331 I-0.475 J1.241
N1390 G3 X278.104 Y333.272 I-6.4 J-16.725
N1395 G2 X278.235 Y333.891 I0.092 J0.304
N1400 G1 X301.947 Y330.895
N1405 G2 X301.908 Y330.262 I-0.04 J-0.315
N1410 G1 X301.907
N1415 X286.156 Y330.273
N1420 G3 X283.065 Y329.87 I0. J-12.061
N1425 X280.163 Y328.729 I3.467 J-13.074
N1430 G2 X279.449 I-0.357 J0.669
N1435 G3 X276.547 Y329.87 I-6.368 J-11.933
N1440 X273.456 Y330.273 I-3.091 J-11.658
N1445 G1 X257.694 Y330.262
N1450 X257.669
N1455 X257.57 Z-6.342
N1460 X257.473 Z-6.319
N1465 X257.381 Z-6.281
N1470 X257.296 Z-6.229
N1475 X257.22 Z-6.164
N1480 X257.155 Z-6.088
N1485 X257.103 Z-6.003
N1490 X257.065 Z-5.911
N1495 X257.042 Z-5.814
N1500 X257.034 Z-5.715
N1505 X302.926 Y326.551
N1510 X302.918 Z-5.814
N1515 X302.895 Z-5.911
N1520 X302.857 Z-6.003
N1525 X302.805 Z-6.088
N1530 X302.74 Y326.552 Z-6.164
N1535 X302.664 Z-6.229
N1540 X302.579 Z-6.281
N1545 X302.487 Z-6.319
N1550 X302.39 Z-6.342
N1555 X302.291 Z-6.35
N1560 X301.931
N1565 X286.156 Y326.562
N1570 G3 X282.864 Y325.92 I0. J-8.752
N1575 X280.033 Y324.121 I3.517 J-8.662
N1580 G2 X279.579 I-0.227 J0.245
N1585 G3 X276.748 Y325.92 I-6.348 J-6.864
N1590 X273.456 Y326.562 I-3.292 J-8.109
N1595 G1 X257.682 Y326.552
N1600 X257.657
N1605 X257.558 Z-6.342
N1610 X257.461 Z-6.319
N1615 X257.369 Z-6.281
N1620 X257.284 Z-6.229
N1625 X257.208 Z-6.164
N1630 X257.143 Z-6.088
N1635 X257.091 Z-6.003
N1640 X257.053 Z-5.911
N1645 X257.03 Z-5.814
N1650 X257.022 Z-5.715
N1655 X302.925 Y322.842
N1660 X302.917 Z-5.814
N1665 X302.894 Z-5.911
N1670 X302.855 Z-6.003
N1675 X302.803 Z-6.088
N1680 X302.739 Z-6.164
N1685 X302.663 Z-6.229
N1690 X302.578 Z-6.281
N1695 X302.486 Z-6.319
N1700 X302.389 Z-6.342
N1705 X302.29 Z-6.35
N1710 X301.929
N1715 X286.156 Y322.852
N1720 G3 X280.804 Y317.5 I0. J-5.352
N1725 G1 X280.849 Y288.127
N1730 G2 X280.529 Y287.807 I-0.319 J0.
N1735 G1 X279.083
N1740 G2 X278.763 Y288.127 I0. J0.319
N1745 G1 X278.808 Y317.5
N1750 G3 X273.456 Y322.852 I-5.352 J0.
N1755 G1 X257.682 Y322.842
N1760 X257.657
N1765 X257.558 Z-6.342
N1770 X257.461 Z-6.319
N1775 X257.369 Z-6.281
N1780 X257.284 Z-6.229
N1785 X257.208 Z-6.164
N1790 X257.143 Z-6.088
N1795 X257.091 Z-6.003
N1800 X257.053 Z-5.911
N1805 X257.03 Z-5.814
N1810 X257.022 Z-5.715
N1815 X302.926 Y320.826
N1820 Z-5.779 F333.33
N1825 X302.919 Y320.825 Z-5.868 F2500.
N1830 X302.898 Y320.822 Z-5.955
N1835 X302.864 Y320.816 Z-6.038
N1840 X302.818 Y320.809 Z-6.114
N1845 X302.761 Y320.8 Z-6.183
N1850 X302.693 Y320.789 Z-6.241
N1855 X302.618 Y320.777 Z-6.288
N1860 X302.536 Y320.764 Z-6.322
N1865 X302.45 Y320.751 Z-6.343
N1870 X302.361 Y320.737 Z-6.35
N1875 X302.022 Y320.683
N1880 X301.923 Y320.675
N1885 X286.156
N1890 G3 X282.981 Y317.5 I0. J-3.175
N1895 G1 Y285.675
N1900 X276.631
N1905 Y317.5
N1910 G3 X273.456 Y320.675 I-3.175 J0.
N1915 G1 X260.756
N1920 X257.693
N1925 X257.593 Y320.683
N1930 X257.324 Y320.725
N1935 X257.226 Y320.741 Z-6.342
N1940 X257.13 Y320.756 Z-6.319
N1945 X257.039 Y320.771 Z-6.281
N1950 X256.955 Y320.784 Z-6.229
N1955 X256.88 Y320.796 Z-6.164
N1960 X256.816 Y320.806 Z-6.088
N1965 X256.765 Y320.814 Z-6.003
N1970 X256.727 Y320.82 Z-5.911
N1975 X256.704 Y320.824 Z-5.814
N1980 X256.697 Y320.825 Z-5.715
N1985 G0 Z15.
N1990 X319.383 Y334.277
N1995 Z5.
N2000 G1 Z-2.54 F333.33
N2005 X319.379 Y334.271 Z-2.639 F2500.
N2010 X319.366 Y334.251 Z-2.736
N2015 X319.346 Y334.219 Z-2.828
N2020 X319.317 Y334.175 Z-2.913
N2025 X319.283 Y334.121 Z-2.989
N2030 X319.242 Y334.057 Z-3.054
N2035 X319.196 Y333.985 Z-3.106
N2040 X319.146 Y333.908 Z-3.144
N2045 X319.094 Y333.826 Z-3.167
N2050 X319.04 Y333.743 Z-3.175
N2055 X318.736 Y333.269
N2060 G3 X314.832 Y323.95 I24.57 J-15.769
N2065 G2 X313.688 Y323.259 I-0.905 J0.205
N2070 X313.042 Y324.429 I0.239 J0.896
N2075 G1 X314.516 Y329.204
N2080 G2 X314.667 Y329.496 I0.886 J-0.274
N2085 G1 X317.955 Y333.769
N2090 G2 X318.538 Y334.119 I0.735 J-0.566
N2095 G1 X322.407 Y334.761
N2100 G2 X323.288 Y333.272 I0.152 J-0.915
N2105 G3 X317.821 Y317.5 I20.018 J-15.772
N2110 G1 X317.836 Y314.449
N2115 G2 X316.871 Y313.518 I-0.927 J-0.005
N2120 X315.984 Y314.525 I0.038 J0.927
N2125 G1 X316.848 Y324.482
N2130 G2 X316.984 Y324.892 I0.924 J-0.08
N2135 G1 X322.559 Y333.846
N2140 G2 X323.221 Y334.275 I0.787 J-0.49
N2145 G1 X327.528 Y334.863
N2150 G2 X328.293 Y333.272 I0.126 J-0.919
N2155 G3 X321.531 Y317.5 I15.013 J-15.772
N2160 G1 X321.542 Y314.437
N2165 G2 X320.566 Y313.507 I-0.928 J-0.003
N2170 X319.692 Y314.533 I0.048 J0.926
N2175 G1 X320.801 Y324.797
N2180 G2 X320.987 Y325.262 I0.922 J-0.1
N2185 G1 X327.654 Y333.944
N2190 G2 X328.275 Y334.3 I0.736 J-0.565
N2195 G1 X333.93 Y335.001
N2200 G2 X334.496 Y333.271 I0.114 J-0.92
N2205 G3 X325.241 Y317.5 I8.81 J-15.771
N2210 G1 X325.249 Y314.437
N2215 Y314.412
N2220 X325.25 Y314.312 Z-3.167
N2225 Y314.216 Z-3.144
N2230 Y314.123 Z-3.106
N2235 Y314.039 Z-3.054
N2240 X325.251 Y313.963 Z-2.989
N2245 Y313.898 Z-2.913
N2250 Y313.846 Z-2.828
N2255 Y313.808 Z-2.736
N2260 Y313.785 Z-2.639
N2265 Y313.777 Z-2.54
N2270 G0 Z5.
N2275 X359.623 Y331.843
N2280 G1 Z-2.54 F333.33
N2285 X359.615 Z-2.639 F2500.
N2290 X359.592 Z-2.736
N2295 X359.553 Z-2.828
N2300 X359.501 Z-2.913
N2305 X359.437 Z-2.989
N2310 X359.361 Y331.844 Z-3.054
N2315 X359.276 Z-3.106
N2320 X359.184 Z-3.144
N2325 X359.087 Z-3.167
N2330 X358.988 Z-3.175
N2335 X358.526
N2340 X343.306 Y331.855
N2345 G3 X328.996 Y317.545 I0. J-14.31
N2350 G1 Y297.129
N2355 G2 X328.677 Y296.81 I-0.319 J0.
N2360 G1 X327.54
N2365 X327.515
N2370 G18 G3 X326.88 Z-2.54 I0. K0.635
N2375 G0 Z5.
N2380 X360.077 Y328.134
N2385 G1 Z-2.54 F333.33
N2390 X360.069 Z-2.639 F2500.
N2395 X360.046 Z-2.736
N2400 X360.007 Z-2.828
N2405 X359.955 Z-2.913
N2410 X359.891 Z-2.989
N2415 X359.815 Z-3.054
N2420 X359.73 Z-3.106
N2425 X359.638 Z-3.144
N2430 X359.541 Z-3.167
N2435 X359.442 Z-3.175
N2440 X359.073
N2445 X343.306 Y328.145
N2450 G17 G3 X332.661 Y317.5 I0. J-10.645
N2455 G1 X332.706 Y293.419
N2460 G2 X332.387 Y293.1 I-0.319 J0.
N2465 G1 X327.532
N2470 X327.507
N2475 G18 G3 X326.872 Z-2.54 I0. K0.635
N2480 G0 Z5.
N2485 X360.073 Y324.424
N2490 G1 Z-2.54 F333.33
N2495 X360.065 Z-2.639 F2500.
N2500 X360.042 Z-2.736
N2505 X360.004 Z-2.828
N2510 X359.952 Z-2.913
N2515 X359.887 Z-2.989
N2520 X359.811 Z-3.054
N2525 X359.726 Y324.425 Z-3.106
N2530 X359.634 Z-3.144
N2535 X359.537 Z-3.167
N2540 X359.438 Z-3.175
N2545 X359.078
N2550 X343.306 Y324.435
N2555 G17 G3 X336.371 Y317.5 I0. J-6.935
N2560 G1 X336.416 Y289.709
N2565 G2 X336.097 Y289.39 I-0.319 J0.
N2570 G1 X327.536
N2575 X327.511
N2580 G18 G3 X326.876 Z-2.54 I0. K0.635
N2585 G0 Z5.
N2590 X360.076 Y320.826
N2595 G1 Z-2.603 F333.33
N2600 X360.069 Y320.825 Z-2.693 F2500.
N2605 X360.048 Y320.822 Z-2.78
N2610 X360.014 Y320.816 Z-2.863
N2615 X359.968 Y320.809 Z-2.939
N2620 X359.911 Y320.8 Z-3.008
N2625 X359.843 Y320.789 Z-3.066
N2630 X359.768 Y320.777 Z-3.113
N2635 X359.686 Y320.764 Z-3.147
N2640 X359.6 Y320.751 Z-3.168
N2645 X359.511 Y320.737 Z-3.175
N2650 X359.172 Y320.683
N2655 X359.073 Y320.675
N2660 X343.306
N2665 G17 G3 X340.131 Y317.5 I0. J-3.175
N2670 G1 Y285.675
N2675 X330.606
N2680 X327.543
N2685 X327.443 Y285.683
N2690 X327.174 Y285.725
N2695 X327.076 Y285.741 Z-3.167
N2700 X326.98 Y285.756 Z-3.144
N2705 X326.889 Y285.771 Z-3.106
N2710 X326.805 Y285.784 Z-3.054
N2715 X326.73 Y285.796 Z-2.989
N2720 X326.666 Y285.806 Z-2.913
N2725 X326.615 Y285.814 Z-2.828
N2730 X326.577 Y285.82 Z-2.736
N2735 X326.554 Y285.824 Z-2.639
N2740 X326.547 Y285.825 Z-2.54
N2745 X319.383 Y334.277
N2750 Z-5.715 F333.33
N2755 X319.379 Y334.271 Z-5.814 F2500.
N2760 X319.366 Y334.251 Z-5.911
N2765 X319.346 Y334.219 Z-6.003
N2770 X319.317 Y334.175 Z-6.088
N2775 X319.283 Y334.121 Z-6.164
N2780 X319.242 Y334.057 Z-6.229
N2785 X319.196 Y333.985 Z-6.281
N2790 X319.146 Y333.908 Z-6.319
N2795 X319.094 Y333.826 Z-6.342
N2800 X319.04 Y333.743 Z-6.35
N2805 X318.736 Y333.269
N2810 G3 X314.832 Y323.95 I24.57 J-15.769
N2815 G2 X313.688 Y323.259 I-0.905 J0.205
N2820 X313.042 Y324.429 I0.239 J0.896
N2825 G1 X314.516 Y329.204
N2830 G2 X314.667 Y329.496 I0.886 J-0.274
N2835 G1 X317.955 Y333.769
N2840 G2 X318.538 Y334.119 I0.735 J-0.566
N2845 G1 X322.407 Y334.761
N2850 G2 X323.288 Y333.272 I0.152 J-0.915
N2855 G3 X317.821 Y317.5 I20.018 J-15.772
N2860 G1 X317.836 Y314.449
N2865 G2 X316.871 Y313.518 I-0.927 J-0.005
N2870 X315.984 Y314.525 I0.038 J0.927
N2875 G1 X316.848 Y324.482
N2880 G2 X316.984 Y324.892 I0.924 J-0.08
N2885 G1 X322.559 Y333.846
N2890 G2 X323.221 Y334.275 I0.787 J-0.49
N2895 G1 X327.528 Y334.863
N2900 G2 X328.293 Y333.272 I0.126 J-0.919
N2905 G3 X321.531 Y317.5 I15.013 J-15.772
N2910 G1 X321.542 Y314.437
N2915 G2 X320.566 Y313.507 I-0.928 J-0.003
N2920 X319.692 Y314.533 I0.048 J0.926
N2925 G1 X320.801 Y324.797
N2930 G2 X320.987 Y325.262 I0.922 J-0.1
N2935 G1 X327.654 Y333.944
N2940 G2 X328.275 Y334.3 I0.736 J-0.565
N2945 G1 X333.93 Y335.001
N2950 G2 X334.496 Y333.271 I0.114 J-0.92
N2955 G3 X325.241 Y317.5 I8.81 J-15.771
N2960 G1 X325.249 Y314.437
N2965 Y314.412
N2970 X325.25 Y314.312 Z-6.342
N2975 Y314.216 Z-6.319
N2980 Y314.123 Z-6.281
N2985 Y314.039 Z-6.229
N2990 X325.251 Y313.963 Z-6.164
N2995 Y313.898 Z-6.088
N3000 Y313.846 Z-6.003
N3005 Y313.808 Z-5.911
N3010 Y313.785 Z-5.814
N3015 Y313.777 Z-5.715
N3020 G0 Z5.
N3025 X359.623 Y331.843
N3030 G1 Z-5.715 F333.33
N3035 X359.615 Z-5.814 F2500.
N3040 X359.592 Z-5.911
N3045 X359.553 Z-6.003
N3050 X359.501 Z-6.088
N3055 X359.437 Z-6.164
N3060 X359.361 Y331.844 Z-6.229
N3065 X359.276 Z-6.281
N3070 X359.184 Z-6.319
N3075 X359.087 Z-6.342
N3080 X358.988 Z-6.35
N3085 X358.526
N3090 X343.306 Y331.855
N3095 G3 X328.996 Y317.545 I0. J-14.31
N3100 G1 Y297.129
N3105 G2 X328.677 Y296.81 I-0.319 J0.
N3110 G1 X327.54
N3115 X327.515
N3120 G18 G3 X326.88 Z-5.715 I0. K0.635
N3125 G0 Z5.
N3130 X360.077 Y328.134
N3135 G1 Z-5.715 F333.33
N3140 X360.069 Z-5.814 F2500.
N3145 X360.046 Z-5.911
N3150 X360.007 Z-6.003
N3155 X359.955 Z-6.088
N3160 X359.891 Z-6.164
N3165 X359.815 Z-6.229
N3170 X359.73 Z-6.281
N3175 X359.638 Z-6.319
N3180 X359.541 Z-6.342
N3185 X359.442 Z-6.35
N3190 X359.073
N3195 X343.306 Y328.145
N3200 G17 G3 X332.661 Y317.5 I0. J-10.645
N3205 G1 X332.706 Y293.419
N3210 G2 X332.387 Y293.1 I-0.319 J0.
N3215 G1 X327.532
N3220 X327.507
N3225 G18 G3 X326.872 Z-5.715 I0. K0.635
N3230 G0 Z5.
N3235 X360.073 Y324.424
N3240 G1 Z-5.715 F333.33
N3245 X360.065 Z-5.814 F2500.
N3250 X360.042 Z-5.911
N3255 X360.004 Z-6.003
N3260 X359.952 Z-6.088
N3265 X359.887 Z-6.164
N3270 X359.811 Z-6.229
N3275 X359.726 Y324.425 Z-6.281
N3280 X359.634 Z-6.319
N3285 X359.537 Z-6.342
N3290 X359.438 Z-6.35
N3295 X359.078
N3300 X343.306 Y324.435
N3305 G17 G3 X336.371 Y317.5 I0. J-6.935
N3310 G1 X336.416 Y289.709
N3315 G2 X336.097 Y289.39 I-0.319 J0.
N3320 G1 X327.536
N3325 X327.511
N3330 G18 G3 X326.876 Z-5.715 I0. K0.635
N3335 G0 Z5.
N3340 X360.076 Y320.826
N3345 G1 Z-5.779 F333.33
N3350 X360.069 Y320.825 Z-5.868 F2500.
N3355 X360.048 Y320.822 Z-5.955
N3360 X360.014 Y320.816 Z-6.038
N3365 X359.968 Y320.809 Z-6.114
N3370 X359.911 Y320.8 Z-6.183
N3375 X359.843 Y320.789 Z-6.241
N3380 X359.768 Y320.777 Z-6.288
N3385 X359.686 Y320.764 Z-6.322
N3390 X359.6 Y320.751 Z-6.343
N3395 X359.511 Y320.737 Z-6.35
N3400 X359.172 Y320.683
N3405 X359.073 Y320.675
N3410 X343.306
N3415 G17 G3 X340.131 Y317.5 I0. J-3.175
N3420 G1 Y285.675
N3425 X330.606
N3430 X327.543
N3435 X327.443 Y285.683
N3440 X327.174 Y285.725
N3445 X327.076 Y285.741 Z-6.342
N3450 X326.98 Y285.756 Z-6.319
N3455 X326.889 Y285.771 Z-6.281
N3460 X326.805 Y285.784 Z-6.229
N3465 X326.73 Y285.796 Z-6.164
N3470 X326.666 Y285.806 Z-6.088
N3475 X326.615 Y285.814 Z-6.003
N3480 X326.577 Y285.82 Z-5.911
N3485 X326.554 Y285.824 Z-5.814
N3490 X326.547 Y285.825 Z-5.715
N3495 G0 Z15.
N3500 X314.677 Y32.337
N3505 Z5.
N3510 G1 Z1. F333.33
N3515 Z-2.54 F2500.
N3520 X314.679 Y32.33 Z-2.639
N3525 X314.684 Y32.307 Z-2.736
N3530 X314.692 Y32.27 Z-2.828
N3535 X314.704 Y32.219 Z-2.913
N3540 X314.718 Y32.156 Z-2.989
N3545 X314.735 Y32.082 Z-3.054
N3550 X314.753 Y31.999 Z-3.106
N3555 X314.774 Y31.909 Z-3.144
N3560 X314.795 Y31.815 Z-3.167
N3565 X314.817 Y31.718 Z-3.175
N3570 X314.831 Y31.656
N3575 G3 X318.739 Y22.326 I28.475 J6.444
N3580 G2 X318.429 Y21.026 I-0.78 J-0.501
N3585 X317.142 Y21.386 I-0.471 J0.799
N3590 G1 X314.769 Y25.791
N3595 G2 X314.667 Y26.104 I0.817 J0.44
N3600 G1 X313.926 Y31.451
N3605 G2 X313.938 Y31.774 I0.919 J0.127
N3610 G1 X316.002 Y41.352
N3615 G2 X317.836 Y41.152 I0.907 J-0.195
N3620 G1 X317.821 Y38.1
N3625 G3 X323.29 Y22.325 I25.485 J0.
N3630 G2 X323.064 Y20.972 I-0.728 J-0.574
N3635 X321.738 Y21.324 I-0.503 J0.779
N3640 G1 X317.089 Y30.286
N3645 G2 X316.985 Y30.706 I0.823 J0.427
N3650 G1 X316.908 Y41.157
N3655 G2 X317.833 Y42.091 I0.927 J0.007
N3660 G1 X320.611 Y42.099
N3665 G2 X321.542 Y41.169 I0.003 J-0.927
N3670 G1 X321.531 Y38.1
N3675 G3 X328.293 Y22.327 I21.775 J0.
N3680 G2 X328.249 Y20.944 I-0.639 J-0.672
N3685 X326.879 Y21.145 I-0.595 J0.712
N3690 G1 X321.139 Y29.862
N3695 G2 X320.986 Y30.341 I0.775 J0.51
N3700 G1 X320.614 Y41.172
N3705 G2 X321.551 Y42.131 I0.927 J0.032
N3710 G1 X324.331 Y42.103
N3715 G2 X325.249 Y41.173 I-0.009 J-0.927
N3720 G1 X325.241 Y38.1
N3725 G3 X334.494 Y22.33 I18.065 J0.
N3730 G1 X334.516 Y22.318
N3735 X334.602 Y22.269 Z-3.167
N3740 X334.687 Y22.222 Z-3.144
N3745 X334.767 Y22.177 Z-3.106
N3750 X334.842 Y22.136 Z-3.054
N3755 X334.908 Y22.099 Z-2.989
N3760 X334.964 Y22.067 Z-2.913
N3765 X335.01 Y22.042 Z-2.828
N3770 X335.043 Y22.023 Z-2.736
N3775 X335.063 Y22.012 Z-2.639
N3780 X335.07 Y22.008 Z-2.54
N3785 G0 Z5.
N3790 X326.524 Y58.79
N3795 G1 Z-2.54 F333.33
N3800 G18 G2 X327.159 Z-3.175 I0.635 K0. F2500.
N3805 G1 X327.542
N3810 X328.677
N3815 G17 G2 X328.996 Y58.471 I0. J-0.319
N3820 G1 Y38.055
N3825 G3 X343.306 Y23.745 I14.31 J0.
N3830 G1 X358.524 Y23.756
N3835 X358.549
N3840 X358.649 Z-3.167
N3845 X358.745 Z-3.144
N3850 X358.838 Z-3.106
N3855 X358.923 Z-3.054
N3860 X358.998 Z-2.989
N3865 X359.063 Z-2.913
N3870 X359.115 Z-2.828
N3875 X359.153 Z-2.736
N3880 X359.176 Z-2.639
N3885 X359.184 Z-2.54
N3890 G0 Z5.
N3895 X326.527 Y62.5
N3900 G1 Z-2.54 F333.33
N3905 G18 G2 X327.162 Z-3.175 I0.635 K0. F2500.
N3910 G1 X327.538
N3915 X332.387
N3920 G17 G2 X332.706 Y62.181 I0. J-0.319
N3925 G1 X332.661 Y38.1
N3930 G3 X343.306 Y27.455 I10.645 J0.
N3935 G1 X359.08 Y27.466
N3940 X359.105
N3945 X359.204 Z-3.167
N3950 X359.301 Z-3.144
N3955 X359.393 Z-3.106
N3960 X359.478 Z-3.054
N3965 X359.554 Z-2.989
N3970 X359.619 Z-2.913
N3975 X359.671 Z-2.828
N3980 X359.709 Z-2.736
N3985 X359.732 Z-2.639
N3990 X359.74 Z-2.54
N3995 G0 Z5.
N4000 X326.531 Y66.21
N4005 G1 Z-2.54 F333.33
N4010 G18 G2 X327.166 Z-3.175 I0.635 K0. F2500.
N4015 G1 X327.534
N4020 X336.097
N4025 G17 G2 X336.416 Y65.891 I0. J-0.319
N4030 G1 X336.371 Y38.1
N4035 G3 X343.306 Y31.165 I6.935 J0.
N4040 G1 X359.08 Y31.175
N4045 X359.105
N4050 X359.204 Z-3.167
N4055 X359.301 Z-3.144
N4060 X359.393 Z-3.106
N4065 X359.478 Z-3.054
N4070 X359.554 Z-2.989
N4075 X359.619 Z-2.913
N4080 X359.671 Z-2.828
N4085 X359.709 Z-2.736
N4090 X359.732 Y31.176 Z-2.639
N4095 X359.74 Z-2.54
N4100 G0 Z5.
N4105 X326.528 Y69.773
N4110 G1 Z-2.603 F333.33
N4115 X326.535 Y69.774 Z-2.693 F2500.
N4120 X326.555 Y69.777 Z-2.78
N4125 X326.589 Y69.783 Z-2.863
N4130 X326.636 Y69.79 Z-2.939
N4135 X326.693 Y69.799 Z-3.008
N4140 X326.761 Y69.81 Z-3.066
N4145 X326.836 Y69.822 Z-3.113
N4150 X326.918 Y69.835 Z-3.147
N4155 X327.004 Y69.848 Z-3.168
N4160 X327.092 Y69.862 Z-3.175
N4165 X327.44 Y69.917
N4170 X327.539 Y69.925
N4175 X340.131
N4180 Y38.1
N4185 G3 X343.306 Y34.925 I3.175 J0.
N4190 G1 X356.006
N4195 X359.069
N4200 G2 X359.076 Y34.29 I0. J-0.318
N4205 G1 X314.847 Y33.311
N4210 G3 X314.544 Y32.924 I0.007 J-0.317
N4215 G1 X314.566 Y32.827 Z-3.183
N4220 X314.587 Y32.732 Z-3.206
N4225 X314.608 Y32.643 Z-3.244
N4230 X314.627 Y32.56 Z-3.296
N4235 X314.643 Y32.486 Z-3.361
N4240 X314.658 Y32.423 Z-3.437
N4245 X314.669 Y32.372 Z-3.522
N4250 X314.677 Y32.335 Z-3.614
N4255 X314.683 Y32.312 Z-3.711
N4260 X314.684 Y32.304 Z-3.81
N4265 Z-5.715
N4270 X314.686 Y32.297 Z-5.814
N4275 X314.691 Y32.274 Z-5.911
N4280 X314.7 Y32.237 Z-6.003
N4285 X314.711 Y32.186 Z-6.088
N4290 X314.725 Y32.123 Z-6.164
N4295 X314.742 Y32.049 Z-6.229
N4300 X314.761 Y31.966 Z-6.281
N4305 X314.781 Y31.876 Z-6.319
N4310 X314.803 Y31.782 Z-6.342
N4315 X314.824 Y31.685 Z-6.35
N4320 X314.831 Y31.656
N4325 G3 X318.739 Y22.326 I28.475 J6.444
N4330 G2 X318.429 Y21.026 I-0.78 J-0.501
N4335 X317.142 Y21.386 I-0.471 J0.799
N4340 G1 X314.769 Y25.791
N4345 G2 X314.667 Y26.104 I0.817 J0.44
N4350 G1 X313.926 Y31.451
N4355 G2 X313.938 Y31.774 I0.919 J0.127
N4360 G1 X316.002 Y41.352
N4365 G2 X317.836 Y41.152 I0.907 J-0.195
N4370 G1 X317.821 Y38.1
N4375 G3 X323.29 Y22.325 I25.485 J0.
N4380 G2 X323.064 Y20.972 I-0.728 J-0.574
N4385 X321.738 Y21.324 I-0.503 J0.779
N4390 G1 X317.089 Y30.286
N4395 G2 X316.985 Y30.706 I0.823 J0.427
N4400 G1 X316.908 Y41.157
N4405 G2 X317.833 Y42.091 I0.927 J0.007
N4410 G1 X320.611 Y42.099
N4415 G2 X321.542 Y41.169 I0.003 J-0.927
N4420 G1 X321.531 Y38.1
N4425 G3 X328.293 Y22.327 I21.775 J0.
N4430 G2 X328.249 Y20.944 I-0.639 J-0.672
N4435 X326.879 Y21.145 I-0.595 J0.712
N4440 G1 X321.139 Y29.862
N4445 G2 X320.986 Y30.341 I0.775 J0.51
N4450 G1 X320.614 Y41.172
N4455 G2 X321.551 Y42.131 I0.927 J0.032
N4460 G1 X324.331 Y42.103
N4465 G2 X325.249 Y41.173 I-0.009 J-0.927
N4470 G1 X325.241 Y38.1
N4475 G3 X334.494 Y22.33 I18.065 J0.
N4480 G1 X334.516 Y22.318
N4485 X334.602 Y22.269 Z-6.342
N4490 X334.687 Y22.222 Z-6.319
N4495 X334.767 Y22.177 Z-6.281
N4500 X334.842 Y22.136 Z-6.229
N4505 X334.908 Y22.099 Z-6.164
N4510 X334.964 Y22.067 Z-6.088
N4515 X335.01 Y22.042 Z-6.003
N4520 X335.043 Y22.023 Z-5.911
N4525 X335.063 Y22.012 Z-5.814
N4530 X335.07 Y22.008 Z-5.715
N4535 G0 Z5.
N4540 X326.524 Y58.79
N4545 G1 Z-5.715 F333.33
N4550 G18 G2 X327.159 Z-6.35 I0.635 K0. F2500.
N4555 G1 X327.542
N4560 X328.677
N4565 G17 G2 X328.996 Y58.471 I0. J-0.319
N4570 G1 Y38.055
N4575 G3 X343.306 Y23.745 I14.31 J0.
N4580 G1 X358.524 Y23.756
N4585 X358.549
N4590 X358.649 Z-6.342
N4595 X358.745 Z-6.319
N4600 X358.838 Z-6.281
N4605 X358.923 Z-6.229
N4610 X358.998 Z-6.164
N4615 X359.063 Z-6.088
N4620 X359.115 Z-6.003
N4625 X359.153 Z-5.911
N4630 X359.176 Z-5.814
N4635 X359.184 Z-5.715
N4640 G0 Z5.
N4645 X326.527 Y62.5
N4650 G1 Z-5.715 F333.33
N4655 G18 G2 X327.162 Z-6.35 I0.635 K0. F2500.
N4660 G1 X327.538
N4665 X332.387
N4670 G17 G2 X332.706 Y62.181 I0. J-0.319
N4675 G1 X332.661 Y38.1
N4680 G3 X343.306 Y27.455 I10.645 J0.
N4685 G1 X359.08 Y27.466
N4690 X359.105
N4695 X359.204 Z-6.342
N4700 X359.301 Z-6.319
N4705 X359.393 Z-6.281
N4710 X359.478 Z-6.229
N4715 X359.554 Z-6.164
N4720 X359.619 Z-6.088
N4725 X359.671 Z-6.003
N4730 X359.709 Z-5.911
N4735 X359.732 Z-5.814
N4740 X359.74 Z-5.715
N4745 G0 Z5.
N4750 X326.531 Y66.21
N4755 G1 Z-5.715 F333.33
N4760 G18 G2 X327.166 Z-6.35 I0.635 K0. F2500.
N4765 G1 X327.534
N4770 X336.097
N4775 G17 G2 X336.416 Y65.891 I0. J-0.319
N4780 G1 X336.371 Y38.1
N4785 G3 X343.306 Y31.165 I6.935 J0.
N4790 G1 X359.08 Y31.175
N4795 X359.105
N4800 X359.204 Z-6.342
N4805 X359.301 Z-6.319
N4810 X359.393 Z-6.281
N4815 X359.478 Z-6.229
N4820 X359.554 Z-6.164
N4825 X359.619 Z-6.088
N4830 X359.671 Z-6.003
N4835 X359.709 Z-5.911
N4840 X359.732 Y31.176 Z-5.814
N4845 X359.74 Z-5.715
N4850 G0 Z5.
N4855 X326.528 Y69.773
N4860 G1 Z-5.779 F333.33
N4865 X326.535 Y69.774 Z-5.868 F2500.
N4870 X326.555 Y69.777 Z-5.955
N4875 X326.589 Y69.783 Z-6.038
N4880 X326.636 Y69.79 Z-6.114
N4885 X326.693 Y69.799 Z-6.183
N4890 X326.761 Y69.81 Z-6.241
N4895 X326.836 Y69.822 Z-6.288
N4900 X326.918 Y69.835 Z-6.322
N4905 X327.004 Y69.848 Z-6.343
N4910 X327.092 Y69.862 Z-6.35
N4915 X327.44 Y69.917
N4920 X327.539 Y69.925
N4925 X340.131
N4930 Y38.1
N4935 G3 X343.306 Y34.925 I3.175 J0.
N4940 G1 X356.006
N4945 X359.069
N4950 X359.169 Y34.917
N4955 X359.438 Y34.875
N4960 X359.536 Y34.859 Z-6.342
N4965 X359.632 Y34.844 Z-6.319
N4970 X359.723 Y34.829 Z-6.281
N4975 X359.807 Y34.816 Z-6.229
N4980 X359.882 Y34.804 Z-6.164
N4985 X359.946 Y34.794 Z-6.088
N4990 X359.997 Y34.786 Z-6.003
N4995 X360.035 Y34.78 Z-5.911
N5000 X360.058 Y34.776 Z-5.814
N5005 X360.065 Y34.775 Z-5.715
N5010 G0 Z15.
N5015 X277.429 Y22.125
N5020 Z5.
N5025 G1 Z1. F333.33
N5030 Z-2.54 F2500.
N5035 X277.436 Y22.127 Z-2.639
N5040 X277.458 Y22.134 Z-2.736
N5045 X277.495 Y22.145 Z-2.828
N5050 X277.545 Y22.16 Z-2.913
N5055 X277.607 Y22.178 Z-2.989
N5060 X277.679 Y22.2 Z-3.054
N5065 X277.761 Y22.225 Z-3.106
N5070 X277.849 Y22.251 Z-3.144
N5075 X277.942 Y22.279 Z-3.167
N5080 X278.037 Y22.308 Z-3.175
N5085 X278.097 Y22.326
N5090 G3 X279.331 Y22.747 I-5.166 J17.146
N5095 G2 X280.281 I0.475 J-1.241
N5100 G3 X281.508 Y22.328 I6.4 J16.725
N5105 G2 X281.377 Y21.709 I-0.092 J-0.304
N5110 G1 X257.666 Y24.705
N5115 G2 X257.705 Y25.338 I0.04 J0.315
N5120 G1 X257.706
N5125 X273.456 Y25.327
N5130 G3 X276.547 Y25.73 I0. J12.061
N5135 X279.449 Y26.871 I-3.467 J13.074
N5140 G2 X280.163 I0.357 J-0.669
N5145 G3 X283.065 Y25.73 I6.368 J11.933
N5150 X286.156 Y25.327 I3.091 J11.658
N5155 G1 X301.918 Y25.338
N5160 X301.943
N5165 X302.042 Z-3.167
N5170 X302.139 Z-3.144
N5175 X302.231 Z-3.106
N5180 X302.316 Z-3.054
N5185 X302.392 Z-2.989
N5190 X302.457 Z-2.913
N5195 X302.509 Z-2.828
N5200 X302.547 Z-2.736
N5205 X302.57 Z-2.639
N5210 X302.578 Z-2.54
N5215 X256.679 Y29.049
N5220 X256.687 Z-2.639
N5225 X256.71 Z-2.736
N5230 X256.749 Z-2.828
N5235 X256.801 Z-2.913
N5240 X256.865 Y29.048 Z-2.989
N5245 X256.941 Z-3.054
N5250 X257.026 Z-3.106
N5255 X257.118 Z-3.144
N5260 X257.215 Z-3.167
N5265 X257.314 Z-3.175
N5270 X257.682
N5275 X273.456 Y29.038
N5280 G3 X276.748 Y29.68 I0. J8.752
N5285 X279.579 Y31.479 I-3.517 J8.662
N5290 G2 X280.033 I0.227 J-0.245
N5295 G3 X282.864 Y29.68 I6.348 J6.864
N5300 X286.156 Y29.038 I3.292 J8.109
N5305 G1 X301.93 Y29.048
N5310 X301.955
N5315 X302.054 Z-3.167
N5320 X302.151 Z-3.144
N5325 X302.243 Z-3.106
N5330 X302.328 Z-3.054
N5335 X302.404 Z-2.989
N5340 X302.469 Z-2.913
N5345 X302.521 Z-2.828
N5350 X302.559 Z-2.736
N5355 X302.582 Z-2.639
N5360 X302.59 Z-2.54
N5365 X256.681 Y32.758
N5370 X256.688 Z-2.639
N5375 X256.712 Z-2.736
N5380 X256.75 Z-2.828
N5385 X256.802 Z-2.913
N5390 X256.867 Z-2.989
N5395 X256.942 Z-3.054
N5400 X257.027 Z-3.106
N5405 X257.119 Z-3.144
N5410 X257.216 Z-3.167
N5415 X257.316 Z-3.175
N5420 X257.684
N5425 X273.456 Y32.748
N5430 G3 X278.808 Y38.1 I0. J5.352
N5435 G1 X278.763 Y67.473
N5440 G2 X279.083 Y67.793 I0.319 J0.
N5445 G1 X280.529
N5450 G2 X280.849 Y67.473 I0. J-0.319
N5455 G1 X280.804 Y38.1
N5460 G3 X286.156 Y32.748 I5.352 J0.
N5465 G1 X301.93 Y32.758
N5470 X301.955
N5475 X302.054 Z-3.167
N5480 X302.151 Z-3.144
N5485 X302.243 Z-3.106
N5490 X302.328 Z-3.054
N5495 X302.404 Z-2.989
N5500 X302.469 Z-2.913
N5505 X302.521 Z-2.828
N5510 X302.559 Z-2.736
N5515 X302.582 Z-2.639
N5520 X302.59 Z-2.54
N5525 X256.679 Y34.773
N5530 Z-2.603 F333.33
N5535 X256.686 Y34.774 Z-2.693 F2500.
N5540 X256.707 Y34.777 Z-2.78
N5545 X256.741 Y34.783 Z-2.863
N5550 X256.787 Y34.79 Z-2.939
N5555 X256.845 Y34.799 Z-3.008
N5560 X256.912 Y34.81 Z-3.066
N5565 X256.988 Y34.822 Z-3.113
N5570 X257.069 Y34.835 Z-3.147
N5575 X257.156 Y34.848 Z-3.168
N5580 X257.244 Y34.862 Z-3.175
N5585 X257.591 Y34.917
N5590 X257.69 Y34.925
N5595 X273.456
N5600 G3 X276.631 Y38.1 I0. J3.175
N5605 G1 Y69.925
N5610 X282.981
N5615 Y38.1
N5620 G3 X286.156 Y34.925 I3.175 J0.
N5625 G1 X298.856
N5630 X301.919
N5635 G2 X302.053 Y34.319 I0. J-0.318
N5640 G1 X276.628 Y22.543
N5645 G3 X276.853 Y21.951 I0.133 J-0.288
N5650 G1 X276.948 Y21.98 Z-3.183
N5655 X277.041 Y22.008 Z-3.206
N5660 X277.129 Y22.034 Z-3.244
N5665 X277.21 Y22.059 Z-3.296
N5670 X277.283 Y22.081 Z-3.361
N5675 X277.345 Y22.099 Z-3.437
N5680 X277.395 Y22.114 Z-3.522
N5685 X277.431 Y22.125 Z-3.614
N5690 X277.453 Y22.132 Z-3.711
N5695 X277.461 Y22.134 Z-3.81
N5700 Z-5.715
N5705 X277.468 Y22.137 Z-5.814
N5710 X277.491 Y22.143 Z-5.911
N5715 X277.527 Y22.154 Z-6.003
N5720 X277.577 Y22.169 Z-6.088
N5725 X277.639 Y22.188 Z-6.164
N5730 X277.712 Y22.21 Z-6.229
N5735 X277.793 Y22.234 Z-6.281
N5740 X277.881 Y22.261 Z-6.319
N5745 X277.974 Y22.289 Z-6.342
N5750 X278.069 Y22.318 Z-6.35
N5755 X278.097 Y22.326
N5760 G3 X279.331 Y22.747 I-5.166 J17.146
N5765 G2 X280.281 I0.475 J-1.241
N5770 G3 X281.508 Y22.328 I6.4 J16.725
N5775 G2 X281.377 Y21.709 I-0.092 J-0.304
N5780 G1 X257.666 Y24.705
N5785 G2 X257.705 Y25.338 I0.04 J0.315
N5790 G1 X257.706
N5795 X273.456 Y25.327
N5800 G3 X276.547 Y25.73 I0. J12.061
N5805 X279.449 Y26.871 I-3.467 J13.074
N5810 G2 X280.163 I0.357 J-0.669
N5815 G3 X283.065 Y25.73 I6.368 J11.933
N5820 X286.156 Y25.327 I3.091 J11.658
N5825 G1 X301.918 Y25.338
N5830 X301.943
N5835 X302.042 Z-6.342
N5840 X302.139 Z-6.319
N5845 X302.231 Z-6.281
N5850 X302.316 Z-6.229
N5855 X302.392 Z-6.164
N5860 X302.457 Z-6.088
N5865 X302.509 Z-6.003
N5870 X302.547 Z-5.911
N5875 X302.57 Z-5.814
N5880 X302.578 Z-5.715
N5885 X256.679 Y29.049
N5890 X256.687 Z-5.814
N5895 X256.71 Z-5.911
N5900 X256.749 Z-6.003
N5905 X256.801 Z-6.088
N5910 X256.865 Y29.048 Z-6.164
N5915 X256.941 Z-6.229
N5920 X257.026 Z-6.281
N5925 X257.118 Z-6.319
N5930 X257.215 Z-6.342
N5935 X257.314 Z-6.35
N5940 X257.682
N5945 X273.456 Y29.038
N5950 G3 X276.748 Y29.68 I0. J8.752
N5955 X279.579 Y31.479 I-3.517 J8.662
N5960 G2 X280.033 I0.227 J-0.245
N5965 G3 X282.864 Y29.68 I6.348 J6.864
N5970 X286.156 Y29.038 I3.292 J8.109
N5975 G1 X301.93 Y29.048
N5980 X301.955
N5985 X302.054 Z-6.342
N5990 X302.151 Z-6.319
N5995 X302.243 Z-6.281
N6000 X302.328 Z-6.229
N6005 X302.404 Z-6.164
N6010 X302.469 Z-6.088
N6015 X302.521 Z-6.003
N6020 X302.559 Z-5.911
N6025 X302.582 Z-5.814
N6030 X302.59 Z-5.715
N6035 X256.681 Y32.758
N6040 X256.688 Z-5.814
N6045 X256.712 Z-5.911
N6050 X256.75 Z-6.003
N6055 X256.802 Z-6.088
N6060 X256.867 Z-6.164
N6065 X256.942 Z-6.229
N6070 X257.027 Z-6.281
N6075 X257.119 Z-6.319
N6080 X257.216 Z-6.342
N6085 X257.316 Z-6.35
N6090 X257.684
N6095 X273.456 Y32.748
N6100 G3 X278.808 Y38.1 I0. J5.352
N6105 G1 X278.763 Y67.473
N6110 G2 X279.083 Y67.793 I0.319 J0.
N6115 G1 X280.529
N6120 G2 X280.849 Y67.473 I0. J-0.319
N6125 G1 X280.804 Y38.1
N6130 G3 X286.156 Y32.748 I5.352 J0.
N6135 G1 X301.93 Y32.758
N6140 X301.955
N6145 X302.054 Z-6.342
N6150 X302.151 Z-6.319
N6155 X302.243 Z-6.281
N6160 X302.328 Z-6.229
N6165 X302.404 Z-6.164
N6170 X302.469 Z-6.088
N6175 X302.521 Z-6.003
N6180 X302.559 Z-5.911
N6185 X302.582 Z-5.814
N6190 X302.59 Z-5.715
N6195 X256.679 Y34.773
N6200 Z-5.779 F333.33
N6205 X256.686 Y34.774 Z-5.868 F2500.
N6210 X256.707 Y34.777 Z-5.955
N6215 X256.741 Y34.783 Z-6.038
N6220 X256.787 Y34.79 Z-6.114
N6225 X256.845 Y34.799 Z-6.183
N6230 X256.912 Y34.81 Z-6.241
N6235 X256.988 Y34.822 Z-6.288
N6240 X257.069 Y34.835 Z-6.322
N6245 X257.156 Y34.848 Z-6.343
N6250 X257.244 Y34.862 Z-6.35
N6255 X257.591 Y34.917
N6260 X257.69 Y34.925
N6265 X273.456
N6270 G3 X276.631 Y38.1 I0. J3.175
N6275 G1 Y69.925
N6280 X282.981
N6285 Y38.1
N6290 G3 X286.156 Y34.925 I3.175 J0.
N6295 G1 X298.856
N6300 X301.919
N6305 X302.019 Y34.917
N6310 X302.288 Y34.875
N6315 X302.386 Y34.859 Z-6.342
N6320 X302.482 Y34.844 Z-6.319
N6325 X302.573 Y34.829 Z-6.281
N6330 X302.657 Y34.816 Z-6.229
N6335 X302.732 Y34.804 Z-6.164
N6340 X302.796 Y34.794 Z-6.088
N6345 X302.847 Y34.786 Z-6.003
N6350 X302.885 Y34.78 Z-5.911
N6355 X302.908 Y34.776 Z-5.814
N6360 X302.915 Y34.775 Z-5.715
N6365 G0 Z15.
(2D CONTOUR1)
N6370 G0 X20.32 Y19.685
N6375 Z15.
N6380 Z5.
N6385 G1 Z1. F333.33
N6390 Z-3.365
N6395 G18 G2 X20.955 Z-4. I0.635 K0. F2500.
N6400 G1 X21.59
N6405 G17 G2 X22.225 Y19.05 I0. J-0.635
N6410 G3 X25.4 Y15.875 I3.175 J0.
N6415 G1 X63.5
N6420 G3 X66.675 Y19.05 I0. J3.175
N6425 G1 Y565.15
N6430 G3 X63.5 Y568.325 I-3.175 J0.
N6435 G1 X25.4
N6440 G3 X22.225 Y565.15 I0. J-3.175
N6445 G1 Y19.05
N6450 G2 X21.59 Y18.415 I-0.635 J0.
N6455 G1 X20.955
N6460 G18 G3 X20.32 Z-3.365 I0. K0.635
N6465 G1 Y19.685
N6470 Z-7.365 F333.33
N6475 G2 X20.955 Z-8. I0.635 K0. F2500.
N6480 G1 X21.59
N6485 G17 G2 X22.225 Y19.05 I0. J-0.635
N6490 G3 X25.4 Y15.875 I3.175 J0.
N6495 G1 X63.5
N6500 G3 X66.675 Y19.05 I0. J3.175
N6505 G1 Y565.15
N6510 G3 X63.5 Y568.325 I-3.175 J0.
N6515 G1 X25.4
N6520 G3 X22.225 Y565.15 I0. J-3.175
N6525 G1 Y19.05
N6530 G2 X21.59 Y18.415 I-0.635 J0.
N6535 G1 X20.955
N6540 G18 G3 X20.32 Z-7.365 I0. K0.635
N6545 G1 Y19.685
N6550 Z-9.715 F333.33
N6555 G2 X20.955 Z-10.35 I0.635 K0. F2500.
N6560 G1 X21.59
N6565 G17 G2 X22.225 Y19.05 I0. J-0.635
N6570 G3 X25.4 Y15.875 I3.175 J0.
N6575 G1 X63.5
N6580 G3 X66.675 Y19.05 I0. J3.175
N6585 G1 Y565.15
N6590 G3 X63.5 Y568.325 I-3.175 J0.
N6595 G1 X25.4
N6600 G3 X22.225 Y565.15 I0. J-3.175
N6605 G1 Y19.05
N6610 G2 X21.59 Y18.415 I-0.635 J0.
N6615 G1 X20.955
N6620 G18 G3 X20.32 Z-9.715 I0. K0.635
N6625 G1 Y19.685
N6630 Z-12.065 F333.33
N6635 G2 X20.955 Z-12.7 I0.635 K0. F2500.
N6640 G1 X21.59
N6645 G17 G2 X22.225 Y19.05 I0. J-0.635
N6650 G3 X25.4 Y15.875 I3.175 J0.
N6655 G1 X38.965
N6660 Z-11.113
N6665 X51.665
N6670 Z-12.7 F333.33
N6675 X63.5 F2500.
N6680 G3 X66.675 Y19.05 I0. J3.175
N6685 G1 Y77.611
N6690 Z-11.113
N6695 Y90.311
N6700 Z-12.7 F333.33
N6705 Y207.433 F2500.
N6710 Z-11.113
N6715 Y220.133
N6720 Z-12.7 F333.33
N6725 Y337.256 F2500.
N6730 Z-11.113
N6735 Y349.956
N6740 Z-12.7 F333.33
N6745 Y467.078 F2500.
N6750 Z-11.113
N6755 Y479.778
N6760 Z-12.7 F333.33
N6765 Y545.3 F2500.
N6770 Z-11.113
N6775 Y558.
N6780 Z-12.7 F333.33
N6785 Y565.15 F2500.
N6790 G3 X63.5 Y568.325 I-3.175 J0.
N6795 G1 X31.75
N6800 Z-11.113
N6805 X25.4
N6810 G3 X22.225 Y565.15 I0. J-3.175
N6815 G1 Y561.975
N6820 Z-12.7 F333.33
N6825 Y441.678 F2500.
N6830 Z-11.113
N6835 Y428.978
N6840 Z-12.7 F333.33
N6845 Y311.856 F2500.
N6850 Z-11.113
N6855 Y299.156
N6860 Z-12.7 F333.33
N6865 Y182.033 F2500.
N6870 Z-11.113
N6875 Y169.333
N6880 Z-12.7 F333.33
N6885 Y52.211 F2500.
N6890 Z-11.113
N6895 Y39.511
N6900 Z-12.7 F333.33
N6905 Y19.05 F2500.
N6910 G2 X21.59 Y18.415 I-0.635 J0.
N6915 G1 X20.955
N6920 G18 G3 X20.32 Z-12.065 I0. K0.635
N6925 G0 Z5.
N6930 X77.47 Y19.685
N6935 G1 Z1. F333.33
N6940 Z-3.365
N6945 G2 X78.105 Z-4. I0.635 K0. F2500.
N6950 G1 X78.74
N6955 G17 G2 X79.375 Y19.05 I0. J-0.635
N6960 G3 X82.55 Y15.875 I3.175 J0.
N6965 G1 X123.9
N6970 G3 X127.075 Y19.05 I0. J3.175
N6975 G1 Y565.15
N6980 G3 X123.9 Y568.325 I-3.175 J0.
N6985 G1 X82.55
N6990 G3 X79.375 Y565.15 I0. J-3.175
N6995 G1 Y19.05
N7000 G2 X78.74 Y18.415 I-0.635 J0.
N7005 G1 X78.105
N7010 G18 G3 X77.47 Z-3.365 I0. K0.635
N7015 G1 Y19.685
N7020 Z-7.365 F333.33
N7025 G2 X78.105 Z-8. I0.635 K0. F2500.
N7030 G1 X78.74
N7035 G17 G2 X79.375 Y19.05 I0. J-0.635
N7040 G3 X82.55 Y15.875 I3.175 J0.
N7045 G1 X123.9
N7050 G3 X127.075 Y19.05 I0. J3.175
N7055 G1 Y565.15
N7060 G3 X123.9 Y568.325 I-3.175 J0.
N7065 G1 X82.55
N7070 G3 X79.375 Y565.15 I0. J-3.175
N7075 G1 Y19.05
N7080 G2 X78.74 Y18.415 I-0.635 J0.
N7085 G1 X78.105
N7090 G18 G3 X77.47 Z-7.365 I0. K0.635
N7095 G1 Y19.685
N7100 Z-9.715 F333.33
N7105 G2 X78.105 Z-10.35 I0.635 K0. F2500.
N7110 G1 X78.74
N7115 G17 G2 X79.375 Y19.05 I0. J-0.635
N7120 G3 X82.55 Y15.875 I3.175 J0.
N7125 G1 X123.9
N7130 G3 X127.075 Y19.05 I0. J3.175
N7135 G1 Y565.15
N7140 G3 X123.9 Y568.325 I-3.175 J0.
N7145 G1 X82.55
N7150 G3 X79.375 Y565.15 I0. J-3.175
N7155 G1 Y19.05
N7160 G2 X78.74 Y18.415 I-0.635 J0.
N7165 G1 X78.105
N7170 G18 G3 X77.47 Z-9.715 I0. K0.635
N7175 G1 Y19.685
N7180 Z-12.065 F333.33
N7185 G2 X78.105 Z-12.7 I0.635 K0. F2500.
N7190 G1 X78.74
N7195 G17 G2 X79.375 Y19.05 I0. J-0.635
N7200 G3 X82.55 Y15.875 I3.175 J0.
N7205 G1 X93.139
N7210 Z-11.113
N7215 X105.839
N7220 Z-12.7 F333.33
N7225 X123.9 F2500.
N7230 G3 X127.075 Y19.05 I0. J3.175
N7235 G1 Y77.972
N7240 Z-11.113
N7245 Y90.672
N7250 Z-12.7 F333.33
N7255 Y208.517 F2500.
N7260 Z-11.113
N7265 Y221.217
N7270 Z-12.7 F333.33
N7275 Y339.061 F2500.
N7280 Z-11.113
N7285 Y351.761
N7290 Z-12.7 F333.33
N7295 Y469.606 F2500.
N7300 Z-11.113
N7305 Y482.306
N7310 Z-12.7 F333.33
N7315 Y546.547 F2500.
N7320 Z-11.113
N7325 Y559.247
N7330 Z-12.7 F333.33
N7335 Y565.15 F2500.
N7340 G3 X123.9 Y568.325 I-3.175 J0.
N7345 G1 X85.725
N7350 Z-11.113
N7355 X82.55
N7360 G3 X79.375 Y565.15 I0. J-3.175
N7365 G1 Y558.8
N7370 Z-12.7 F333.33
N7375 Y440.956 F2500.
N7380 Z-11.113
N7385 Y428.256
N7390 Z-12.7 F333.33
N7395 Y310.411 F2500.
N7400 Z-11.113
N7405 Y297.711
N7410 Z-12.7 F333.33
N7415 Y179.867 F2500.
N7420 Z-11.113
N7425 Y167.167
N7430 Z-12.7 F333.33
N7435 Y49.322 F2500.
N7440 Z-11.113
N7445 Y36.622
N7450 Z-12.7 F333.33
N7455 Y19.05 F2500.
N7460 G2 X78.74 Y18.415 I-0.635 J0.
N7465 G1 X78.105
N7470 G18 G3 X77.47 Z-12.065 I0. K0.635
N7475 G0 Z5.
N7480 X142.022 Y14.069
N7485 G1 Z1. F333.33
N7490 Z-3.365
N7495 X142.023 Y14.077 Z-3.464 F2500.
N7500 X142.026 Y14.1 Z-3.561
N7505 X142.03 Y14.138 Z-3.653
N7510 X142.036 Y14.189 Z-3.738
N7515 X142.043 Y14.254 Z-3.814
N7520 X142.051 Y14.329 Z-3.879
N7525 X142.06 Y14.414 Z-3.931
N7530 X142.07 Y14.505 Z-3.969
N7535 X142.081 Y14.601 Z-3.992
N7540 X142.091 Y14.7 Z-4.
N7545 X142.16 Y15.331
N7550 G17 G2 X142.86 Y15.894 I0.631 J-0.069
N7555 G3 X143.205 Y15.875 I0.345 J3.156
N7560 G1 X181.305
N7565 G3 X184.48 Y19.05 I0. J3.175
N7570 G1 Y565.15
N7575 G3 X181.305 Y568.325 I-3.175 J0.
N7580 G1 X143.205
N7585 G3 X140.03 Y565.15 I0. J-3.175
N7590 G1 Y19.05
N7595 G3 X142.86 Y15.894 I3.175 J0.
N7600 G2 X143.423 Y15.194 I-0.069 J-0.631
N7605 G1 X143.354 Y14.562
N7610 X143.343 Y14.464 Z-3.992
N7615 X143.332 Y14.367 Z-3.969
N7620 X143.322 Y14.276 Z-3.931
N7625 X143.313 Y14.191 Z-3.879
N7630 X143.305 Y14.116 Z-3.814
N7635 X143.298 Y14.052 Z-3.738
N7640 X143.292 Y14. Z-3.653
N7645 X143.288 Y13.962 Z-3.561
N7650 X143.286 Y13.939 Z-3.464
N7655 X143.285 Y13.931 Z-3.365
N7660 X142.022 Y14.069
N7665 Z-7.365 F333.33
N7670 X142.023 Y14.077 Z-7.464 F2500.
N7675 X142.026 Y14.1 Z-7.561
N7680 X142.03 Y14.138 Z-7.653
N7685 X142.036 Y14.189 Z-7.738
N7690 X142.043 Y14.254 Z-7.814
N7695 X142.051 Y14.329 Z-7.879
N7700 X142.06 Y14.414 Z-7.931
N7705 X142.07 Y14.505 Z-7.969
N7710 X142.081 Y14.601 Z-7.992
N7715 X142.091 Y14.7 Z-8.
N7720 X142.16 Y15.331
N7725 G2 X142.86 Y15.894 I0.631 J-0.069
N7730 G3 X143.205 Y15.875 I0.345 J3.156
N7735 G1 X181.305
N7740 G3 X184.48 Y19.05 I0. J3.175
N7745 G1 Y565.15
N7750 G3 X181.305 Y568.325 I-3.175 J0.
N7755 G1 X143.205
N7760 G3 X140.03 Y565.15 I0. J-3.175
N7765 G1 Y19.05
N7770 G3 X142.86 Y15.894 I3.175 J0.
N7775 G2 X143.423 Y15.194 I-0.069 J-0.631
N7780 G1 X143.354 Y14.562
N7785 X143.343 Y14.464 Z-7.992
N7790 X143.332 Y14.367 Z-7.969
N7795 X143.322 Y14.276 Z-7.931
N7800 X143.313 Y14.191 Z-7.879
N7805 X143.305 Y14.116 Z-7.814
N7810 X143.298 Y14.052 Z-7.738
N7815 X143.292 Y14. Z-7.653
N7820 X143.288 Y13.962 Z-7.561
N7825 X143.286 Y13.939 Z-7.464
N7830 X143.285 Y13.931 Z-7.365
N7835 X142.022 Y14.069
N7840 Z-9.715 F333.33
N7845 X142.023 Y14.077 Z-9.814 F2500.
N7850 X142.026 Y14.1 Z-9.911
N7855 X142.03 Y14.138 Z-10.003
N7860 X142.036 Y14.189 Z-10.088
N7865 X142.043 Y14.254 Z-10.164
N7870 X142.051 Y14.329 Z-10.229
N7875 X142.06 Y14.414 Z-10.281
N7880 X142.07 Y14.505 Z-10.319
N7885 X142.081 Y14.601 Z-10.342
N7890 X142.091 Y14.7 Z-10.35
N7895 X142.16 Y15.331
N7900 G2 X142.86 Y15.894 I0.631 J-0.069
N7905 G3 X143.205 Y15.875 I0.345 J3.156
N7910 G1 X181.305
N7915 G3 X184.48 Y19.05 I0. J3.175
N7920 G1 Y565.15
N7925 G3 X181.305 Y568.325 I-3.175 J0.
N7930 G1 X143.205
N7935 G3 X140.03 Y565.15 I0. J-3.175
N7940 G1 Y19.05
N7945 G3 X142.86 Y15.894 I3.175 J0.
N7950 G2 X143.423 Y15.194 I-0.069 J-0.631
N7955 G1 X143.354 Y14.562
N7960 X143.343 Y14.464 Z-10.342
N7965 X143.332 Y14.367 Z-10.319
N7970 X143.322 Y14.276 Z-10.281
N7975 X143.313 Y14.191 Z-10.229
N7980 X143.305 Y14.116 Z-10.164
N7985 X143.298 Y14.052 Z-10.088
N7990 X143.292 Y14. Z-10.003
N7995 X143.288 Y13.962 Z-9.911
N8000 X143.286 Y13.939 Z-9.814
N8005 X143.285 Y13.931 Z-9.715
N8010 X142.022 Y14.069
N8015 Z-12.065 F333.33
N8020 X142.023 Y14.077 Z-12.164 F2500.
N8025 X142.026 Y14.1 Z-12.261
N8030 X142.03 Y14.138 Z-12.353
N8035 X142.036 Y14.189 Z-12.438
N8040 X142.043 Y14.254 Z-12.514
N8045 X142.051 Y14.329 Z-12.579
N8050 X142.06 Y14.414 Z-12.631
N8055 X142.07 Y14.505 Z-12.669
N8060 X142.081 Y14.601 Z-12.692
N8065 X142.091 Y14.7 Z-12.7
N8070 X142.16 Y15.331
N8075 G2 X142.86 Y15.894 I0.631 J-0.069
N8080 G3 X143.205 Y15.875 I0.345 J3.156
N8085 G1 X151.882
N8090 Z-11.113
N8095 X164.582
N8100 Z-12.7 F333.33
N8105 X181.305 F2500.
N8110 G3 X184.48 Y19.05 I0. J3.175
N8115 G1 Y77.611
N8120 Z-11.113
N8125 Y90.311
N8130 Z-12.7 F333.33
N8135 Y207.433 F2500.
N8140 Z-11.113
N8145 Y220.133
N8150 Z-12.7 F333.33
N8155 Y337.256 F2500.
N8160 Z-11.113
N8165 Y349.956
N8170 Z-12.7 F333.33
N8175 Y467.078 F2500.
N8180 Z-11.113
N8185 Y479.778
N8190 Z-12.7 F333.33
N8195 Y549.704 F2500.
N8200 Z-11.113
N8205 Y562.404
N8210 Z-12.7 F333.33
N8215 Y565.15 F2500.
N8220 G3 X181.305 Y568.325 I-3.175 J0.
N8225 G1 X149.555
N8230 Z-11.113
N8235 X143.205
N8240 G3 X140.03 Y565.15 I0. J-3.175
N8245 G1 Y561.975
N8250 Z-12.7 F333.33
N8255 Y441.678 F2500.
N8260 Z-11.113
N8265 Y428.978
N8270 Z-12.7 F333.33
N8275 Y311.856 F2500.
N8280 Z-11.113
N8285 Y299.156
N8290 Z-12.7 F333.33
N8295 Y182.033 F2500.
N8300 Z-11.113
N8305 Y169.333
N8310 Z-12.7 F333.33
N8315 Y52.211 F2500.
N8320 Z-11.113
N8325 Y39.511
N8330 Z-12.7 F333.33
N8335 Y19.05 F2500.
N8340 G3 X142.86 Y15.894 I3.175 J0.
N8345 G2 X143.423 Y15.194 I-0.069 J-0.631
N8350 G1 X143.354 Y14.562
N8355 X143.343 Y14.464 Z-12.692
N8360 X143.332 Y14.367 Z-12.669
N8365 X143.322 Y14.276 Z-12.631
N8370 X143.313 Y14.191 Z-12.579
N8375 X143.305 Y14.116 Z-12.514
N8380 X143.298 Y14.052 Z-12.438
N8385 X143.292 Y14. Z-12.353
N8390 X143.288 Y13.962 Z-12.261
N8395 X143.286 Y13.939 Z-12.164
N8400 X143.285 Y13.931 Z-12.065
N8405 G0 Z5.
N8410 X195.276 Y19.685
N8415 G1 Z1. F333.33
N8420 Z-3.365
N8425 G18 G2 X195.911 Z-4. I0.635 K0. F2500.
N8430 G1 X196.546
N8435 G17 G2 X197.181 Y19.05 I0. J-0.635
N8440 G3 X200.356 Y15.875 I3.175 J0.
N8445 G1 X241.706
N8450 G3 X244.881 Y19.05 I0. J3.175
N8455 G1 Y565.15
N8460 G3 X241.706 Y568.325 I-3.175 J0.
N8465 G1 X200.356
N8470 G3 X197.181 Y565.15 I0. J-3.175
N8475 G1 Y19.05
N8480 G2 X196.546 Y18.415 I-0.635 J0.
N8485 G1 X195.911
N8490 G18 G3 X195.276 Z-3.365 I0. K0.635
N8495 G1 Y19.685
N8500 Z-7.365 F333.33
N8505 G2 X195.911 Z-8. I0.635 K0. F2500.
N8510 G1 X196.546
N8515 G17 G2 X197.181 Y19.05 I0. J-0.635
N8520 G3 X200.356 Y15.875 I3.175 J0.
N8525 G1 X241.706
N8530 G3 X244.881 Y19.05 I0. J3.175
N8535 G1 Y565.15
N8540 G3 X241.706 Y568.325 I-3.175 J0.
N8545 G1 X200.356
N8550 G3 X197.181 Y565.15 I0. J-3.175
N8555 G1 Y19.05
N8560 G2 X196.546 Y18.415 I-0.635 J0.
N8565 G1 X195.911
N8570 G18 G3 X195.276 Z-7.365 I0. K0.635
N8575 G1 Y19.685
N8580 Z-9.715 F333.33
N8585 G2 X195.911 Z-10.35 I0.635 K0. F2500.
N8590 G1 X196.546
N8595 G17 G2 X197.181 Y19.05 I0. J-0.635
N8600 G3 X200.356 Y15.875 I3.175 J0.
N8605 G1 X241.706
N8610 G3 X244.881 Y19.05 I0. J3.175
N8615 G1 Y565.15
N8620 G3 X241.706 Y568.325 I-3.175 J0.
N8625 G1 X200.356
N8630 G3 X197.181 Y565.15 I0. J-3.175
N8635 G1 Y19.05
N8640 G2 X196.546 Y18.415 I-0.635 J0.
N8645 G1 X195.911
N8650 G18 G3 X195.276 Z-9.715 I0. K0.635
N8655 G1 Y19.685
N8660 Z-12.065 F333.33
N8665 G2 X195.911 Z-12.7 I0.635 K0. F2500.
N8670 G1 X196.546
N8675 G17 G2 X197.181 Y19.05 I0. J-0.635
N8680 G3 X200.356 Y15.875 I3.175 J0.
N8685 G1 X213.59
N8690 Z-11.113
N8695 X226.29
N8700 Z-12.7 F333.33
N8705 X241.706 F2500.
N8710 G3 X244.881 Y19.05 I0. J3.175
N8715 G1 Y77.972
N8720 Z-11.113
N8725 Y90.672
N8730 Z-12.7 F333.33
N8735 Y208.517 F2500.
N8740 Z-11.113
N8745 Y221.217
N8750 Z-12.7 F333.33
N8755 Y339.061 F2500.
N8760 Z-11.113
N8765 Y351.761
N8770 Z-12.7 F333.33
N8775 Y469.606 F2500.
N8780 Z-11.113
N8785 Y482.306
N8790 Z-12.7 F333.33
N8795 Y551.125 F2500.
N8800 Z-11.113
N8805 Y563.825
N8810 Z-12.7 F333.33
N8815 Y565.15 F2500.
N8820 G3 X241.706 Y568.325 I-3.175 J0.
N8825 G1 X206.706
N8830 Z-11.113
N8835 X200.356
N8840 G3 X197.181 Y565.15 I0. J-3.175
N8845 G1 Y561.975
N8850 Z-12.7 F333.33
N8855 Y440.956 F2500.
N8860 Z-11.113
N8865 Y428.256
N8870 Z-12.7 F333.33
N8875 Y310.411 F2500.
N8880 Z-11.113
N8885 Y297.711
N8890 Z-12.7 F333.33
N8895 Y179.867 F2500.
N8900 Z-11.113
N8905 Y167.167
N8910 Z-12.7 F333.33
N8915 Y49.322 F2500.
N8920 Z-11.113
N8925 Y36.622
N8930 Z-12.7 F333.33
N8935 Y19.05 F2500.
N8940 G2 X196.546 Y18.415 I-0.635 J0.
N8945 G1 X195.911
N8950 G18 G3 X195.276 Z-12.065 I0. K0.635
N8955 G0 Z5.
N8960 X276.062 Y137.222
N8965 G1 Z1. F333.33
N8970 Z-3.365
N8975 X276.055 Y137.218 Z-3.464 F2500.
N8980 X276.034 Y137.208 Z-3.561
N8985 X275.999 Y137.192 Z-3.653
N8990 X275.952 Y137.17 Z-3.738
N8995 X275.894 Y137.142 Z-3.814
N9000 X275.825 Y137.109 Z-3.879
N9005 X275.749 Y137.073 Z-3.931
N9010 X275.665 Y137.034 Z-3.969
N9015 X275.578 Y136.992 Z-3.992
N9020 X275.488 Y136.95 Z-4.
N9025 X274.914 Y136.677
N9030 G17 G2 X274.068 Y136.979 I-0.272 J0.574
N9035 X273.456 Y139.7 I5.738 J2.721
N9040 G1 Y215.9
N9045 G2 X286.156 I6.35 J0.
N9050 G1 Y139.7
N9055 G2 X274.068 Y136.979 I-6.35 J0.
N9060 X274.37 Y137.825 I0.574 J0.272
N9065 G1 X274.944 Y138.097
N9070 X275.034 Y138.14 Z-3.992
N9075 X275.121 Y138.181 Z-3.969
N9080 X275.204 Y138.221 Z-3.931
N9085 X275.281 Y138.257 Z-3.879
N9090 X275.35 Y138.289 Z-3.814
N9095 X275.408 Y138.317 Z-3.738
N9100 X275.455 Y138.339 Z-3.653
N9105 X275.49 Y138.356 Z-3.561
N9110 X275.511 Y138.366 Z-3.464
N9115 X275.518 Y138.369 Z-3.365
N9120 X276.062 Y137.222
N9125 Z-7.365 F333.33
N9130 X276.055 Y137.218 Z-7.464 F2500.
N9135 X276.034 Y137.208 Z-7.561
N9140 X275.999 Y137.192 Z-7.653
N9145 X275.952 Y137.17 Z-7.738
N9150 X275.894 Y137.142 Z-7.814
N9155 X275.825 Y137.109 Z-7.879
N9160 X275.749 Y137.073 Z-7.931
N9165 X275.665 Y137.034 Z-7.969
N9170 X275.578 Y136.992 Z-7.992
N9175 X275.488 Y136.95 Z-8.
N9180 X274.914 Y136.677
N9185 G2 X274.068 Y136.979 I-0.272 J0.574
N9190 X273.456 Y139.7 I5.738 J2.721
N9195 G1 Y215.9
N9200 G2 X286.156 I6.35 J0.
N9205 G1 Y139.7
N9210 G2 X274.068 Y136.979 I-6.35 J0.
N9215 X274.37 Y137.825 I0.574 J0.272
N9220 G1 X274.944 Y138.097
N9225 X275.034 Y138.14 Z-7.992
N9230 X275.121 Y138.181 Z-7.969
N9235 X275.204 Y138.221 Z-7.931
N9240 X275.281 Y138.257 Z-7.879
N9245 X275.35 Y138.289 Z-7.814
N9250 X275.408 Y138.317 Z-7.738
N9255 X275.455 Y138.339 Z-7.653
N9260 X275.49 Y138.356 Z-7.561
N9265 X275.511 Y138.366 Z-7.464
N9270 X275.518 Y138.369 Z-7.365
N9275 X276.062 Y137.222
N9280 Z-9.715 F333.33
N9285 X276.055 Y137.218 Z-9.814 F2500.
N9290 X276.034 Y137.208 Z-9.911
N9295 X275.999 Y137.192 Z-10.003
N9300 X275.952 Y137.17 Z-10.088
N9305 X275.894 Y137.142 Z-10.164
N9310 X275.825 Y137.109 Z-10.229
N9315 X275.749 Y137.073 Z-10.281
N9320 X275.665 Y137.034 Z-10.319
N9325 X275.578 Y136.992 Z-10.342
N9330 X275.488 Y136.95 Z-10.35
N9335 X274.914 Y136.677
N9340 G2 X274.068 Y136.979 I-0.272 J0.574
N9345 X273.456 Y139.7 I5.738 J2.721
N9350 G1 Y215.9
N9355 G2 X286.156 I6.35 J0.
N9360 G1 Y139.7
N9365 G2 X274.068 Y136.979 I-6.35 J0.
N9370 X274.37 Y137.825 I0.574 J0.272
N9375 G1 X274.944 Y138.097
N9380 X275.034 Y138.14 Z-10.342
N9385 X275.121 Y138.181 Z-10.319
N9390 X275.204 Y138.221 Z-10.281
N9395 X275.281 Y138.257 Z-10.229
N9400 X275.35 Y138.289 Z-10.164
N9405 X275.408 Y138.317 Z-10.088
N9410 X275.455 Y138.339 Z-10.003
N9415 X275.49 Y138.356 Z-9.911
N9420 X275.511 Y138.366 Z-9.814
N9425 X275.518 Y138.369 Z-9.715
N9430 X276.062 Y137.222
N9435 Z-11.113 F333.33
N9440 X275.488 Y136.95 F2500.
N9445 X274.914 Y136.677
N9450 G2 X274.068 Y136.979 I-0.272 J0.574
N9455 X273.456 Y139.7 I5.738 J2.721
N9460 G1 Y146.05
N9465 Z-12.7 F333.33
N9470 Y184.093 F2500.
N9475 Z-11.113
N9480 Y196.793
N9485 Z-12.7 F333.33
N9490 Y215.9 F2500.
N9495 G2 X286.156 I6.35 J0.
N9500 G1 Y207.865
N9505 Z-11.113
N9510 Y195.165
N9515 Z-12.7 F333.33
N9520 Y167.324 F2500.
N9525 Z-11.113
N9530 Y154.624
N9535 Z-12.7 F333.33
N9540 Y139.7 F2500.
N9545 G2 X277.266 Y133.88 I-6.35 J0.
N9550 G1 Z-11.113
N9555 G2 X274.068 Y136.979 I2.54 J5.82
N9560 X274.37 Y137.825 I0.574 J0.272
N9565 G1 X275.518 Y138.369
N9570 G0 Z5.
N9575 X255.661 Y25.898
N9580 G1 Z1. F333.33
N9585 Z-3.365
N9590 X255.669 Z-3.464 F2500.
N9595 X255.692 Y25.899 Z-3.561
N9600 X255.73 Y25.9 Z-3.653
N9605 X255.782 Y25.901 Z-3.738
N9610 X255.847 Y25.903 Z-3.814
N9615 X255.922 Y25.905 Z-3.879
N9620 X256.007 Y25.907 Z-3.931
N9625 X256.099 Y25.91 Z-3.969
N9630 X256.196 Y25.912 Z-3.992
N9635 X256.296 Y25.915 Z-4.
N9640 X256.93 Y25.932
N9645 G2 X257.582 Y25.314 I0.017 J-0.635
N9650 G3 X260.756 Y22.225 I3.174 J0.086
N9655 G1 X298.856
N9660 G3 X302.031 Y25.4 I0. J3.175
N9665 G1 Y330.2
N9670 G3 X298.856 Y333.375 I-3.175 J0.
N9675 G1 X260.756
N9680 G3 X257.581 Y330.2 I0. J-3.175
N9685 G1 Y25.4
N9690 X257.582 Y25.314
N9695 G2 X256.965 Y24.662 I-0.635 J-0.017
N9700 G1 X256.33 Y24.645
N9705 X256.23 Y24.643 Z-3.992
N9710 X256.134 Y24.64 Z-3.969
N9715 X256.042 Y24.638 Z-3.931
N9720 X255.957 Y24.635 Z-3.879
N9725 X255.881 Y24.633 Z-3.814
N9730 X255.816 Y24.631 Z-3.738
N9735 X255.764 Y24.63 Z-3.653
N9740 X255.726 Y24.629 Z-3.561
N9745 X255.703 Y24.628 Z-3.464
N9750 X255.695 Z-3.365
N9755 X255.661 Y25.898
N9760 Z-7.365 F333.33
N9765 X255.669 Z-7.464 F2500.
N9770 X255.692 Y25.899 Z-7.561
N9775 X255.73 Y25.9 Z-7.653
N9780 X255.782 Y25.901 Z-7.738
N9785 X255.847 Y25.903 Z-7.814
N9790 X255.922 Y25.905 Z-7.879
N9795 X256.007 Y25.907 Z-7.931
N9800 X256.099 Y25.91 Z-7.969
N9805 X256.196 Y25.912 Z-7.992
N9810 X256.296 Y25.915 Z-8.
N9815 X256.93 Y25.932
N9820 G2 X257.582 Y25.314 I0.017 J-0.635
N9825 G3 X260.756 Y22.225 I3.174 J0.086
N9830 G1 X298.856
N9835 G3 X302.031 Y25.4 I0. J3.175
N9840 G1 Y330.2
N9845 G3 X298.856 Y333.375 I-3.175 J0.
N9850 G1 X260.756
N9855 G3 X257.581 Y330.2 I0. J-3.175
N9860 G1 Y25.4
N9865 X257.582 Y25.314
N9870 G2 X256.965 Y24.662 I-0.635 J-0.017
N9875 G1 X256.33 Y24.645
N9880 X256.23 Y24.643 Z-7.992
N9885 X256.134 Y24.64 Z-7.969
N9890 X256.042 Y24.638 Z-7.931
N9895 X255.957 Y24.635 Z-7.879
N9900 X255.881 Y24.633 Z-7.814
N9905 X255.816 Y24.631 Z-7.738
N9910 X255.764 Y24.63 Z-7.653
N9915 X255.726 Y24.629 Z-7.561
N9920 X255.703 Y24.628 Z-7.464
N9925 X255.695 Z-7.365
N9930 X255.661 Y25.898
N9935 Z-9.715 F333.33
N9940 X255.669 Z-9.814 F2500.
N9945 X255.692 Y25.899 Z-9.911
N9950 X255.73 Y25.9 Z-10.003
N9955 X255.782 Y25.901 Z-10.088
N9960 X255.847 Y25.903 Z-10.164
N9965 X255.922 Y25.905 Z-10.229
N9970 X256.007 Y25.907 Z-10.281
N9975 X256.099 Y25.91 Z-10.319
N9980 X256.196 Y25.912 Z-10.342
N9985 X256.296 Y25.915 Z-10.35
N9990 X256.93 Y25.932
N9995 G2 X257.582 Y25.314 I0.017 J-0.635
N10000 G3 X260.756 Y22.225 I3.174 J0.086
N10005 G1 X298.856
N10010 G3 X302.031 Y25.4 I0. J3.175
N10015 G1 Y330.2
N10020 G3 X298.856 Y333.375 I-3.175 J0.
N10025 G1 X260.756
N10030 G3 X257.581 Y330.2 I0. J-3.175
N10035 G1 Y25.4
N10040 X257.582 Y25.314
N10045 G2 X256.965 Y24.662 I-0.635 J-0.017
N10050 G1 X256.33 Y24.645
N10055 X256.23 Y24.643 Z-10.342
N10060 X256.134 Y24.64 Z-10.319
N10065 X256.042 Y24.638 Z-10.281
N10070 X255.957 Y24.635 Z-10.229
N10075 X255.881 Y24.633 Z-10.164
N10080 X255.816 Y24.631 Z-10.088
N10085 X255.764 Y24.63 Z-10.003
N10090 X255.726 Y24.629 Z-9.911
N10095 X255.703 Y24.628 Z-9.814
N10100 X255.695 Z-9.715
N10105 X255.661 Y25.898
N10110 Z-12.065 F333.33
N10115 X255.669 Z-12.164 F2500.
N10120 X255.692 Y25.899 Z-12.261
N10125 X255.73 Y25.9 Z-12.353
N10130 X255.782 Y25.901 Z-12.438
N10135 X255.847 Y25.903 Z-12.514
N10140 X255.922 Y25.905 Z-12.579
N10145 X256.007 Y25.907 Z-12.631
N10150 X256.099 Y25.91 Z-12.669
N10155 X256.196 Y25.912 Z-12.692
N10160 X256.296 Y25.915 Z-12.7
N10165 X256.93 Y25.932
N10170 G2 X257.582 Y25.314 I0.017 J-0.635
N10175 G3 X260.756 Y22.225 I3.174 J0.086
N10180 G1 X298.856
N10185 G3 X302.031 Y25.4 I0. J3.175
N10190 G1 Y87.63
N10195 Z-11.113
N10200 Y100.33
N10205 Z-12.7 F333.33
N10210 Y224.79 F2500.
N10215 Z-11.113
N10220 Y237.49
N10225 Z-12.7 F333.33
N10230 Y309.59 F2500.
N10235 Z-11.113
N10240 Y322.29
N10245 Z-12.7 F333.33
N10250 Y330.2 F2500.
N10255 G3 X298.856 Y333.375 I-3.175 J0.
N10260 G1 X267.106
N10265 Z-11.113
N10270 X260.756
N10275 G3 X257.581 Y330.2 I0. J-3.175
N10280 G1 Y327.025
N10285 Z-12.7 F333.33
N10290 Y199.39 F2500.
N10295 Z-11.113
N10300 Y186.69
N10305 Z-12.7 F333.33
N10310 Y62.23 F2500.
N10315 Z-11.113
N10320 Y49.53
N10325 Z-12.7 F333.33
N10330 Y25.4 F2500.
N10335 X257.582 Y25.314
N10340 G2 X256.965 Y24.662 I-0.635 J-0.017
N10345 G1 X256.33 Y24.645
N10350 X256.23 Y24.643 Z-12.692
N10355 X256.134 Y24.64 Z-12.669
N10360 X256.042 Y24.638 Z-12.631
N10365 X255.957 Y24.635 Z-12.579
N10370 X255.881 Y24.633 Z-12.514
N10375 X255.816 Y24.631 Z-12.438
N10380 X255.764 Y24.63 Z-12.353
N10385 X255.726 Y24.629 Z-12.261
N10390 X255.703 Y24.628 Z-12.164
N10395 X255.695 Z-12.065
N10400 G0 Z5.
N10405 X312.813 Y25.925
N10410 G1 Z1. F333.33
N10415 Z-3.365
N10420 X312.821 Z-3.464 F2500.
N10425 X312.844 Z-3.561
N10430 X312.883 Y25.926 Z-3.653
N10435 X312.935 Y25.927 Z-3.738
N10440 X312.999 Y25.929 Z-3.814
N10445 X313.075 Y25.93 Z-3.879
N10450 X313.16 Y25.932 Z-3.931
N10455 X313.252 Y25.934 Z-3.969
N10460 X313.349 Y25.936 Z-3.992
N10465 X313.448 Y25.938 Z-4.
N10470 X314.083 Y25.952
N10475 G2 X314.732 Y25.331 I0.014 J-0.635
N10480 G3 X317.906 Y22.225 I3.174 J0.069
N10485 G1 X356.006
N10490 G3 X359.181 Y25.4 I0. J3.175
N10495 G1 Y330.2
N10500 G3 X356.006 Y333.375 I-3.175 J0.
N10505 G1 X317.906
N10510 G3 X314.731 Y330.2 I0. J-3.175
N10515 G1 Y317.5
N10520 G3 X317.906 Y314.325 I3.175 J0.
N10525 G1 X327.431
N10530 Y285.675
N10535 X317.906
N10540 G3 X314.731 Y282.5 I0. J-3.175
N10545 G1 Y73.1
N10550 G3 X317.906 Y69.925 I3.175 J0.
N10555 G1 X327.431
N10560 Y41.275
N10565 X317.906
N10570 G3 X314.731 Y38.1 I0. J-3.175
N10575 G1 Y25.4
N10580 X314.732 Y25.331
N10585 G2 X314.111 Y24.682 I-0.635 J-0.014
N10590 G1 X313.476 Y24.669
N10595 X313.377 Y24.667 Z-3.992
N10600 X313.28 Y24.664 Z-3.969
N10605 X313.188 Y24.662 Z-3.931
N10610 X313.103 Y24.661 Z-3.879
N10615 X313.027 Y24.659 Z-3.814
N10620 X312.962 Y24.658 Z-3.738
N10625 X312.91 Y24.656 Z-3.653
N10630 X312.872 Z-3.561
N10635 X312.849 Y24.655 Z-3.464
N10640 X312.841 Z-3.365
N10645 X312.813 Y25.925
N10650 Z-7.365 F333.33
N10655 X312.821 Z-7.464 F2500.
N10660 X312.844 Z-7.561
N10665 X312.883 Y25.926 Z-7.653
N10670 X312.935 Y25.927 Z-7.738
N10675 X312.999 Y25.929 Z-7.814
N10680 X313.075 Y25.93 Z-7.879
N10685 X313.16 Y25.932 Z-7.931
N10690 X313.252 Y25.934 Z-7.969
N10695 X313.349 Y25.936 Z-7.992
N10700 X313.448 Y25.938 Z-8.
N10705 X314.083 Y25.952
N10710 G2 X314.732 Y25.331 I0.014 J-0.635
N10715 G3 X317.906 Y22.225 I3.174 J0.069
N10720 G1 X356.006
N10725 G3 X359.181 Y25.4 I0. J3.175
N10730 G1 Y330.2
N10735 G3 X356.006 Y333.375 I-3.175 J0.
N10740 G1 X317.906
N10745 G3 X314.731 Y330.2 I0. J-3.175
N10750 G1 Y317.5
N10755 G3 X317.906 Y314.325 I3.175 J0.
N10760 G1 X327.431
N10765 Y285.675
N10770 X317.906
N10775 G3 X314.731 Y282.5 I0. J-3.175
N10780 G1 Y73.1
N10785 G3 X317.906 Y69.925 I3.175 J0.
N10790 G1 X327.431
N10795 Y41.275
N10800 X317.906
N10805 G3 X314.731 Y38.1 I0. J-3.175
N10810 G1 Y25.4
N10815 X314.732 Y25.331
N10820 G2 X314.111 Y24.682 I-0.635 J-0.014
N10825 G1 X313.476 Y24.669
N10830 X313.377 Y24.667 Z-7.992
N10835 X313.28 Y24.664 Z-7.969
N10840 X313.188 Y24.662 Z-7.931
N10845 X313.103 Y24.661 Z-7.879
N10850 X313.027 Y24.659 Z-7.814
N10855 X312.962 Y24.658 Z-7.738
N10860 X312.91 Y24.656 Z-7.653
N10865 X312.872 Z-7.561
N10870 X312.849 Y24.655 Z-7.464
N10875 X312.841 Z-7.365
N10880 X312.813 Y25.925
N10885 Z-9.715 F333.33
N10890 X312.821 Z-9.814 F2500.
N10895 X312.844 Z-9.911
N10900 X312.883 Y25.926 Z-10.003
N10905 X312.935 Y25.927 Z-10.088
N10910 X312.999 Y25.929 Z-10.164
N10915 X313.075 Y25.93 Z-10.229
N10920 X313.16 Y25.932 Z-10.281
N10925 X313.252 Y25.934 Z-10.319
N10930 X313.349 Y25.936 Z-10.342
N10935 X313.448 Y25.938 Z-10.35
N10940 X314.083 Y25.952
N10945 G2 X314.732 Y25.331 I0.014 J-0.635
N10950 G3 X317.906 Y22.225 I3.174 J0.069
N10955 G1 X356.006
N10960 G3 X359.181 Y25.4 I0. J3.175
N10965 G1 Y330.2
N10970 G3 X356.006 Y333.375 I-3.175 J0.
N10975 G1 X317.906
N10980 G3 X314.731 Y330.2 I0. J-3.175
N10985 G1 Y317.5
N10990 G3 X317.906 Y314.325 I3.175 J0.
N10995 G1 X327.431
N11000 Y285.675
N11005 X317.906
N11010 G3 X314.731 Y282.5 I0. J-3.175
N11015 G1 Y73.1
N11020 G3 X317.906 Y69.925 I3.175 J0.
N11025 G1 X327.431
N11030 Y41.275
N11035 X317.906
N11040 G3 X314.731 Y38.1 I0. J-3.175
N11045 G1 Y25.4
N11050 X314.732 Y25.331
N11055 G2 X314.111 Y24.682 I-0.635 J-0.014
N11060 G1 X313.476 Y24.669
N11065 X313.377 Y24.667 Z-10.342
N11070 X313.28 Y24.664 Z-10.319
N11075 X313.188 Y24.662 Z-10.281
N11080 X313.103 Y24.661 Z-10.229
N11085 X313.027 Y24.659 Z-10.164
N11090 X312.962 Y24.658 Z-10.088
N11095 X312.91 Y24.656 Z-10.003
N11100 X312.872 Z-9.911
N11105 X312.849 Y24.655 Z-9.814
N11110 X312.841 Z-9.715
N11115 X312.813 Y25.925
N11120 Z-11.113 F333.33
N11125 X313.448 Y25.938 F2500.
N11130 X314.083 Y25.952
N11135 G2 X314.732 Y25.331 I0.014 J-0.635
N11140 G3 X314.777 Y24.862 I3.174 J0.069
N11145 G1 Z-12.7 F333.33
N11150 G3 X317.906 Y22.225 I3.129 J0.538 F2500.
N11155 G1 X356.006
N11160 G3 X359.181 Y25.4 I0. J3.175
N11165 G1 Y92.71
N11170 Z-11.113
N11175 Y105.41
N11180 Z-12.7 F333.33
N11185 Y240.03 F2500.
N11190 Z-11.113
N11195 Y252.73
N11200 Z-12.7 F333.33
N11205 Y330.2 F2500.
N11210 G3 X356.006 Y333.375 I-3.175 J0.
N11215 G1 X317.906
N11220 G3 X314.743 Y330.479 I0. J-3.175
N11225 G1 Z-11.113
N11230 G3 X314.731 Y330.2 I3.163 J-0.279
N11235 G1 Y317.779
N11240 Z-12.7 F333.33
N11245 Y317.5 F2500.
N11250 G3 X317.906 Y314.325 I3.175 J0.
N11255 G1 X324.256
N11260 Z-11.113
N11265 X327.431
N11270 Y310.515
N11275 Z-12.7 F333.33
N11280 Y285.675 F2500.
N11285 X317.906
N11290 G3 X314.731 Y282.5 I0. J-3.175
N11295 G1 Y189.23
N11300 Z-11.113
N11305 Y176.53
N11310 Z-12.7 F333.33
N11315 Y73.1 F2500.
N11320 G3 X317.906 Y69.925 I3.175 J0.
N11325 G1 X327.431
N11330 Y54.61
N11335 Z-11.113
N11340 Y41.91
N11345 Z-12.7 F333.33
N11350 Y41.275 F2500.
N11355 X317.906
N11360 G3 X314.731 Y38.1 I0. J-3.175
N11365 G1 Y37.562
N11370 Z-11.113
N11375 Y25.4
N11380 X314.732 Y25.331
N11385 G2 X314.539 Y24.862 I-0.635 J-0.014
N11390 G1 Z-12.7 F333.33
N11395 G2 X314.111 Y24.682 I-0.442 J0.456 F2500.
N11400 G1 X313.476 Y24.669
N11405 X313.377 Y24.667 Z-12.692
N11410 X313.28 Y24.664 Z-12.669
N11415 X313.188 Y24.662 Z-12.631
N11420 X313.103 Y24.661 Z-12.579
N11425 X313.027 Y24.659 Z-12.514
N11430 X312.962 Y24.658 Z-12.438
N11435 X312.91 Y24.656 Z-12.353
N11440 X312.872 Z-12.261
N11445 X312.849 Y24.655 Z-12.164
N11450 X312.841 Z-12.065
N11455 G0 Z5.
N11460 X24.765 Y579.12
N11465 G1 Z1. F333.33
N11470 Z-3.365
N11475 G19 G3 Y579.755 Z-4. J0.635 K0. F2500.
N11480 G1 Y580.39
N11485 G17 G2 X25.4 Y581.025 I0.635 J0.
N11490 G1 X330.2
N11495 G3 X333.375 Y584.2 I0. J3.175
N11500 G1 Y1143.
N11505 G3 X330.2 Y1146.175 I-3.175 J0.
N11510 G1 X25.4
N11515 G3 X22.225 Y1143. I0. J-3.175
N11520 G1 Y584.2
N11525 G3 X25.4 Y581.025 I3.175 J0.
N11530 G2 X26.035 Y580.39 I0. J-0.635
N11535 G1 Y579.755
N11540 G19 G2 Y579.12 Z-3.365 J0. K0.635
N11545 G1 X24.765
N11550 Z-7.365 F333.33
N11555 G3 Y579.755 Z-8. J0.635 K0. F2500.
N11560 G1 Y580.39
N11565 G17 G2 X25.4 Y581.025 I0.635 J0.
N11570 G1 X330.2
N11575 G3 X333.375 Y584.2 I0. J3.175
N11580 G1 Y1143.
N11585 G3 X330.2 Y1146.175 I-3.175 J0.
N11590 G1 X25.4
N11595 G3 X22.225 Y1143. I0. J-3.175
N11600 G1 Y584.2
N11605 G3 X25.4 Y581.025 I3.175 J0.
N11610 G2 X26.035 Y580.39 I0. J-0.635
N11615 G1 Y579.755
N11620 G19 G2 Y579.12 Z-7.365 J0. K0.635
N11625 G1 X24.765
N11630 Z-9.715 F333.33
N11635 G3 Y579.755 Z-10.35 J0.635 K0. F2500.
N11640 G1 Y580.39
N11645 G17 G2 X25.4 Y581.025 I0.635 J0.
N11650 G1 X330.2
N11655 G3 X333.375 Y584.2 I0. J3.175
N11660 G1 Y1143.
N11665 G3 X330.2 Y1146.175 I-3.175 J0.
N11670 G1 X25.4
N11675 G3 X22.225 Y1143. I0. J-3.175
N11680 G1 Y584.2
N11685 G3 X25.4 Y581.025 I3.175 J0.
N11690 G2 X26.035 Y580.39 I0. J-0.635
N11695 G1 Y579.755
N11700 G19 G2 Y579.12 Z-9.715 J0. K0.635
N11705 G1 X24.765
N11710 Z-12.065 F333.33
N11715 G3 Y579.755 Z-12.7 J0.635 K0. F2500.
N11720 G1 Y580.39
N11725 G17 G2 X25.4 Y581.025 I0.635 J0.
N11730 G1 X124.558
N11735 Z-11.113
N11740 X137.258
N11745 Z-12.7 F333.33
N11750 X257.419 F2500.
N11755 Z-11.113
N11760 X270.119
N11765 Z-12.7 F333.33
N11770 X330.2 F2500.
N11775 G3 X333.375 Y584.2 I0. J3.175
N11780 G1 Y644.281
N11785 Z-11.113
N11790 Y656.981
N11795 Z-12.7 F333.33
N11800 Y777.142 F2500.
N11805 Z-11.113
N11810 Y789.842
N11815 Z-12.7 F333.33
N11820 Y910.004 F2500.
N11825 Z-11.113
N11830 Y922.704
N11835 Z-12.7 F333.33
N11840 Y1042.87 F2500.
N11845 Z-11.113
N11850 Y1055.57
N11855 Z-12.7 F333.33
N11860 Y1143. F2500.
N11865 G3 X330.2 Y1146.175 I-3.175 J0.
N11870 G1 X297.473
N11875 Z-11.113
N11880 X284.773
N11885 Z-12.7 F333.33
N11890 X164.612 F2500.
N11895 Z-11.113
N11900 X151.912
N11905 Z-12.7 F333.33
N11910 X31.75 F2500.
N11915 Z-11.113
N11920 X25.4
N11925 G3 X22.225 Y1143. I0. J-3.175
N11930 G1 Y1139.825
N11935 Z-12.7 F333.33
N11940 Y1016.49 F2500.
N11945 Z-11.113
N11950 Y1003.79
N11955 Z-12.7 F333.33
N11960 Y883.627 F2500.
N11965 Z-11.113
N11970 Y870.927
N11975 Z-12.7 F333.33
N11980 Y750.765 F2500.
N11985 Z-11.113
N11990 Y738.065
N11995 Z-12.7 F333.33
N12000 Y617.904 F2500.
N12005 Z-11.113
N12010 Y605.204
N12015 Z-12.7 F333.33
N12020 Y584.2 F2500.
N12025 G3 X25.4 Y581.025 I3.175 J0.
N12030 G2 X26.035 Y580.39 I0. J-0.635
N12035 G1 Y579.755
N12040 G19 G2 Y579.12 Z-12.065 J0. K0.635
N12045 G0 Z15.
N12050 G17
N12060 G53 G0 X-200 Y-150
N12065 M30
%
