%
(TOPGROOVE)
(MACHINE)
(  VENDOR AUTODESK)
(  MODEL GENERIC 3-AXIS ROUTER)
(  DESCRIPTION THIS MACHINE HAS XYZ AXIS ON THE HEAD)
(T23 D=6.35 CR=0. TAPER=30DEG - ZMIN=-1.6 - CHAMFER MILL)
N10 G90 G94 G17 G91.1
N15 G21
N20 G53 G0 Z0.
(ENGRAVE1)
N25 T23 M6
N30 S18000 M3
N35 G4 P3.0
N40 G17 G90 G94
N45 G54
N50 G0 X12.701 Y12.701
N55 G43 Z15. H23
N60 G0 Z5.
N65 G1 Z-0.001 F333.33
N70 X13.624 Y13.624 Z-1.6 F2032.
N75 Y126.076
N80 X12.701 Y126.999 Z-0.001
N85 X13.624 Y126.076 Z-1.6
N90 X278.476
N95 X279.399 Y126.999 Z-0.001
N100 X278.476 Y126.076 Z-1.6
N105 Y13.624
N110 X279.399 Y12.701 Z-0.001
N115 X278.476 Y13.624 Z-1.6
N120 X13.624
N125 G0 Z15.
N135 G53 G0 X-200 Y-150
N140 M30
%
