%
(DAMPERBACKTMPLT)
(MACHINE)
(  VENDOR AUTODESK)
(  MODEL GENERIC 3-AXIS ROUTER)
(  DESCRIPTION THIS MACHINE HAS XYZ AXIS ON THE HEAD)
(T21 D=12.7 CR=0. - ZMIN=-6.35 - FLAT END MILL)
N10 G90 G94 G17 G91.1
N15 G21
N20 G53 G0 Z0.
(2D ADAPTIVE4)
N25 G53 G0 X-200 Y0
N30 T21 M6
(MANUAL TOOL CHANGE TO T21)
N35 S88 M3
N40 G4 P3.0
N45 G17 G90 G94
N50 G54
N55 G0 X72.842 Y63.119
N60 G43 Z15. H21
N65 G0 Z5.
N70 Z2.5
N75 G1 Z-6.35 F333.33
N80 X72.838 Y63.082 F3500.
N85 X72.802 Y63.094
N90 X72.789 Y63.129
N95 X72.803 Y63.163
N100 X72.835 Y63.182
N105 X72.873 Y63.178
N110 X72.904 Y63.158
N115 X72.927 Y63.128
N120 X72.937 Y63.092
N125 X72.933 Y63.055
N130 X72.916 Y63.022
N135 X72.889 Y62.995
N140 X72.857 Y62.977
N145 X72.784 Y62.96
N150 X72.711 Y62.978
N155 X72.652 Y63.025
N160 X72.615 Y63.09
N165 X72.602 Y63.164
N170 X72.612 Y63.238
N175 X72.645 Y63.305
N180 X72.745 Y63.417
N185 X72.887 Y63.466
N190 X73.036 Y63.452
N195 X73.168 Y63.382
N200 X73.268 Y63.269
N205 X73.325 Y63.13
N210 X73.336 Y62.981
N215 X73.305 Y62.834
N220 X73.236 Y62.701
N225 X73.136 Y62.59
N230 X73.011 Y62.507
N235 X72.87 Y62.455
N240 X72.721 Y62.436
N245 X72.572 Y62.45
N250 X72.428 Y62.494
N255 X72.297 Y62.566
N260 X72.182 Y62.663
N265 X72.087 Y62.779
N270 X72.016 Y62.911
N275 X71.967 Y63.053
N280 X71.941 Y63.2
N285 X71.942 Y63.35
N290 X71.965 Y63.499
N295 X72.011 Y63.642
N300 X72.078 Y63.776
N305 X72.164 Y63.899
N310 X72.266 Y64.008
N315 X72.383 Y64.102
N320 X72.511 Y64.18
N325 X72.649 Y64.239
N330 X72.794 Y64.28
N335 X72.942 Y64.302
N340 X73.092 Y64.305
N345 X73.241 Y64.29
N350 X73.388 Y64.257
N355 X73.529 Y64.207
N360 X73.664 Y64.141
N365 X73.79 Y64.059
N370 X73.906 Y63.965
N375 X74.012 Y63.858
N380 X74.105 Y63.741
N385 X74.185 Y63.614
N390 X74.252 Y63.48
N395 X74.305 Y63.339
N400 X74.343 Y63.194
N405 X74.367 Y63.046
N410 X74.376 Y62.896
N415 X74.371 Y62.747
N420 X74.351 Y62.598
N425 X74.318 Y62.451
N430 X74.271 Y62.309
N435 X74.212 Y62.171
N440 X74.141 Y62.039
N445 X74.058 Y61.914
N450 X73.964 Y61.797
N455 X73.861 Y61.688
N460 X73.749 Y61.588
N465 X73.629 Y61.499
N470 X73.502 Y61.419
N475 X73.368 Y61.35
N480 X73.227 Y61.291
N485 X73.084 Y61.245
N490 X72.934 Y61.21
N495 X72.781 Y61.186
N500 X72.627 Y61.175
N505 X72.466 Y61.176
N510 X72.309 Y61.19
N515 X72.146 Y61.218
N520 X71.99 Y61.258
N525 X71.829 Y61.313
N530 X71.678 Y61.379
N535 X71.526 Y61.46
N540 X71.383 Y61.552
N545 X71.243 Y61.659
N550 X71.114 Y61.775
N555 X70.989 Y61.906
N560 X70.878 Y62.044
N565 X70.775 Y62.195
N570 X70.685 Y62.353
N575 X70.605 Y62.524
N580 X70.54 Y62.697
N585 X70.488 Y62.883
N590 X70.451 Y63.069
N595 X70.428 Y63.263
N600 X70.421 Y63.459
N605 X70.43 Y63.656
N610 X70.455 Y63.857
N615 X70.496 Y64.052
N620 X70.554 Y64.251
N625 X70.628 Y64.444
N630 X70.718 Y64.632
N635 X70.825 Y64.816
N640 X70.945 Y64.989
N645 X71.083 Y65.157
N650 X71.235 Y65.314
N655 X71.398 Y65.458
N660 X71.578 Y65.593
N665 X71.768 Y65.713
N670 X71.967 Y65.817
N675 X72.18 Y65.907
N680 X72.401 Y65.981
N685 X72.627 Y66.036
N690 X72.86 Y66.074
N695 X73.099 Y66.093
N700 X73.34
N705 X73.582 Y66.074
N710 X73.826 Y66.034
N715 X74.068 Y65.974
N720 X74.306 Y65.895
N725 X74.538 Y65.796
N730 X74.765 Y65.678
N735 X74.985 Y65.539
N740 X75.194 Y65.382
N745 X75.391 Y65.208
N750 X75.576 Y65.017
N755 X75.745 Y64.81
N760 X75.901 Y64.586
N765 X76.039 Y64.348
N770 X76.158 Y64.099
N775 X76.257 Y63.838
N780 X76.337 Y63.568
N785 X76.394 Y63.29
N790 X76.43 Y63.006
N795 X76.442 Y62.717
N800 X76.432 Y62.425
N805 X76.397 Y62.132
N810 X76.339 Y61.84
N815 X76.257 Y61.551
N820 X76.151 Y61.267
N825 X76.021 Y60.99
N830 X75.868 Y60.723
N835 X75.693 Y60.466
N840 X75.496 Y60.222
N845 X75.278 Y59.992
N850 X75.041 Y59.779
N855 X74.784 Y59.584
N860 X74.511 Y59.409
N865 X74.222 Y59.254
N870 X73.919 Y59.123
N875 X73.603 Y59.015
N880 X73.278 Y58.932
N885 X72.943 Y58.875
N890 X72.603 Y58.845
N895 X72.258 Y58.842
N900 X71.911 Y58.868
N905 X71.564 Y58.921
N910 X71.22 Y59.003
N915 X70.88 Y59.113
N920 X70.547 Y59.251
N925 X70.224 Y59.417
N930 X69.913 Y59.61
N935 X69.616 Y59.828
N940 X69.335 Y60.072
N945 X69.073 Y60.34
N950 X68.831 Y60.63
N955 X68.611 Y60.942
N960 X68.416 Y61.272
N965 X68.246 Y61.62
N970 X68.104 Y61.983
N975 X67.99 Y62.359
N980 X67.906 Y62.746
N985 X67.854 Y63.141
N990 X67.833 Y63.543
N995 X67.844 Y63.948
N1000 X67.888 Y64.354
N1005 X67.965 Y64.758
N1010 X68.076 Y65.157
N1015 X68.219 Y65.55
N1020 X68.394 Y65.932
N1025 X68.601 Y66.303
N1030 X68.839 Y66.658
N1035 X69.107 Y66.995
N1040 X69.404 Y67.313
N1045 X69.727 Y67.608
N1050 X70.075 Y67.878
N1055 X70.447 Y68.12
N1060 X70.84 Y68.334
N1065 X71.252 Y68.517
N1070 X71.68 Y68.667
N1075 X72.122 Y68.783
N1080 X72.575 Y68.864
N1085 X73.036 Y68.909
N1090 X73.503 Y68.916
N1095 X73.972 Y68.886
N1100 X74.44 Y68.818
N1105 X74.904 Y68.712
N1110 X75.362 Y68.568
N1115 X75.81 Y68.386
N1120 X76.245 Y68.167
N1125 X76.663 Y67.913
N1130 X77.063 Y67.624
N1135 X77.44 Y67.301
N1140 X77.793 Y66.947
N1145 X78.119 Y66.563
N1150 X78.415 Y66.151
N1155 X78.678 Y65.714
N1160 X78.907 Y65.253
N1165 X79.1 Y64.773
N1170 X79.255 Y64.275
N1175 X79.37 Y63.763
N1180 X79.445 Y63.24
N1185 X79.477 Y62.709
N1190 X79.466 Y62.173
N1195 X79.412 Y61.637
N1200 X79.315 Y61.104
N1205 X79.174 Y60.576
N1210 X78.99 Y60.059
N1215 X78.764 Y59.555
N1220 X78.496 Y59.067
N1225 X78.189 Y58.6
N1230 X77.842 Y58.156
N1235 X77.459 Y57.739
N1240 X77.041 Y57.351
N1245 X76.591 Y56.997
N1250 X76.11 Y56.677
N1255 X75.602 Y56.395
N1260 X75.07 Y56.154
N1265 X74.517 Y55.955
N1270 X73.947 Y55.8
N1275 X73.362 Y55.69
N1280 X72.766 Y55.628
N1285 X72.164 Y55.613
N1290 X71.559 Y55.647
N1295 X70.954 Y55.73
N1300 X70.355 Y55.862
N1305 X69.764 Y56.042
N1310 X69.186 Y56.271
N1315 X68.625 Y56.548
N1320 X68.085 Y56.87
N1325 X67.569 Y57.237
N1330 X67.082 Y57.646
N1335 X66.626 Y58.096
N1340 X66.206 Y58.584
N1345 X65.824 Y59.107
N1350 X65.483 Y59.662
N1355 X65.186 Y60.246
N1360 X64.935 Y60.855
N1365 X64.734 Y61.486
N1370 X64.582 Y62.134
N1375 X64.483 Y62.797
N1380 X64.437 Y63.468
N1385 X64.444 Y64.145
N1390 X64.507 Y64.823
N1395 X64.624 Y65.498
N1400 X64.797 Y66.164
N1405 X65.023 Y66.819
N1410 X65.302 Y67.456
N1415 X65.634 Y68.072
N1420 X66.016 Y68.663
N1425 X66.447 Y69.225
N1430 X66.924 Y69.752
N1435 X67.444 Y70.243
N1440 X68.005 Y70.692
N1445 X68.604 Y71.097
N1450 X69.237 Y71.455
N1455 X69.899 Y71.763
N1460 X70.589 Y72.017
N1465 X71.3 Y72.217
N1470 X72.028 Y72.36
N1475 X72.77 Y72.444
N1480 X73.52 Y72.468
N1485 X74.274 Y72.432
N1490 X75.026 Y72.335
N1495 X75.772 Y72.178
N1500 X76.506 Y71.959
N1505 X77.225 Y71.682
N1510 X77.922 Y71.345
N1515 X78.593 Y70.952
N1520 X79.235 Y70.504
N1525 X79.841 Y70.003
N1530 X80.408 Y69.453
N1535 X80.931 Y68.855
N1540 X81.407 Y68.214
N1545 X81.833 Y67.534
N1550 X82.204 Y66.818
N1555 X82.519 Y66.072
N1560 X82.773 Y65.298
N1565 X82.966 Y64.503
N1570 X83.094 Y63.691
N1575 X83.158 Y62.868
N1580 X83.155 Y62.038
N1585 X83.085 Y61.207
N1590 X82.948 Y60.38
N1595 X82.745 Y59.564
N1600 X82.475 Y58.762
N1605 X82.14 Y57.981
N1610 X81.742 Y57.227
N1615 X81.282 Y56.503
N1620 X80.763 Y55.815
N1625 X80.188 Y55.168
N1630 X79.56 Y54.566
N1635 X79.069 Y54.166
N1640 X78.738 Y53.932
N1645 X78.379 Y53.746
N1650 X77.997 Y53.61
N1655 X77.601 Y53.528
N1660 X77.197 Y53.5
N1665 X72.842
N1670 X72.081 Y53.532
N1675 X71.319 Y53.622
N1680 X70.558 Y53.764
N1685 X69.825 Y53.975
N1690 X69.797 Y53.984
N1695 X69.035 Y54.263
N1700 X68.274 Y54.604
N1705 X68.032 Y54.737
N1710 X67.513 Y55.05
N1715 X66.846 Y55.499
N1720 X66.751 Y55.578
N1725 X65.99 Y56.217
N1730 X65.944 Y56.261
N1735 X65.229 Y57.016
N1740 X64.647 Y57.785
N1745 X64.468 Y58.036
N1750 X64.163 Y58.547
N1755 X63.773 Y59.309
N1760 X63.706 Y59.453
N1765 X63.454 Y60.071
N1770 X63.212 Y60.833
N1775 X63.031 Y61.595
N1780 X62.945 Y62.098
N1785 X62.911 Y62.357
N1790 X62.85 Y63.119
N1795 Y63.881
N1800 X62.911 Y64.643
N1805 X62.945 Y64.903
N1810 X63.031 Y65.405
N1815 X63.212 Y66.167
N1820 X63.454 Y66.929
N1825 X63.706 Y67.548
N1830 X63.773 Y67.691
N1835 X64.162 Y68.453
N1840 X64.468 Y68.965
N1845 X64.647 Y69.215
N1850 X65.229 Y69.984
N1855 X65.943 Y70.739
N1860 X65.99 Y70.783
N1865 X66.751 Y71.423
N1870 X66.846 Y71.501
N1875 X67.513 Y71.951
N1880 X68.031 Y72.263
N1885 X68.274 Y72.396
N1890 X69.035 Y72.737
N1895 X69.797 Y73.016
N1900 X69.824 Y73.025
N1905 X70.558 Y73.236
N1910 X71.319 Y73.379
N1915 X72.081 Y73.469
N1920 X72.842 Y73.5
N1925 X78.171
N1930 X78.576 Y73.48
N1935 X79.082 Y73.414
N1940 X79.641 Y73.294
N1945 X80.211 Y73.123
N1950 X80.803 Y72.893
N1955 X81.427 Y72.59
N1960 X82.049 Y72.224
N1965 X82.663 Y71.793
N1970 X83.28 Y71.28
N1975 X83.887 Y70.688
N1980 X84.464 Y70.026
N1985 X85. Y69.303
N1990 X85.492 Y68.512
N1995 X85.935 Y67.653
N2000 X86.319 Y66.733
N2005 X86.637 Y65.76
N2010 X86.881 Y64.742
N2015 X87.046 Y63.688
N2020 X87.127 Y62.609
N2025 X87.12 Y61.513
N2030 X87.025 Y60.408
N2035 X86.839 Y59.302
N2040 X86.563 Y58.204
N2045 X86.196 Y57.122
N2050 X85.739 Y56.065
N2055 X85.199 Y55.046
N2060 X85.086 Y54.869
N2065 X84.832 Y54.529
N2070 X84.533 Y54.228
N2075 X84.194 Y53.973
N2080 X83.822 Y53.77
N2085 X83.425 Y53.621
N2090 X83.011 Y53.53
N2095 X82.588 Y53.5
N2100 X77.197
N2105 G2 X76.121 Y54.172 Z-6.217 I0.044 J1.269
N2110 X75.958 Y54.81 Z-6.15 I1.224 J0.652
N2115 X77.007 Y56.17 I1.387 J0.014
N2120 X81.151 Y54.73 I0.975 J-3.879
N2125 X81.511 Y54.172 Z-6.217 I-3.17 J-2.44
N2130 G3 X82.588 Y53.5 Z-6.35 I1.121 J0.597
N2135 G1 X84.681 F3150.
N2140 X85.002 Y53.516
N2145 X85.245 Y53.548
N2150 X85.515 Y53.606
N2155 X85.838 Y53.703
N2160 X86.166 Y53.83
N2165 X86.539 Y54.011
N2170 X86.931 Y54.242
N2175 X87.342 Y54.531
N2180 X87.774 Y54.889
N2185 X88.208 Y55.313
N2190 X88.647 Y55.816
N2195 X89.086 Y56.409
N2200 X89.492 Y57.062
N2205 X89.888 Y57.829
N2210 X90.238 Y58.666
N2215 X90.532 Y59.568
N2220 X90.771 Y60.564
N2225 X90.939 Y61.636
N2230 X91.022 Y62.757
N2235 X91.016 Y63.905
N2240 X90.915 Y65.074
N2245 X90.717 Y66.254
N2250 X90.421 Y67.429
N2255 X90.03 Y68.58
N2260 X89.549 Y69.695
N2265 X88.983 Y70.761
N2270 X88.343 Y71.764
N2275 X87.917 Y72.327
N2280 X87.615 Y72.667
N2285 X87.264 Y72.957
N2290 X86.874 Y73.191
N2295 X86.452 Y73.361
N2300 X86.009 Y73.465
N2305 X85.555 Y73.5
N2310 X78.171
N2315 G3 X77.095 Y72.828 Z-6.217 I0.044 J-1.269 F3500.
N2320 X76.918 Y72.193 Z-6.15 I1.347 J-0.718
N2325 X77.728 Y70.761 I1.525 J-0.082
N2330 X84.127 Y72.264 I2.338 J4.42
N2335 X84.478 Y72.828 Z-6.217 I-4.061 J2.917
N2340 G2 X85.555 Y73.5 Z-6.35 I1.121 J-0.597
N2345 G1 X87.914
N2350 X88.147 Y73.489
N2355 X88.426 Y73.452
N2360 X88.759 Y73.381
N2365 X89.127 Y73.27
N2370 X89.514 Y73.12
N2375 X89.957 Y72.905
N2380 X90.396 Y72.646
N2385 X90.889 Y72.3
N2390 X91.368 Y71.903
N2395 X91.888 Y71.395
N2400 X92.378 Y70.833
N2405 X92.883 Y70.151
N2410 X93.362 Y69.38
N2415 X93.798 Y68.536
N2420 X94.199 Y67.577
N2425 X94.543 Y66.522
N2430 X94.81 Y65.412
N2435 X94.991 Y64.253
N2440 X95.081 Y63.049
N2445 X95.074 Y61.825
N2450 X94.968 Y60.602
N2455 X94.766 Y59.398
N2460 X94.474 Y58.241
N2465 X94.103 Y57.146
N2470 X93.663 Y56.127
N2475 X93.165 Y55.189
N2480 X92.961 Y54.869
N2485 X92.708 Y54.529
N2490 X92.409 Y54.228
N2495 X92.07 Y53.973
N2500 X91.698 Y53.77
N2505 X91.3 Y53.621
N2510 X90.886 Y53.53
N2515 X90.463 Y53.5
N2520 X84.681
N2525 G2 X83.604 Y54.172 Z-6.217 I0.044 J1.269
N2530 X83.455 Y54.813 Z-6.15 I1.125 J0.6
N2535 X84.201 Y55.932 I1.274 J-0.041
N2540 X89.027 Y54.73 I1.656 J-3.641
N2545 X89.387 Y54.172 Z-6.217 I-3.17 J-2.44
N2550 G3 X90.463 Y53.5 Z-6.35 I1.121 J0.597
N2555 G1 X92.636 F3150.
N2560 X92.891 Y53.513
N2565 X93.141 Y53.546
N2570 X93.411 Y53.603
N2575 X93.735 Y53.7
N2580 X94.065 Y53.829
N2585 X94.438 Y54.01
N2590 X94.834 Y54.243
N2595 X95.244 Y54.531
N2600 X95.686 Y54.898
N2605 X96.12 Y55.322
N2610 X96.576 Y55.844
N2615 X97.015 Y56.437
N2620 X97.444 Y57.127
N2625 X97.858 Y57.929
N2630 X98.216 Y58.785
N2635 X98.535 Y59.762
N2640 X98.793 Y60.84
N2645 X98.969 Y61.969
N2650 X99.057 Y63.146
N2655 X99.05 Y64.38
N2660 X98.942 Y65.64
N2665 X98.732 Y66.891
N2670 X98.423 Y68.116
N2675 X98.022 Y69.297
N2680 X97.542 Y70.408
N2685 X96.997 Y71.437
N2690 X96.554 Y72.131
N2695 X96.3 Y72.472
N2700 X96.001 Y72.772
N2705 X95.662 Y73.027
N2710 X95.29 Y73.231
N2715 X94.893 Y73.379
N2720 X94.479 Y73.47
N2725 X94.056 Y73.5
N2730 X87.914
N2735 G3 X86.838 Y72.828 Z-6.217 I0.044 J-1.269 F3500.
N2740 X86.717 Y72.184 Z-6.15 I0.964 J-0.514
N2745 X87.183 Y71.414 I1.085 J0.13
N2750 X92.619 Y72.27 I2.267 J3.296
N2755 X92.979 Y72.828 Z-6.217 I-3.17 J2.44
N2760 G2 X94.056 Y73.5 Z-6.35 I1.121 J-0.597
N2765 G1 X96.289
N2770 X96.524 Y73.488
N2775 X96.798 Y73.452
N2780 X97.093 Y73.389
N2785 X97.42 Y73.291
N2790 X97.799 Y73.144
N2795 X98.179 Y72.959
N2800 X98.611 Y72.705
N2805 X99.049 Y72.397
N2810 X99.516 Y72.01
N2815 X99.988 Y71.549
N2820 X100.473 Y70.993
N2825 X100.94 Y70.362
N2830 X101.413 Y69.602
N2835 X101.834 Y68.787
N2840 X102.226 Y67.85
N2845 X102.567 Y66.804
N2850 X102.833 Y65.695
N2855 X103.014 Y64.535
N2860 X103.105 Y63.312
N2865 X103.098 Y62.056
N2870 X102.99 Y60.803
N2875 X102.783 Y59.567
N2880 X102.482 Y58.374
N2885 X102.099 Y57.244
N2890 X101.647 Y56.198
N2895 X101.139 Y55.24
N2900 X100.902 Y54.869
N2905 X100.649 Y54.529
N2910 X100.35 Y54.228
N2915 X100.011 Y53.973
N2920 X99.639 Y53.77
N2925 X99.242 Y53.621
N2930 X98.827 Y53.53
N2935 X98.404 Y53.5
N2940 X92.636
N2945 G2 X91.56 Y54.172 Z-6.217 I0.044 J1.269
N2950 X91.41 Y54.812 Z-6.15 I1.13 J0.602
N2955 X92.168 Y55.943 I1.28 J-0.038
N2960 X96.968 Y54.73 I1.63 J-3.653
N2965 X97.328 Y54.172 Z-6.217 I-3.17 J-2.44
N2970 G3 X98.404 Y53.5 Z-6.35 I1.121 J0.597
N2975 G1 X100.668 F3150.
N2980 X100.836 Y53.509
N2985 X101.092 Y53.542
N2990 X101.363 Y53.6
N2995 X101.689 Y53.698
N3000 X102.027 Y53.83
N3005 X102.401 Y54.011
N3010 X102.81 Y54.251
N3015 X103.221 Y54.54
N3020 X103.675 Y54.917
N3025 X104.112 Y55.344
N3030 X104.583 Y55.883
N3035 X105.023 Y56.478
N3040 X105.467 Y57.192
N3045 X105.884 Y57.999
N3050 X106.253 Y58.883
N3055 X106.582 Y59.891
N3060 X106.845 Y60.987
N3065 X107.023 Y62.127
N3070 X107.113 Y63.33
N3075 X107.106 Y64.584
N3080 X106.996 Y65.854
N3085 X106.786 Y67.107
N3090 X106.478 Y68.331
N3095 X106.082 Y69.498
N3100 X105.609 Y70.592
N3105 X105.078 Y71.593
N3110 X104.734 Y72.131
N3115 X104.481 Y72.472
N3120 X104.182 Y72.772
N3125 X103.843 Y73.027
N3130 X103.471 Y73.231
N3135 X103.074 Y73.379
N3140 X102.66 Y73.47
N3145 X102.237 Y73.5
N3150 X96.289
N3155 G3 X95.212 Y72.828 Z-6.217 I0.044 J-1.269 F3500.
N3160 X95.074 Y72.186 Z-6.15 I1.061 J-0.565
N3165 X95.69 Y71.212 I1.199 J0.077
N3170 X100.8 Y72.27 I1.941 J3.498
N3175 X101.16 Y72.828 Z-6.217 I-3.17 J2.44
N3180 G2 X102.237 Y73.5 Z-6.35 I1.121 J-0.597
N3185 G1 X104.475
N3190 X104.687 Y73.49
N3195 X104.957 Y73.454
N3200 X105.237 Y73.394
N3205 X105.563 Y73.297
N3210 X105.928 Y73.155
N3215 X106.302 Y72.973
N3220 X106.73 Y72.721
N3225 X107.15 Y72.426
N3230 X107.617 Y72.038
N3235 X108.071 Y71.596
N3240 X108.555 Y71.041
N3245 X109.007 Y70.429
N3250 X109.473 Y69.681
N3255 X109.89 Y68.873
N3260 X110.275 Y67.952
N3265 X110.614 Y66.915
N3270 X110.879 Y65.809
N3275 X111.059 Y64.654
N3280 X111.15 Y63.432
N3285 X111.143 Y62.172
N3290 X111.034 Y60.909
N3295 X110.825 Y59.663
N3300 X110.521 Y58.456
N3305 X110.133 Y57.313
N3310 X109.675 Y56.251
N3315 X109.159 Y55.28
N3320 X108.897 Y54.869
N3325 X108.644 Y54.529
N3330 X108.345 Y54.228
N3335 X108.006 Y53.973
N3340 X107.634 Y53.77
N3345 X107.237 Y53.621
N3350 X106.822 Y53.53
N3355 X106.399 Y53.5
N3360 X100.668
N3365 G2 X99.592 Y54.172 Z-6.217 I0.044 J1.269
N3370 X99.44 Y54.812 Z-6.15 I1.142 J0.609
N3375 X100.227 Y55.971 I1.293 J-0.032
N3380 X104.963 Y54.73 I1.566 J-3.681
N3385 X105.323 Y54.172 Z-6.217 I-3.17 J-2.44
N3390 G3 X106.399 Y53.5 Z-6.35 I1.121 J0.597
N3395 G1 X108.624 F3150.
N3400 X108.836 Y53.511
N3405 X109.097 Y53.545
N3410 X109.369 Y53.603
N3415 X109.696 Y53.701
N3420 X110.04 Y53.835
N3425 X110.414 Y54.016
N3430 X110.83 Y54.261
N3435 X111.242 Y54.551
N3440 X111.702 Y54.932
N3445 X112.142 Y55.362
N3450 X112.618 Y55.907
N3455 X113.06 Y56.506
N3460 X113.512 Y57.232
N3465 X113.928 Y58.038
N3470 X114.303 Y58.935
N3475 X114.636 Y59.954
N3480 X114.9 Y61.055
N3485 X115.079 Y62.201
N3490 X115.169 Y63.411
N3495 X115.162 Y64.67
N3500 X115.053 Y65.94
N3505 X114.842 Y67.191
N3510 X114.535 Y68.411
N3515 X114.142 Y69.57
N3520 X113.674 Y70.653
N3525 X113.149 Y71.643
N3530 X112.837 Y72.131
N3535 X112.584 Y72.472
N3540 X112.285 Y72.772
N3545 X111.946 Y73.027
N3550 X111.574 Y73.231
N3555 X111.177 Y73.379
N3560 X110.763 Y73.47
N3565 X110.34 Y73.5
N3570 X104.475
N3575 G3 X103.398 Y72.828 Z-6.217 I0.044 J-1.269 F3500.
N3580 X103.254 Y72.187 Z-6.15 I1.095 J-0.584
N3585 X103.936 Y71.137 I1.239 J0.058
N3590 X108.903 Y72.27 I1.798 J3.573
N3595 X109.263 Y72.828 Z-6.217 I-3.17 J2.44
N3600 G2 X110.34 Y73.5 Z-6.35 I1.121 J-0.597
N3605 G1 X112.557
N3610 X112.785 Y73.489
N3615 X113.052 Y73.454
N3620 X113.328 Y73.395
N3625 X113.655 Y73.297
N3630 X114.012 Y73.158
N3635 X114.385 Y72.977
N3640 X114.81 Y72.727
N3645 X115.226 Y72.434
N3650 X115.691 Y72.048
N3655 X116.139 Y71.611
N3660 X116.621 Y71.059
N3665 X117.069 Y70.453
N3670 X117.53 Y69.712
N3675 X117.947 Y68.905
N3680 X118.328 Y67.992
N3685 X118.665 Y66.961
N3690 X118.93 Y65.856
N3695 X119.11 Y64.704
N3700 X119.201 Y63.486
N3705 X119.194 Y62.225
N3710 X119.084 Y60.959
N3715 X118.875 Y59.711
N3720 X118.569 Y58.499
N3725 X118.18 Y57.35
N3730 X117.718 Y56.281
N3735 X117.2 Y55.304
N3740 X116.922 Y54.869
N3745 X116.669 Y54.529
N3750 X116.37 Y54.228
N3755 X116.031 Y53.973
N3760 X115.659 Y53.77
N3765 X115.262 Y53.621
N3770 X114.847 Y53.53
N3775 X114.424 Y53.5
N3780 X108.624
N3785 G2 X107.548 Y54.172 Z-6.217 I0.044 J1.269
N3790 X107.399 Y54.813 Z-6.15 I1.119 J0.596
N3795 X108.132 Y55.918 I1.267 J-0.045
N3800 X112.988 Y54.73 I1.686 J-3.627
N3805 X113.348 Y54.172 Z-6.217 I-3.17 J-2.44
N3810 G3 X114.424 Y53.5 Z-6.35 I1.121 J0.597
N3815 G1 X116.656 F3150.
N3820 X116.864 Y53.511
N3825 X117.127 Y53.545
N3830 X117.4 Y53.603
N3835 X117.726 Y53.701
N3840 X118.075 Y53.837
N3845 X118.448 Y54.018
N3850 X118.868 Y54.265
N3855 X119.281 Y54.555
N3860 X119.742 Y54.938
N3865 X120.185 Y55.37
N3870 X120.663 Y55.918
N3875 X121.107 Y56.519
N3880 X121.562 Y57.25
N3885 X121.978 Y58.056
N3890 X122.356 Y58.959
N3895 X122.69 Y59.983
N3900 X122.954 Y61.085
N3905 X123.134 Y62.233
N3910 X123.224 Y63.446
N3915 X123.217 Y64.706
N3920 X123.108 Y65.975
N3925 X122.898 Y67.225
N3930 X122.591 Y68.443
N3935 X122.199 Y69.598
N3940 X121.733 Y70.677
N3945 X121.211 Y71.662
N3950 X120.911 Y72.131
N3955 X120.658 Y72.472
N3960 X120.359 Y72.772
N3965 X120.02 Y73.027
N3970 X119.648 Y73.231
N3975 X119.251 Y73.379
N3980 X118.836 Y73.47
N3985 X118.413 Y73.5
N3990 X112.557
N3995 G3 X111.481 Y72.828 Z-6.217 I0.044 J-1.269 F3500.
N4000 X111.336 Y72.187 Z-6.15 I1.098 J-0.585
N4005 X112.025 Y71.129 I1.243 J0.056
N4010 X116.977 Y72.27 I1.783 J3.581
N4015 X117.337 Y72.828 Z-6.217 I-3.17 J2.44
N4020 G2 X118.413 Y73.5 Z-6.35 I1.121 J-0.597
N4025 G1 X120.651
N4030 X120.856 Y73.49
N4035 X121.122 Y73.455
N4040 X121.397 Y73.396
N4045 X121.723 Y73.298
N4050 X122.078 Y73.16
N4055 X122.451 Y72.979
N4060 X122.874 Y72.73
N4065 X123.289 Y72.439
N4070 X123.753 Y72.054
N4075 X124.199 Y71.619
N4080 X124.679 Y71.068
N4085 X125.126 Y70.464
N4090 X125.585 Y69.726
N4095 X126.002 Y68.919
N4100 X126.382 Y68.01
N4105 X126.718 Y66.981
N4110 X126.983 Y65.877
N4115 X127.162 Y64.726
N4120 X127.253 Y63.509
N4125 X127.246 Y62.248
N4130 X127.137 Y60.981
N4135 X126.927 Y59.732
N4140 X126.621 Y58.518
N4145 X126.231 Y57.367
N4150 X125.768 Y56.295
N4155 X125.248 Y55.315
N4160 X124.963 Y54.869
N4165 X124.71 Y54.529
N4170 X124.411 Y54.228
N4175 X124.072 Y53.973
N4180 X123.7 Y53.77
N4185 X123.303 Y53.621
N4190 X122.888 Y53.53
N4195 X122.465 Y53.5
N4200 X116.656
N4205 G2 X115.58 Y54.172 Z-6.217 I0.044 J1.269
N4210 X115.432 Y54.813 Z-6.15 I1.115 J0.595
N4215 X116.157 Y55.91 I1.263 J-0.046
N4220 X121.029 Y54.73 I1.702 J-3.62
N4225 X121.389 Y54.172 Z-6.217 I-3.17 J-2.44
N4230 G3 X122.465 Y53.5 Z-6.35 I1.121 J0.597
N4235 G1 X124.612 F3150.
N4240 X124.908 Y53.515
N4245 X125.172 Y53.55
N4250 X125.445 Y53.608
N4255 X125.772 Y53.706
N4260 X126.122 Y53.842
N4265 X126.495 Y54.023
N4270 X126.915 Y54.271
N4275 X127.329 Y54.561
N4280 X127.791 Y54.945
N4285 X128.235 Y55.377
N4290 X128.713 Y55.926
N4295 X129.158 Y56.528
N4300 X129.614 Y57.261
N4305 X130.031 Y58.067
N4310 X130.409 Y58.972
N4315 X130.744 Y59.997
N4320 X131.008 Y61.1
N4325 X131.187 Y62.248
N4330 X131.278 Y63.463
N4335 X131.271 Y64.723
N4340 X131.161 Y65.991
N4345 X130.952 Y67.241
N4350 X130.645 Y68.457
N4355 X130.254 Y69.611
N4360 X129.789 Y70.688
N4365 X129.267 Y71.671
N4370 X128.973 Y72.131
N4375 X128.72 Y72.472
N4380 X128.421 Y72.772
N4385 X128.082 Y73.027
N4390 X127.71 Y73.231
N4395 X127.313 Y73.379
N4400 X126.899 Y73.47
N4405 X126.476 Y73.5
N4410 X120.651
N4415 G3 X119.575 Y72.828 Z-6.217 I0.044 J-1.269 F3500.
N4420 X119.428 Y72.187 Z-6.15 I1.11 J-0.592
N4425 X120.141 Y71.103 I1.257 J0.049
N4430 X125.039 Y72.27 I1.729 J3.607
N4435 X125.399 Y72.828 Z-6.217 I-3.17 J2.44
N4440 G2 X126.476 Y73.5 Z-6.35 I1.121 J-0.597
N4445 G1 X128.649
N4450 X128.919 Y73.487
N4455 X129.184 Y73.452
N4460 X129.459 Y73.393
N4465 X129.785 Y73.295
N4470 X130.138 Y73.158
N4475 X130.511 Y72.977
N4480 X130.933 Y72.729
N4485 X131.347 Y72.438
N4490 X131.811 Y72.053
N4495 X132.255 Y71.619
N4500 X132.735 Y71.069
N4505 X133.181 Y70.466
N4510 X133.639 Y69.73
N4515 X134.056 Y68.923
N4520 X134.435 Y68.016
N4525 X134.771 Y66.988
N4530 X135.035 Y65.885
N4535 X135.215 Y64.735
N4540 X135.305 Y63.519
N4545 X135.298 Y62.259
N4550 X135.189 Y60.992
N4555 X134.979 Y59.743
N4560 X134.673 Y58.529
N4565 X134.282 Y57.377
N4570 X133.819 Y56.304
N4575 X133.299 Y55.323
N4580 X133.009 Y54.869
N4585 X132.756 Y54.529
N4590 X132.457 Y54.228
N4595 X132.118 Y53.973
N4600 X131.746 Y53.77
N4605 X131.349 Y53.621
N4610 X130.934 Y53.53
N4615 X130.511 Y53.5
N4620 X124.612
N4625 G2 X123.535 Y54.172 Z-6.217 I0.044 J1.269
N4630 X123.393 Y54.814 Z-6.15 I1.081 J0.576
N4635 X124.047 Y55.833 I1.223 J-0.065
N4640 X129.075 Y54.73 I1.858 J-3.543
N4645 X129.435 Y54.172 Z-6.217 I-3.17 J-2.44
N4650 G3 X130.511 Y53.5 Z-6.35 I1.121 J0.597
N4655 G1 X132.644 F3150.
N4660 X132.955 Y53.516
N4665 X133.22 Y53.55
N4670 X133.493 Y53.609
N4675 X133.82 Y53.707
N4680 X134.171 Y53.843
N4685 X134.544 Y54.025
N4690 X134.965 Y54.272
N4695 X135.379 Y54.563
N4700 X135.842 Y54.947
N4705 X136.285 Y55.38
N4710 X136.765 Y55.929
N4715 X137.21 Y56.531
N4720 X137.667 Y57.265
N4725 X138.083 Y58.072
N4730 X138.461 Y58.977
N4735 X138.796 Y60.003
N4740 X139.061 Y61.106
N4745 X139.24 Y62.255
N4750 X139.331 Y63.47
N4755 X139.324 Y64.73
N4760 X139.214 Y65.997
N4765 X139.005 Y67.247
N4770 X138.699 Y68.462
N4775 X138.307 Y69.615
N4780 X137.843 Y70.69
N4785 X137.322 Y71.672
N4790 X137.029 Y72.131
N4795 X136.776 Y72.472
N4800 X136.477 Y72.772
N4805 X136.138 Y73.027
N4810 X135.766 Y73.231
N4815 X135.369 Y73.379
N4820 X134.954 Y73.47
N4825 X134.531 Y73.5
N4830 X128.649
N4835 G3 X127.572 Y72.828 Z-6.217 I0.044 J-1.269 F3500.
N4840 X127.429 Y72.187 Z-6.15 I1.088 J-0.58
N4845 X128.097 Y71.152 I1.231 J0.062
N4850 X133.095 Y72.27 I1.828 J3.558
N4855 X133.455 Y72.828 Z-6.217 I-3.17 J2.44
N4860 G2 X134.531 Y73.5 Z-6.35 I1.121 J-0.597
N4865 G1 X136.793
N4870 X136.972 Y73.491
N4875 X137.238 Y73.456
N4880 X137.512 Y73.398
N4885 X137.838 Y73.3
N4890 X138.191 Y73.163
N4895 X138.564 Y72.981
N4900 X138.986 Y72.733
N4905 X139.4 Y72.442
N4910 X139.864 Y72.057
N4915 X140.309 Y71.624
N4920 X140.788 Y71.073
N4925 X141.234 Y70.471
N4930 X141.692 Y69.735
N4935 X142.108 Y68.928
N4940 X142.488 Y68.021
N4945 X142.823 Y66.994
N4950 X143.088 Y65.89
N4955 X143.267 Y64.741
N4960 X143.358 Y63.525
N4965 X143.351 Y62.265
N4970 X143.242 Y60.997
N4975 X143.032 Y59.748
N4980 X142.726 Y58.534
N4985 X142.335 Y57.381
N4990 X141.871 Y56.307
N4995 X141.351 Y55.326
N5000 X141.059 Y54.869
N5005 X140.806 Y54.529
N5010 X140.507 Y54.228
N5015 X140.167 Y53.973
N5020 X139.796 Y53.77
N5025 X139.398 Y53.621
N5030 X138.984 Y53.53
N5035 X138.561 Y53.5
N5040 X132.644
N5045 G2 X131.567 Y54.172 Z-6.217 I0.044 J1.269
N5050 X131.426 Y54.814 Z-6.15 I1.074 J0.572
N5055 X132.067 Y55.817 I1.215 J-0.069
N5060 X137.124 Y54.73 I1.888 J-3.526
N5065 X137.485 Y54.172 Z-6.217 I-3.17 J-2.44
N5070 G3 X138.561 Y53.5 Z-6.35 I1.121 J0.597
N5075 G1 X140.83 F3150.
N5080 X141.002 Y53.509
N5085 X141.267 Y53.543
N5090 X141.541 Y53.602
N5095 X141.867 Y53.7
N5100 X142.22 Y53.837
N5105 X142.593 Y54.018
N5110 X143.015 Y54.266
N5115 X143.429 Y54.557
N5120 X143.892 Y54.942
N5125 X144.336 Y55.376
N5130 X144.816 Y55.925
N5135 X145.262 Y56.528
N5140 X145.719 Y57.263
N5145 X146.136 Y58.07
N5150 X146.515 Y58.976
N5155 X146.85 Y60.003
N5160 X147.115 Y61.107
N5165 X147.294 Y62.256
N5170 X147.385 Y63.472
N5175 X147.378 Y64.733
N5180 X147.268 Y66.001
N5185 X147.058 Y67.25
N5190 X146.752 Y68.466
N5195 X146.361 Y69.619
N5200 X145.897 Y70.694
N5205 X145.376 Y71.676
N5210 X145.085 Y72.131
N5215 X144.832 Y72.472
N5220 X144.533 Y72.772
N5225 X144.194 Y73.027
N5230 X143.822 Y73.231
N5235 X143.425 Y73.379
N5240 X143.011 Y73.47
N5245 X142.588 Y73.5
N5250 X136.793
N5255 G3 X135.717 Y72.828 Z-6.217 I0.044 J-1.269 F3500.
N5260 X135.568 Y72.188 Z-6.15 I1.121 J-0.597
N5265 X136.305 Y71.078 I1.269 J0.043
N5270 X141.151 Y72.27 I1.676 J3.632
N5275 X141.511 Y72.828 Z-6.217 I-3.17 J2.44
N5280 G2 X142.588 Y73.5 Z-6.35 I1.121 J-0.597
N5285 G1 X144.825
N5290 X145.029 Y73.49
N5295 X145.294 Y73.455
N5300 X145.568 Y73.397
N5305 X145.894 Y73.299
N5310 X146.246 Y73.162
N5315 X146.62 Y72.981
N5320 X147.041 Y72.732
N5325 X147.455 Y72.441
N5330 X147.919 Y72.057
N5335 X148.363 Y71.623
N5340 X148.843 Y71.073
N5345 X149.288 Y70.471
N5350 X149.746 Y69.736
N5355 X150.162 Y68.929
N5360 X150.541 Y68.022
N5365 X150.877 Y66.995
N5370 X151.141 Y65.891
N5375 X151.321 Y64.742
N5380 X151.412 Y63.526
N5385 X151.405 Y62.265
N5390 X151.295 Y60.997
N5395 X151.085 Y59.748
N5400 X150.779 Y58.532
N5405 X150.388 Y57.379
N5410 X149.924 Y56.304
N5415 X149.403 Y55.322
N5420 X149.114 Y54.869
N5425 X148.86 Y54.529
N5430 X148.561 Y54.228
N5435 X148.222 Y53.973
N5440 X147.85 Y53.77
N5445 X147.453 Y53.621
N5450 X147.039 Y53.53
N5455 X146.616 Y53.5
N5460 X140.83
N5465 G2 X139.753 Y54.172 Z-6.217 I0.044 J1.269
N5470 X139.604 Y54.813 Z-6.15 I1.124 J0.599
N5475 X140.348 Y55.929 I1.272 J-0.042
N5480 X145.179 Y54.73 I1.662 J-3.639
N5485 X145.539 Y54.172 Z-6.217 I-3.17 J-2.44
N5490 G3 X146.616 Y53.5 Z-6.35 I1.121 J0.597
N5495 G1 X148.82 F3150.
N5500 X149.058 Y53.512
N5505 X149.323 Y53.547
N5510 X149.596 Y53.605
N5515 X149.923 Y53.703
N5520 X150.275 Y53.84
N5525 X150.648 Y54.021
N5530 X151.069 Y54.269
N5535 X151.483 Y54.56
N5540 X151.946 Y54.945
N5545 X152.39 Y55.378
N5550 X152.87 Y55.928
N5555 X153.316 Y56.53
N5560 X153.773 Y57.265
N5565 X154.189 Y58.072
N5570 X154.568 Y58.978
N5575 X154.904 Y60.005
N5580 X155.168 Y61.108
N5585 X155.348 Y62.257
N5590 X155.438 Y63.473
N5595 X155.431 Y64.734
N5600 X155.322 Y66.002
N5605 X155.112 Y67.251
N5610 X154.806 Y68.467
N5615 X154.415 Y69.619
N5620 X153.951 Y70.694
N5625 X153.43 Y71.676
N5630 X153.139 Y72.131
N5635 X152.886 Y72.472
N5640 X152.587 Y72.772
N5645 X152.248 Y73.027
N5650 X151.876 Y73.231
N5655 X151.479 Y73.379
N5660 X151.065 Y73.47
N5665 X150.642 Y73.5
N5670 X144.825
N5675 G3 X143.748 Y72.828 Z-6.217 I0.044 J-1.269 F3500.
N5680 X143.601 Y72.187 Z-6.15 I1.113 J-0.593
N5685 X144.321 Y71.096 I1.26 J0.048
N5690 X149.205 Y72.27 I1.715 J3.614
N5695 X149.565 Y72.828 Z-6.217 I-3.17 J2.44
N5700 G2 X150.642 Y73.5 Z-6.35 I1.121 J-0.597
N5705 G1 X152.781
N5710 X153.086 Y73.485
N5715 X153.35 Y73.45
N5720 X153.624 Y73.392
N5725 X153.95 Y73.294
N5730 X154.302 Y73.157
N5735 X154.675 Y72.976
N5740 X155.096 Y72.728
N5745 X155.51 Y72.437
N5750 X155.973 Y72.053
N5755 X156.417 Y71.619
N5760 X156.897 Y71.07
N5765 X157.342 Y70.468
N5770 X157.8 Y69.733
N5775 X158.216 Y68.926
N5780 X158.595 Y68.02
N5785 X158.93 Y66.993
N5790 X159.195 Y65.89
N5795 X159.374 Y64.741
N5800 X159.465 Y63.525
N5805 X159.458 Y62.265
N5810 X159.348 Y60.997
N5815 X159.138 Y59.748
N5820 X158.832 Y58.533
N5825 X158.441 Y57.381
N5830 X157.977 Y56.306
N5835 X157.457 Y55.324
N5840 X157.166 Y54.869
N5845 X156.913 Y54.529
N5850 X156.614 Y54.228
N5855 X156.275 Y53.973
N5860 X155.903 Y53.77
N5865 X155.505 Y53.621
N5870 X155.091 Y53.53
N5875 X154.668 Y53.5
N5880 X148.82
N5885 G2 X147.743 Y54.172 Z-6.217 I0.044 J1.269
N5890 X147.598 Y54.813 Z-6.15 I1.101 J0.587
N5895 X148.293 Y55.878 I1.246 J-0.054
N5900 X153.232 Y54.73 I1.769 J-3.587
N5905 X153.592 Y54.172 Z-6.217 I-3.17 J-2.44
N5910 G3 X154.668 Y53.5 Z-6.35 I1.121 J0.597
N5915 G1 X156.818 F3150.
N5920 X157.112 Y53.515
N5925 X157.376 Y53.55
N5930 X157.65 Y53.608
N5935 X157.977 Y53.706
N5940 X158.328 Y53.843
N5945 X158.702 Y54.024
N5950 X159.123 Y54.272
N5955 X159.537 Y54.563
N5960 X160. Y54.947
N5965 X160.444 Y55.38
N5970 X160.923 Y55.93
N5975 X161.369 Y56.532
N5980 X161.826 Y57.267
N5985 X162.242 Y58.074
N5990 X162.621 Y58.98
N5995 X162.956 Y60.006
N6000 X163.221 Y61.109
N6005 X163.4 Y62.258
N6010 X163.491 Y63.474
N6015 X163.484 Y64.733
N6020 X163.374 Y66.001
N6025 X163.165 Y67.25
N6030 X162.859 Y68.465
N6035 X162.468 Y69.617
N6040 X162.004 Y70.692
N6045 X161.483 Y71.673
N6050 X161.191 Y72.131
N6055 X160.938 Y72.472
N6060 X160.638 Y72.772
N6065 X160.299 Y73.027
N6070 X159.927 Y73.231
N6075 X159.53 Y73.379
N6080 X159.116 Y73.47
N6085 X158.693 Y73.5
N6090 X152.781
N6095 G3 X151.704 Y72.828 Z-6.217 I0.044 J-1.269 F3500.
N6100 X151.563 Y72.187 Z-6.15 I1.076 J-0.573
N6105 X152.207 Y71.179 I1.217 J0.068
N6110 X157.256 Y72.27 I1.88 J3.531
N6115 X157.616 Y72.828 Z-6.217 I-3.17 J2.44
N6120 G2 X158.693 Y73.5 Z-6.35 I1.121 J-0.597
N6125 G1 X160.813
N6130 X161.138 Y73.484
N6135 X161.402 Y73.449
N6140 X161.676 Y73.391
N6145 X162.003 Y73.293
N6150 X162.354 Y73.156
N6155 X162.728 Y72.975
N6160 X163.149 Y72.727
N6165 X163.563 Y72.436
N6170 X164.026 Y72.052
N6175 X164.47 Y71.618
N6180 X164.95 Y71.069
N6185 X165.395 Y70.466
N6190 X165.852 Y69.732
N6195 X166.269 Y68.925
N6200 X166.647 Y68.019
N6205 X166.982 Y66.993
N6210 X167.247 Y65.89
N6215 X167.426 Y64.741
N6220 X167.517 Y63.525
N6225 X167.51 Y62.266
N6230 X167.401 Y60.998
N6235 X167.191 Y59.749
N6240 X166.885 Y58.535
N6245 X166.494 Y57.382
N6250 X166.03 Y56.308
N6255 X165.509 Y55.327
N6260 X165.217 Y54.869
N6265 X164.964 Y54.529
N6270 X164.665 Y54.228
N6275 X164.326 Y53.973
N6280 X163.954 Y53.77
N6285 X163.557 Y53.621
N6290 X163.143 Y53.53
N6295 X162.72 Y53.5
N6300 X156.818
N6305 G2 X155.741 Y54.172 Z-6.217 I0.044 J1.269
N6310 X155.599 Y54.814 Z-6.15 I1.08 J0.576
N6315 X156.251 Y55.831 I1.222 J-0.066
N6320 X161.283 Y54.73 I1.862 J-3.54
N6325 X161.643 Y54.172 Z-6.217 I-3.17 J-2.44
N6330 G3 X162.72 Y53.5 Z-6.35 I1.121 J0.597
N6335 G1 X164.962 F3150.
N6340 X165.161 Y53.51
N6345 X165.426 Y53.545
N6350 X165.7 Y53.603
N6355 X166.027 Y53.701
N6360 X166.379 Y53.838
N6365 X166.752 Y54.02
N6370 X167.174 Y54.268
N6375 X167.588 Y54.559
N6380 X168.051 Y54.943
N6385 X168.495 Y55.377
N6390 X168.975 Y55.927
N6395 X169.421 Y56.529
N6400 X169.878 Y57.264
N6405 X170.295 Y58.071
N6410 X170.674 Y58.978
N6415 X171.009 Y60.004
N6420 X171.273 Y61.107
N6425 X171.453 Y62.257
N6430 X171.544 Y63.472
N6435 X171.536 Y64.732
N6440 X171.427 Y66.
N6445 X171.217 Y67.249
N6450 X170.911 Y68.464
N6455 X170.52 Y69.616
N6460 X170.057 Y70.69
N6465 X169.536 Y71.672
N6470 X169.243 Y72.131
N6475 X168.989 Y72.472
N6480 X168.69 Y72.772
N6485 X168.351 Y73.027
N6490 X167.979 Y73.231
N6495 X167.582 Y73.379
N6500 X167.168 Y73.47
N6505 X166.745 Y73.5
N6510 X160.813
N6515 G3 X159.736 Y72.828 Z-6.217 I0.044 J-1.269 F3500.
N6520 X159.596 Y72.186 Z-6.15 I1.067 J-0.569
N6525 X160.225 Y71.197 I1.207 J0.073
N6530 X165.308 Y72.27 I1.914 J3.512
N6535 X165.668 Y72.828 Z-6.217 I-3.17 J2.44
N6540 G2 X166.745 Y73.5 Z-6.35 I1.121 J-0.597
N6545 G1 X168.999
N6550 X169.186 Y73.491
N6555 X169.451 Y73.456
N6560 X169.725 Y73.397
N6565 X170.052 Y73.3
N6570 X170.404 Y73.162
N6575 X170.778 Y72.981
N6580 X171.2 Y72.733
N6585 X171.614 Y72.442
N6590 X172.077 Y72.057
N6595 X172.522 Y71.624
N6600 X173.001 Y71.074
N6605 X173.447 Y70.471
N6610 X173.905 Y69.736
N6615 X174.321 Y68.929
N6620 X174.7 Y68.022
N6625 X175.036 Y66.995
N6630 X175.3 Y65.891
N6635 X175.48 Y64.742
N6640 X175.571 Y63.526
N6645 X175.563 Y62.266
N6650 X175.454 Y60.998
N6655 X175.244 Y59.748
N6660 X174.938 Y58.533
N6665 X174.547 Y57.38
N6670 X174.083 Y56.305
N6675 X173.562 Y55.323
N6680 X173.272 Y54.869
N6685 X173.019 Y54.529
N6690 X172.72 Y54.228
N6695 X172.381 Y53.973
N6700 X172.009 Y53.77
N6705 X171.611 Y53.621
N6710 X171.197 Y53.53
N6715 X170.774 Y53.5
N6720 X164.962
N6725 G2 X163.885 Y54.172 Z-6.217 I0.044 J1.269
N6730 X163.738 Y54.813 Z-6.15 I1.114 J0.594
N6735 X164.461 Y55.908 I1.262 J-0.047
N6740 X169.337 Y54.73 I1.707 J-3.617
N6745 X169.698 Y54.172 Z-6.217 I-3.17 J-2.44
N6750 G3 X170.774 Y53.5 Z-6.35 I1.121 J0.597
N6755 G1 X172.994 F3150.
N6760 X173.216 Y53.511
N6765 X173.481 Y53.546
N6770 X173.754 Y53.605
N6775 X174.081 Y53.702
N6780 X174.433 Y53.839
N6785 X174.806 Y54.021
N6790 X175.228 Y54.269
N6795 X175.642 Y54.559
N6800 X176.105 Y54.944
N6805 X176.549 Y55.377
N6810 X177.029 Y55.927
N6815 X177.474 Y56.53
N6820 X177.932 Y57.265
N6825 X178.348 Y58.071
N6830 X178.727 Y58.978
N6835 X179.062 Y60.005
N6840 X179.327 Y61.108
N6845 X179.506 Y62.257
N6850 X179.597 Y63.473
N6855 X179.59 Y64.734
N6860 X179.481 Y66.002
N6865 X179.271 Y67.251
N6870 X178.965 Y68.467
N6875 X178.573 Y69.62
N6880 X178.109 Y70.695
N6885 X177.588 Y71.677
N6890 X177.298 Y72.131
N6895 X177.045 Y72.472
N6900 X176.746 Y72.772
N6905 X176.407 Y73.027
N6910 X176.035 Y73.231
N6915 X175.638 Y73.379
N6920 X175.223 Y73.47
N6925 X174.8 Y73.5
N6930 X168.999
N6935 G3 X167.922 Y72.828 Z-6.217 I0.044 J-1.269 F3500.
N6940 X167.774 Y72.188 Z-6.15 I1.118 J-0.596
N6945 X168.505 Y71.084 I1.266 J0.045
N6950 X173.364 Y72.27 I1.689 J3.626
N6955 X173.724 Y72.828 Z-6.217 I-3.17 J2.44
N6960 G2 X174.8 Y73.5 Z-6.35 I1.121 J-0.597
N6965 G1 X176.989
N6970 X177.243 Y73.487
N6975 X177.508 Y73.453
N6980 X177.782 Y73.394
N6985 X178.108 Y73.296
N6990 X178.46 Y73.159
N6995 X178.833 Y72.978
N7000 X179.254 Y72.73
N7005 X179.668 Y72.439
N7010 X180.132 Y72.055
N7015 X180.576 Y71.621
N7020 X181.055 Y71.072
N7025 X181.501 Y70.469
N7030 X181.958 Y69.734
N7035 X182.375 Y68.928
N7040 X182.754 Y68.021
N7045 X183.089 Y66.994
N7050 X183.354 Y65.891
N7055 X183.533 Y64.742
N7060 X183.624 Y63.526
N7065 X183.617 Y62.266
N7070 X183.507 Y60.998
N7075 X183.297 Y59.749
N7080 X182.991 Y58.533
N7085 X182.6 Y57.381
N7090 X182.136 Y56.306
N7095 X181.615 Y55.324
N7100 X181.325 Y54.869
N7105 X181.072 Y54.529
N7110 X180.773 Y54.228
N7115 X180.434 Y53.973
N7120 X180.062 Y53.77
N7125 X179.665 Y53.621
N7130 X179.25 Y53.53
N7135 X178.827 Y53.5
N7140 X172.994
N7145 G2 X171.917 Y54.172 Z-6.217 I0.044 J1.269
N7150 X171.771 Y54.813 Z-6.15 I1.107 J0.59
N7155 X172.477 Y55.89 I1.253 J-0.051
N7160 X177.391 Y54.73 I1.744 J-3.6
N7165 X177.751 Y54.172 Z-6.217 I-3.17 J-2.44
N7170 G3 X178.827 Y53.5 Z-6.35 I1.121 J0.597
N7175 G1 X180.95 F3150.
N7180 X181.272 Y53.516
N7185 X181.536 Y53.551
N7190 X181.81 Y53.609
N7195 X182.136 Y53.707
N7200 X182.488 Y53.844
N7205 X182.861 Y54.025
N7210 X183.282 Y54.273
N7215 X183.696 Y54.564
N7220 X184.159 Y54.948
N7225 X184.603 Y55.381
N7230 X185.082 Y55.931
N7235 X185.528 Y56.533
N7240 X185.985 Y57.268
N7245 X186.401 Y58.075
N7250 X186.78 Y58.981
N7255 X187.115 Y60.007
N7260 X187.38 Y61.11
N7265 X187.559 Y62.259
N7270 X187.65 Y63.474
N7275 X187.643 Y64.734
N7280 X187.533 Y66.002
N7285 X187.324 Y67.251
N7290 X187.018 Y68.466
N7295 X186.627 Y69.619
N7300 X186.163 Y70.693
N7305 X185.642 Y71.675
N7310 X185.351 Y72.131
N7315 X185.097 Y72.472
N7320 X184.798 Y72.772
N7325 X184.459 Y73.027
N7330 X184.087 Y73.231
N7335 X183.69 Y73.379
N7340 X183.276 Y73.47
N7345 X182.853 Y73.5
N7350 X176.989
N7355 G3 X175.912 Y72.828 Z-6.217 I0.044 J-1.269 F3500.
N7360 X175.768 Y72.187 Z-6.15 I1.095 J-0.584
N7365 X176.45 Y71.136 I1.239 J0.058
N7370 X181.416 Y72.27 I1.797 J3.574
N7375 X181.776 Y72.828 Z-6.217 I-3.17 J2.44
N7380 G2 X182.853 Y73.5 Z-6.35 I1.121 J-0.597
N7385 G1 X184.986
N7390 X185.297 Y73.485
N7395 X185.562 Y73.45
N7400 X185.835 Y73.391
N7405 X186.162 Y73.294
N7410 X186.514 Y73.157
N7415 X186.887 Y72.975
N7420 X187.308 Y72.728
N7425 X187.722 Y72.437
N7430 X188.185 Y72.052
N7435 X188.629 Y71.619
N7440 X189.109 Y71.07
N7445 X189.554 Y70.467
N7450 X190.011 Y69.733
N7455 X190.428 Y68.926
N7460 X190.806 Y68.02
N7465 X191.142 Y66.993
N7470 X191.406 Y65.89
N7475 X191.585 Y64.742
N7480 X191.676 Y63.526
N7485 X191.669 Y62.267
N7490 X191.56 Y60.999
N7495 X191.35 Y59.75
N7500 X191.044 Y58.536
N7505 X190.653 Y57.383
N7510 X190.189 Y56.309
N7515 X189.669 Y55.328
N7520 X189.376 Y54.869
N7525 X189.123 Y54.529
N7530 X188.823 Y54.228
N7535 X188.484 Y53.973
N7540 X188.113 Y53.77
N7545 X187.715 Y53.621
N7550 X187.301 Y53.53
N7555 X186.878 Y53.5
N7560 X180.95
N7565 G2 X179.873 Y54.172 Z-6.217 I0.044 J1.269
N7570 X179.733 Y54.814 Z-6.15 I1.069 J0.57
N7575 X180.364 Y55.806 I1.209 J-0.072
N7580 X185.441 Y54.73 I1.907 J-3.516
N7585 X185.802 Y54.172 Z-6.217 I-3.17 J-2.44
N7590 G3 X186.878 Y53.5 Z-6.35 I1.121 J0.597
N7595 G1 X189.17 F3150.
N7600 X189.32 Y53.508
N7605 X189.585 Y53.543
N7610 X189.859 Y53.601
N7615 X190.186 Y53.699
N7620 X190.539 Y53.837
N7625 X190.912 Y54.018
N7630 X191.334 Y54.267
N7635 X191.749 Y54.558
N7640 X192.212 Y54.944
N7645 X192.657 Y55.378
N7650 X193.137 Y55.928
N7655 X193.582 Y56.531
N7660 X194.04 Y57.267
N7665 X194.456 Y58.075
N7670 X194.835 Y58.982
N7675 X195.17 Y60.009
N7680 X195.434 Y61.114
N7685 X195.613 Y62.264
N7690 X195.703 Y63.479
N7695 X195.696 Y64.74
N7700 X195.586 Y66.007
N7705 X195.375 Y67.256
N7710 X195.069 Y68.471
N7715 X194.677 Y69.623
N7720 X194.213 Y70.697
N7725 X193.692 Y71.678
N7730 X193.402 Y72.132
N7735 X193.148 Y72.472
N7740 X192.849 Y72.773
N7745 X192.51 Y73.027
N7750 X192.139 Y73.231
N7755 X191.742 Y73.379
N7760 X191.327 Y73.47
N7765 X190.905 Y73.5
N7770 X184.986
N7775 G3 X183.91 Y72.828 Z-6.217 I0.044 J-1.269 F3500.
N7780 X183.769 Y72.187 Z-6.15 I1.073 J-0.572
N7785 X184.409 Y71.184 I1.214 J0.07
N7790 X189.468 Y72.27 I1.89 J3.526
N7795 X189.828 Y72.828 Z-6.217 I-3.17 J2.44
N7800 G2 X190.905 Y73.5 Z-6.35 I1.121 J-0.597
N7805 G1 X193.131
N7810 X193.347 Y73.489
N7815 X193.612 Y73.455
N7820 X193.886 Y73.396
N7825 X194.213 Y73.298
N7830 X194.564 Y73.161
N7835 X194.938 Y72.98
N7840 X195.359 Y72.732
N7845 X195.773 Y72.441
N7850 X196.237 Y72.056
N7855 X196.681 Y71.623
N7860 X197.161 Y71.073
N7865 X197.607 Y70.47
N7870 X198.064 Y69.735
N7875 X198.481 Y68.928
N7880 X198.86 Y68.021
N7885 X199.195 Y66.995
N7890 X199.46 Y65.891
N7895 X199.639 Y64.741
N7900 X199.73 Y63.525
N7905 X199.723 Y62.265
N7910 X199.613 Y60.997
N7915 X199.403 Y59.747
N7920 X199.097 Y58.532
N7925 X198.706 Y57.379
N7930 X198.242 Y56.304
N7935 X197.721 Y55.322
N7940 X197.432 Y54.869
N7945 X197.179 Y54.529
N7950 X196.88 Y54.228
N7955 X196.541 Y53.973
N7960 X196.169 Y53.77
N7965 X195.771 Y53.621
N7970 X195.357 Y53.53
N7975 X194.934 Y53.5
N7980 X189.17
N7985 G2 X188.093 Y54.172 Z-6.217 I0.044 J1.269
N7990 X187.943 Y54.812 Z-6.15 I1.131 J0.603
N7995 X188.704 Y55.946 I1.281 J-0.038
N8000 X193.497 Y54.73 I1.624 J-3.656
N8005 X193.858 Y54.172 Z-6.217 I-3.17 J-2.44
N8010 G3 X194.934 Y53.5 Z-6.35 I1.121 J0.597
N8015 G1 X197.168 F3150.
N8020 X197.375 Y53.511
N8025 X197.64 Y53.545
N8030 X197.914 Y53.604
N8035 X198.24 Y53.702
N8040 X198.592 Y53.839
N8045 X198.966 Y54.02
N8050 X199.387 Y54.268
N8055 X199.801 Y54.559
N8060 X200.264 Y54.943
N8065 X200.708 Y55.377
N8070 X201.188 Y55.926
N8075 X201.634 Y56.529
N8080 X202.091 Y57.264
N8085 X202.507 Y58.071
N8090 X202.886 Y58.977
N8095 X203.222 Y60.004
N8100 X203.486 Y61.107
N8105 X203.666 Y62.257
N8110 X203.757 Y63.473
N8115 X203.749 Y64.733
N8120 X203.64 Y66.001
N8125 X203.43 Y67.251
N8130 X203.124 Y68.466
N8135 X202.733 Y69.619
N8140 X202.269 Y70.694
N8145 X201.748 Y71.676
N8150 X201.457 Y72.131
N8155 X201.204 Y72.472
N8160 X200.905 Y72.772
N8165 X200.566 Y73.027
N8170 X200.194 Y73.231
N8175 X199.797 Y73.379
N8180 X199.382 Y73.47
N8185 X198.959 Y73.5
N8190 X193.131
N8195 G3 X192.054 Y72.828 Z-6.217 I0.044 J-1.269 F3500.
N8200 X191.908 Y72.187 Z-6.15 I1.108 J-0.591
N8205 X192.618 Y71.106 I1.255 J0.05
N8210 X197.523 Y72.27 I1.735 J3.604
N8215 X197.883 Y72.828 Z-6.217 I-3.17 J2.44
N8220 G2 X198.959 Y73.5 Z-6.35 I1.121 J-0.597
N8225 G1 X201.163
N8230 X201.402 Y73.488
N8235 X201.666 Y73.453
N8240 X201.94 Y73.395
N8245 X202.267 Y73.297
N8250 X202.619 Y73.16
N8255 X202.992 Y72.979
N8260 X203.413 Y72.731
N8265 X203.827 Y72.44
N8270 X204.291 Y72.055
N8275 X204.735 Y71.622
N8280 X205.215 Y71.072
N8285 X205.66 Y70.47
N8290 X206.118 Y69.735
N8295 X206.534 Y68.928
N8300 X206.913 Y68.021
N8305 X207.249 Y66.994
N8310 X207.513 Y65.891
N8315 X207.693 Y64.742
N8320 X207.783 Y63.526
N8325 X207.776 Y62.265
N8330 X207.667 Y60.997
N8335 X207.457 Y59.748
N8340 X207.151 Y58.533
N8345 X206.76 Y57.38
N8350 X206.296 Y56.305
N8355 X205.775 Y55.323
N8360 X205.485 Y54.869
N8365 X205.232 Y54.529
N8370 X204.932 Y54.228
N8375 X204.593 Y53.973
N8380 X204.222 Y53.77
N8385 X203.824 Y53.621
N8390 X203.41 Y53.53
N8395 X202.987 Y53.5
N8400 X197.168
N8405 G2 X196.091 Y54.172 Z-6.217 I0.044 J1.269
N8410 X195.944 Y54.813 Z-6.15 I1.112 J0.593
N8415 X196.661 Y55.902 I1.259 J-0.048
N8420 X201.55 Y54.73 I1.72 J-3.612
N8425 X201.911 Y54.172 Z-6.217 I-3.17 J-2.44
N8430 G3 X202.987 Y53.5 Z-6.35 I1.121 J0.597
N8435 G1 X205.158 F3150.
N8440 X205.43 Y53.514
N8445 X205.695 Y53.548
N8450 X205.968 Y53.607
N8455 X206.295 Y53.705
N8460 X206.647 Y53.842
N8465 X207.02 Y54.023
N8470 X207.441 Y54.271
N8475 X207.855 Y54.562
N8480 X208.318 Y54.946
N8485 X208.762 Y55.379
N8490 X209.242 Y55.929
N8495 X209.687 Y56.531
N8500 X210.145 Y57.266
N8505 X210.561 Y58.073
N8510 X210.94 Y58.979
N8515 X211.275 Y60.006
N8520 X211.539 Y61.109
N8525 X211.719 Y62.258
N8530 X211.81 Y63.474
N8535 X211.803 Y64.734
N8540 X211.693 Y66.002
N8545 X211.483 Y67.251
N8550 X211.177 Y68.466
N8555 X210.786 Y69.619
N8560 X210.322 Y70.694
N8565 X209.801 Y71.675
N8570 X209.51 Y72.131
N8575 X209.257 Y72.472
N8580 X208.958 Y72.772
N8585 X208.619 Y73.027
N8590 X208.247 Y73.231
N8595 X207.85 Y73.379
N8600 X207.435 Y73.47
N8605 X207.012 Y73.5
N8610 X201.163
N8615 G3 X200.086 Y72.828 Z-6.217 I0.044 J-1.269 F3500.
N8620 X199.941 Y72.187 Z-6.15 I1.1 J-0.587
N8625 X200.634 Y71.124 I1.246 J0.055
N8630 X205.576 Y72.27 I1.772 J3.586
N8635 X205.936 Y72.828 Z-6.217 I-3.17 J2.44
N8640 G2 X207.012 Y73.5 Z-6.35 I1.121 J-0.597
N8645 G1 X209.245
N8650 X209.454 Y73.49
N8655 X209.719 Y73.455
N8660 X209.993 Y73.396
N8665 X210.319 Y73.299
N8670 X210.671 Y73.161
N8675 X211.045 Y72.98
N8680 X211.466 Y72.732
N8685 X211.88 Y72.441
N8690 X212.344 Y72.057
N8695 X212.788 Y71.623
N8700 X213.268 Y71.073
N8705 X213.714 Y70.471
N8710 X214.171 Y69.736
N8715 X214.587 Y68.929
N8720 X214.966 Y68.022
N8725 X215.302 Y66.995
N8730 X215.566 Y65.892
N8735 X215.746 Y64.743
N8740 X215.837 Y63.527
N8745 X215.829 Y62.267
N8750 X215.72 Y60.999
N8755 X215.51 Y59.75
N8760 X215.204 Y58.535
N8765 X214.813 Y57.382
N8770 X214.349 Y56.308
N8775 X213.828 Y55.326
N8780 X213.537 Y54.869
N8785 X213.283 Y54.529
N8790 X212.984 Y54.228
N8795 X212.645 Y53.973
N8800 X212.273 Y53.77
N8805 X211.876 Y53.621
N8810 X211.462 Y53.53
N8815 X211.039 Y53.5
N8820 X205.158
N8825 G2 X204.081 Y54.172 Z-6.217 I0.044 J1.269
N8830 X203.938 Y54.813 Z-6.15 I1.088 J0.58
N8835 X204.606 Y55.849 I1.232 J-0.061
N8840 X209.602 Y54.73 I1.826 J-3.559
N8845 X209.962 Y54.172 Z-6.217 I-3.17 J-2.44
N8850 G3 X211.039 Y53.5 Z-6.35 I1.121 J0.597
N8855 G1 X213.155 F3150.
N8860 X213.484 Y53.517
N8865 X213.748 Y53.551
N8870 X214.022 Y53.61
N8875 X214.349 Y53.708
N8880 X214.7 Y53.845
N8885 X215.073 Y54.026
N8890 X215.495 Y54.274
N8895 X215.908 Y54.564
N8900 X216.372 Y54.949
N8905 X216.816 Y55.382
N8910 X217.295 Y55.932
N8915 X217.741 Y56.534
N8920 X218.198 Y57.268
N8925 X218.614 Y58.075
N8930 X218.993 Y58.981
N8935 X219.328 Y60.008
N8940 X219.592 Y61.111
N8945 X219.772 Y62.26
N8950 X219.863 Y63.475
N8955 X219.856 Y64.735
N8960 X219.746 Y66.003
N8965 X219.536 Y67.252
N8970 X219.23 Y68.467
N8975 X218.839 Y69.62
N8980 X218.375 Y70.695
N8985 X217.854 Y71.677
N8990 X217.564 Y72.131
N8995 X217.311 Y72.472
N9000 X217.012 Y72.772
N9005 X216.673 Y73.027
N9010 X216.301 Y73.231
N9015 X215.904 Y73.379
N9020 X215.489 Y73.47
N9025 X215.066 Y73.5
N9030 X209.245
N9035 G3 X208.169 Y72.828 Z-6.217 I0.044 J-1.269 F3500.
N9040 X208.022 Y72.187 Z-6.15 I1.111 J-0.592
N9045 X208.737 Y71.1 I1.258 J0.049
N9050 X213.63 Y72.27 I1.723 J3.61
N9055 X213.99 Y72.828 Z-6.217 I-3.17 J2.44
N9060 G2 X215.066 Y73.5 Z-6.35 I1.121 J-0.597
N9065 G1 X217.339
N9070 X217.507 Y73.492
N9075 X217.772 Y73.457
N9080 X218.046 Y73.398
N9085 X218.372 Y73.301
N9090 X218.724 Y73.163
N9095 X219.098 Y72.982
N9100 X219.519 Y72.734
N9105 X219.933 Y72.443
N9110 X220.397 Y72.059
N9115 X220.841 Y71.625
N9120 X221.321 Y71.075
N9125 X221.766 Y70.473
N9130 X222.224 Y69.738
N9135 X222.64 Y68.931
N9140 X223.019 Y68.024
N9145 X223.355 Y66.997
N9150 X223.619 Y65.894
N9155 X223.799 Y64.745
N9160 X223.889 Y63.529
N9165 X223.882 Y62.269
N9170 X223.773 Y61.001
N9175 X223.563 Y59.752
N9180 X223.257 Y58.537
N9185 X222.866 Y57.384
N9190 X222.402 Y56.31
N9195 X221.881 Y55.328
N9200 X221.592 Y54.875
N9205 X221.305 Y54.497
N9210 X220.962 Y54.169
N9215 X220.571 Y53.9
N9220 X220.143 Y53.698
N9225 X219.687 Y53.566
N9230 X219.216 Y53.508
N9235 X219.016 Y53.5
N9240 X213.155
N9245 G2 X212.079 Y54.172 Z-6.217 I0.044 J1.269
N9250 X211.99 Y54.817 Z-6.15 I0.832 J0.443
N9255 X212.37 Y55.387 I0.92 J-0.202
N9260 X214.663 Y56.11 I2.293 J-3.277
N9265 X217.73 Y54.678 I0. J-4.
N9270 X218.113 Y54.135 Z-6.217 I-3.066 J-2.568
N9275 G3 X219.216 Y53.508 Z-6.35 I1.095 J0.643
N9280 G1 X219.777 Y53.532 F3150.
N9285 X220.538 Y53.622
N9290 X221.299 Y53.764
N9295 X222.033 Y53.975
N9300 X222.061 Y53.984
N9305 X222.822 Y54.263
N9310 X223.38 Y54.547
N9315 X223.757 Y54.78
N9320 X224.181 Y55.09
N9325 X224.604 Y55.455
N9330 X225.05 Y55.909
N9335 X225.49 Y56.433
N9340 X225.938 Y57.065
N9345 X226.352 Y57.76
N9350 X226.761 Y58.592
N9355 X227.113 Y59.484
N9360 X227.415 Y60.473
N9365 X227.653 Y61.563
N9370 X227.812 Y62.73
N9375 X227.878 Y63.935
N9380 X227.847 Y65.167
N9385 X227.715 Y66.404
N9390 X227.486 Y67.625
N9395 X227.164 Y68.804
N9400 X227.014 Y69.218
N9405 X226.85 Y69.589
N9410 X226.638 Y69.934
N9415 X226.379 Y70.247
N9420 X225.914 Y70.739
N9425 X225.867 Y70.783
N9430 X225.106 Y71.423
N9435 X225.011 Y71.501
N9440 X224.345 Y71.951
N9445 X223.827 Y72.263
N9450 X223.583 Y72.396
N9455 X222.822 Y72.737
N9460 X222.061 Y73.016
N9465 X222.034 Y73.025
N9470 X221.299 Y73.236
N9475 X220.538 Y73.379
N9480 X219.777 Y73.469
N9485 X219.016 Y73.5
N9490 X217.339
N9495 G3 X216.262 Y72.828 Z-6.217 I0.044 J-1.269 F3500.
N9500 X216.374 Y72.308 Z-6.159 I0.364 J-0.194
N9505 G1 X216.442 Y72.255 Z-6.15
N9510 G3 X224.505 Y70.412 I6.06 J7.955
N9515 X225.152 Y70.567 Z-6.217 I-2.003 J9.797
N9520 G2 X226.379 Y70.247 Z-6.35 I0.337 J-1.225
N9525 G1 X226.629 Y69.984
N9530 X227.211 Y69.215
N9535 X227.39 Y68.965
N9540 X227.695 Y68.453
N9545 X228.084 Y67.691
N9550 X228.151 Y67.548
N9555 X228.404 Y66.929
N9560 X228.645 Y66.167
N9565 X228.826 Y65.405
N9570 X228.913 Y64.903
N9575 X228.946 Y64.643
N9580 X229.007 Y63.881
N9585 Y63.119
N9590 X228.946 Y62.357
N9595 X228.913 Y62.098
N9600 X228.826 Y61.595
N9605 X228.645 Y60.833
N9610 X228.403 Y60.071
N9615 X228.151 Y59.453
N9620 X228.084 Y59.309
N9625 X227.695 Y58.547
N9630 X227.39 Y58.036
N9635 X227.211 Y57.785
N9640 X226.629 Y57.016
N9645 X225.914 Y56.261
N9650 X225.867 Y56.217
N9655 X225.106 Y55.578
N9660 X225.011 Y55.499
N9665 X224.345 Y55.05
N9670 X223.826 Y54.737
N9675 X223.583 Y54.604
N9680 X222.822 Y54.263
N9685 X222.883 Y54.126
N9690 X222.881 Y53.976
N9695 X222.863 Y53.827
N9700 X222.831 Y53.681
N9705 X222.789 Y53.537
N9710 X222.739 Y53.396
N9715 X222.68 Y53.258
N9720 X222.614 Y53.123
N9725 X222.542 Y52.991
N9730 X222.465 Y52.863
N9735 X222.382 Y52.738
N9740 X222.294 Y52.616
N9745 X222.201 Y52.498
N9750 X222.105 Y52.383
N9755 X222.005 Y52.271
N9760 X221.901 Y52.163
N9765 X221.795 Y52.057
N9770 X221.686 Y51.954
N9775 X221.574 Y51.854
N9780 X221.46 Y51.757
N9785 X221.343 Y51.662
N9790 X221.225 Y51.57
N9795 X221.105 Y51.48
N9800 X220.983 Y51.393
N9805 X220.86 Y51.308
N9810 X220.735 Y51.225
N9815 X220.608 Y51.144
N9820 X220.48 Y51.066
N9825 X220.351 Y50.989
N9830 X220.221 Y50.914
N9835 X220.09 Y50.842
N9840 X219.958 Y50.771
N9845 X219.825 Y50.702
N9850 X219.691 Y50.634
N9855 X219.556 Y50.569
N9860 X219.42 Y50.505
N9865 X219.284 Y50.443
N9870 X219.146 Y50.382
N9875 X219.009 Y50.323
N9880 X218.87 Y50.265
N9885 X218.731 Y50.209
N9890 X218.592 Y50.154
N9895 X218.451 Y50.101
N9900 X218.311 Y50.048
N9905 X218.17 Y49.998
N9910 X218.028 Y49.948
N9915 X217.886 Y49.9
N9920 X217.744 Y49.853
N9925 X217.601 Y49.807
N9930 X217.458 Y49.762
N9935 X217.314 Y49.718
N9940 X217.17 Y49.676
N9945 X217.022 Y49.633
N9950 X216.868 Y49.59
N9955 X216.71 Y49.547
N9960 X216.547 Y49.503
N9965 X216.378 Y49.46
N9970 X216.204 Y49.417
N9975 X216.023 Y49.373
N9980 X215.836 Y49.329
N9985 X215.641 Y49.286
N9990 X215.44 Y49.242
N9995 X215.23 Y49.198
N10000 X215.012 Y49.153
N10005 X214.786 Y49.109
N10010 X214.549 Y49.065
N10015 X214.301 Y49.02
N10020 X214.043 Y48.976
N10025 X213.772 Y48.931
N10030 X213.487 Y48.886
N10035 X213.187 Y48.841
N10040 X212.871 Y48.796
N10045 X212.537 Y48.751
N10050 X212.182 Y48.706
N10055 X211.805 Y48.661
N10060 X211.402 Y48.616
N10065 X210.969 Y48.57
N10070 X210.503 Y48.525
N10075 X209.998 Y48.479
N10080 X209.447 Y48.434
N10085 X208.841 Y48.388
N10090 X208.169 Y48.343
N10095 X207.413 Y48.297
N10100 X206.552 Y48.251
N10105 X205.552 Y48.205
N10110 X204.359 Y48.159
N10115 X203.068 Y48.119
N10120 X201.776 Y48.087
N10125 X200.484 Y48.061
N10130 X199.192 Y48.041
N10135 X197.901 Y48.025
N10140 X196.609 Y48.012
N10145 X195.317 Y48.002
N10150 X194.024 Y47.994
N10155 X192.732 Y47.988
N10160 X191.44 Y47.983
N10165 X188.856 Y47.975
N10170 X184.98 Y47.969
N10175 X179.812 Y47.965
N10180 X174.644 Y47.964
N10185 X173.352
N10190 X172.063 Y48.058
N10195 X170.773 Y48.133
N10200 X169.482 Y48.192
N10205 X168.191 Y48.239
N10210 X166.9 Y48.277
N10215 X165.608 Y48.306
N10220 X164.316 Y48.33
N10225 X163.024 Y48.349
N10230 X161.732 Y48.364
N10235 X160.44 Y48.375
N10240 X159.148 Y48.385
N10245 X157.856 Y48.392
N10250 X156.564 Y48.398
N10255 X153.98 Y48.406
N10260 X151.396 Y48.411
N10265 X147.52 Y48.416
N10270 X141.06 Y48.419
N10275 X124.263 Y48.42
N10280 X77.749
N10285 X76.457 Y48.432
N10290 X75.166 Y48.475
N10295 X73.877 Y48.566
N10300 X72.594 Y48.719
N10305 X71.322 Y48.945
N10310 X70.066 Y49.248
N10315 X68.835 Y49.64
N10320 X67.636 Y50.122
N10325 X66.488 Y50.688
N10330 X65.443 Y51.311
N10335 X64.428 Y52.033
N10340 X63.517 Y52.798
N10345 X62.656 Y53.648
N10350 X61.887 Y54.54
N10355 X61.191 Y55.493
N10360 X60.576 Y56.494
N10365 X60.048 Y57.532
N10370 X59.611 Y58.595
N10375 X59.264 Y59.68
N10380 X59.005 Y60.787
N10385 X58.837 Y61.912
N10390 X58.758 Y63.056
N10395 X58.771 Y64.187
N10400 X58.876 Y65.33
N10405 X59.071 Y66.449
N10410 X59.356 Y67.554
N10415 X59.72 Y68.605
N10420 X60.179 Y69.651
N10425 X60.726 Y70.668
N10430 X61.33 Y71.602
N10435 X62.032 Y72.517
N10440 X62.772 Y73.336
N10445 X63.599 Y74.115
N10450 X64.5 Y74.837
N10455 X65.426 Y75.464
N10460 X66.417 Y76.024
N10465 X67.447 Y76.502
N10470 X68.648 Y76.946
N10475 X69.892 Y77.295
N10480 X71.154 Y77.568
N10485 X72.429 Y77.782
N10490 X73.71 Y77.95
N10495 X74.995 Y78.082
N10500 X76.283 Y78.186
N10505 X77.572 Y78.269
N10510 X78.863 Y78.334
N10515 X80.154 Y78.385
N10520 X81.445 Y78.426
N10525 X82.737 Y78.458
N10530 X84.029 Y78.483
N10535 X85.321 Y78.503
N10540 X86.612 Y78.519
N10545 X87.904 Y78.532
N10550 X89.196 Y78.542
N10555 X90.488 Y78.55
N10560 X91.781 Y78.556
N10565 X93.073 Y78.561
N10570 X95.657 Y78.568
N10575 X99.533 Y78.574
N10580 X104.701 Y78.578
N10585 X115.037 Y78.58
N10590 X127.958
N10595 X178.348
N10600 X213.234
N10605 X214.526 Y78.577
N10610 X215.818 Y78.556
N10615 X217.108 Y78.499
N10620 X218.396 Y78.389
N10625 X219.676 Y78.213
N10630 X220.944 Y77.964
N10635 X222.192 Y77.632
N10640 X223.414 Y77.213
N10645 X224.601 Y76.701
N10650 X225.742 Y76.1
N10655 X226.789 Y75.435
N10660 X227.758 Y74.705
N10665 X228.653 Y73.91
N10670 X229.482 Y73.046
N10675 X230.221 Y72.139
N10680 X230.886 Y71.175
N10685 X231.467 Y70.167
N10690 X231.963 Y69.121
N10695 X232.37 Y68.049
N10700 X232.692 Y66.939
N10705 X232.916 Y65.842
N10710 X233.055 Y64.706
N10715 X233.102 Y63.559
N10720 X233.058 Y62.433
N10725 X232.919 Y61.276
N10730 X232.698 Y60.183
N10735 X232.375 Y59.061
N10740 X231.979 Y58.009
N10745 X231.509 Y57.014
N10750 X230.936 Y56.016
N10755 X230.205 Y54.951
N10760 X229.454 Y53.899
N10765 X228.693 Y52.855
N10770 X227.897 Y51.837
N10775 X227.051 Y50.861
N10780 X226.146 Y49.939
N10785 X225.179 Y49.081
N10790 X224.154 Y48.294
N10795 X223.077 Y47.581
N10800 X221.954 Y46.942
N10805 X220.794 Y46.374
N10810 X219.603 Y45.873
N10815 X218.387 Y45.435
N10820 X217.153 Y45.054
N10825 X215.903 Y44.724
N10830 X214.643 Y44.44
N10835 X213.374 Y44.196
N10840 X212.099 Y43.988
N10845 X210.819 Y43.81
N10850 X209.536 Y43.659
N10855 X208.25 Y43.531
N10860 X206.963 Y43.423
N10865 X205.674 Y43.332
N10870 X204.384 Y43.255
N10875 X203.094 Y43.191
N10880 X201.803 Y43.138
N10885 X200.511 Y43.093
N10890 X199.22 Y43.056
N10895 X197.928 Y43.026
N10900 X196.636 Y43.
N10905 X195.345 Y42.979
N10910 X194.053 Y42.962
N10915 X192.761 Y42.948
N10920 X191.469 Y42.936
N10925 X190.177 Y42.926
N10930 X188.885 Y42.918
N10935 X187.593 Y42.912
N10940 X185.008 Y42.902
N10945 X182.424 Y42.896
N10950 X178.548 Y42.89
N10955 X177.256 Y42.901
N10960 X175.964 Y42.927
N10965 X174.673 Y42.962
N10970 X172.09 Y43.039
N10975 X170.798 Y43.076
N10980 X169.507 Y43.111
N10985 X168.215 Y43.143
N10990 X166.923 Y43.171
N10995 X165.632 Y43.197
N11000 X164.34 Y43.219
N11005 X163.048 Y43.238
N11010 X161.756 Y43.254
N11015 X160.464 Y43.268
N11020 X159.172 Y43.28
N11025 X157.88 Y43.29
N11030 X156.588 Y43.298
N11035 X155.296 Y43.306
N11040 X152.712 Y43.317
N11045 X150.128 Y43.324
N11050 X146.251 Y43.331
N11055 X141.083 Y43.336
N11060 X133.331 Y43.339
N11065 X107.49 Y43.34
N11070 X104.906
N11075 X82.941
N11080 X81.649 Y43.342
N11085 X80.357 Y43.351
N11090 X79.065 Y43.372
N11095 X77.773 Y43.413
N11100 X76.483 Y43.479
N11105 X75.195 Y43.58
N11110 X73.911 Y43.723
N11115 X72.633 Y43.912
N11120 X71.363 Y44.152
N11125 X70.105 Y44.448
N11130 X68.863 Y44.805
N11135 X67.642 Y45.226
N11140 X66.445 Y45.713
N11145 X65.277 Y46.265
N11150 X64.143 Y46.885
N11155 X63.05 Y47.573
N11160 X62.002 Y48.329
N11165 X61.004 Y49.149
N11170 X60.061 Y50.032
N11175 X59.176 Y50.974
N11180 X58.354 Y51.971
N11185 X57.601 Y53.021
N11190 X56.921 Y54.12
N11195 X56.319 Y55.262
N11200 X55.795 Y56.444
N11205 X55.354 Y57.658
N11210 X54.996 Y58.9
N11215 X54.723 Y60.163
N11220 X54.539 Y61.441
N11225 X54.445 Y62.73
N11230 X54.441 Y64.022
N11235 X54.528 Y65.311
N11240 X54.705 Y66.591
N11245 X54.97 Y67.856
N11250 X55.321 Y69.099
N11255 X55.758 Y70.315
N11260 X56.279 Y71.497
N11265 X56.882 Y72.64
N11270 X57.565 Y73.737
N11275 X58.323 Y74.783
N11280 X59.153 Y75.774
N11285 X60.049 Y76.704
N11290 X61.008 Y77.57
N11295 X62.024 Y78.368
N11300 X63.094 Y79.092
N11305 X64.212 Y79.741
N11310 X65.369 Y80.316
N11315 X66.558 Y80.82
N11320 X67.774 Y81.259
N11325 X69.009 Y81.637
N11330 X70.26 Y81.962
N11335 X71.522 Y82.239
N11340 X72.792 Y82.474
N11345 X74.069 Y82.672
N11350 X75.35 Y82.839
N11355 X76.635 Y82.979
N11360 X77.921 Y83.097
N11365 X79.21 Y83.194
N11370 X80.499 Y83.276
N11375 X81.789 Y83.344
N11380 X83.08 Y83.4
N11385 X84.371 Y83.446
N11390 X85.663 Y83.484
N11395 X86.955 Y83.516
N11400 X88.246 Y83.542
N11405 X89.538 Y83.564
N11410 X90.83 Y83.581
N11415 X92.122 Y83.596
N11420 X93.414 Y83.608
N11425 X94.706 Y83.617
N11430 X95.998 Y83.625
N11435 X97.29 Y83.632
N11440 X99.874 Y83.641
N11445 X102.458 Y83.648
N11450 X106.335 Y83.654
N11455 X111.503 Y83.657
N11460 X121.839 Y83.66
N11465 X133.468
N11470 X183.858
N11475 X208.407
N11480 X209.699 Y83.659
N11485 X210.991 Y83.654
N11490 X212.283 Y83.639
N11495 X213.575 Y83.606
N11500 X214.865 Y83.549
N11505 X216.154 Y83.461
N11510 X217.44 Y83.337
N11515 X218.721 Y83.168
N11520 X219.995 Y82.948
N11525 X221.257 Y82.673
N11530 X222.506 Y82.341
N11535 X223.736 Y81.947
N11540 X224.944 Y81.487
N11545 X226.123 Y80.959
N11550 X227.27 Y80.365
N11555 X228.381 Y79.704
N11560 X229.449 Y78.977
N11565 X230.468 Y78.183
N11570 X231.434 Y77.325
N11575 X232.341 Y76.405
N11580 X233.187 Y75.428
N11585 X233.967 Y74.398
N11590 X234.676 Y73.318
N11595 X235.311 Y72.193
N11600 X235.868 Y71.027
N11605 X236.341 Y69.825
N11610 X236.731 Y68.593
N11615 X237.035 Y67.337
N11620 X237.252 Y66.063
N11625 X237.382 Y64.778
N11630 X237.422 Y63.486
N11635 X237.373 Y62.195
N11640 X237.232 Y60.911
N11645 X237.002 Y59.639
N11650 X236.683 Y58.387
N11655 X236.278 Y57.161
N11660 X235.794 Y55.962
N11665 X235.248 Y54.792
N11670 X234.65 Y53.646
N11675 X234.005 Y52.527
N11680 X233.314 Y51.435
N11685 X232.574 Y50.376
N11690 X231.785 Y49.353
N11695 X230.947 Y48.369
N11700 X230.062 Y47.428
N11705 X229.13 Y46.533
N11710 X228.151 Y45.689
N11715 X227.129 Y44.899
N11720 X226.068 Y44.161
N11725 X224.972 Y43.478
N11730 X223.844 Y42.848
N11735 X222.688 Y42.271
N11740 X221.507 Y41.746
N11745 X220.305 Y41.272
N11750 X219.086 Y40.844
N11755 X217.852 Y40.461
N11760 X216.606 Y40.119
N11765 X215.35 Y39.815
N11770 X214.087 Y39.546
N11775 X212.817 Y39.309
N11780 X211.541 Y39.1
N11785 X210.262 Y38.917
N11790 X208.98 Y38.758
N11795 X207.696 Y38.62
N11800 X206.409 Y38.5
N11805 X205.121 Y38.396
N11810 X203.832 Y38.307
N11815 X202.542 Y38.23
N11820 X201.252 Y38.165
N11825 X199.961 Y38.108
N11830 X198.67 Y38.061
N11835 X197.379 Y38.02
N11840 X196.087 Y37.985
N11845 X194.795 Y37.956
N11850 X193.503 Y37.931
N11855 X192.212 Y37.91
N11860 X190.92 Y37.893
N11865 X189.628 Y37.878
N11870 X188.336 Y37.865
N11875 X187.044 Y37.855
N11880 X185.752 Y37.846
N11885 X184.46 Y37.839
N11890 X183.168 Y37.833
N11895 X181.876 Y37.832
N11900 X180.583 Y37.836
N11905 X179.291 Y37.847
N11910 X178. Y37.864
N11915 X176.708 Y37.885
N11920 X175.416 Y37.909
N11925 X172.832 Y37.964
N11930 X170.249 Y38.018
N11935 X168.957 Y38.044
N11940 X167.665 Y38.068
N11945 X166.373 Y38.091
N11950 X165.081 Y38.112
N11955 X163.789 Y38.13
N11960 X162.498 Y38.147
N11965 X161.206 Y38.162
N11970 X159.914 Y38.176
N11975 X158.622 Y38.188
N11980 X157.33 Y38.198
N11985 X156.038 Y38.207
N11990 X154.745 Y38.215
N11995 X152.161 Y38.228
N12000 X149.577 Y38.237
N12005 X146.993 Y38.244
N12010 X143.117 Y38.25
N12015 X137.949 Y38.255
N12020 X130.197 Y38.259
N12025 X113.4 Y38.26
N12030 X87.559
N12035 X86.267 Y38.261
N12040 X84.975 Y38.264
N12045 X83.683 Y38.271
N12050 X82.391 Y38.286
N12055 X81.099 Y38.311
N12060 X79.807 Y38.352
N12065 X78.517 Y38.413
N12070 X77.228 Y38.497
N12075 X75.94 Y38.61
N12080 X74.656 Y38.754
N12085 X73.377 Y38.932
N12090 X72.103 Y39.149
N12095 X70.837 Y39.41
N12100 X69.582 Y39.716
N12105 X68.34 Y40.07
N12110 X67.112 Y40.473
N12115 X65.902 Y40.925
N12120 X64.713 Y41.431
N12125 X63.549 Y41.991
N12130 X62.412 Y42.606
N12135 X61.306 Y43.273
N12140 X60.233 Y43.993
N12145 X59.197 Y44.765
N12150 X58.202 Y45.59
N12155 X57.252 Y46.465
N12160 X56.347 Y47.388
N12165 X55.492 Y48.356
N12170 X54.689 Y49.369
N12175 X53.943 Y50.423
N12180 X53.255 Y51.517
N12185 X52.628 Y52.647
N12190 X52.062 Y53.809
N12195 X51.56 Y54.999
N12200 X51.125 Y56.216
N12205 X50.759 Y57.455
N12210 X50.462 Y58.712
N12215 X50.234 Y59.984
N12220 X50.077 Y61.266
N12225 X49.993 Y62.556
N12230 X49.983 Y63.848
N12235 X50.044 Y65.138
N12240 X50.177 Y66.424
N12245 X50.38 Y67.7
N12250 X50.655 Y68.962
N12255 X51.003 Y70.207
N12260 X51.42 Y71.43
N12265 X51.904 Y72.627
N12270 X52.454 Y73.796
N12275 X53.07 Y74.932
N12280 X53.75 Y76.031
N12285 X54.491 Y77.089
N12290 X55.29 Y78.105
N12295 X56.144 Y79.075
N12300 X57.05 Y79.995
N12305 X58.009 Y80.862
N12310 X59.014 Y81.673
N12315 X60.062 Y82.429
N12320 X61.148 Y83.129
N12325 X62.268 Y83.772
N12330 X63.419 Y84.36
N12335 X64.596 Y84.893
N12340 X65.796 Y85.373
N12345 X67.014 Y85.804
N12350 X68.247 Y86.188
N12355 X69.494 Y86.529
N12360 X70.75 Y86.831
N12365 X72.015 Y87.096
N12370 X73.286 Y87.328
N12375 X74.562 Y87.531
N12380 X75.842 Y87.707
N12385 X77.125 Y87.86
N12390 X78.41 Y87.991
N12395 X79.697 Y88.105
N12400 X80.985 Y88.202
N12405 X82.275 Y88.285
N12410 X83.565 Y88.357
N12415 X84.856 Y88.417
N12420 X86.147 Y88.469
N12425 X87.438 Y88.512
N12430 X88.729 Y88.549
N12435 X90.021 Y88.58
N12440 X91.313 Y88.606
N12445 X92.605 Y88.629
N12450 X93.897 Y88.647
N12455 X95.189 Y88.663
N12460 X96.481 Y88.676
N12465 X97.773 Y88.687
N12470 X99.065 Y88.696
N12475 X100.357 Y88.703
N12480 X101.649 Y88.71
N12485 X104.233 Y88.719
N12490 X106.817 Y88.726
N12495 X110.693 Y88.732
N12500 X115.861 Y88.737
N12505 X124.906 Y88.739
N12510 X161.083 Y88.74
N12515 X205.013
N12520 X206.305 Y88.738
N12525 X207.597 Y88.733
N12530 X208.889 Y88.722
N12535 X210.181 Y88.702
N12540 X211.473 Y88.668
N12545 X212.764 Y88.616
N12550 X214.054 Y88.542
N12555 X215.342 Y88.443
N12560 X216.627 Y88.314
N12565 X217.909 Y88.151
N12570 X219.186 Y87.952
N12575 X220.455 Y87.711
N12580 X221.715 Y87.425
N12585 X222.964 Y87.092
N12590 X224.198 Y86.712
N12595 X225.417 Y86.282
N12600 X226.616 Y85.8
N12605 X227.791 Y85.264
N12610 X228.941 Y84.674
N12615 X230.061 Y84.031
N12620 X231.15 Y83.335
N12625 X232.203 Y82.587
N12630 X233.216 Y81.785
N12635 X234.187 Y80.932
N12640 X235.112 Y80.03
N12645 X235.989 Y79.081
N12650 X236.817 Y78.089
N12655 X237.589 Y77.053
N12660 X238.303 Y75.976
N12665 X238.957 Y74.862
N12670 X239.551 Y73.714
N12675 X240.082 Y72.536
N12680 X240.546 Y71.33
N12685 X240.942 Y70.101
N12690 X241.269 Y68.851
N12695 X241.528 Y67.585
N12700 X241.717 Y66.307
N12705 X241.834 Y65.02
N12710 X241.877 Y63.729
N12715 X241.848 Y62.437
N12720 X241.747 Y61.149
N12725 X241.575 Y59.868
N12730 X241.332 Y58.599
N12735 X241.022 Y57.345
N12740 X240.649 Y56.108
N12745 X240.219 Y54.89
N12750 X239.734 Y53.692
N12755 X239.199 Y52.516
N12760 X238.615 Y51.363
N12765 X237.984 Y50.236
N12770 X237.306 Y49.136
N12775 X236.582 Y48.066
N12780 X235.813 Y47.027
N12785 X235.001 Y46.023
N12790 X234.147 Y45.053
N12795 X233.252 Y44.121
N12800 X232.318 Y43.229
N12805 X231.345 Y42.378
N12810 X230.337 Y41.57
N12815 X229.295 Y40.805
N12820 X228.223 Y40.084
N12825 X227.123 Y39.407
N12830 X225.997 Y38.774
N12835 X224.847 Y38.184
N12840 X223.677 Y37.637
N12845 X222.487 Y37.133
N12850 X221.281 Y36.669
N12855 X220.061 Y36.244
N12860 X218.828 Y35.856
N12865 X217.586 Y35.503
N12870 X216.334 Y35.183
N12875 X215.074 Y34.895
N12880 X213.809 Y34.635
N12885 X212.538 Y34.402
N12890 X211.263 Y34.193
N12895 X209.984 Y34.008
N12900 X208.702 Y33.843
N12905 X207.419 Y33.697
N12910 X206.133 Y33.568
N12915 X204.846 Y33.455
N12920 X203.558 Y33.355
N12925 X202.269 Y33.268
N12930 X200.979 Y33.192
N12935 X199.689 Y33.126
N12940 X198.398 Y33.069
N12945 X197.107 Y33.019
N12950 X195.815 Y32.976
N12955 X194.524 Y32.939
N12960 X193.232 Y32.907
N12965 X191.94 Y32.879
N12970 X190.649 Y32.856
N12975 X189.357 Y32.836
N12980 X188.065 Y32.818
N12985 X186.773 Y32.805
N12990 X185.481 Y32.795
N12995 X184.189 Y32.789
N13000 X182.897 Y32.788
N13005 X181.605 Y32.791
N13010 X180.313 Y32.799
N13015 X179.02 Y32.811
N13020 X177.729 Y32.826
N13025 X176.437 Y32.843
N13030 X175.145 Y32.863
N13035 X172.561 Y32.906
N13040 X168.685 Y32.97
N13045 X167.393 Y32.99
N13050 X166.102 Y33.009
N13055 X164.81 Y33.027
N13060 X163.518 Y33.044
N13065 X162.226 Y33.059
N13070 X160.934 Y33.074
N13075 X159.642 Y33.086
N13080 X158.35 Y33.098
N13085 X157.058 Y33.108
N13090 X155.766 Y33.117
N13095 X153.182 Y33.133
N13100 X150.598 Y33.145
N13105 X148.013 Y33.154
N13110 X144.137 Y33.164
N13115 X140.261 Y33.17
N13120 X135.093 Y33.175
N13125 X127.341 Y33.178
N13130 X109.252 Y33.18
N13135 X100.207
N13140 X91.163
N13145 X89.871 Y33.181
N13150 X88.579 Y33.183
N13155 X87.287 Y33.188
N13160 X85.995 Y33.197
N13165 X84.703 Y33.212
N13170 X83.411 Y33.236
N13175 X82.119 Y33.272
N13180 X80.828 Y33.322
N13185 X79.538 Y33.389
N13190 X78.249 Y33.475
N13195 X76.962 Y33.584
N13200 X75.676 Y33.718
N13205 X74.395 Y33.88
N13210 X73.117 Y34.073
N13215 X71.845 Y34.3
N13220 X70.58 Y34.562
N13225 X69.323 Y34.862
N13230 X68.076 Y35.2
N13235 X66.841 Y35.578
N13240 X65.619 Y35.998
N13245 X64.412 Y36.461
N13250 X63.224 Y36.968
N13255 X62.056 Y37.52
N13260 X60.91 Y38.116
N13265 X59.788 Y38.757
N13270 X58.692 Y39.442
N13275 X57.625 Y40.17
N13280 X56.589 Y40.943
N13285 X55.588 Y41.76
N13290 X54.622 Y42.618
N13295 X53.694 Y43.517
N13300 X52.806 Y44.455
N13305 X51.959 Y45.431
N13310 X51.157 Y46.444
N13315 X50.401 Y47.492
N13320 X49.694 Y48.573
N13325 X49.036 Y49.685
N13330 X48.428 Y50.825
N13335 X47.871 Y51.991
N13340 X47.37 Y53.182
N13345 X46.925 Y54.395
N13350 X46.536 Y55.627
N13355 X46.204 Y56.876
N13360 X45.93 Y58.138
N13365 X45.713 Y59.412
N13370 X45.557 Y60.695
N13375 X45.462 Y61.983
N13380 X45.428 Y63.275
N13385 X45.453 Y64.567
N13390 X45.537 Y65.856
N13395 X45.681 Y67.14
N13400 X45.885 Y68.416
N13405 X46.15 Y69.68
N13410 X46.475 Y70.931
N13415 X46.857 Y72.165
N13420 X47.296 Y73.38
N13425 X47.792 Y74.574
N13430 X48.343 Y75.742
N13435 X48.949 Y76.883
N13440 X49.609 Y77.994
N13445 X50.32 Y79.073
N13450 X51.08 Y80.118
N13455 X51.888 Y81.126
N13460 X52.742 Y82.096
N13465 X53.642 Y83.023
N13470 X54.584 Y83.908
N13475 X55.565 Y84.748
N13480 X56.582 Y85.544
N13485 X57.634 Y86.295
N13490 X58.717 Y87.
N13495 X59.828 Y87.659
N13500 X60.966 Y88.27
N13505 X62.128 Y88.837
N13510 X63.309 Y89.359
N13515 X64.509 Y89.839
N13520 X65.724 Y90.278
N13525 X66.953 Y90.678
N13530 X68.193 Y91.04
N13535 X69.443 Y91.368
N13540 X70.701 Y91.664
N13545 X71.965 Y91.928
N13550 X73.235 Y92.165
N13555 X74.51 Y92.376
N13560 X75.789 Y92.563
N13565 X77.07 Y92.728
N13570 X78.354 Y92.873
N13575 X79.64 Y93.001
N13580 X80.927 Y93.114
N13585 X82.215 Y93.212
N13590 X83.504 Y93.297
N13595 X84.794 Y93.372
N13600 X86.085 Y93.436
N13605 X87.376 Y93.492
N13610 X88.667 Y93.54
N13615 X89.958 Y93.581
N13620 X91.25 Y93.617
N13625 X92.541 Y93.648
N13630 X93.833 Y93.674
N13635 X95.125 Y93.696
N13640 X96.417 Y93.715
N13645 X97.709 Y93.732
N13650 X99.001 Y93.746
N13655 X100.293 Y93.757
N13660 X101.585 Y93.767
N13665 X102.877 Y93.776
N13670 X104.169 Y93.783
N13675 X106.753 Y93.794
N13680 X109.337 Y93.802
N13685 X113.213 Y93.809
N13690 X118.382 Y93.815
N13695 X126.134 Y93.818
N13700 X144.223 Y93.82
N13705 X159.727
N13710 X201.073
N13715 X202.365 Y93.819
N13720 X203.657 Y93.816
N13725 X204.949 Y93.81
N13730 X206.241 Y93.799
N13735 X207.533 Y93.781
N13740 X208.825 Y93.754
N13745 X210.116 Y93.714
N13750 X211.407 Y93.659
N13755 X212.697 Y93.587
N13760 X213.986 Y93.495
N13765 X215.273 Y93.379
N13770 X216.557 Y93.237
N13775 X217.838 Y93.065
N13780 X219.114 Y92.862
N13785 X220.384 Y92.625
N13790 X221.647 Y92.351
N13795 X222.901 Y92.041
N13800 X224.145 Y91.693
N13805 X225.377 Y91.303
N13810 X226.594 Y90.87
N13815 X227.795 Y90.393
N13820 X228.978 Y89.873
N13825 X230.14 Y89.308
N13830 X231.28 Y88.7
N13835 X232.395 Y88.048
N13840 X233.482 Y87.35
N13845 X234.54 Y86.607
N13850 X235.565 Y85.82
N13855 X236.556 Y84.992
N13860 X237.512 Y84.122
N13865 X238.429 Y83.213
N13870 X239.306 Y82.263
N13875 X240.139 Y81.276
N13880 X240.927 Y80.251
N13885 X241.668 Y79.193
N13890 X242.362 Y78.103
N13895 X243.007 Y76.984
N13900 X243.599 Y75.836
N13905 X244.138 Y74.661
N13910 X244.622 Y73.463
N13915 X245.05 Y72.244
N13920 X245.423 Y71.007
N13925 X245.74 Y69.754
N13930 X245.997 Y68.488
N13935 X246.194 Y67.211
N13940 X246.331 Y65.927
N13945 X246.409 Y64.637
N13950 X246.427 Y63.345
N13955 X246.386 Y62.054
N13960 X246.286 Y60.765
N13965 X246.126 Y59.483
N13970 X245.909 Y58.209
N13975 X245.638 Y56.946
N13980 X245.314 Y55.696
N13985 X244.939 Y54.459
N13990 X244.516 Y53.238
N13995 X244.046 Y52.035
N14000 X243.53 Y50.85
N14005 X242.968 Y49.687
N14010 X242.362 Y48.545
N14015 X241.714 Y47.428
N14020 X241.025 Y46.335
N14025 X240.295 Y45.268
N14030 X239.527 Y44.229
N14035 X238.721 Y43.22
N14040 X237.877 Y42.241
N14045 X236.997 Y41.296
N14050 X236.082 Y40.384
N14055 X235.133 Y39.506
N14060 X234.154 Y38.664
N14065 X233.144 Y37.857
N14070 X232.107 Y37.087
N14075 X231.043 Y36.354
N14080 X229.953 Y35.659
N14085 X228.841 Y35.003
N14090 X227.706 Y34.383
N14095 X226.553 Y33.801
N14100 X225.382 Y33.256
N14105 X224.194 Y32.746
N14110 X222.993 Y32.271
N14115 X221.778 Y31.83
N14120 X220.553 Y31.422
N14125 X219.317 Y31.045
N14130 X218.072 Y30.698
N14135 X216.82 Y30.381
N14140 X215.561 Y30.09
N14145 X214.296 Y29.826
N14150 X213.027 Y29.585
N14155 X211.753 Y29.367
N14160 X210.476 Y29.17
N14165 X209.196 Y28.993
N14170 X207.914 Y28.834
N14175 X206.63 Y28.691
N14180 X205.344 Y28.563
N14185 X204.057 Y28.449
N14190 X202.769 Y28.348
N14195 X201.48 Y28.259
N14200 X200.19 Y28.18
N14205 X198.9 Y28.11
N14210 X197.61 Y28.048
N14215 X196.319 Y27.994
N14220 X195.028 Y27.947
N14225 X193.736 Y27.906
N14230 X192.445 Y27.87
N14235 X191.153 Y27.838
N14240 X189.861 Y27.812
N14245 X188.569 Y27.791
N14250 X187.277 Y27.774
N14255 X185.985 Y27.761
N14260 X184.693 Y27.754
N14265 X183.401 Y27.75
N14270 X182.109 Y27.751
N14275 X180.817 Y27.755
N14280 X179.525 Y27.762
N14285 X178.233 Y27.773
N14290 X176.941 Y27.785
N14295 X175.649 Y27.8
N14300 X173.065 Y27.833
N14305 X167.897 Y27.904
N14310 X166.606 Y27.921
N14315 X164.022 Y27.952
N14320 X161.438 Y27.98
N14325 X158.854 Y28.004
N14330 X156.27 Y28.025
N14335 X153.686 Y28.041
N14340 X151.102 Y28.055
N14345 X148.517 Y28.066
N14350 X145.933 Y28.074
N14355 X142.057 Y28.083
N14360 X138.181 Y28.089
N14365 X133.013 Y28.094
N14370 X125.26 Y28.098
N14375 X116.216 Y28.099
N14380 X94.251 Y28.101
N14385 X92.959 Y28.102
N14390 X91.667 Y28.104
N14395 X90.375 Y28.108
N14400 X89.083 Y28.115
N14405 X87.791 Y28.126
N14410 X86.499 Y28.143
N14415 X85.207 Y28.168
N14420 X83.916 Y28.202
N14425 X82.624 Y28.248
N14430 X81.334 Y28.307
N14435 X80.044 Y28.382
N14440 X78.755 Y28.474
N14445 X77.468 Y28.587
N14450 X76.183 Y28.722
N14455 X74.901 Y28.881
N14460 X73.622 Y29.066
N14465 X72.348 Y29.279
N14470 X71.078 Y29.521
N14475 X69.815 Y29.793
N14480 X68.559 Y30.097
N14485 X67.312 Y30.435
N14490 X66.076 Y30.808
N14495 X64.85 Y31.218
N14500 X63.637 Y31.664
N14505 X62.439 Y32.147
N14510 X61.257 Y32.668
N14515 X60.091 Y33.225
N14520 X58.945 Y33.821
N14525 X57.819 Y34.456
N14530 X56.717 Y35.13
N14535 X55.638 Y35.841
N14540 X54.586 Y36.591
N14545 X53.561 Y37.377
N14550 X52.564 Y38.2
N14555 X51.598 Y39.057
N14560 X50.665 Y39.951
N14565 X49.766 Y40.879
N14570 X48.903 Y41.841
N14575 X48.077 Y42.834
N14580 X47.289 Y43.858
N14585 X46.54 Y44.911
N14590 X45.832 Y45.992
N14595 X45.166 Y47.099
N14600 X44.545 Y48.232
N14605 X43.968 Y49.388
N14610 X43.438 Y50.566
N14615 X42.953 Y51.764
N14620 X42.515 Y52.98
N14625 X42.125 Y54.211
N14630 X41.784 Y55.458
N14635 X41.494 Y56.717
N14640 X41.255 Y57.987
N14645 X41.066 Y59.265
N14650 X40.928 Y60.549
N14655 X40.84 Y61.838
N14660 X40.803 Y63.13
N14665 X40.818 Y64.422
N14670 X40.886 Y65.712
N14675 X41.006 Y66.999
N14680 X41.177 Y68.279
N14685 X41.399 Y69.552
N14690 X41.671 Y70.815
N14695 X41.993 Y72.067
N14700 X42.365 Y73.304
N14705 X42.788 Y74.525
N14710 X43.26 Y75.727
N14715 X43.78 Y76.91
N14720 X44.347 Y78.072
N14725 X44.959 Y79.209
N14730 X45.616 Y80.322
N14735 X46.317 Y81.407
N14740 X47.062 Y82.463
N14745 X47.85 Y83.487
N14750 X48.677 Y84.479
N14755 X49.543 Y85.438
N14760 X50.446 Y86.362
N14765 X51.384 Y87.251
N14770 X52.356 Y88.102
N14775 X53.36 Y88.915
N14780 X54.395 Y89.689
N14785 X55.457 Y90.425
N14790 X56.546 Y91.12
N14795 X57.658 Y91.777
N14800 X58.793 Y92.396
N14805 X59.947 Y92.976
N14810 X61.12 Y93.518
N14815 X62.31 Y94.023
N14820 X63.514 Y94.491
N14825 X64.731 Y94.925
N14830 X65.96 Y95.325
N14835 X67.198 Y95.692
N14840 X68.445 Y96.029
N14845 X69.7 Y96.337
N14850 X70.962 Y96.618
N14855 X72.228 Y96.872
N14860 X73.5 Y97.103
N14865 X74.775 Y97.311
N14870 X76.053 Y97.498
N14875 X77.334 Y97.666
N14880 X78.618 Y97.816
N14885 X79.903 Y97.95
N14890 X81.189 Y98.069
N14895 X82.477 Y98.174
N14900 X83.766 Y98.268
N14905 X85.055 Y98.35
N14910 X86.345 Y98.423
N14915 X87.636 Y98.486
N14920 X88.926 Y98.542
N14925 X90.218 Y98.591
N14930 X91.509 Y98.634
N14935 X92.8 Y98.671
N14940 X94.092 Y98.703
N14945 X95.384 Y98.731
N14950 X96.676 Y98.755
N14955 X97.968 Y98.776
N14960 X99.26 Y98.794
N14965 X100.551 Y98.81
N14970 X101.843 Y98.823
N14975 X103.135 Y98.835
N14980 X104.427 Y98.844
N14985 X105.72 Y98.853
N14990 X107.012 Y98.86
N14995 X109.596 Y98.871
N15000 X112.18 Y98.88
N15005 X116.056 Y98.888
N15010 X119.932 Y98.893
N15015 X126.392 Y98.897
N15020 X128.976 Y98.898
N15025 X144.481 Y98.9
N15030 X179.367
N15035 X197.455
N15040 X198.747 Y98.899
N15045 X200.039 Y98.897
N15050 X201.331 Y98.893
N15055 X202.624 Y98.887
N15060 X203.916 Y98.876
N15065 X205.207 Y98.859
N15070 X206.499 Y98.835
N15075 X207.791 Y98.802
N15080 X209.082 Y98.757
N15085 X210.373 Y98.699
N15090 X211.663 Y98.626
N15095 X212.952 Y98.535
N15100 X214.239 Y98.425
N15105 X215.524 Y98.293
N15110 X216.807 Y98.137
N15115 X218.086 Y97.956
N15120 X219.361 Y97.747
N15125 X220.631 Y97.509
N15130 X221.895 Y97.24
N15135 X223.151 Y96.938
N15140 X224.399 Y96.604
N15145 X225.637 Y96.234
N15150 X226.864 Y95.829
N15155 X228.079 Y95.389
N15160 X229.28 Y94.911
N15165 X230.464 Y94.396
N15170 X231.632 Y93.842
N15175 X232.78 Y93.249
N15180 X233.907 Y92.618
N15185 X235.013 Y91.949
N15190 X236.094 Y91.243
N15195 X237.151 Y90.499
N15200 X238.18 Y89.717
N15205 X239.18 Y88.899
N15210 X240.148 Y88.044
N15215 X241.085 Y87.154
N15220 X241.988 Y86.229
N15225 X242.856 Y85.272
N15230 X243.687 Y84.283
N15235 X244.481 Y83.264
N15240 X245.234 Y82.214
N15245 X245.945 Y81.135
N15250 X246.615 Y80.03
N15255 X247.241 Y78.9
N15260 X247.823 Y77.747
N15265 X248.36 Y76.572
N15270 X248.851 Y75.376
N15275 X249.294 Y74.163
N15280 X249.688 Y72.932
N15285 X250.033 Y71.687
N15290 X250.329 Y70.429
N15295 X250.575 Y69.161
N15300 X250.771 Y67.884
N15305 X250.916 Y66.6
N15310 X251.01 Y65.311
N15315 X251.052 Y64.02
N15320 X251.043 Y62.728
N15325 X250.984 Y61.437
N15330 X250.875 Y60.15
N15335 X250.718 Y58.867
N15340 X250.514 Y57.591
N15345 X250.261 Y56.324
N15350 X249.963 Y55.067
N15355 X249.62 Y53.822
N15360 X249.232 Y52.589
N15365 X248.802 Y51.37
N15370 X248.331 Y50.168
N15375 X247.818 Y48.981
N15380 X247.266 Y47.813
N15385 X246.675 Y46.664
N15390 X246.045 Y45.536
N15395 X245.378 Y44.43
N15400 X244.674 Y43.346
N15405 X243.935 Y42.287
N15410 X243.161 Y41.252
N15415 X242.353 Y40.244
N15420 X241.513 Y39.262
N15425 X240.641 Y38.308
N15430 X239.738 Y37.384
N15435 X238.805 Y36.49
N15440 X237.844 Y35.627
N15445 X236.856 Y34.794
N15450 X235.842 Y33.994
N15455 X234.803 Y33.225
N15460 X233.741 Y32.489
N15465 X232.658 Y31.786
N15470 X231.553 Y31.115
N15475 X230.429 Y30.477
N15480 X229.288 Y29.873
N15485 X228.129 Y29.301
N15490 X226.955 Y28.761
N15495 X225.767 Y28.252
N15500 X224.567 Y27.774
N15505 X223.355 Y27.326
N15510 X222.133 Y26.908
N15515 X220.901 Y26.517
N15520 X219.661 Y26.154
N15525 X218.414 Y25.818
N15530 X217.617 Y25.62
N15535 X217.382 Y25.571
N15540 X217.143 Y25.542
N15545 X216.903 Y25.532
N15550 X71.68
N15555 X70.39 Y25.597
N15560 X69.101 Y25.689
N15565 X67.82 Y25.853
N15570 X66.548 Y26.08
N15575 X65.287 Y26.363
N15580 X64.039 Y26.697
N15585 X62.804 Y27.079
N15590 X61.584 Y27.504
N15595 X60.38 Y27.972
N15600 X59.192 Y28.48
N15605 X58.021 Y29.027
N15610 X56.869 Y29.611
N15615 X55.736 Y30.233
N15620 X54.624 Y30.891
N15625 X53.534 Y31.585
N15630 X52.467 Y32.313
N15635 X51.424 Y33.076
N15640 X50.406 Y33.872
N15645 X49.415 Y34.7
N15650 X48.451 Y35.56
N15655 X47.515 Y36.451
N15660 X46.609 Y37.372
N15665 X45.735 Y38.323
N15670 X44.892 Y39.303
N15675 X44.083 Y40.311
N15680 X43.308 Y41.344
N15685 X42.568 Y42.403
N15690 X41.864 Y43.487
N15695 X41.196 Y44.593
N15700 X40.567 Y45.721
N15705 X39.977 Y46.871
N15710 X39.426 Y48.04
N15715 X38.916 Y49.227
N15720 X38.447 Y50.431
N15725 X38.02 Y51.65
N15730 X37.634 Y52.883
N15735 X37.291 Y54.129
N15740 X36.991 Y55.386
N15745 X36.736 Y56.652
N15750 X36.525 Y57.927
N15755 X36.358 Y59.208
N15760 X36.236 Y60.494
N15765 X36.158 Y61.784
N15770 X36.125 Y63.076
N15775 X36.137 Y64.368
N15780 X36.194 Y65.659
N15785 X36.296 Y66.947
N15790 X36.444 Y68.23
N15795 X36.637 Y69.508
N15800 X36.874 Y70.778
N15805 X37.155 Y72.039
N15810 X37.48 Y73.29
N15815 X37.848 Y74.528
N15820 X38.26 Y75.753
N15825 X38.715 Y76.962
N15830 X39.212 Y78.155
N15835 X39.751 Y79.329
N15840 X40.33 Y80.484
N15845 X40.949 Y81.618
N15850 X41.608 Y82.73
N15855 X42.304 Y83.818
N15860 X43.039 Y84.881
N15865 X43.811 Y85.917
N15870 X44.618 Y86.926
N15875 X45.46 Y87.906
N15880 X46.335 Y88.856
N15885 X47.242 Y89.777
N15890 X48.179 Y90.666
N15895 X49.146 Y91.524
N15900 X50.14 Y92.348
N15905 X51.162 Y93.139
N15910 X52.21 Y93.895
N15915 X53.281 Y94.618
N15920 X54.374 Y95.307
N15925 X55.487 Y95.962
N15930 X56.62 Y96.583
N15935 X57.771 Y97.171
N15940 X58.938 Y97.726
N15945 X60.12 Y98.248
N15950 X61.315 Y98.737
N15955 X62.524 Y99.195
N15960 X63.743 Y99.623
N15965 X64.972 Y100.021
N15970 X66.21 Y100.39
N15975 X67.456 Y100.732
N15980 X68.709 Y101.048
N15985 X69.968 Y101.339
N15990 X70.276 Y101.404
N15995 X70.478 Y101.439
N16000 X70.683 Y101.461
N16005 X70.889 Y101.468
N16010 X220.174
N16015 X221.465 Y101.403
N16020 X222.753 Y101.31
N16025 X224.035 Y101.146
N16030 X225.307 Y100.919
N16035 X226.568 Y100.637
N16040 X227.816 Y100.304
N16045 X229.051 Y99.923
N16050 X230.27 Y99.497
N16055 X231.475 Y99.029
N16060 X232.663 Y98.521
N16065 X233.833 Y97.973
N16070 X234.985 Y97.389
N16075 X236.118 Y96.767
N16080 X237.231 Y96.11
N16085 X238.321 Y95.417
N16090 X239.388 Y94.689
N16095 X240.431 Y93.926
N16100 X241.449 Y93.13
N16105 X242.44 Y92.301
N16110 X243.404 Y91.441
N16115 X244.34 Y90.55
N16120 X245.246 Y89.629
N16125 X246.122 Y88.679
N16130 X246.964 Y87.699
N16135 X247.773 Y86.692
N16140 X248.548 Y85.658
N16145 X249.288 Y84.598
N16150 X249.991 Y83.515
N16155 X250.659 Y82.409
N16160 X251.289 Y81.28
N16165 X251.879 Y80.131
N16170 X252.43 Y78.963
N16175 X252.94 Y77.775
N16180 X253.408 Y76.571
N16185 X253.835 Y75.352
N16190 X254.221 Y74.118
N16195 X254.564 Y72.873
N16200 X254.864 Y71.616
N16205 X255.12 Y70.35
N16210 X255.332 Y69.075
N16215 X255.499 Y67.794
N16220 X255.622 Y66.508
N16225 X255.7 Y65.218
N16230 X255.735 Y63.926
N16235 X255.726 Y62.634
N16240 X255.674 Y61.343
N16245 X255.578 Y60.055
N16250 X255.44 Y58.77
N16255 X255.258 Y57.491
N16260 X255.035 Y56.218
N16265 X254.771 Y54.954
N16270 X254.466 Y53.698
N16275 X254.123 Y52.452
N16280 X253.741 Y51.218
N16285 X253.321 Y49.996
N16290 X252.863 Y48.788
N16295 X252.368 Y47.594
N16300 X251.837 Y46.417
N16305 X251.27 Y45.256
N16310 X250.668 Y44.113
N16315 X250.032 Y42.988
N16320 X249.363 Y41.882
N16325 X248.661 Y40.797
N16330 X247.928 Y39.733
N16335 X247.164 Y38.691
N16340 X246.369 Y37.673
N16345 X245.544 Y36.679
N16350 X244.69 Y35.709
N16355 X243.808 Y34.765
N16360 X242.899 Y33.846
N16365 X241.964 Y32.955
N16370 X241.004 Y32.09
N16375 X240.02 Y31.253
N16380 X239.013 Y30.444
N16385 X237.984 Y29.663
N16390 X236.933 Y28.911
N16395 X235.861 Y28.189
N16400 X234.771 Y27.496
N16405 X233.662 Y26.832
N16410 X232.537 Y26.198
N16415 X231.933 Y25.878
N16420 X231.604 Y25.728
N16425 X231.259 Y25.62
N16430 X230.904 Y25.554
N16435 X230.544 Y25.532
N16440 X216.903
N16445 G2 X215.678 Y26.845 Z-6.15 I0.044 J1.269
N16450 X216.081 Y27.73 I1.269 J-0.043
N16455 X217.507 Y28.638 I3.152 J-3.38
N16460 X228.948 Y26.632 I4.108 J-10.204
N16465 X229.66 Y25.935 Z-6.25 I-7.333 J-8.199
N16470 G3 X230.544 Y25.532 Z-6.35 I0.929 J0.866
N16475 G1 X235.404 F3150.
N16480 X236.168 Y25.571
N16485 X236.936 Y25.671
N16490 X237.827 Y25.862
N16495 X238.847 Y26.167
N16500 X240.018 Y26.623
N16505 X241.18 Y27.187
N16510 X242.301 Y27.83
N16515 X243.382 Y28.538
N16520 X244.425 Y29.301
N16525 X245.432 Y30.11
N16530 X246.405 Y30.961
N16535 X247.344 Y31.848
N16540 X248.251 Y32.768
N16545 X249.126 Y33.719
N16550 X249.971 Y34.697
N16555 X250.785 Y35.7
N16560 X251.568 Y36.727
N16565 X252.321 Y37.777
N16570 X253.043 Y38.849
N16575 X253.734 Y39.941
N16580 X254.394 Y41.052
N16585 X255.022 Y42.181
N16590 X255.618 Y43.327
N16595 X256.182 Y44.489
N16600 X256.714 Y45.667
N16605 X256.945 Y46.221
N16610 X257.072 Y46.591
N16615 X257.149 Y46.975
N16620 X257.175 Y47.365
N16625 Y75.114
N16630 X257.11 Y76.404
N16635 X257.038 Y77.046
N16640 X256.841 Y78.323
N16645 X256.548 Y79.582
N16650 X256.175 Y80.819
N16655 X255.732 Y82.032
N16660 X255.229 Y83.222
N16665 X254.671 Y84.388
N16670 X254.065 Y85.529
N16675 X253.413 Y86.644
N16680 X252.719 Y87.735
N16685 X251.987 Y88.799
N16690 X251.219 Y89.838
N16695 X250.416 Y90.85
N16700 X249.581 Y91.836
N16705 X248.715 Y92.795
N16710 X247.82 Y93.727
N16715 X246.897 Y94.631
N16720 X245.947 Y95.507
N16725 X244.971 Y96.353
N16730 X243.969 Y97.17
N16735 X242.944 Y97.956
N16740 X241.896 Y98.712
N16745 X240.827 Y99.437
N16750 X239.737 Y100.131
N16755 X238.627 Y100.792
N16760 X238.089 Y101.092
N16765 X237.749 Y101.255
N16770 X237.391 Y101.373
N16775 X237.022 Y101.444
N16780 X236.646 Y101.468
N16785 X220.174
N16790 G3 X219.098 Y100.796 Z-6.217 I0.044 J-1.269 F3500.
N16795 X218.901 Y100.165 Z-6.15 I1.566 J-0.835
N16800 X219.352 Y98.766 I1.763 J-0.203
N16805 X235.237 Y100.22 I7.393 J6.734
N16810 X235.569 Y100.796 Z-6.217 I-8.492 J5.28
N16815 G2 X236.646 Y101.468 Z-6.35 I1.121 J-0.597
N16820 G1 X241.116
N16825 X241.908 Y101.428
N16830 X242.635 Y101.333
N16835 X243.454 Y101.158
N16840 X244.4 Y100.874
N16845 X245.483 Y100.453
N16850 X246.645 Y99.889
N16855 X247.762 Y99.238
N16860 X248.834 Y98.518
N16865 X249.865 Y97.739
N16870 X250.856 Y96.909
N16875 X251.809 Y96.037
N16880 X252.724 Y95.125
N16885 X253.603 Y94.178
N16890 X254.445 Y93.198
N16895 X255.251 Y92.188
N16900 X256.019 Y91.149
N16905 X256.655 Y90.223
N16910 X256.879 Y89.838
N16915 X257.042 Y89.424
N16920 X257.142 Y88.99
N16925 X257.175 Y88.546
N16930 Y75.114
N16935 G2 X256.503 Y74.037 Z-6.217 I-1.269 J0.044
N16940 X255.86 Y73.913 Z-6.15 I-0.523 J0.982
N16945 X255.287 Y74.148 I0.12 J1.106
N16950 X255.93 Y87.133 I4.979 J6.262
N16955 X256.503 Y87.47 Z-6.217 I4.337 J-6.723
N16960 G3 X257.175 Y88.546 Z-6.35 I-0.597 J1.121
N16965 G1 Y92.249 F3150.
N16970 X257.143 Y92.879
N16975 X257.066 Y93.473
N16980 X256.921 Y94.149
N16985 X256.697 Y94.896
N16990 X256.368 Y95.741
N16995 X255.916 Y96.673
N17000 X255.334 Y97.661
N17005 X254.597 Y98.711
N17010 X253.772 Y99.705
N17015 X252.876 Y100.636
N17020 X252.801 Y100.703
N17025 X252.458 Y100.97
N17030 X252.079 Y101.184
N17035 X251.673 Y101.341
N17040 X251.248 Y101.436
N17045 X250.814 Y101.468
N17050 X241.116
N17055 G3 X240.039 Y100.796 Z-6.217 I0.044 J-1.269 F3500.
N17060 X239.893 Y100.155 Z-6.15 I1.108 J-0.591
N17065 X240.275 Y99.302 I1.255 J0.05
N17070 X249.393 Y100.228 I4.168 J4.316
N17075 X249.737 Y100.796 Z-6.217 I-4.95 J3.391
N17080 G2 X250.814 Y101.468 Z-6.35 I1.121 J-0.597
N17085 G1 X253.3
N17090 X253.787 Y101.444
N17095 X254.164 Y101.394
N17100 X254.566 Y101.308
N17105 X255.008 Y101.176
N17110 X255.492 Y100.987
N17115 X255.505 Y100.981
N17120 X255.913 Y100.741
N17125 X256.278 Y100.439
N17130 X256.59 Y100.083
N17135 X256.841 Y99.682
N17140 X257.025 Y99.246
N17145 X257.137 Y98.787
N17150 X257.175 Y98.315
N17155 G2 X255.862 Y97.09 Z-6.15 I-1.269 J0.044
N17160 X255.165 Y97.328 I0.043 J1.269
N17165 G1 X252.603 Y99.167
N17170 G2 X252.075 Y100.155 I0.741 J1.032
N17175 X253.3 Y101.468 Z-6.35 I1.269 J0.043
N17180 G1 X255.584
N17185 X255.965 Y101.466
N17190 X256.15 Y101.441
N17195 X256.336 Y101.388
N17200 X256.346 Y101.384
N17205 X256.536 Y101.293
N17210 X256.631 Y101.231
N17215 X256.726 Y101.155
N17220 X256.875 Y101.007
N17225 X256.948 Y100.912
N17230 X257.008 Y100.817
N17235 X257.097 Y100.626
N17240 X257.107 Y100.596
N17245 X257.153 Y100.421
N17250 X257.174 Y100.246
N17255 X257.175 Y99.865
N17260 Y92.249
N17265 G2 X256.914 Y91.521 I-1.269 J0.044
N17270 G1 X256.828 Y91.409 Z-6.342
N17275 X256.742 Y91.297 Z-6.318
N17280 X256.659 Y91.188 Z-6.279
N17285 X256.579 Y91.084 Z-6.224
N17290 X256.504 Y90.985 Z-6.155
N17295 X256.433 Y90.893 Z-6.073
N17300 X256.368 Y90.808 Z-5.978
N17305 X256.311 Y90.733 Z-5.872
N17310 X256.261 Y90.668 Z-5.756
N17315 X256.219 Y90.613 Z-5.631
N17320 X256.186 Y90.57 Z-5.499
N17325 X256.162 Y90.538 Z-5.363
N17330 X256.147 Y90.519 Z-5.222
N17335 X256.142 Y90.513 Z-5.08
N17340 G0 Z5.
N17345 X256.305 Y49.21
N17350 Z-3.81
N17355 G1 Z-5.08 F3500.
N17360 X256.309 Y49.203 Z-5.222
N17365 X256.321 Y49.183 Z-5.363
N17370 X256.341 Y49.149 Z-5.499
N17375 X256.369 Y49.102 Z-5.631
N17380 X256.404 Y49.043 Z-5.756
N17385 X256.446 Y48.972 Z-5.872
N17390 X256.495 Y48.89 Z-5.978
N17395 X256.549 Y48.799 Z-6.073
N17400 X256.608 Y48.699 Z-6.155
N17405 X256.672 Y48.592 Z-6.224
N17410 X256.739 Y48.479 Z-6.279
N17415 X256.809 Y48.361 Z-6.318
N17420 X256.881 Y48.241 Z-6.342
N17425 X256.954 Y48.119 Z-6.35
N17430 G2 X257.175 Y47.365 I-1.36 J-0.809
N17435 G1 Y41.605
N17440 X257.122 Y40.54
N17445 X257.01 Y39.686
N17450 X256.797 Y38.69
N17455 X256.452 Y37.541
N17460 X255.984 Y36.337
N17465 X255.428 Y35.17
N17470 X254.801 Y34.041
N17475 X254.113 Y32.947
N17480 X253.372 Y31.888
N17485 X252.585 Y30.864
N17490 X251.754 Y29.875
N17495 X250.882 Y28.921
N17500 X249.972 Y28.004
N17505 X249.025 Y27.125
N17510 X248.041 Y26.287
N17515 X247.878 Y26.16
N17520 X247.553 Y25.939
N17525 X247.202 Y25.764
N17530 X246.831 Y25.636
N17535 X246.447 Y25.558
N17540 X246.055 Y25.532
N17545 X235.404
N17550 G2 X234.328 Y26.204 Z-6.217 I0.044 J1.269
N17555 X234.119 Y26.832 Z-6.15 I1.74 J0.928
N17560 X234.996 Y28.787 I1.949 J0.299
N17565 X244.638 Y26.775 I3.805 J-5.875
N17570 X244.979 Y26.204 Z-6.217 I-5.837 J-3.864
N17575 G3 X246.055 Y25.532 Z-6.35 I1.121 J0.597
N17580 G1 X249.111 F3150.
N17585 X249.668 Y25.56
N17590 X250.177 Y25.627
N17595 X250.732 Y25.746
N17600 X251.375 Y25.938
N17605 X252.075 Y26.211
N17610 X252.85 Y26.587
N17615 X253.706 Y27.091
N17620 X254.621 Y27.734
N17625 X255.565 Y28.517
N17630 X256.281 Y29.216
N17635 X256.592 Y29.572
N17640 X256.842 Y29.972
N17645 X257.025 Y30.407
N17650 X257.137 Y30.866
N17655 X257.175 Y31.337
N17660 Y41.605
N17665 G3 X255.862 Y42.83 Z-6.15 I-1.269 J-0.044 F3500.
N17670 X254.977 Y42.427 I0.043 J-1.269
N17675 X254.158 Y40.902 I2.485 J-2.317
N17680 X256.082 Y32.94 I8.752 J-2.098
N17685 X256.772 Y32.221 Z-6.25 I6.828 J5.864
N17690 G2 X257.175 Y31.337 Z-6.35 I-0.866 J-0.929
N17695 G1 Y28.658
N17700 X257.163 Y28.409
N17705 X257.115 Y28.046
N17710 X257.035 Y27.672
N17715 X256.905 Y27.238
N17720 X256.732 Y26.877
N17725 X256.507 Y26.545
N17730 X256.234 Y26.25
N17735 X255.921 Y26.
N17740 X255.574 Y25.799
N17745 X255.201 Y25.652
N17750 X254.81 Y25.562
N17755 X254.41 Y25.532
N17760 G2 X253.185 Y26.845 Z-6.15 I0.044 J1.269
N17765 X253.463 Y27.595 I1.269 J-0.043
N17770 G1 X254.915 Y29.408
N17775 G2 X255.862 Y29.883 I0.991 J-0.794
N17780 X257.175 Y28.658 Z-6.35 I0.043 J-1.269
N17785 G1 Y27.135
N17790 X257.174 Y26.754
N17795 X257.153 Y26.579
N17800 X257.107 Y26.404
N17805 X257.096 Y26.374
N17810 X257.008 Y26.183
N17815 X256.948 Y26.088
N17820 X256.874 Y25.993
N17825 X256.726 Y25.845
N17830 X256.631 Y25.77
N17835 X256.536 Y25.708
N17840 X256.346 Y25.616
N17845 X256.335 Y25.612
N17850 X256.15 Y25.559
N17855 X255.965 Y25.534
N17860 X255.584 Y25.532
N17865 X249.111
N17870 G2 X248.384 Y25.793 I0.044 J1.269
N17875 G1 X248.271 Y25.879 Z-6.342
N17880 X248.159 Y25.965 Z-6.318
N17885 X248.051 Y26.048 Z-6.279
N17890 X247.946 Y26.128 Z-6.224
N17895 X247.847 Y26.204 Z-6.155
N17900 X247.755 Y26.274 Z-6.073
N17905 X247.671 Y26.339 Z-5.978
N17910 X247.595 Y26.397 Z-5.872
N17915 X247.53 Y26.447 Z-5.756
N17920 X247.475 Y26.489 Z-5.631
N17925 X247.432 Y26.522 Z-5.499
N17930 X247.401 Y26.546 Z-5.363
N17935 X247.382 Y26.56 Z-5.222
N17940 X247.375 Y26.565 Z-5.08
N17945 G0 Z5.
N17950 X73.526 Y26.403
N17955 Z-3.81
N17960 G1 Z-5.08 F3500.
N17965 X73.519 Y26.399 Z-5.222
N17970 X73.498 Y26.386 Z-5.363
N17975 X73.464 Y26.366 Z-5.499
N17980 X73.417 Y26.338 Z-5.631
N17985 X73.358 Y26.303 Z-5.756
N17990 X73.287 Y26.261 Z-5.872
N17995 X73.206 Y26.213 Z-5.978
N18000 X73.114 Y26.158 Z-6.073
N18005 X73.015 Y26.099 Z-6.155
N18010 X72.908 Y26.035 Z-6.224
N18015 X72.794 Y25.968 Z-6.279
N18020 X72.677 Y25.898 Z-6.318
N18025 X72.556 Y25.826 Z-6.342
N18030 X72.434 Y25.754 Z-6.35
N18035 G2 X71.68 Y25.532 I-0.809 J1.36
N18040 G1 X59.496
N18045 X58.206 Y25.597
N18050 X57.169 Y25.732
N18055 X55.972 Y25.987
N18060 X54.734 Y26.357
N18065 X53.525 Y26.814
N18070 X52.348 Y27.346
N18075 X51.2 Y27.94
N18080 X50.083 Y28.589
N18085 X48.995 Y29.286
N18090 X47.937 Y30.028
N18095 X46.909 Y30.81
N18100 X45.91 Y31.629
N18105 X44.94 Y32.483
N18110 X44. Y33.369
N18115 X43.089 Y34.286
N18120 X42.208 Y35.231
N18125 X41.357 Y36.203
N18130 X40.537 Y37.202
N18135 X39.749 Y38.225
N18140 X38.992 Y39.273
N18145 X38.269 Y40.344
N18150 X37.579 Y41.436
N18155 X36.923 Y42.549
N18160 X36.302 Y43.682
N18165 X35.715 Y44.833
N18170 X35.209 Y45.903
N18175 X35.052 Y46.31
N18180 X34.957 Y46.735
N18185 X34.925 Y47.169
N18190 Y75.114
N18195 X34.99 Y76.404
N18200 X35.054 Y77.047
N18205 X35.235 Y78.307
N18210 X35.521 Y79.567
N18215 X35.894 Y80.804
N18220 X36.341 Y82.017
N18225 X36.852 Y83.203
N18230 X37.42 Y84.363
N18235 X38.04 Y85.497
N18240 X38.707 Y86.604
N18245 X39.416 Y87.684
N18250 X40.165 Y88.737
N18255 X40.95 Y89.763
N18260 X41.771 Y90.761
N18265 X42.624 Y91.731
N18270 X43.51 Y92.672
N18275 X44.425 Y93.584
N18280 X45.369 Y94.466
N18285 X46.339 Y95.319
N18290 X47.335 Y96.142
N18295 X48.355 Y96.936
N18300 X49.398 Y97.699
N18305 X50.462 Y98.432
N18310 X51.546 Y99.134
N18315 X52.65 Y99.806
N18320 X53.771 Y100.448
N18325 X54.91 Y101.059
N18330 X55.095 Y101.152
N18335 X55.52 Y101.326
N18340 X55.968 Y101.432
N18345 X56.427 Y101.468
N18350 X70.889
N18355 G2 X71.965 Y100.796 Z-6.217 I-0.044 J-1.269
N18360 X72.174 Y100.168 Z-6.15 I-1.733 J-0.924
N18365 X71.568 Y98.433 I-1.941 J-0.295
N18370 X57.838 Y100.221 I-6.123 J6.596
N18375 X57.503 Y100.796 Z-6.217 I7.608 J4.809
N18380 G3 X56.427 Y101.468 Z-6.35 I-1.121 J-0.597
N18385 G1 X51.5 F3150.
N18390 X50.701 Y101.428
N18395 X49.931 Y101.327
N18400 X49.048 Y101.138
N18405 X48.029 Y100.833
N18410 X46.864 Y100.379
N18415 X45.702 Y99.815
N18420 X44.581 Y99.171
N18425 X43.502 Y98.461
N18430 X42.462 Y97.694
N18435 X41.46 Y96.879
N18440 X40.494 Y96.021
N18445 X39.564 Y95.124
N18450 X38.67 Y94.191
N18455 X37.813 Y93.224
N18460 X36.991 Y92.227
N18465 X36.206 Y91.201
N18470 X35.459 Y90.147
N18475 X35.41 Y90.072
N18480 X35.201 Y89.696
N18485 X35.049 Y89.295
N18490 X34.956 Y88.876
N18495 X34.925 Y88.448
N18500 Y75.114
N18505 G3 X35.597 Y74.037 Z-6.217 I1.269 J0.044 F3500.
N18510 X36.238 Y73.893 Z-6.15 I0.582 J1.092
N18515 X36.974 Y74.181 I-0.059 J1.236
N18520 X36.17 Y87.034 I-5.14 J6.13
N18525 X35.597 Y87.371 Z-6.217 I-4.337 J-6.723
N18530 G2 X34.925 Y88.448 Z-6.35 I0.597 J1.121
N18535 G1 Y92.249
N18540 X34.946 Y92.679
N18545 X35.025 Y93.274
N18550 X35.164 Y93.927
N18555 X35.389 Y94.676
N18560 X35.716 Y95.516
N18565 X36.155 Y96.421
N18570 X36.74 Y97.414
N18575 X37.482 Y98.471
N18580 X38.307 Y99.466
N18585 X39.201 Y100.399
N18590 X39.523 Y100.693
N18595 X39.868 Y100.964
N18600 X40.248 Y101.181
N18605 X40.657 Y101.339
N18610 X41.084 Y101.436
N18615 X41.521 Y101.468
N18620 X51.5
N18625 G2 X52.577 Y100.796 Z-6.217 I-0.044 J-1.269
N18630 X52.668 Y100.151 Z-6.15 I-0.842 J-0.449
N18635 X52.461 Y99.729 I-0.933 J0.197
N18640 X42.943 Y100.228 I-4.569 J3.889
N18645 X42.598 Y100.796 Z-6.217 I4.95 J3.391
N18650 G3 X41.521 Y101.468 Z-6.35 I-1.121 J-0.597
N18655 G1 X38.936 F3150.
N18660 X38.461 Y101.444
N18665 X38.084 Y101.395
N18670 X37.651 Y101.302
N18675 X37.208 Y101.169
N18680 X36.698 Y100.971
N18685 X36.595 Y100.921
N18690 X36.187 Y100.681
N18695 X35.822 Y100.379
N18700 X35.511 Y100.023
N18705 X35.259 Y99.622
N18710 X35.075 Y99.186
N18715 X34.963 Y98.727
N18720 X34.925 Y98.255
N18725 Y92.249
N18730 G3 X36.238 Y91.024 Z-6.15 I1.269 J0.044 F3500.
N18735 X37.396 Y91.883 I-0.043 J1.269
N18740 G1 X40.093 Y99.789
N18745 G3 X40.16 Y100.155 I-1.202 J0.41
N18750 X38.936 Y101.468 Z-6.35 I-1.269 J0.043
N18755 G1 X36.27 F3150.
N18760 X36.08 Y101.462
N18765 X35.89 Y101.427
N18770 X35.764 Y101.388
N18775 X35.636 Y101.332
N18780 X35.509 Y101.258
N18785 X35.367 Y101.15
N18790 X35.225 Y101.007
N18795 X35.128 Y100.876
N18800 X35.057 Y100.751
N18805 X35.003 Y100.626
N18810 X34.95 Y100.436
N18815 X34.926 Y100.246
N18820 X34.925 Y99.865
N18825 Y98.255
N18830 G3 X36.178 Y97.029 I1.269 J0.044 F3500.
N18835 G1 X36.194
N18840 X36.3 Y97.043 Z-6.344
N18845 X36.405 Y97.056 Z-6.329
N18850 X36.509 Y97.069 Z-6.305
N18855 X36.611 Y97.109 Z-6.27
N18860 X36.71 Y97.148 Z-6.224
N18865 X36.804 Y97.185 Z-6.17
N18870 X36.898 Y97.253 Z-6.091
N18875 X36.984 Y97.315 Z-6.001
N18880 X37.061 Y97.371 Z-5.899
N18885 X37.111 Y97.43 Z-5.798
N18890 X37.154 Y97.481 Z-5.69
N18895 X37.189 Y97.523 Z-5.575
N18900 X37.217 Y97.556 Z-5.456
N18905 X37.238 Y97.58 Z-5.333
N18910 X37.25 Y97.595 Z-5.207
N18915 X37.254 Y97.599 Z-5.081
N18920 G0 Z5.
N18925 X35.795 Y49.014
N18930 Z-3.81
N18935 G1 Z-5.08 F3500.
N18940 X35.791 Y49.008 Z-5.222
N18945 X35.779 Y48.987 Z-5.363
N18950 X35.759 Y48.953 Z-5.499
N18955 X35.731 Y48.906 Z-5.631
N18960 X35.696 Y48.847 Z-5.756
N18965 X35.654 Y48.776 Z-5.872
N18970 X35.605 Y48.695 Z-5.978
N18975 X35.551 Y48.603 Z-6.073
N18980 X35.492 Y48.504 Z-6.155
N18985 X35.428 Y48.396 Z-6.224
N18990 X35.361 Y48.283 Z-6.279
N18995 X35.291 Y48.166 Z-6.318
N19000 X35.219 Y48.045 Z-6.342
N19005 X35.146 Y47.923 Z-6.35
N19010 G3 X34.925 Y47.169 I1.36 J-0.809
N19015 G1 Y41.986 F3150.
N19020 X34.977 Y40.944
N19025 X35.081 Y40.152
N19030 X35.278 Y39.233
N19035 X35.594 Y38.178
N19040 X36.062 Y36.976
N19045 X36.626 Y35.813
N19050 X37.267 Y34.692
N19055 X37.973 Y33.61
N19060 X38.735 Y32.566
N19065 X39.545 Y31.559
N19070 X40.398 Y30.589
N19075 X41.291 Y29.655
N19080 X42.22 Y28.757
N19085 X43.182 Y27.894
N19090 X44.176 Y27.069
N19095 X45.201 Y26.282
N19100 X45.489 Y26.078
N19105 X45.881 Y25.843
N19110 X46.303 Y25.672
N19115 X46.748 Y25.567
N19120 X47.203 Y25.532
N19125 X59.496
N19130 G3 X60.721 Y26.845 Z-6.15 I-0.044 J1.269 F3500.
N19135 G1 Y26.846
N19140 G3 X59.991 Y28. I-1.351 J-0.047
N19145 X55.401 Y29.115 I-4.59 J-8.884
N19150 X48.802 Y26.629 I0. J-10.
N19155 X48.087 Y25.935 Z-6.25 I6.599 J-7.514
N19160 G2 X47.203 Y25.532 Z-6.35 I-0.929 J0.866
N19165 G1 X43.885
N19170 X43.183 Y25.567
N19175 X42.638 Y25.639
N19180 X42. Y25.775
N19185 X41.306 Y25.983
N19190 X40.521 Y26.289
N19195 X39.646 Y26.714
N19200 X38.713 Y27.263
N19205 X37.721 Y27.96
N19210 X36.727 Y28.785
N19215 X35.799 Y29.684
N19220 X35.68 Y29.817
N19225 X35.416 Y30.159
N19230 X35.205 Y30.536
N19235 X35.05 Y30.94
N19240 X34.957 Y31.362
N19245 X34.925 Y31.793
N19250 Y41.986
N19255 G2 X36.238 Y43.211 Z-6.15 I1.269 J-0.044
N19260 X37.123 Y42.808 I-0.043 J-1.269
N19265 X37.991 Y41.144 I-2.574 J-2.401
N19270 X36.018 Y33.396 I-8.801 J-1.884
N19275 X35.328 Y32.678 Z-6.25 I-6.828 J5.864
N19280 G3 X34.925 Y31.793 Z-6.35 I0.866 J-0.929
N19285 G1 Y29.039 F3150.
N19290 X34.937 Y28.806
N19295 X34.986 Y28.429
N19300 X35.072 Y28.027
N19305 X35.204 Y27.586
N19310 X35.39 Y27.109
N19315 X35.616 Y26.724
N19320 X35.901 Y26.38
N19325 X36.238 Y26.085
N19330 X36.616 Y25.848
N19335 X37.028 Y25.674
N19340 X37.462 Y25.568
N19345 X37.908 Y25.532
N19350 X43.885
N19355 G3 X45.11 Y26.845 Z-6.15 I-0.044 J1.269 F3500.
N19360 X44.191 Y28.022 I-1.269 J-0.043
N19365 G1 X36.544 Y30.216
N19370 G3 X36.238 Y30.264 I-0.35 J-1.221
N19375 X34.925 Y29.039 Z-6.35 I-0.043 J-1.269
N19380 G1 Y27.135 F3150.
N19385 X34.926 Y26.754
N19390 X34.95 Y26.564
N19395 X35.004 Y26.374
N19400 X35.057 Y26.249
N19405 X35.128 Y26.125
N19410 X35.226 Y25.993
N19415 X35.367 Y25.85
N19420 X35.509 Y25.742
N19425 X35.637 Y25.668
N19430 X35.765 Y25.612
N19435 X35.89 Y25.573
N19440 X36.08 Y25.539
N19445 X36.27 Y25.532
N19450 X37.908
N19455 G3 X39.133 Y26.801 I-0.044 J1.269 F3500.
N19460 G1 Y26.802
N19465 G3 X38.563 Y27.861 I-1.27 J0.
N19470 G1 X38.444 Y27.94 Z-6.342
N19475 X38.327 Y28.017 Z-6.318
N19480 X38.213 Y28.092 Z-6.279
N19485 X38.103 Y28.165 Z-6.224
N19490 X37.999 Y28.234 Z-6.155
N19495 X37.902 Y28.298 Z-6.073
N19500 X37.814 Y28.356 Z-5.978
N19505 X37.735 Y28.408 Z-5.872
N19510 X37.666 Y28.454 Z-5.756
N19515 X37.608 Y28.492 Z-5.631
N19520 X37.563 Y28.522 Z-5.499
N19525 X37.53 Y28.544 Z-5.363
N19530 X37.51 Y28.557 Z-5.222
N19535 X37.503 Y28.561 Z-5.08
N19540 G0 Z15.
N19550 G53 G0 X-200 Y-150
N19555 M30
%
