%
(DAMPERBACKTMPLT)
(MACHINE)
(  VENDOR AUTODESK)
(  MODEL GENERIC 3-AXIS ROUTER)
(  DESCRIPTION THIS MACHINE HAS XYZ AXIS ON THE HEAD)
(T20 D=6.35 CR=0. - ZMIN=-6.55 - FLAT END MILL)
(T21 D=12.7 CR=0. - ZMIN=-6.55 - FLAT END MILL)
N10 G90 G94 G17 G91.1
N15 G21
N20 G53 G0 Z0.
(2D POCKET11)
N25 G53 G0 X-200 Y0
N30 T21 M6
(MANUAL TOOL CHANGE TO T21)
N35 S88 M3
N40 G4 P3.0
N45 G17 G90 G94
N50 G54
N55 G0 X591.587 Y111.514
N60 G43 Z15. H21
N65 G0 Z5.
N70 G1 Z3.751 F333.33
N75 X591.612 Y111.49 Z3.458
N80 X591.685 Y111.421 Z3.181
N85 X591.801 Y111.307 Z2.934
N90 X591.949 Y111.152 Z2.732
N95 G2 X592.117 Y110.96 Z2.585 I-4.441 J-4.082
N100 X592.294 Y110.74 Z2.5 I-4.61 J-3.891
N105 X582.72 Y103.399 Z-0.842 I-4.787 J-3.671
N110 X592.294 Y110.74 Z-4.183 I4.787 J3.671
N115 X587.507 Y101.037 Z-6.55 I-4.787 J-3.671
N120 G1 X440.949 F3500.
N125 G2 X440.63 Y101.357 I0. J0.319
N130 G1 Y101.844
N135 G2 X440.949 Y102.163 I0.319 J0.
N140 G1 X587.751
N145 G2 X588.07 Y101.844 I0. J-0.319
N150 G1 Y101.357
N155 G2 X587.751 Y101.037 I-0.319 J0.
N160 G1 X587.507
N165 G3 X581.867 Y97.277 I0. J-6.11
N170 G2 X576.227 Y93.517 I-5.64 J2.35
N175 G1 X433.429
N180 G2 X433.11 Y93.837 I0. J0.319
N185 G1 Y109.364
N190 G2 X433.429 Y109.683 I0.319 J0.
N195 G1 X595.271
N200 G2 X595.59 Y109.364 I0. J-0.319
N205 G1 Y93.837
N210 G2 X595.271 Y93.517 I-0.319 J0.
N215 G1 X576.227
N220 G3 X570.587 Y89.757 I0. J-6.11
N225 G2 X564.947 Y85.997 I-5.64 J2.35
N230 G1 X425.909
N235 G2 X425.59 Y86.317 I0. J0.319
N240 G1 Y116.884
N245 G2 X425.909 Y117.203 I0.319 J0.
N250 G1 X602.791
N255 G2 X603.11 Y116.884 I0. J-0.319
N260 G1 Y86.317
N265 G2 X602.791 Y85.997 I-0.319 J0.
N270 G1 X564.947
N275 G3 X559.307 Y82.237 I0. J-6.11
N280 G2 X553.667 Y78.477 I-5.64 J2.35
N285 G1 X418.389
N290 G2 X418.07 Y78.797 I0. J0.319
N295 G1 Y124.404
N300 G2 X418.389 Y124.723 I0.319 J0.
N305 G1 X610.311
N310 G2 X610.63 Y124.404 I0. J-0.319
N315 G1 Y78.797
N320 G2 X610.311 Y78.477 I-0.319 J0.
N325 G1 X553.667
N330 G3 X548.027 Y74.717 I0. J-6.11
N335 G2 X542.387 Y70.957 I-5.64 J2.35
N340 G1 X410.869
N345 G2 X410.55 Y71.277 I0. J0.319
N350 G1 Y131.924
N355 G2 X410.869 Y132.243 I0.319 J0.
N360 G1 X617.831
N365 G2 X618.15 Y131.924 I0. J-0.319
N370 G1 Y71.277
N375 G2 X617.831 Y70.957 I-0.319 J0.
N380 G1 X542.387
N385 G3 X536.743 Y67.195 I0. J-6.114
N390 G2 X531.1 Y63.432 I-5.644 J2.352
N395 G1 X403.025
N400 Y139.768
N405 X625.675
N410 Y63.432
N415 X531.1
N420 G2 X530.82 Y63.472 Z-6.518 I0.032 J1.238
N425 X530.57 Y63.566 Z-6.424 I0.311 J1.199
N430 G1 X530.465 Y63.626 Z-6.349
N435 X530.367 Y63.696 Z-6.273
N440 X530.291 Y63.761 Z-6.172
N445 X530.22 Y63.832 Z-6.072
N450 X530.17 Y63.889 Z-5.951
N455 X530.124 Y63.949 Z-5.831
N460 X530.073 Y64.028 Z-5.563
N465 X530.056 Y64.055 Z-5.28
N470 G0 Z15.
N475 M5
N480 G53 G0 Z0.
(2D POCKET12)
N485 G53 G0 X-200 Y0
N490 T20 M6
(MANUAL TOOL CHANGE TO T20)
N495 S18500 M3
N500 G17 G90 G94
N505 G54
N510 G0 X403.88 Y60.774
N515 G43 Z15. H20
N520 G0 Z5.
N525 G1 Z1. F333.33
N530 Z-6.359 F3500.
N535 X403.877 Y60.768 Z-6.409
N540 X403.868 Y60.751 Z-6.455
N545 X403.854 Y60.724 Z-6.494
N550 X403.836 Y60.689 Z-6.524
N555 X403.815 Y60.648 Z-6.544
N560 X403.793 Y60.604 Z-6.55
N565 G2 X403.227 Y60.257 I-0.566 J0.288
N570 G1 X400.05
N575 G2 X399.85 Y60.457 I0. J0.2
N580 G1 Y62.456
N585 Y63.635
N590 X399.858 Y63.734
N595 X400.153 Y65.596
N600 X400.168 Y65.694 Z-6.542
N605 X400.183 Y65.79 Z-6.519
N610 X400.198 Y65.881 Z-6.481
N615 X400.211 Y65.964 Z-6.429
N620 X400.223 Y66.039 Z-6.364
N625 X400.233 Y66.103 Z-6.288
N630 X400.241 Y66.155 Z-6.203
N635 X400.247 Y66.192 Z-6.111
N640 X400.251 Y66.215 Z-6.014
N645 X400.252 Y66.223 Z-5.915
N650 G0 Z5.
N655 X400.366 Y138.913
N660 G1 Z1. F333.33
N665 Z-6.359 F3500.
N670 X400.361 Y138.916 Z-6.409
N675 X400.344 Y138.925 Z-6.455
N680 X400.317 Y138.939 Z-6.494
N685 X400.282 Y138.957 Z-6.524
N690 X400.241 Y138.978 Z-6.544
N695 X400.197 Y139. Z-6.55
N700 G2 X399.85 Y139.566 I0.288 J0.566
N705 G1 Y142.743
N710 G2 X400.05 Y142.943 I0.2 J0.
N715 G1 X402.048
N720 X403.227
N725 X403.327 Y142.935
N730 X405.189 Y142.64
N735 X405.287 Y142.625 Z-6.542
N740 X405.382 Y142.61 Z-6.519
N745 X405.473 Y142.595 Z-6.481
N750 X405.557 Y142.582 Z-6.429
N755 X405.632 Y142.57 Z-6.364
N760 X405.696 Y142.56 Z-6.288
N765 X405.747 Y142.552 Z-6.203
N770 X405.785 Y142.546 Z-6.111
N775 X405.808 Y142.542 Z-6.014
N780 X405.816 Y142.541 Z-5.915
N785 G0 Z5.
N790 X624.82 Y142.427
N795 G1 Z1. F333.33
N800 Z-6.359 F3500.
N805 X624.823 Y142.432 Z-6.409
N810 X624.832 Y142.449 Z-6.455
N815 X624.846 Y142.476 Z-6.494
N820 X624.864 Y142.511 Z-6.524
N825 X624.885 Y142.552 Z-6.544
N830 X624.907 Y142.596 Z-6.55
N835 G2 X625.473 Y142.943 I0.566 J-0.288
N840 G1 X628.65
N845 G2 X628.85 Y142.743 I0. J-0.2
N850 G1 Y140.745
N855 Y139.566
N860 X628.842 Y139.466
N865 X628.547 Y137.604
N870 X628.532 Y137.506 Z-6.542
N875 X628.517 Y137.411 Z-6.519
N880 X628.502 Y137.32 Z-6.481
N885 X628.489 Y137.236 Z-6.429
N890 X628.477 Y137.161 Z-6.364
N895 X628.467 Y137.097 Z-6.288
N900 X628.459 Y137.046 Z-6.203
N905 X628.453 Y137.008 Z-6.111
N910 X628.449 Y136.985 Z-6.014
N915 X628.448 Y136.977 Z-5.915
N920 G0 Z5.
N925 X628.334 Y64.287
N930 G1 Z1. F333.33
N935 Z-6.359 F3500.
N940 X628.339 Y64.284 Z-6.409
N945 X628.356 Y64.275 Z-6.455
N950 X628.383 Y64.261 Z-6.494
N955 X628.418 Y64.244 Z-6.524
N960 X628.459 Y64.223 Z-6.544
N965 X628.503 Y64.2 Z-6.55
N970 G2 X628.85 Y63.635 I-0.288 J-0.566
N975 G1 Y60.457
N980 G2 X628.65 Y60.257 I-0.2 J0.
N985 G1 X626.652
N990 X625.473
N995 X625.373 Y60.265
N1000 X623.511 Y60.56
N1005 X623.413 Y60.576 Z-6.542
N1010 X623.318 Y60.591 Z-6.519
N1015 X623.227 Y60.605 Z-6.481
N1020 X623.143 Y60.618 Z-6.429
N1025 X623.068 Y60.63 Z-6.364
N1030 X623.004 Y60.64 Z-6.288
N1035 X622.953 Y60.649 Z-6.203
N1040 X622.915 Y60.654 Z-6.111
N1045 X622.892 Y60.658 Z-6.014
N1050 X622.884 Y60.659 Z-5.915
N1055 G0 Z15.
N1060 G53 G0 Z0.
N1065 G53 G0 X-200 Y-150
N1070 M30
%
