%
(DAMPERTRACE)
(MACHINE)
(  VENDOR AUTODESK)
(  MODEL GENERIC 3-AXIS ROUTER)
(  DESCRIPTION THIS MACHINE HAS XYZ AXIS ON THE HEAD)
(T23 D=6.35 CR=0. TAPER=30DEG - ZMIN=-2.104 - CHAMFER MILL)
N10 G90 G94 G17 G91.1
N15 G21
N20 G53 G0 Z0.
(TRACE6)
N25 G53 G0 X-200 Y0
N30 T23 M6
N35 S18000 M3
N40 G4 P2.0
N45 G17 G90 G94
N50 G54
N55 G0 X203.539 Y79.375
N60 G43 Z17. H23
N65 G0 Z5.536
N70 G1 Z-2.104 F1500.
N75 X279.739 F2500.
N80 X280.095 Y79.355
N85 X280.446 Y79.295
N90 X280.788 Y79.197
N95 X281.117 Y79.061
N100 X281.428 Y78.888
N105 X281.719 Y78.682
N110 X281.984 Y78.445
N115 X282.222 Y78.18
N120 X282.428 Y77.889
N125 X282.6 Y77.578
N130 X282.736 Y77.249
N135 X282.835 Y76.907
N140 X282.894 Y76.555
N145 X282.914 Y76.2
N150 X282.894 Y75.844
N155 X282.835 Y75.493
N160 X282.736 Y75.151
N165 X282.6 Y74.822
N170 X282.428 Y74.511
N175 X282.222 Y74.22
N180 X281.984 Y73.955
N185 X281.719 Y73.718
N190 X281.428 Y73.512
N195 X281.117 Y73.339
N200 X280.788 Y73.203
N205 X280.446 Y73.105
N210 X280.095 Y73.045
N215 X279.739 Y73.025
N220 X203.539
N225 X203.184 Y73.045
N230 X202.833 Y73.105
N235 X202.491 Y73.203
N240 X202.162 Y73.339
N245 X201.85 Y73.512
N250 X201.56 Y73.718
N255 X201.294 Y73.955
N260 X201.057 Y74.22
N265 X200.851 Y74.511
N270 X200.679 Y74.822
N275 X200.542 Y75.151
N280 X200.444 Y75.493
N285 X200.384 Y75.844
N290 X200.364 Y76.2
N295 X200.384 Y76.555
N300 X200.444 Y76.907
N305 X200.542 Y77.249
N310 X200.679 Y77.578
N315 X200.851 Y77.889
N320 X201.057 Y78.18
N325 X201.294 Y78.445
N330 X201.56 Y78.682
N335 X201.85 Y78.888
N340 X202.162 Y79.061
N345 X202.491 Y79.197
N350 X202.833 Y79.295
N355 X203.184 Y79.355
N360 X203.539 Y79.375
N365 Z5.536
N370 G0 Z7.
N375 Y85.725
N380 Z5.536
N385 G1 Z-2.104 F1500.
N390 X203.184 Y85.745 F2500.
N395 X202.833 Y85.805
N400 X202.491 Y85.903
N405 X202.162 Y86.039
N410 X201.85 Y86.212
N415 X201.56 Y86.418
N420 X201.294 Y86.655
N425 X201.057 Y86.92
N430 X200.851 Y87.211
N435 X200.679 Y87.522
N440 X200.542 Y87.851
N445 X200.444 Y88.193
N450 X200.384 Y88.545
N455 X200.364 Y88.9
N460 X200.384 Y89.256
N465 X200.444 Y89.606
N470 X200.542 Y89.949
N475 X200.679 Y90.278
N480 X200.851 Y90.589
N485 X201.057 Y90.88
N490 X201.294 Y91.145
N495 X201.56 Y91.382
N500 X201.85 Y91.588
N505 X202.162 Y91.761
N510 X202.491 Y91.897
N515 X202.833 Y91.995
N520 X203.184 Y92.055
N525 X203.539 Y92.075
N530 X279.739
N535 X280.095 Y92.055
N540 X280.446 Y91.995
N545 X280.788 Y91.897
N550 X281.117 Y91.761
N555 X281.428 Y91.588
N560 X281.719 Y91.382
N565 X281.984 Y91.145
N570 X282.222 Y90.88
N575 X282.428 Y90.589
N580 X282.6 Y90.278
N585 X282.736 Y89.949
N590 X282.835 Y89.606
N595 X282.894 Y89.256
N600 X282.914 Y88.9
N605 X282.894 Y88.545
N610 X282.835 Y88.193
N615 X282.736 Y87.851
N620 X282.6 Y87.522
N625 X282.428 Y87.211
N630 X282.222 Y86.92
N635 X281.984 Y86.655
N640 X281.719 Y86.418
N645 X281.428 Y86.212
N650 X281.117 Y86.039
N655 X280.788 Y85.903
N660 X280.446 Y85.805
N665 X280.095 Y85.745
N670 X279.739 Y85.725
N675 X203.539
N680 Z5.536
N685 G0 Z7.
N690 Y98.425
N695 Z5.536
N700 G1 Z-2.104 F1500.
N705 X203.184 Y98.445 F2500.
N710 X202.833 Y98.505
N715 X202.491 Y98.603
N720 X202.162 Y98.739
N725 X201.85 Y98.912
N730 X201.56 Y99.118
N735 X201.294 Y99.355
N740 X201.057 Y99.62
N745 X200.851 Y99.911
N750 X200.679 Y100.222
N755 X200.542 Y100.551
N760 X200.444 Y100.893
N765 X200.384 Y101.245
N770 X200.364 Y101.6
N775 X200.384 Y101.955
N780 X200.444 Y102.307
N785 X200.542 Y102.649
N790 X200.679 Y102.978
N795 X200.851 Y103.289
N800 X201.057 Y103.58
N805 X201.294 Y103.845
N810 X201.56 Y104.082
N815 X201.85 Y104.288
N820 X202.162 Y104.461
N825 X202.491 Y104.597
N830 X202.833 Y104.695
N835 X203.184 Y104.755
N840 X203.539 Y104.775
N845 X279.739
N850 X280.095 Y104.755
N855 X280.446 Y104.695
N860 X280.788 Y104.597
N865 X281.117 Y104.461
N870 X281.428 Y104.288
N875 X281.719 Y104.082
N880 X281.984 Y103.845
N885 X282.222 Y103.58
N890 X282.428 Y103.289
N895 X282.6 Y102.978
N900 X282.736 Y102.649
N905 X282.835 Y102.307
N910 X282.894 Y101.955
N915 X282.914 Y101.6
N920 X282.894 Y101.245
N925 X282.835 Y100.893
N930 X282.736 Y100.551
N935 X282.6 Y100.222
N940 X282.428 Y99.911
N945 X282.222 Y99.62
N950 X281.984 Y99.355
N955 X281.719 Y99.118
N960 X281.428 Y98.912
N965 X281.117 Y98.739
N970 X280.788 Y98.603
N975 X280.446 Y98.505
N980 X280.095 Y98.445
N985 X279.739 Y98.425
N990 X203.539
N995 Z5.536
N1000 G0 Z7.
N1005 Y111.125
N1010 Z5.536
N1015 G1 Z-2.104 F1500.
N1020 X203.184 Y111.145 F2500.
N1025 X202.833 Y111.205
N1030 X202.491 Y111.303
N1035 X202.162 Y111.439
N1040 X201.85 Y111.612
N1045 X201.56 Y111.818
N1050 X201.294 Y112.055
N1055 X201.057 Y112.32
N1060 X200.851 Y112.611
N1065 X200.679 Y112.922
N1070 X200.542 Y113.251
N1075 X200.444 Y113.593
N1080 X200.384 Y113.945
N1085 X200.364 Y114.3
N1090 X200.384 Y114.655
N1095 X200.444 Y115.007
N1100 X200.542 Y115.349
N1105 X200.679 Y115.678
N1110 X200.851 Y115.989
N1115 X201.057 Y116.28
N1120 X201.294 Y116.545
N1125 X201.56 Y116.782
N1130 X201.85 Y116.988
N1135 X202.162 Y117.161
N1140 X202.491 Y117.297
N1145 X202.833 Y117.395
N1150 X203.184 Y117.455
N1155 X203.539 Y117.475
N1160 X279.739
N1165 X280.095 Y117.455
N1170 X280.446 Y117.395
N1175 X280.788 Y117.297
N1180 X281.117 Y117.161
N1185 X281.428 Y116.988
N1190 X281.719 Y116.782
N1195 X281.984 Y116.545
N1200 X282.222 Y116.28
N1205 X282.428 Y115.989
N1210 X282.6 Y115.678
N1215 X282.736 Y115.349
N1220 X282.835 Y115.007
N1225 X282.894 Y114.655
N1230 X282.914 Y114.3
N1235 X282.894 Y113.945
N1240 X282.835 Y113.593
N1245 X282.736 Y113.251
N1250 X282.6 Y112.922
N1255 X282.428 Y112.611
N1260 X282.222 Y112.32
N1265 X281.984 Y112.055
N1270 X281.719 Y111.818
N1275 X281.428 Y111.612
N1280 X281.117 Y111.439
N1285 X280.788 Y111.303
N1290 X280.446 Y111.205
N1295 X280.095 Y111.145
N1300 X279.739 Y111.125
N1305 X203.539
N1310 Z5.536
N1315 G0 Z7.
N1320 Y123.825
N1325 Z5.536
N1330 G1 Z-2.104 F1500.
N1335 X203.184 Y123.845 F2500.
N1340 X202.833 Y123.905
N1345 X202.491 Y124.003
N1350 X202.162 Y124.139
N1355 X201.85 Y124.312
N1360 X201.56 Y124.518
N1365 X201.294 Y124.755
N1370 X201.057 Y125.02
N1375 X200.851 Y125.311
N1380 X200.679 Y125.622
N1385 X200.542 Y125.951
N1390 X200.444 Y126.293
N1395 X200.384 Y126.645
N1400 X200.364 Y127.
N1405 X200.384 Y127.355
N1410 X200.444 Y127.707
N1415 X200.542 Y128.049
N1420 X200.679 Y128.378
N1425 X200.851 Y128.689
N1430 X201.057 Y128.98
N1435 X201.294 Y129.245
N1440 X201.56 Y129.482
N1445 X201.85 Y129.688
N1450 X202.162 Y129.861
N1455 X202.491 Y129.997
N1460 X202.833 Y130.095
N1465 X203.184 Y130.155
N1470 X203.539 Y130.175
N1475 X279.739
N1480 X280.095 Y130.155
N1485 X280.446 Y130.095
N1490 X280.788 Y129.997
N1495 X281.117 Y129.861
N1500 X281.428 Y129.688
N1505 X281.719 Y129.482
N1510 X281.984 Y129.245
N1515 X282.222 Y128.98
N1520 X282.428 Y128.689
N1525 X282.6 Y128.378
N1530 X282.736 Y128.049
N1535 X282.835 Y127.707
N1540 X282.894 Y127.355
N1545 X282.914 Y127.
N1550 X282.894 Y126.645
N1555 X282.835 Y126.293
N1560 X282.736 Y125.951
N1565 X282.6 Y125.622
N1570 X282.428 Y125.311
N1575 X282.222 Y125.02
N1580 X281.984 Y124.755
N1585 X281.719 Y124.518
N1590 X281.428 Y124.312
N1595 X281.117 Y124.139
N1600 X280.788 Y124.003
N1605 X280.446 Y123.905
N1610 X280.095 Y123.845
N1615 X279.739 Y123.825
N1620 X203.539
N1625 Z5.536
N1630 G0 Z7.
N1635 Y136.525
N1640 Z5.536
N1645 G1 Z-2.104 F1500.
N1650 X203.184 Y136.545 F2500.
N1655 X202.833 Y136.605
N1660 X202.491 Y136.703
N1665 X202.162 Y136.839
N1670 X201.85 Y137.012
N1675 X201.56 Y137.218
N1680 X201.294 Y137.455
N1685 X201.057 Y137.72
N1690 X200.851 Y138.011
N1695 X200.679 Y138.322
N1700 X200.542 Y138.651
N1705 X200.444 Y138.993
N1710 X200.384 Y139.345
N1715 X200.364 Y139.7
N1720 X200.384 Y140.055
N1725 X200.444 Y140.407
N1730 X200.542 Y140.749
N1735 X200.679 Y141.078
N1740 X200.851 Y141.389
N1745 X201.057 Y141.68
N1750 X201.294 Y141.945
N1755 X201.56 Y142.182
N1760 X201.85 Y142.388
N1765 X202.162 Y142.561
N1770 X202.491 Y142.697
N1775 X202.833 Y142.795
N1780 X203.184 Y142.855
N1785 X203.539 Y142.875
N1790 X279.739
N1795 X280.095 Y142.855
N1800 X280.446 Y142.795
N1805 X280.788 Y142.697
N1810 X281.117 Y142.561
N1815 X281.428 Y142.388
N1820 X281.719 Y142.182
N1825 X281.984 Y141.945
N1830 X282.222 Y141.68
N1835 X282.428 Y141.389
N1840 X282.6 Y141.078
N1845 X282.736 Y140.749
N1850 X282.835 Y140.407
N1855 X282.894 Y140.055
N1860 X282.914 Y139.7
N1865 X282.894 Y139.345
N1870 X282.835 Y138.993
N1875 X282.736 Y138.651
N1880 X282.6 Y138.322
N1885 X282.428 Y138.011
N1890 X282.222 Y137.72
N1895 X281.984 Y137.455
N1900 X281.719 Y137.218
N1905 X281.428 Y137.012
N1910 X281.117 Y136.839
N1915 X280.788 Y136.703
N1920 X280.446 Y136.605
N1925 X280.095 Y136.545
N1930 X279.739 Y136.525
N1935 X203.539
N1940 Z5.536
N1945 G0 Z7.
N1950 Y149.225
N1955 Z5.536
N1960 G1 Z-2.104 F1500.
N1965 X203.184 Y149.245 F2500.
N1970 X202.833 Y149.305
N1975 X202.491 Y149.403
N1980 X202.162 Y149.539
N1985 X201.85 Y149.712
N1990 X201.56 Y149.918
N1995 X201.294 Y150.155
N2000 X201.057 Y150.42
N2005 X200.851 Y150.711
N2010 X200.679 Y151.022
N2015 X200.542 Y151.351
N2020 X200.444 Y151.693
N2025 X200.384 Y152.045
N2030 X200.364 Y152.4
N2035 X200.384 Y152.755
N2040 X200.444 Y153.107
N2045 X200.542 Y153.449
N2050 X200.679 Y153.778
N2055 X200.851 Y154.089
N2060 X201.057 Y154.38
N2065 X201.294 Y154.645
N2070 X201.56 Y154.882
N2075 X201.85 Y155.088
N2080 X202.162 Y155.261
N2085 X202.491 Y155.397
N2090 X202.833 Y155.495
N2095 X203.184 Y155.555
N2100 X203.539 Y155.575
N2105 X279.739
N2110 X280.095 Y155.555
N2115 X280.446 Y155.495
N2120 X280.788 Y155.397
N2125 X281.117 Y155.261
N2130 X281.428 Y155.088
N2135 X281.719 Y154.882
N2140 X281.984 Y154.645
N2145 X282.222 Y154.38
N2150 X282.428 Y154.089
N2155 X282.6 Y153.778
N2160 X282.736 Y153.449
N2165 X282.835 Y153.107
N2170 X282.894 Y152.755
N2175 X282.914 Y152.4
N2180 X282.894 Y152.045
N2185 X282.835 Y151.693
N2190 X282.736 Y151.351
N2195 X282.6 Y151.022
N2200 X282.428 Y150.711
N2205 X282.222 Y150.42
N2210 X281.984 Y150.155
N2215 X281.719 Y149.918
N2220 X281.428 Y149.712
N2225 X281.117 Y149.539
N2230 X280.788 Y149.403
N2235 X280.446 Y149.305
N2240 X280.095 Y149.245
N2245 X279.739 Y149.225
N2250 X203.539
N2255 Z5.536
N2260 G0 Z7.
N2265 X213.757 Y163.12
N2270 Z5.536
N2275 G1 Z-2.104 F1500.
N2280 X213.551 Y163.411 F2500.
N2285 X213.379 Y163.722
N2290 X213.242 Y164.051
N2295 X213.144 Y164.393
N2300 X213.084 Y164.745
N2305 X213.064 Y165.1
N2310 X213.084 Y165.455
N2315 X213.144 Y165.807
N2320 X213.242 Y166.149
N2325 X213.379 Y166.478
N2330 X213.551 Y166.789
N2335 X213.757 Y167.08
N2340 X213.994 Y167.345
N2345 X214.26 Y167.582
N2350 X214.55 Y167.788
N2355 X214.862 Y167.961
N2360 X215.191 Y168.097
N2365 X215.533 Y168.195
N2370 X215.884 Y168.255
N2375 X216.239 Y168.275
N2380 X279.739
N2385 X280.095 Y168.255
N2390 X280.446 Y168.195
N2395 X280.788 Y168.097
N2400 X281.117 Y167.961
N2405 X281.428 Y167.788
N2410 X281.719 Y167.582
N2415 X281.984 Y167.345
N2420 X282.222 Y167.08
N2425 X282.428 Y166.789
N2430 X282.6 Y166.478
N2435 X282.736 Y166.149
N2440 X282.835 Y165.807
N2445 X282.894 Y165.455
N2450 X282.914 Y165.1
N2455 X282.894 Y164.745
N2460 X282.835 Y164.393
N2465 X282.736 Y164.051
N2470 X282.6 Y163.722
N2475 X282.428 Y163.411
N2480 X282.222 Y163.12
N2485 X281.984 Y162.855
N2490 X281.719 Y162.618
N2495 X281.428 Y162.412
N2500 X281.117 Y162.239
N2505 X280.788 Y162.103
N2510 X280.446 Y162.005
N2515 X280.095 Y161.945
N2520 X279.739 Y161.925
N2525 X216.239
N2530 X215.884 Y161.945
N2535 X215.533 Y162.005
N2540 X215.191 Y162.103
N2545 X214.862 Y162.239
N2550 X214.55 Y162.412
N2555 X214.26 Y162.618
N2560 X213.994 Y162.855
N2565 X213.757 Y163.12
N2570 Z5.536
N2575 G0 Z7.
N2580 X216.239 Y174.625
N2585 Z5.536
N2590 G1 Z-2.104 F1500.
N2595 X215.884 Y174.645 F2500.
N2600 X215.533 Y174.705
N2605 X215.191 Y174.803
N2610 X214.862 Y174.939
N2615 X214.55 Y175.112
N2620 X214.26 Y175.318
N2625 X213.994 Y175.555
N2630 X213.757 Y175.82
N2635 X213.551 Y176.111
N2640 X213.379 Y176.422
N2645 X213.242 Y176.751
N2650 X213.144 Y177.093
N2655 X213.084 Y177.445
N2660 X213.064 Y177.8
N2665 X213.084 Y178.155
N2670 X213.144 Y178.507
N2675 X213.242 Y178.849
N2680 X213.379 Y179.178
N2685 X213.551 Y179.489
N2690 X213.757 Y179.78
N2695 X213.994 Y180.045
N2700 X214.26 Y180.282
N2705 X214.55 Y180.488
N2710 X214.862 Y180.661
N2715 X215.191 Y180.797
N2720 X215.533 Y180.895
N2725 X215.884 Y180.955
N2730 X216.239 Y180.975
N2735 X279.739
N2740 X280.095 Y180.955
N2745 X280.446 Y180.895
N2750 X280.788 Y180.797
N2755 X281.117 Y180.661
N2760 X281.428 Y180.488
N2765 X281.719 Y180.282
N2770 X281.984 Y180.045
N2775 X282.222 Y179.78
N2780 X282.428 Y179.489
N2785 X282.6 Y179.178
N2790 X282.736 Y178.849
N2795 X282.835 Y178.507
N2800 X282.894 Y178.155
N2805 X282.914 Y177.8
N2810 X282.894 Y177.445
N2815 X282.835 Y177.093
N2820 X282.736 Y176.751
N2825 X282.6 Y176.422
N2830 X282.428 Y176.111
N2835 X282.222 Y175.82
N2840 X281.984 Y175.555
N2845 X281.719 Y175.318
N2850 X281.428 Y175.112
N2855 X281.117 Y174.939
N2860 X280.788 Y174.803
N2865 X280.446 Y174.705
N2870 X280.095 Y174.645
N2875 X279.739 Y174.625
N2880 X216.239
N2885 Z5.536
N2890 G0 Z7.
N2895 Y187.325
N2900 Z5.536
N2905 G1 Z-2.104 F1500.
N2910 X215.884 Y187.345 F2500.
N2915 X215.533 Y187.405
N2920 X215.191 Y187.503
N2925 X214.862 Y187.639
N2930 X214.55 Y187.812
N2935 X214.26 Y188.018
N2940 X213.994 Y188.255
N2945 X213.757 Y188.52
N2950 X213.551 Y188.811
N2955 X213.379 Y189.122
N2960 X213.242 Y189.451
N2965 X213.144 Y189.793
N2970 X213.084 Y190.145
N2975 X213.064 Y190.5
N2980 X213.084 Y190.855
N2985 X213.144 Y191.207
N2990 X213.242 Y191.549
N2995 X213.379 Y191.878
N3000 X213.551 Y192.189
N3005 X213.757 Y192.48
N3010 X213.994 Y192.745
N3015 X214.26 Y192.982
N3020 X214.55 Y193.188
N3025 X214.862 Y193.361
N3030 X215.191 Y193.497
N3035 X215.533 Y193.595
N3040 X215.884 Y193.655
N3045 X216.239 Y193.675
N3050 X279.739
N3055 X280.095 Y193.655
N3060 X280.446 Y193.595
N3065 X280.788 Y193.497
N3070 X281.117 Y193.361
N3075 X281.428 Y193.188
N3080 X281.719 Y192.982
N3085 X281.984 Y192.745
N3090 X282.222 Y192.48
N3095 X282.428 Y192.189
N3100 X282.6 Y191.878
N3105 X282.736 Y191.549
N3110 X282.835 Y191.207
N3115 X282.894 Y190.855
N3120 X282.914 Y190.5
N3125 X282.894 Y190.145
N3130 X282.835 Y189.793
N3135 X282.736 Y189.451
N3140 X282.6 Y189.122
N3145 X282.428 Y188.811
N3150 X282.222 Y188.52
N3155 X281.984 Y188.255
N3160 X281.719 Y188.018
N3165 X281.428 Y187.812
N3170 X281.117 Y187.639
N3175 X280.788 Y187.503
N3180 X280.446 Y187.405
N3185 X280.095 Y187.345
N3190 X279.739 Y187.325
N3195 X216.239
N3200 Z5.536
N3205 G0 Z7.
N3210 Y200.025
N3215 Z5.536
N3220 G1 Z-2.104 F1500.
N3225 X203.539 F2500.
N3230 X203.184 Y200.045
N3235 X202.833 Y200.105
N3240 X202.491 Y200.203
N3245 X202.162 Y200.339
N3250 X201.85 Y200.512
N3255 X201.56 Y200.718
N3260 X201.294 Y200.955
N3265 X201.057 Y201.22
N3270 X200.851 Y201.511
N3275 X200.679 Y201.822
N3280 X200.542 Y202.151
N3285 X200.444 Y202.493
N3290 X200.384 Y202.845
N3295 X200.364 Y203.2
N3300 X200.384 Y203.555
N3305 X200.444 Y203.907
N3310 X200.542 Y204.249
N3315 X200.679 Y204.578
N3320 X200.851 Y204.889
N3325 X201.057 Y205.18
N3330 X201.294 Y205.445
N3335 X201.56 Y205.682
N3340 X201.85 Y205.888
N3345 X202.162 Y206.061
N3350 X202.491 Y206.197
N3355 X202.833 Y206.295
N3360 X203.184 Y206.355
N3365 X203.539 Y206.375
N3370 X279.739
N3375 X280.095 Y206.355
N3380 X280.446 Y206.295
N3385 X280.788 Y206.197
N3390 X281.117 Y206.061
N3395 X281.428 Y205.888
N3400 X281.719 Y205.682
N3405 X281.984 Y205.445
N3410 X282.222 Y205.18
N3415 X282.428 Y204.889
N3420 X282.6 Y204.578
N3425 X282.736 Y204.249
N3430 X282.835 Y203.907
N3435 X282.894 Y203.555
N3440 X282.914 Y203.2
N3445 X282.894 Y202.845
N3450 X282.835 Y202.493
N3455 X282.736 Y202.151
N3460 X282.6 Y201.822
N3465 X282.428 Y201.511
N3470 X282.222 Y201.22
N3475 X281.984 Y200.955
N3480 X281.719 Y200.718
N3485 X281.428 Y200.512
N3490 X281.117 Y200.339
N3495 X280.788 Y200.203
N3500 X280.446 Y200.105
N3505 X280.095 Y200.045
N3510 X279.739 Y200.025
N3515 X216.239
N3520 Z5.536
N3525 G0 Z7.
N3530 X203.539 Y212.725
N3535 Z5.536
N3540 G1 Z-2.104 F1500.
N3545 X203.184 Y212.745 F2500.
N3550 X202.833 Y212.805
N3555 X202.491 Y212.903
N3560 X202.162 Y213.039
N3565 X201.85 Y213.212
N3570 X201.56 Y213.418
N3575 X201.294 Y213.655
N3580 X201.057 Y213.92
N3585 X200.851 Y214.211
N3590 X200.679 Y214.522
N3595 X200.542 Y214.851
N3600 X200.444 Y215.193
N3605 X200.384 Y215.545
N3610 X200.364 Y215.9
N3615 X200.384 Y216.255
N3620 X200.444 Y216.607
N3625 X200.542 Y216.949
N3630 X200.679 Y217.278
N3635 X200.851 Y217.589
N3640 X201.057 Y217.88
N3645 X201.294 Y218.145
N3650 X201.56 Y218.382
N3655 X201.85 Y218.588
N3660 X202.162 Y218.761
N3665 X202.491 Y218.897
N3670 X202.833 Y218.995
N3675 X203.184 Y219.055
N3680 X203.539 Y219.075
N3685 X279.739
N3690 X280.095 Y219.055
N3695 X280.446 Y218.995
N3700 X280.788 Y218.897
N3705 X281.117 Y218.761
N3710 X281.428 Y218.588
N3715 X281.719 Y218.382
N3720 X281.984 Y218.145
N3725 X282.222 Y217.88
N3730 X282.428 Y217.589
N3735 X282.6 Y217.278
N3740 X282.736 Y216.949
N3745 X282.835 Y216.607
N3750 X282.894 Y216.255
N3755 X282.914 Y215.9
N3760 X282.894 Y215.545
N3765 X282.835 Y215.193
N3770 X282.736 Y214.851
N3775 X282.6 Y214.522
N3780 X282.428 Y214.211
N3785 X282.222 Y213.92
N3790 X281.984 Y213.655
N3795 X281.719 Y213.418
N3800 X281.428 Y213.212
N3805 X281.117 Y213.039
N3810 X280.788 Y212.903
N3815 X280.446 Y212.805
N3820 X280.095 Y212.745
N3825 X279.739 Y212.725
N3830 X203.539
N3835 Z5.536
N3840 G0 Z7.
N3845 Y225.425
N3850 Z5.536
N3855 G1 Z-2.104 F1500.
N3860 X203.184 Y225.445 F2500.
N3865 X202.833 Y225.505
N3870 X202.491 Y225.603
N3875 X202.162 Y225.739
N3880 X201.85 Y225.912
N3885 X201.56 Y226.118
N3890 X201.294 Y226.355
N3895 X201.057 Y226.62
N3900 X200.851 Y226.911
N3905 X200.679 Y227.222
N3910 X200.542 Y227.551
N3915 X200.444 Y227.893
N3920 X200.384 Y228.245
N3925 X200.364 Y228.6
N3930 X200.384 Y228.955
N3935 X200.444 Y229.307
N3940 X200.542 Y229.649
N3945 X200.679 Y229.978
N3950 X200.851 Y230.289
N3955 X201.057 Y230.58
N3960 X201.294 Y230.845
N3965 X201.56 Y231.082
N3970 X201.85 Y231.288
N3975 X202.162 Y231.461
N3980 X202.491 Y231.597
N3985 X202.833 Y231.695
N3990 X203.184 Y231.755
N3995 X203.539 Y231.775
N4000 X279.739
N4005 X280.095 Y231.755
N4010 X280.446 Y231.695
N4015 X280.788 Y231.597
N4020 X281.117 Y231.461
N4025 X281.428 Y231.288
N4030 X281.719 Y231.082
N4035 X281.984 Y230.845
N4040 X282.222 Y230.58
N4045 X282.428 Y230.289
N4050 X282.6 Y229.978
N4055 X282.736 Y229.649
N4060 X282.835 Y229.307
N4065 X282.894 Y228.955
N4070 X282.914 Y228.6
N4075 X282.894 Y228.245
N4080 X282.835 Y227.893
N4085 X282.736 Y227.551
N4090 X282.6 Y227.222
N4095 X282.428 Y226.911
N4100 X282.222 Y226.62
N4105 X281.984 Y226.355
N4110 X281.719 Y226.118
N4115 X281.428 Y225.912
N4120 X281.117 Y225.739
N4125 X280.788 Y225.603
N4130 X280.446 Y225.505
N4135 X280.095 Y225.445
N4140 X279.739 Y225.425
N4145 X203.539
N4150 Z5.536
N4155 G0 Z7.
N4160 Y238.125
N4165 Z5.536
N4170 G1 Z-2.104 F1500.
N4175 X203.184 Y238.145 F2500.
N4180 X202.833 Y238.205
N4185 X202.491 Y238.303
N4190 X202.162 Y238.439
N4195 X201.85 Y238.612
N4200 X201.56 Y238.818
N4205 X201.294 Y239.055
N4210 X201.057 Y239.32
N4215 X200.851 Y239.611
N4220 X200.679 Y239.922
N4225 X200.542 Y240.251
N4230 X200.444 Y240.593
N4235 X200.384 Y240.945
N4240 X200.364 Y241.3
N4245 X200.384 Y241.655
N4250 X200.444 Y242.007
N4255 X200.542 Y242.349
N4260 X200.679 Y242.678
N4265 X200.851 Y242.989
N4270 X201.057 Y243.28
N4275 X201.294 Y243.545
N4280 X201.56 Y243.782
N4285 X201.85 Y243.988
N4290 X202.162 Y244.161
N4295 X202.491 Y244.297
N4300 X202.833 Y244.395
N4305 X203.184 Y244.455
N4310 X203.539 Y244.475
N4315 X279.739
N4320 X280.095 Y244.455
N4325 X280.446 Y244.395
N4330 X280.788 Y244.297
N4335 X281.117 Y244.161
N4340 X281.428 Y243.988
N4345 X281.719 Y243.782
N4350 X281.984 Y243.545
N4355 X282.222 Y243.28
N4360 X282.428 Y242.989
N4365 X282.6 Y242.678
N4370 X282.736 Y242.349
N4375 X282.835 Y242.007
N4380 X282.894 Y241.655
N4385 X282.914 Y241.3
N4390 X282.894 Y240.945
N4395 X282.835 Y240.593
N4400 X282.736 Y240.251
N4405 X282.6 Y239.922
N4410 X282.428 Y239.611
N4415 X282.222 Y239.32
N4420 X281.984 Y239.055
N4425 X281.719 Y238.818
N4430 X281.428 Y238.612
N4435 X281.117 Y238.439
N4440 X280.788 Y238.303
N4445 X280.446 Y238.205
N4450 X280.095 Y238.145
N4455 X279.739 Y238.125
N4460 X203.539
N4465 Z5.536
N4470 G0 Z7.
N4475 Y250.825
N4480 Z5.536
N4485 G1 Z-2.104 F1500.
N4490 X203.184 Y250.845 F2500.
N4495 X202.833 Y250.905
N4500 X202.491 Y251.003
N4505 X202.162 Y251.139
N4510 X201.85 Y251.312
N4515 X201.56 Y251.518
N4520 X201.294 Y251.755
N4525 X201.057 Y252.02
N4530 X200.851 Y252.311
N4535 X200.679 Y252.622
N4540 X200.542 Y252.951
N4545 X200.444 Y253.293
N4550 X200.384 Y253.645
N4555 X200.364 Y254.
N4560 X200.384 Y254.355
N4565 X200.444 Y254.707
N4570 X200.542 Y255.049
N4575 X200.679 Y255.378
N4580 X200.851 Y255.689
N4585 X201.057 Y255.98
N4590 X201.294 Y256.245
N4595 X201.56 Y256.482
N4600 X201.85 Y256.688
N4605 X202.162 Y256.861
N4610 X202.491 Y256.997
N4615 X202.833 Y257.095
N4620 X203.184 Y257.155
N4625 X203.539 Y257.175
N4630 X279.739
N4635 X280.095 Y257.155
N4640 X280.446 Y257.095
N4645 X280.788 Y256.997
N4650 X281.117 Y256.861
N4655 X281.428 Y256.688
N4660 X281.719 Y256.482
N4665 X281.984 Y256.245
N4670 X282.222 Y255.98
N4675 X282.428 Y255.689
N4680 X282.6 Y255.378
N4685 X282.736 Y255.049
N4690 X282.835 Y254.707
N4695 X282.894 Y254.355
N4700 X282.914 Y254.
N4705 X282.894 Y253.645
N4710 X282.835 Y253.293
N4715 X282.736 Y252.951
N4720 X282.6 Y252.622
N4725 X282.428 Y252.311
N4730 X282.222 Y252.02
N4735 X281.984 Y251.755
N4740 X281.719 Y251.518
N4745 X281.428 Y251.312
N4750 X281.117 Y251.139
N4755 X280.788 Y251.003
N4760 X280.446 Y250.905
N4765 X280.095 Y250.845
N4770 X279.739 Y250.825
N4775 X203.539
N4780 Z5.536
N4785 G0 Z7.
N4790 Y263.525
N4795 Z5.536
N4800 G1 Z-2.104 F1500.
N4805 X203.184 Y263.545 F2500.
N4810 X202.833 Y263.605
N4815 X202.491 Y263.703
N4820 X202.162 Y263.839
N4825 X201.85 Y264.012
N4830 X201.56 Y264.218
N4835 X201.294 Y264.455
N4840 X201.057 Y264.72
N4845 X200.851 Y265.011
N4850 X200.679 Y265.322
N4855 X200.542 Y265.651
N4860 X200.444 Y265.993
N4865 X200.384 Y266.345
N4870 X200.364 Y266.7
N4875 X200.384 Y267.055
N4880 X200.444 Y267.407
N4885 X200.542 Y267.749
N4890 X200.679 Y268.078
N4895 X200.851 Y268.389
N4900 X201.057 Y268.68
N4905 X201.294 Y268.945
N4910 X201.56 Y269.182
N4915 X201.85 Y269.388
N4920 X202.162 Y269.561
N4925 X202.491 Y269.697
N4930 X202.833 Y269.795
N4935 X203.184 Y269.855
N4940 X203.539 Y269.875
N4945 X279.739
N4950 X280.095 Y269.855
N4955 X280.446 Y269.795
N4960 X280.788 Y269.697
N4965 X281.117 Y269.561
N4970 X281.428 Y269.388
N4975 X281.719 Y269.182
N4980 X281.984 Y268.945
N4985 X282.222 Y268.68
N4990 X282.428 Y268.389
N4995 X282.6 Y268.078
N5000 X282.736 Y267.749
N5005 X282.835 Y267.407
N5010 X282.894 Y267.055
N5015 X282.914 Y266.7
N5020 X282.894 Y266.345
N5025 X282.835 Y265.993
N5030 X282.736 Y265.651
N5035 X282.6 Y265.322
N5040 X282.428 Y265.011
N5045 X282.222 Y264.72
N5050 X281.984 Y264.455
N5055 X281.719 Y264.218
N5060 X281.428 Y264.012
N5065 X281.117 Y263.839
N5070 X280.788 Y263.703
N5075 X280.446 Y263.605
N5080 X280.095 Y263.545
N5085 X279.739 Y263.525
N5090 X203.539
N5095 Z5.536
N5100 G0 Z7.
N5105 Y276.225
N5110 Z5.536
N5115 G1 Z-2.104 F1500.
N5120 X203.184 Y276.245 F2500.
N5125 X202.833 Y276.305
N5130 X202.491 Y276.403
N5135 X202.162 Y276.539
N5140 X201.85 Y276.712
N5145 X201.56 Y276.918
N5150 X201.294 Y277.155
N5155 X201.057 Y277.42
N5160 X200.851 Y277.711
N5165 X200.679 Y278.022
N5170 X200.542 Y278.351
N5175 X200.444 Y278.693
N5180 X200.384 Y279.045
N5185 X200.364 Y279.4
N5190 X200.384 Y279.755
N5195 X200.444 Y280.107
N5200 X200.542 Y280.449
N5205 X200.679 Y280.778
N5210 X200.851 Y281.089
N5215 X201.057 Y281.38
N5220 X201.294 Y281.645
N5225 X201.56 Y281.882
N5230 X201.85 Y282.088
N5235 X202.162 Y282.261
N5240 X202.491 Y282.397
N5245 X202.833 Y282.495
N5250 X203.184 Y282.555
N5255 X203.539 Y282.575
N5260 X279.739
N5265 X280.095 Y282.555
N5270 X280.446 Y282.495
N5275 X280.788 Y282.397
N5280 X281.117 Y282.261
N5285 X281.428 Y282.088
N5290 X281.719 Y281.882
N5295 X281.984 Y281.645
N5300 X282.222 Y281.38
N5305 X282.428 Y281.089
N5310 X282.6 Y280.778
N5315 X282.736 Y280.449
N5320 X282.835 Y280.107
N5325 X282.894 Y279.755
N5330 X282.914 Y279.4
N5335 X282.894 Y279.045
N5340 X282.835 Y278.693
N5345 X282.736 Y278.351
N5350 X282.6 Y278.022
N5355 X282.428 Y277.711
N5360 X282.222 Y277.42
N5365 X281.984 Y277.155
N5370 X281.719 Y276.918
N5375 X281.428 Y276.712
N5380 X281.117 Y276.539
N5385 X280.788 Y276.403
N5390 X280.446 Y276.305
N5395 X280.095 Y276.245
N5400 X279.739 Y276.225
N5405 X203.539
N5410 Z5.536
N5415 G0 Z7.
N5420 Y288.925
N5425 Z5.536
N5430 G1 Z-2.104 F1500.
N5435 X203.184 Y288.945 F2500.
N5440 X202.833 Y289.005
N5445 X202.491 Y289.103
N5450 X202.162 Y289.239
N5455 X201.85 Y289.412
N5460 X201.56 Y289.618
N5465 X201.294 Y289.855
N5470 X201.057 Y290.12
N5475 X200.851 Y290.411
N5480 X200.679 Y290.722
N5485 X200.542 Y291.051
N5490 X200.444 Y291.393
N5495 X200.384 Y291.745
N5500 X200.364 Y292.1
N5505 X200.384 Y292.455
N5510 X200.444 Y292.807
N5515 X200.542 Y293.149
N5520 X200.679 Y293.478
N5525 X200.851 Y293.789
N5530 X201.057 Y294.08
N5535 X201.294 Y294.345
N5540 X201.56 Y294.582
N5545 X201.85 Y294.788
N5550 X202.162 Y294.961
N5555 X202.491 Y295.097
N5560 X202.833 Y295.195
N5565 X203.184 Y295.255
N5570 X203.539 Y295.275
N5575 X279.739
N5580 X280.095 Y295.255
N5585 X280.446 Y295.195
N5590 X280.788 Y295.097
N5595 X281.117 Y294.961
N5600 X281.428 Y294.788
N5605 X281.719 Y294.582
N5610 X281.984 Y294.345
N5615 X282.222 Y294.08
N5620 X282.428 Y293.789
N5625 X282.6 Y293.478
N5630 X282.736 Y293.149
N5635 X282.835 Y292.807
N5640 X282.894 Y292.455
N5645 X282.914 Y292.1
N5650 X282.894 Y291.745
N5655 X282.835 Y291.393
N5660 X282.736 Y291.051
N5665 X282.6 Y290.722
N5670 X282.428 Y290.411
N5675 X282.222 Y290.12
N5680 X281.984 Y289.855
N5685 X281.719 Y289.618
N5690 X281.428 Y289.412
N5695 X281.117 Y289.239
N5700 X280.788 Y289.103
N5705 X280.446 Y289.005
N5710 X280.095 Y288.945
N5715 X279.739 Y288.925
N5720 X203.539
N5725 Z5.536
N5730 G0 Z17.
N5735 G53 G0 Z0.
N5740 G53 G0 X-200 Y-150
N5745 M30
%
