%
(DAMPERTEMPLATE)
(MACHINE)
(  VENDOR AUTODESK)
(  MODEL GENERIC 3-AXIS ROUTER)
(  DESCRIPTION THIS MACHINE HAS XYZ AXIS ON THE HEAD)
(T20 D=6.35 CR=0. - ZMIN=-6.064 - FLAT END MILL)
N10 G90 G94 G17 G91.1
N15 G21
N20 G53 G0 Z0.
(2D POCKET14)
N25 G53 G0 X-200 Y0
N30 T20 M6
N35 S18500 M3
N40 G4 P2.0
N45 G17 G90 G94
N50 G54
N55 G0 X240.015 Y115.973
N60 G43 Z15. H20
N65 G0 Z5.
N70 G1 Z3.125 F1500.
N75 X240.047 Y115.993 Z2.908
N80 X240.142 Y116.05 Z2.717
N85 X240.291 Y116.13 Z2.575
N90 X240.48 Y116.216 Z2.5
N95 G2 X242.798 Y110.647 Z0.829 I1.159 J-2.784
N100 X240.48 Y116.216 Z-0.842 I-1.159 J2.784
N105 X242.798 Y110.647 Z-2.513 I1.159 J-2.784
N110 X240.48 Y116.216 Z-4.183 I-1.159 J2.784
N115 X242.798 Y110.647 Z-5.854 I1.159 J-2.784
N120 X241.639 Y110.415 Z-6.064 I-1.159 J2.784
N125 G1 X241.38 F2500.
N130 G2 X241.061 Y110.734 I0. J0.319
N135 G1 Y257.566
N140 G2 X241.38 Y257.885 I0.319 J0.
N145 G1 X241.898
N150 G2 X242.217 Y257.566 I0. J-0.319
N155 G1 Y110.734
N160 G2 X241.898 Y110.415 I-0.319 J0.
N165 G1 X241.639
N170 G3 X239.586 Y109.306 I0. J-2.455
N175 G2 X237.351 Y109.974 I-1.018 J0.668
N180 G1 Y261.276
N185 G2 X237.67 Y261.595 I0.319 J0.
N190 G1 X245.608
N195 G2 X245.927 Y261.276 I0. J-0.319
N200 G1 Y107.024
N205 G2 X245.608 Y106.705 I-0.319 J0.
N210 G1 X237.67
N215 G2 X237.351 Y107.024 I0. J0.319
N220 G1 Y109.974
N225 G3 X235.496 Y112.757 I-3.014 J0.
N230 G2 X233.641 Y115.539 I1.159 J2.782
N235 G1 Y264.986
N240 G2 X233.96 Y265.305 I0.319 J0.
N245 G1 X249.318
N250 G2 X249.637 Y264.986 I0. J-0.319
N255 G1 Y103.314
N260 G2 X249.318 Y102.995 I-0.319 J0.
N265 G1 X233.96
N270 G2 X233.641 Y103.314 I0. J0.319
N275 G1 Y115.539
N280 G3 X231.786 Y118.322 I-3.014 J0.
N285 G2 X229.931 Y121.104 I1.159 J2.783
N290 G1 Y268.696
N295 G2 X230.25 Y269.015 I0.319 J0.
N300 G1 X253.028
N305 G2 X253.347 Y268.696 I0. J-0.319
N310 G1 Y99.604
N315 G2 X253.028 Y99.285 I-0.319 J0.
N320 G1 X230.25
N325 G2 X229.931 Y99.604 I0. J0.319
N330 G1 Y121.104
N335 G3 X228.076 Y123.887 I-3.014 J0.
N340 G2 X226.221 Y126.669 I1.159 J2.783
N345 G1 Y272.406
N350 G2 X226.54 Y272.725 I0.319 J0.
N355 G1 X256.738
N360 G2 X257.057 Y272.406 I0. J-0.319
N365 G1 Y95.894
N370 G2 X256.738 Y95.575 I-0.319 J0.
N375 G1 X226.54
N380 G2 X226.221 Y95.894 I0. J0.319
N385 G1 Y126.669
N390 G3 X224.366 Y129.452 I-3.014 J0.
N395 G2 X222.511 Y132.234 I1.159 J2.783
N400 G1 Y276.116
N405 G2 X222.83 Y276.435 I0.319 J0.
N410 G1 X260.448
N415 G2 X260.767 Y276.116 I0. J-0.319
N420 G1 Y92.184
N425 G2 X260.448 Y91.865 I-0.319 J0.
N430 G1 X222.83
N435 G2 X222.511 Y92.184 I0. J0.319
N440 G1 Y132.234
N445 G3 X220.656 Y135.017 I-3.014 J0.
N450 G2 X218.801 Y137.799 I1.159 J2.783
N455 G1 Y279.826
N460 G2 X219.12 Y280.145 I0.319 J0.
N465 G1 X264.158
N470 G2 X264.477 Y279.826 I0. J-0.319
N475 G1 Y88.474
N480 G2 X264.158 Y88.155 I-0.319 J0.
N485 G1 X219.12
N490 G2 X218.801 Y88.474 I0. J0.319
N495 G1 Y137.799
N500 G3 X216.946 Y140.582 I-3.014 J0.
N505 G2 X215.091 Y143.364 I1.159 J2.782
N510 G1 Y283.536
N515 G2 X215.41 Y283.855 I0.319 J0.
N520 G1 X267.868
N525 G2 X268.187 Y283.536 I0. J-0.319
N530 G1 Y84.764
N535 G2 X267.868 Y84.445 I-0.319 J0.
N540 G1 X215.41
N545 G2 X215.091 Y84.764 I0. J0.319
N550 G1 Y143.364
N555 G3 X213.236 Y146.147 I-3.014 J0.
N560 G2 X211.381 Y148.929 I1.159 J2.783
N565 G1 Y287.246
N570 G2 X211.7 Y287.565 I0.319 J0.
N575 G1 X271.578
N580 G2 X271.897 Y287.246 I0. J-0.319
N585 G1 Y81.054
N590 G2 X271.578 Y80.735 I-0.319 J0.
N595 G1 X211.7
N600 G2 X211.381 Y81.054 I0. J0.319
N605 G1 Y148.929
N610 G3 X209.526 Y151.712 I-3.014 J0.
N615 G2 X207.671 Y154.494 I1.159 J2.783
N620 G1 Y290.956
N625 G2 X207.99 Y291.275 I0.319 J0.
N630 G1 X275.288
N635 G2 X275.607 Y290.956 I0. J-0.319
N640 G1 Y77.344
N645 G2 X275.288 Y77.025 I-0.319 J0.
N650 G1 X207.99
N655 G2 X207.671 Y77.344 I0. J0.319
N660 G1 Y154.494
N665 G3 X205.816 Y157.277 I-3.014 J0.
N670 G2 X203.961 Y160.059 I1.159 J2.783
N675 G1 Y294.666
N680 G2 X204.28 Y294.985 I0.319 J0.
N685 G1 X278.998
N690 G2 X279.317 Y294.666 I0. J-0.319
N695 G1 Y73.634
N700 G2 X278.998 Y73.315 I-0.319 J0.
N705 G1 X204.28
N710 G2 X203.961 Y73.634 I0. J0.319
N715 G1 Y160.059
N720 G3 X202.104 Y162.845 I-3.018 J0.
N725 G2 X200.246 Y165.632 I1.161 J2.786
N730 G1 Y298.45
N735 G2 X200.496 Y298.7 I0.25 J0.
N740 G1 X282.782
N745 G2 X283.032 Y298.45 I0. J-0.25
N750 G1 Y69.85
N755 G2 X282.782 Y69.6 I-0.25 J0.
N760 G1 X200.496
N765 G2 X200.246 Y69.85 I0. J0.25
N770 G1 Y165.632
N775 X200.256 Y165.729 Z-6.049
N780 X200.282 Y165.824 Z-6.033
N785 X200.317 Y165.905 Z-5.988
N790 X200.364 Y165.98 Z-5.943
N795 X200.408 Y166.034 Z-5.873
N800 X200.459 Y166.083 Z-5.802
N805 X200.531 Y166.137 Z-5.625
N810 X200.557 Y166.153 Z-5.429
N815 G0 Z15.
N820 G53 G0 Z0.
N825 G53 G0 X-200 Y-150
N830 M30
%
