%
(DAMPERBACKCHAMFER)
(MACHINE)
(  VENDOR AUTODESK)
(  MODEL GENERIC 3-AXIS ROUTER)
(  DESCRIPTION THIS MACHINE HAS XYZ AXIS ON THE HEAD)
(T23 D=6.35 CR=0. TAPER=30DEG - ZMIN=-2.64 - CHAMFER MILL)
N10 G90 G94 G17 G91.1
N15 G21
N20 G53 G0 Z0.
(TRACE4)
N25 G53 G0 X-200 Y0
N30 T23 M6
N35 S18000 M3
N40 G4 P3.0
N45 G17 G90 G94
N50 G54
N55 G0 X41.275 Y25.4
N60 G43 Z18. H23
N65 G0 Z2.
N70 G1 Z-2.64 F333.33
N75 Y101.6 F2032.
N80 X41.255 Y101.955
N85 X41.195 Y102.307
N90 X41.097 Y102.649
N95 X40.961 Y102.978
N100 X40.788 Y103.289
N105 X40.582 Y103.58
N110 X40.345 Y103.845
N115 X40.08 Y104.082
N120 X39.789 Y104.288
N125 X39.478 Y104.461
N130 X39.149 Y104.597
N135 X38.806 Y104.695
N140 X38.456 Y104.755
N145 X38.1 Y104.775
N150 X37.744 Y104.755
N155 X37.394 Y104.695
N160 X37.051 Y104.597
N165 X36.722 Y104.461
N170 X36.411 Y104.288
N175 X36.12 Y104.082
N180 X35.855 Y103.845
N185 X35.618 Y103.58
N190 X35.412 Y103.289
N195 X35.239 Y102.978
N200 X35.103 Y102.649
N205 X35.005 Y102.307
N210 X34.945 Y101.955
N215 X34.925 Y101.6
N220 Y25.4
N225 X34.945 Y25.045
N230 X35.005 Y24.694
N235 X35.103 Y24.351
N240 X35.239 Y24.022
N245 X35.412 Y23.711
N250 X35.618 Y23.42
N255 X35.855 Y23.155
N260 X36.12 Y22.918
N265 X36.411 Y22.712
N270 X36.722 Y22.539
N275 X37.051 Y22.403
N280 X37.394 Y22.305
N285 X37.744 Y22.245
N290 X38.1 Y22.225
N295 X38.456 Y22.245
N300 X38.806 Y22.305
N305 X39.149 Y22.403
N310 X39.478 Y22.539
N315 X39.789 Y22.712
N320 X40.08 Y22.918
N325 X40.345 Y23.155
N330 X40.582 Y23.42
N335 X40.788 Y23.711
N340 X40.961 Y24.022
N345 X41.097 Y24.351
N350 X41.195 Y24.694
N355 X41.255 Y25.045
N360 X41.275 Y25.4
N365 Z2.
N370 G0 Z8.
N375 X47.625
N380 Z2.
N385 G1 Z-2.64 F333.33
N390 X47.645 Y25.045 F2032.
N395 X47.705 Y24.694
N400 X47.803 Y24.351
N405 X47.939 Y24.022
N410 X48.112 Y23.711
N415 X48.318 Y23.42
N420 X48.555 Y23.155
N425 X48.82 Y22.918
N430 X49.111 Y22.712
N435 X49.422 Y22.539
N440 X49.751 Y22.403
N445 X50.093 Y22.305
N450 X50.444 Y22.245
N455 X50.8 Y22.225
N460 X51.155 Y22.245
N465 X51.507 Y22.305
N470 X51.849 Y22.403
N475 X52.178 Y22.539
N480 X52.489 Y22.712
N485 X52.78 Y22.918
N490 X53.045 Y23.155
N495 X53.282 Y23.42
N500 X53.488 Y23.711
N505 X53.661 Y24.022
N510 X53.797 Y24.351
N515 X53.895 Y24.694
N520 X53.955 Y25.045
N525 X53.975 Y25.4
N530 Y101.6
N535 X53.955 Y101.955
N540 X53.895 Y102.307
N545 X53.797 Y102.649
N550 X53.661 Y102.978
N555 X53.488 Y103.289
N560 X53.282 Y103.58
N565 X53.045 Y103.845
N570 X52.78 Y104.082
N575 X52.489 Y104.288
N580 X52.178 Y104.461
N585 X51.849 Y104.597
N590 X51.507 Y104.695
N595 X51.155 Y104.755
N600 X50.8 Y104.775
N605 X50.444 Y104.755
N610 X50.093 Y104.695
N615 X49.751 Y104.597
N620 X49.422 Y104.461
N625 X49.111 Y104.288
N630 X48.82 Y104.082
N635 X48.555 Y103.845
N640 X48.318 Y103.58
N645 X48.112 Y103.289
N650 X47.939 Y102.978
N655 X47.803 Y102.649
N660 X47.705 Y102.307
N665 X47.645 Y101.955
N670 X47.625 Y101.6
N675 Y25.4
N680 Z2.
N685 G0 Z8.
N690 X60.325
N695 Z2.
N700 G1 Z-2.64 F333.33
N705 X60.345 Y25.045 F2032.
N710 X60.405 Y24.694
N715 X60.503 Y24.351
N720 X60.639 Y24.022
N725 X60.812 Y23.711
N730 X61.018 Y23.42
N735 X61.255 Y23.155
N740 X61.52 Y22.918
N745 X61.811 Y22.712
N750 X62.122 Y22.539
N755 X62.451 Y22.403
N760 X62.793 Y22.305
N765 X63.145 Y22.245
N770 X63.5 Y22.225
N775 X63.855 Y22.245
N780 X64.206 Y22.305
N785 X64.549 Y22.403
N790 X64.878 Y22.539
N795 X65.189 Y22.712
N800 X65.48 Y22.918
N805 X65.745 Y23.155
N810 X65.982 Y23.42
N815 X66.188 Y23.711
N820 X66.361 Y24.022
N825 X66.497 Y24.351
N830 X66.595 Y24.694
N835 X66.655 Y25.045
N840 X66.675 Y25.4
N845 Y101.6
N850 X66.655 Y101.955
N855 X66.595 Y102.307
N860 X66.497 Y102.649
N865 X66.361 Y102.978
N870 X66.188 Y103.289
N875 X65.982 Y103.58
N880 X65.745 Y103.845
N885 X65.48 Y104.082
N890 X65.189 Y104.288
N895 X64.878 Y104.461
N900 X64.549 Y104.597
N905 X64.206 Y104.695
N910 X63.855 Y104.755
N915 X63.5 Y104.775
N920 X63.145 Y104.755
N925 X62.793 Y104.695
N930 X62.451 Y104.597
N935 X62.122 Y104.461
N940 X61.811 Y104.288
N945 X61.52 Y104.082
N950 X61.255 Y103.845
N955 X61.018 Y103.58
N960 X60.812 Y103.289
N965 X60.639 Y102.978
N970 X60.503 Y102.649
N975 X60.405 Y102.307
N980 X60.345 Y101.955
N985 X60.325 Y101.6
N990 Y25.4
N995 Z2.
N1000 G0 Z8.
N1005 X73.025
N1010 Z2.
N1015 G1 Z-2.64 F333.33
N1020 X73.045 Y25.045 F2032.
N1025 X73.105 Y24.694
N1030 X73.203 Y24.351
N1035 X73.339 Y24.022
N1040 X73.512 Y23.711
N1045 X73.718 Y23.42
N1050 X73.955 Y23.155
N1055 X74.22 Y22.918
N1060 X74.511 Y22.712
N1065 X74.822 Y22.539
N1070 X75.151 Y22.403
N1075 X75.493 Y22.305
N1080 X75.844 Y22.245
N1085 X76.2 Y22.225
N1090 X76.555 Y22.245
N1095 X76.907 Y22.305
N1100 X77.249 Y22.403
N1105 X77.578 Y22.539
N1110 X77.889 Y22.712
N1115 X78.18 Y22.918
N1120 X78.445 Y23.155
N1125 X78.682 Y23.42
N1130 X78.888 Y23.711
N1135 X79.061 Y24.022
N1140 X79.197 Y24.351
N1145 X79.295 Y24.694
N1150 X79.355 Y25.045
N1155 X79.375 Y25.4
N1160 Y101.6
N1165 X79.355 Y101.955
N1170 X79.295 Y102.307
N1175 X79.197 Y102.649
N1180 X79.061 Y102.978
N1185 X78.888 Y103.289
N1190 X78.682 Y103.58
N1195 X78.445 Y103.845
N1200 X78.18 Y104.082
N1205 X77.889 Y104.288
N1210 X77.578 Y104.461
N1215 X77.249 Y104.597
N1220 X76.907 Y104.695
N1225 X76.555 Y104.755
N1230 X76.2 Y104.775
N1235 X75.844 Y104.755
N1240 X75.493 Y104.695
N1245 X75.151 Y104.597
N1250 X74.822 Y104.461
N1255 X74.511 Y104.288
N1260 X74.22 Y104.082
N1265 X73.955 Y103.845
N1270 X73.718 Y103.58
N1275 X73.512 Y103.289
N1280 X73.339 Y102.978
N1285 X73.203 Y102.649
N1290 X73.105 Y102.307
N1295 X73.045 Y101.955
N1300 X73.025 Y101.6
N1305 Y25.4
N1310 Z2.
N1315 G0 Z8.
N1320 X85.725
N1325 Z2.
N1330 G1 Z-2.64 F333.33
N1335 X85.745 Y25.045 F2032.
N1340 X85.805 Y24.694
N1345 X85.903 Y24.351
N1350 X86.039 Y24.022
N1355 X86.212 Y23.711
N1360 X86.418 Y23.42
N1365 X86.655 Y23.155
N1370 X86.92 Y22.918
N1375 X87.211 Y22.712
N1380 X87.522 Y22.539
N1385 X87.851 Y22.403
N1390 X88.193 Y22.305
N1395 X88.545 Y22.245
N1400 X88.9 Y22.225
N1405 X89.256 Y22.245
N1410 X89.606 Y22.305
N1415 X89.949 Y22.403
N1420 X90.278 Y22.539
N1425 X90.589 Y22.712
N1430 X90.88 Y22.918
N1435 X91.145 Y23.155
N1440 X91.382 Y23.42
N1445 X91.588 Y23.711
N1450 X91.761 Y24.022
N1455 X91.897 Y24.351
N1460 X91.995 Y24.694
N1465 X92.055 Y25.045
N1470 X92.075 Y25.4
N1475 Y101.6
N1480 X92.055 Y101.955
N1485 X91.995 Y102.307
N1490 X91.897 Y102.649
N1495 X91.761 Y102.978
N1500 X91.588 Y103.289
N1505 X91.382 Y103.58
N1510 X91.145 Y103.845
N1515 X90.88 Y104.082
N1520 X90.589 Y104.288
N1525 X90.278 Y104.461
N1530 X89.949 Y104.597
N1535 X89.606 Y104.695
N1540 X89.256 Y104.755
N1545 X88.9 Y104.775
N1550 X88.545 Y104.755
N1555 X88.193 Y104.695
N1560 X87.851 Y104.597
N1565 X87.522 Y104.461
N1570 X87.211 Y104.288
N1575 X86.92 Y104.082
N1580 X86.655 Y103.845
N1585 X86.418 Y103.58
N1590 X86.212 Y103.289
N1595 X86.039 Y102.978
N1600 X85.903 Y102.649
N1605 X85.805 Y102.307
N1610 X85.745 Y101.955
N1615 X85.725 Y101.6
N1620 Y25.4
N1625 Z2.
N1630 G0 Z8.
N1635 X98.425
N1640 Z2.
N1645 G1 Z-2.64 F333.33
N1650 X98.445 Y25.045 F2032.
N1655 X98.505 Y24.694
N1660 X98.603 Y24.351
N1665 X98.739 Y24.022
N1670 X98.912 Y23.711
N1675 X99.118 Y23.42
N1680 X99.355 Y23.155
N1685 X99.62 Y22.918
N1690 X99.911 Y22.712
N1695 X100.222 Y22.539
N1700 X100.551 Y22.403
N1705 X100.893 Y22.305
N1710 X101.245 Y22.245
N1715 X101.6 Y22.225
N1720 X101.955 Y22.245
N1725 X102.307 Y22.305
N1730 X102.649 Y22.403
N1735 X102.978 Y22.539
N1740 X103.289 Y22.712
N1745 X103.58 Y22.918
N1750 X103.845 Y23.155
N1755 X104.082 Y23.42
N1760 X104.288 Y23.711
N1765 X104.461 Y24.022
N1770 X104.597 Y24.351
N1775 X104.695 Y24.694
N1780 X104.755 Y25.045
N1785 X104.775 Y25.4
N1790 Y101.6
N1795 X104.755 Y101.955
N1800 X104.695 Y102.307
N1805 X104.597 Y102.649
N1810 X104.461 Y102.978
N1815 X104.288 Y103.289
N1820 X104.082 Y103.58
N1825 X103.845 Y103.845
N1830 X103.58 Y104.082
N1835 X103.289 Y104.288
N1840 X102.978 Y104.461
N1845 X102.649 Y104.597
N1850 X102.307 Y104.695
N1855 X101.955 Y104.755
N1860 X101.6 Y104.775
N1865 X101.245 Y104.755
N1870 X100.893 Y104.695
N1875 X100.551 Y104.597
N1880 X100.222 Y104.461
N1885 X99.911 Y104.288
N1890 X99.62 Y104.082
N1895 X99.355 Y103.845
N1900 X99.118 Y103.58
N1905 X98.912 Y103.289
N1910 X98.739 Y102.978
N1915 X98.603 Y102.649
N1920 X98.505 Y102.307
N1925 X98.445 Y101.955
N1930 X98.425 Y101.6
N1935 Y25.4
N1940 Z2.
N1945 G0 Z8.
N1950 X111.125
N1955 Z2.
N1960 G1 Z-2.64 F333.33
N1965 X111.145 Y25.045 F2032.
N1970 X111.205 Y24.694
N1975 X111.303 Y24.351
N1980 X111.439 Y24.022
N1985 X111.612 Y23.711
N1990 X111.818 Y23.42
N1995 X112.055 Y23.155
N2000 X112.32 Y22.918
N2005 X112.611 Y22.712
N2010 X112.922 Y22.539
N2015 X113.251 Y22.403
N2020 X113.593 Y22.305
N2025 X113.945 Y22.245
N2030 X114.3 Y22.225
N2035 X114.655 Y22.245
N2040 X115.007 Y22.305
N2045 X115.349 Y22.403
N2050 X115.678 Y22.539
N2055 X115.989 Y22.712
N2060 X116.28 Y22.918
N2065 X116.545 Y23.155
N2070 X116.782 Y23.42
N2075 X116.988 Y23.711
N2080 X117.161 Y24.022
N2085 X117.297 Y24.351
N2090 X117.395 Y24.694
N2095 X117.455 Y25.045
N2100 X117.475 Y25.4
N2105 Y101.6
N2110 X117.455 Y101.955
N2115 X117.395 Y102.307
N2120 X117.297 Y102.649
N2125 X117.161 Y102.978
N2130 X116.988 Y103.289
N2135 X116.782 Y103.58
N2140 X116.545 Y103.845
N2145 X116.28 Y104.082
N2150 X115.989 Y104.288
N2155 X115.678 Y104.461
N2160 X115.349 Y104.597
N2165 X115.007 Y104.695
N2170 X114.655 Y104.755
N2175 X114.3 Y104.775
N2180 X113.945 Y104.755
N2185 X113.593 Y104.695
N2190 X113.251 Y104.597
N2195 X112.922 Y104.461
N2200 X112.611 Y104.288
N2205 X112.32 Y104.082
N2210 X112.055 Y103.845
N2215 X111.818 Y103.58
N2220 X111.612 Y103.289
N2225 X111.439 Y102.978
N2230 X111.303 Y102.649
N2235 X111.205 Y102.307
N2240 X111.145 Y101.955
N2245 X111.125 Y101.6
N2250 Y25.4
N2255 Z2.
N2260 G0 Z8.
N2265 X123.825
N2270 Z2.
N2275 G1 Z-2.64 F333.33
N2280 X123.845 Y25.045 F2032.
N2285 X123.905 Y24.694
N2290 X124.003 Y24.351
N2295 X124.139 Y24.022
N2300 X124.312 Y23.711
N2305 X124.518 Y23.42
N2310 X124.755 Y23.155
N2315 X125.02 Y22.918
N2320 X125.311 Y22.712
N2325 X125.622 Y22.539
N2330 X125.951 Y22.403
N2335 X126.293 Y22.305
N2340 X126.645 Y22.245
N2345 X127. Y22.225
N2350 X127.355 Y22.245
N2355 X127.707 Y22.305
N2360 X128.049 Y22.403
N2365 X128.378 Y22.539
N2370 X128.689 Y22.712
N2375 X128.98 Y22.918
N2380 X129.245 Y23.155
N2385 X129.482 Y23.42
N2390 X129.688 Y23.711
N2395 X129.861 Y24.022
N2400 X129.997 Y24.351
N2405 X130.095 Y24.694
N2410 X130.155 Y25.045
N2415 X130.175 Y25.4
N2420 Y101.6
N2425 X130.155 Y101.955
N2430 X130.095 Y102.307
N2435 X129.997 Y102.649
N2440 X129.861 Y102.978
N2445 X129.688 Y103.289
N2450 X129.482 Y103.58
N2455 X129.245 Y103.845
N2460 X128.98 Y104.082
N2465 X128.689 Y104.288
N2470 X128.378 Y104.461
N2475 X128.049 Y104.597
N2480 X127.707 Y104.695
N2485 X127.355 Y104.755
N2490 X127. Y104.775
N2495 X126.645 Y104.755
N2500 X126.293 Y104.695
N2505 X125.951 Y104.597
N2510 X125.622 Y104.461
N2515 X125.311 Y104.288
N2520 X125.02 Y104.082
N2525 X124.755 Y103.845
N2530 X124.518 Y103.58
N2535 X124.312 Y103.289
N2540 X124.139 Y102.978
N2545 X124.003 Y102.649
N2550 X123.905 Y102.307
N2555 X123.845 Y101.955
N2560 X123.825 Y101.6
N2565 Y25.4
N2570 Z2.
N2575 G0 Z8.
N2580 X137.72 Y35.618
N2585 Z2.
N2590 G1 Z-2.64 F333.33
N2595 X138.011 Y35.412 F2032.
N2600 X138.322 Y35.239
N2605 X138.651 Y35.103
N2610 X138.993 Y35.005
N2615 X139.345 Y34.945
N2620 X139.7 Y34.925
N2625 X140.055 Y34.945
N2630 X140.407 Y35.005
N2635 X140.749 Y35.103
N2640 X141.078 Y35.239
N2645 X141.389 Y35.412
N2650 X141.68 Y35.618
N2655 X141.945 Y35.855
N2660 X142.182 Y36.12
N2665 X142.388 Y36.411
N2670 X142.561 Y36.722
N2675 X142.697 Y37.051
N2680 X142.795 Y37.394
N2685 X142.855 Y37.744
N2690 X142.875 Y38.1
N2695 Y101.6
N2700 X142.855 Y101.955
N2705 X142.795 Y102.307
N2710 X142.697 Y102.649
N2715 X142.561 Y102.978
N2720 X142.388 Y103.289
N2725 X142.182 Y103.58
N2730 X141.945 Y103.845
N2735 X141.68 Y104.082
N2740 X141.389 Y104.288
N2745 X141.078 Y104.461
N2750 X140.749 Y104.597
N2755 X140.407 Y104.695
N2760 X140.055 Y104.755
N2765 X139.7 Y104.775
N2770 X139.345 Y104.755
N2775 X138.993 Y104.695
N2780 X138.651 Y104.597
N2785 X138.322 Y104.461
N2790 X138.011 Y104.288
N2795 X137.72 Y104.082
N2800 X137.455 Y103.845
N2805 X137.218 Y103.58
N2810 X137.012 Y103.289
N2815 X136.839 Y102.978
N2820 X136.703 Y102.649
N2825 X136.605 Y102.307
N2830 X136.545 Y101.955
N2835 X136.525 Y101.6
N2840 Y38.1
N2845 X136.545 Y37.744
N2850 X136.605 Y37.394
N2855 X136.703 Y37.051
N2860 X136.839 Y36.722
N2865 X137.012 Y36.411
N2870 X137.218 Y36.12
N2875 X137.455 Y35.855
N2880 X137.72 Y35.618
N2885 Z2.
N2890 G0 Z8.
N2895 X149.225 Y38.1
N2900 Z2.
N2905 G1 Z-2.64 F333.33
N2910 X149.245 Y37.744 F2032.
N2915 X149.305 Y37.394
N2920 X149.403 Y37.051
N2925 X149.539 Y36.722
N2930 X149.712 Y36.411
N2935 X149.918 Y36.12
N2940 X150.155 Y35.855
N2945 X150.42 Y35.618
N2950 X150.711 Y35.412
N2955 X151.022 Y35.239
N2960 X151.351 Y35.103
N2965 X151.693 Y35.005
N2970 X152.045 Y34.945
N2975 X152.4 Y34.925
N2980 X152.755 Y34.945
N2985 X153.107 Y35.005
N2990 X153.449 Y35.103
N2995 X153.778 Y35.239
N3000 X154.089 Y35.412
N3005 X154.38 Y35.618
N3010 X154.645 Y35.855
N3015 X154.882 Y36.12
N3020 X155.088 Y36.411
N3025 X155.261 Y36.722
N3030 X155.397 Y37.051
N3035 X155.495 Y37.394
N3040 X155.555 Y37.744
N3045 X155.575 Y38.1
N3050 Y101.6
N3055 X155.555 Y101.955
N3060 X155.495 Y102.307
N3065 X155.397 Y102.649
N3070 X155.261 Y102.978
N3075 X155.088 Y103.289
N3080 X154.882 Y103.58
N3085 X154.645 Y103.845
N3090 X154.38 Y104.082
N3095 X154.089 Y104.288
N3100 X153.778 Y104.461
N3105 X153.449 Y104.597
N3110 X153.107 Y104.695
N3115 X152.755 Y104.755
N3120 X152.4 Y104.775
N3125 X152.045 Y104.755
N3130 X151.693 Y104.695
N3135 X151.351 Y104.597
N3140 X151.022 Y104.461
N3145 X150.711 Y104.288
N3150 X150.42 Y104.082
N3155 X150.155 Y103.845
N3160 X149.918 Y103.58
N3165 X149.712 Y103.289
N3170 X149.539 Y102.978
N3175 X149.403 Y102.649
N3180 X149.305 Y102.307
N3185 X149.245 Y101.955
N3190 X149.225 Y101.6
N3195 Y38.1
N3200 Z2.
N3205 G0 Z8.
N3210 X161.925
N3215 Z2.
N3220 G1 Z-2.64 F333.33
N3225 X161.945 Y37.744 F2032.
N3230 X162.005 Y37.394
N3235 X162.103 Y37.051
N3240 X162.239 Y36.722
N3245 X162.412 Y36.411
N3250 X162.618 Y36.12
N3255 X162.855 Y35.855
N3260 X163.12 Y35.618
N3265 X163.411 Y35.412
N3270 X163.722 Y35.239
N3275 X164.051 Y35.103
N3280 X164.393 Y35.005
N3285 X164.745 Y34.945
N3290 X165.1 Y34.925
N3295 X165.455 Y34.945
N3300 X165.807 Y35.005
N3305 X166.149 Y35.103
N3310 X166.478 Y35.239
N3315 X166.789 Y35.412
N3320 X167.08 Y35.618
N3325 X167.345 Y35.855
N3330 X167.582 Y36.12
N3335 X167.788 Y36.411
N3340 X167.961 Y36.722
N3345 X168.097 Y37.051
N3350 X168.195 Y37.394
N3355 X168.255 Y37.744
N3360 X168.275 Y38.1
N3365 Y101.6
N3370 X168.255 Y101.955
N3375 X168.195 Y102.307
N3380 X168.097 Y102.649
N3385 X167.961 Y102.978
N3390 X167.788 Y103.289
N3395 X167.582 Y103.58
N3400 X167.345 Y103.845
N3405 X167.08 Y104.082
N3410 X166.789 Y104.288
N3415 X166.478 Y104.461
N3420 X166.149 Y104.597
N3425 X165.807 Y104.695
N3430 X165.455 Y104.755
N3435 X165.1 Y104.775
N3440 X164.745 Y104.755
N3445 X164.393 Y104.695
N3450 X164.051 Y104.597
N3455 X163.722 Y104.461
N3460 X163.411 Y104.288
N3465 X163.12 Y104.082
N3470 X162.855 Y103.845
N3475 X162.618 Y103.58
N3480 X162.412 Y103.289
N3485 X162.239 Y102.978
N3490 X162.103 Y102.649
N3495 X162.005 Y102.307
N3500 X161.945 Y101.955
N3505 X161.925 Y101.6
N3510 Y38.1
N3515 Z2.
N3520 G0 Z8.
N3525 X174.625
N3530 Z2.
N3535 G1 Z-2.64 F333.33
N3540 Y25.4 F2032.
N3545 X174.645 Y25.045
N3550 X174.705 Y24.694
N3555 X174.803 Y24.351
N3560 X174.939 Y24.022
N3565 X175.112 Y23.711
N3570 X175.318 Y23.42
N3575 X175.555 Y23.155
N3580 X175.82 Y22.918
N3585 X176.111 Y22.712
N3590 X176.422 Y22.539
N3595 X176.751 Y22.403
N3600 X177.093 Y22.305
N3605 X177.445 Y22.245
N3610 X177.8 Y22.225
N3615 X178.155 Y22.245
N3620 X178.507 Y22.305
N3625 X178.849 Y22.403
N3630 X179.178 Y22.539
N3635 X179.489 Y22.712
N3640 X179.78 Y22.918
N3645 X180.045 Y23.155
N3650 X180.282 Y23.42
N3655 X180.488 Y23.711
N3660 X180.661 Y24.022
N3665 X180.797 Y24.351
N3670 X180.895 Y24.694
N3675 X180.955 Y25.045
N3680 X180.975 Y25.4
N3685 Y101.6
N3690 X180.955 Y101.955
N3695 X180.895 Y102.307
N3700 X180.797 Y102.649
N3705 X180.661 Y102.978
N3710 X180.488 Y103.289
N3715 X180.282 Y103.58
N3720 X180.045 Y103.845
N3725 X179.78 Y104.082
N3730 X179.489 Y104.288
N3735 X179.178 Y104.461
N3740 X178.849 Y104.597
N3745 X178.507 Y104.695
N3750 X178.155 Y104.755
N3755 X177.8 Y104.775
N3760 X177.445 Y104.755
N3765 X177.093 Y104.695
N3770 X176.751 Y104.597
N3775 X176.422 Y104.461
N3780 X176.111 Y104.288
N3785 X175.82 Y104.082
N3790 X175.555 Y103.845
N3795 X175.318 Y103.58
N3800 X175.112 Y103.289
N3805 X174.939 Y102.978
N3810 X174.803 Y102.649
N3815 X174.705 Y102.307
N3820 X174.645 Y101.955
N3825 X174.625 Y101.6
N3830 Y38.1
N3835 Z2.
N3840 G0 Z8.
N3845 X187.325 Y25.4
N3850 Z2.
N3855 G1 Z-2.64 F333.33
N3860 X187.345 Y25.045 F2032.
N3865 X187.405 Y24.694
N3870 X187.503 Y24.351
N3875 X187.639 Y24.022
N3880 X187.812 Y23.711
N3885 X188.018 Y23.42
N3890 X188.255 Y23.155
N3895 X188.52 Y22.918
N3900 X188.811 Y22.712
N3905 X189.122 Y22.539
N3910 X189.451 Y22.403
N3915 X189.793 Y22.305
N3920 X190.145 Y22.245
N3925 X190.5 Y22.225
N3930 X190.855 Y22.245
N3935 X191.207 Y22.305
N3940 X191.549 Y22.403
N3945 X191.878 Y22.539
N3950 X192.189 Y22.712
N3955 X192.48 Y22.918
N3960 X192.745 Y23.155
N3965 X192.982 Y23.42
N3970 X193.188 Y23.711
N3975 X193.361 Y24.022
N3980 X193.497 Y24.351
N3985 X193.595 Y24.694
N3990 X193.655 Y25.045
N3995 X193.675 Y25.4
N4000 Y101.6
N4005 X193.655 Y101.955
N4010 X193.595 Y102.307
N4015 X193.497 Y102.649
N4020 X193.361 Y102.978
N4025 X193.188 Y103.289
N4030 X192.982 Y103.58
N4035 X192.745 Y103.845
N4040 X192.48 Y104.082
N4045 X192.189 Y104.288
N4050 X191.878 Y104.461
N4055 X191.549 Y104.597
N4060 X191.207 Y104.695
N4065 X190.855 Y104.755
N4070 X190.5 Y104.775
N4075 X190.145 Y104.755
N4080 X189.793 Y104.695
N4085 X189.451 Y104.597
N4090 X189.122 Y104.461
N4095 X188.811 Y104.288
N4100 X188.52 Y104.082
N4105 X188.255 Y103.845
N4110 X188.018 Y103.58
N4115 X187.812 Y103.289
N4120 X187.639 Y102.978
N4125 X187.503 Y102.649
N4130 X187.405 Y102.307
N4135 X187.345 Y101.955
N4140 X187.325 Y101.6
N4145 Y25.4
N4150 Z2.
N4155 G0 Z8.
N4160 X200.025
N4165 Z2.
N4170 G1 Z-2.64 F333.33
N4175 X200.045 Y25.045 F2032.
N4180 X200.105 Y24.694
N4185 X200.203 Y24.351
N4190 X200.339 Y24.022
N4195 X200.512 Y23.711
N4200 X200.718 Y23.42
N4205 X200.955 Y23.155
N4210 X201.22 Y22.918
N4215 X201.511 Y22.712
N4220 X201.822 Y22.539
N4225 X202.151 Y22.403
N4230 X202.493 Y22.305
N4235 X202.845 Y22.245
N4240 X203.2 Y22.225
N4245 X203.555 Y22.245
N4250 X203.907 Y22.305
N4255 X204.249 Y22.403
N4260 X204.578 Y22.539
N4265 X204.889 Y22.712
N4270 X205.18 Y22.918
N4275 X205.445 Y23.155
N4280 X205.682 Y23.42
N4285 X205.888 Y23.711
N4290 X206.061 Y24.022
N4295 X206.197 Y24.351
N4300 X206.295 Y24.694
N4305 X206.355 Y25.045
N4310 X206.375 Y25.4
N4315 Y101.6
N4320 X206.355 Y101.955
N4325 X206.295 Y102.307
N4330 X206.197 Y102.649
N4335 X206.061 Y102.978
N4340 X205.888 Y103.289
N4345 X205.682 Y103.58
N4350 X205.445 Y103.845
N4355 X205.18 Y104.082
N4360 X204.889 Y104.288
N4365 X204.578 Y104.461
N4370 X204.249 Y104.597
N4375 X203.907 Y104.695
N4380 X203.555 Y104.755
N4385 X203.2 Y104.775
N4390 X202.845 Y104.755
N4395 X202.493 Y104.695
N4400 X202.151 Y104.597
N4405 X201.822 Y104.461
N4410 X201.511 Y104.288
N4415 X201.22 Y104.082
N4420 X200.955 Y103.845
N4425 X200.718 Y103.58
N4430 X200.512 Y103.289
N4435 X200.339 Y102.978
N4440 X200.203 Y102.649
N4445 X200.105 Y102.307
N4450 X200.045 Y101.955
N4455 X200.025 Y101.6
N4460 Y25.4
N4465 Z2.
N4470 G0 Z8.
N4475 X212.725
N4480 Z2.
N4485 G1 Z-2.64 F333.33
N4490 X212.745 Y25.045 F2032.
N4495 X212.805 Y24.694
N4500 X212.903 Y24.351
N4505 X213.039 Y24.022
N4510 X213.212 Y23.711
N4515 X213.418 Y23.42
N4520 X213.655 Y23.155
N4525 X213.92 Y22.918
N4530 X214.211 Y22.712
N4535 X214.522 Y22.539
N4540 X214.851 Y22.403
N4545 X215.193 Y22.305
N4550 X215.545 Y22.245
N4555 X215.9 Y22.225
N4560 X216.255 Y22.245
N4565 X216.607 Y22.305
N4570 X216.949 Y22.403
N4575 X217.278 Y22.539
N4580 X217.589 Y22.712
N4585 X217.88 Y22.918
N4590 X218.145 Y23.155
N4595 X218.382 Y23.42
N4600 X218.588 Y23.711
N4605 X218.761 Y24.022
N4610 X218.897 Y24.351
N4615 X218.995 Y24.694
N4620 X219.055 Y25.045
N4625 X219.075 Y25.4
N4630 Y101.6
N4635 X219.055 Y101.955
N4640 X218.995 Y102.307
N4645 X218.897 Y102.649
N4650 X218.761 Y102.978
N4655 X218.588 Y103.289
N4660 X218.382 Y103.58
N4665 X218.145 Y103.845
N4670 X217.88 Y104.082
N4675 X217.589 Y104.288
N4680 X217.278 Y104.461
N4685 X216.949 Y104.597
N4690 X216.607 Y104.695
N4695 X216.255 Y104.755
N4700 X215.9 Y104.775
N4705 X215.545 Y104.755
N4710 X215.193 Y104.695
N4715 X214.851 Y104.597
N4720 X214.522 Y104.461
N4725 X214.211 Y104.288
N4730 X213.92 Y104.082
N4735 X213.655 Y103.845
N4740 X213.418 Y103.58
N4745 X213.212 Y103.289
N4750 X213.039 Y102.978
N4755 X212.903 Y102.649
N4760 X212.805 Y102.307
N4765 X212.745 Y101.955
N4770 X212.725 Y101.6
N4775 Y25.4
N4780 Z2.
N4785 G0 Z8.
N4790 X225.425
N4795 Z2.
N4800 G1 Z-2.64 F333.33
N4805 X225.445 Y25.045 F2032.
N4810 X225.505 Y24.694
N4815 X225.603 Y24.351
N4820 X225.739 Y24.022
N4825 X225.912 Y23.711
N4830 X226.118 Y23.42
N4835 X226.355 Y23.155
N4840 X226.62 Y22.918
N4845 X226.911 Y22.712
N4850 X227.222 Y22.539
N4855 X227.551 Y22.403
N4860 X227.893 Y22.305
N4865 X228.245 Y22.245
N4870 X228.6 Y22.225
N4875 X228.955 Y22.245
N4880 X229.307 Y22.305
N4885 X229.649 Y22.403
N4890 X229.978 Y22.539
N4895 X230.289 Y22.712
N4900 X230.58 Y22.918
N4905 X230.845 Y23.155
N4910 X231.082 Y23.42
N4915 X231.288 Y23.711
N4920 X231.461 Y24.022
N4925 X231.597 Y24.351
N4930 X231.695 Y24.694
N4935 X231.755 Y25.045
N4940 X231.775 Y25.4
N4945 Y101.6
N4950 X231.755 Y101.955
N4955 X231.695 Y102.307
N4960 X231.597 Y102.649
N4965 X231.461 Y102.978
N4970 X231.288 Y103.289
N4975 X231.082 Y103.58
N4980 X230.845 Y103.845
N4985 X230.58 Y104.082
N4990 X230.289 Y104.288
N4995 X229.978 Y104.461
N5000 X229.649 Y104.597
N5005 X229.307 Y104.695
N5010 X228.955 Y104.755
N5015 X228.6 Y104.775
N5020 X228.245 Y104.755
N5025 X227.893 Y104.695
N5030 X227.551 Y104.597
N5035 X227.222 Y104.461
N5040 X226.911 Y104.288
N5045 X226.62 Y104.082
N5050 X226.355 Y103.845
N5055 X226.118 Y103.58
N5060 X225.912 Y103.289
N5065 X225.739 Y102.978
N5070 X225.603 Y102.649
N5075 X225.505 Y102.307
N5080 X225.445 Y101.955
N5085 X225.425 Y101.6
N5090 Y25.4
N5095 Z2.
N5100 G0 Z8.
N5105 X238.125
N5110 Z2.
N5115 G1 Z-2.64 F333.33
N5120 X238.145 Y25.045 F2032.
N5125 X238.205 Y24.694
N5130 X238.303 Y24.351
N5135 X238.439 Y24.022
N5140 X238.612 Y23.711
N5145 X238.818 Y23.42
N5150 X239.055 Y23.155
N5155 X239.32 Y22.918
N5160 X239.611 Y22.712
N5165 X239.922 Y22.539
N5170 X240.251 Y22.403
N5175 X240.593 Y22.305
N5180 X240.945 Y22.245
N5185 X241.3 Y22.225
N5190 X241.655 Y22.245
N5195 X242.007 Y22.305
N5200 X242.349 Y22.403
N5205 X242.678 Y22.539
N5210 X242.989 Y22.712
N5215 X243.28 Y22.918
N5220 X243.545 Y23.155
N5225 X243.782 Y23.42
N5230 X243.988 Y23.711
N5235 X244.161 Y24.022
N5240 X244.297 Y24.351
N5245 X244.395 Y24.694
N5250 X244.455 Y25.045
N5255 X244.475 Y25.4
N5260 Y101.6
N5265 X244.455 Y101.955
N5270 X244.395 Y102.307
N5275 X244.297 Y102.649
N5280 X244.161 Y102.978
N5285 X243.988 Y103.289
N5290 X243.782 Y103.58
N5295 X243.545 Y103.845
N5300 X243.28 Y104.082
N5305 X242.989 Y104.288
N5310 X242.678 Y104.461
N5315 X242.349 Y104.597
N5320 X242.007 Y104.695
N5325 X241.655 Y104.755
N5330 X241.3 Y104.775
N5335 X240.945 Y104.755
N5340 X240.593 Y104.695
N5345 X240.251 Y104.597
N5350 X239.922 Y104.461
N5355 X239.611 Y104.288
N5360 X239.32 Y104.082
N5365 X239.055 Y103.845
N5370 X238.818 Y103.58
N5375 X238.612 Y103.289
N5380 X238.439 Y102.978
N5385 X238.303 Y102.649
N5390 X238.205 Y102.307
N5395 X238.145 Y101.955
N5400 X238.125 Y101.6
N5405 Y25.4
N5410 Z2.
N5415 G0 Z8.
N5420 X250.825
N5425 Z2.
N5430 G1 Z-2.64 F333.33
N5435 X250.845 Y25.045 F2032.
N5440 X250.905 Y24.694
N5445 X251.003 Y24.351
N5450 X251.139 Y24.022
N5455 X251.312 Y23.711
N5460 X251.518 Y23.42
N5465 X251.755 Y23.155
N5470 X252.02 Y22.918
N5475 X252.311 Y22.712
N5480 X252.622 Y22.539
N5485 X252.951 Y22.403
N5490 X253.293 Y22.305
N5495 X253.645 Y22.245
N5500 X254. Y22.225
N5505 X254.355 Y22.245
N5510 X254.707 Y22.305
N5515 X255.049 Y22.403
N5520 X255.378 Y22.539
N5525 X255.689 Y22.712
N5530 X255.98 Y22.918
N5535 X256.245 Y23.155
N5540 X256.482 Y23.42
N5545 X256.688 Y23.711
N5550 X256.861 Y24.022
N5555 X256.997 Y24.351
N5560 X257.095 Y24.694
N5565 X257.155 Y25.045
N5570 X257.175 Y25.4
N5575 Y101.6
N5580 X257.155 Y101.955
N5585 X257.095 Y102.307
N5590 X256.997 Y102.649
N5595 X256.861 Y102.978
N5600 X256.688 Y103.289
N5605 X256.482 Y103.58
N5610 X256.245 Y103.845
N5615 X255.98 Y104.082
N5620 X255.689 Y104.288
N5625 X255.378 Y104.461
N5630 X255.049 Y104.597
N5635 X254.707 Y104.695
N5640 X254.355 Y104.755
N5645 X254. Y104.775
N5650 X253.645 Y104.755
N5655 X253.293 Y104.695
N5660 X252.951 Y104.597
N5665 X252.622 Y104.461
N5670 X252.311 Y104.288
N5675 X252.02 Y104.082
N5680 X251.755 Y103.845
N5685 X251.518 Y103.58
N5690 X251.312 Y103.289
N5695 X251.139 Y102.978
N5700 X251.003 Y102.649
N5705 X250.905 Y102.307
N5710 X250.845 Y101.955
N5715 X250.825 Y101.6
N5720 Y25.4
N5725 Z2.
N5730 G0 Z18.
N5735 G53 G0 Z0.
N5740 G53 G0 X-200 Y-150
N5745 M30
%
