%
(DAMPER)
(MACHINE)
(  VENDOR AUTODESK)
(  MODEL GENERIC 3-AXIS ROUTER)
(  DESCRIPTION THIS MACHINE HAS XYZ AXIS ON THE HEAD)
(T20 D=6.35 CR=0. - ZMIN=-7.15 - FLAT END MILL)
N10 G90 G94 G17 G91.1
N15 G21
N20 G53 G0 Z0.
(SLOT4)
N25 G53 G0 X-200 Y0
N30 T20 M6
(MANUAL TOOL CHANGE TO T20)
N35 S18500 M3
N40 G4 P3.0
N45 G17 G90 G94
N50 G54
N55 G0 X31.75 Y101.6
N60 G43 Z15. H20
N65 G0 Z5.
N70 G1 Z2.5 F833.33
N75 Z-1.15
N80 Y25.4 F2500.
N85 Z-4.15 F833.33
N90 Y101.6 F2500.
N95 Z-7.15 F833.33
N100 Y25.4 F2500.
N105 G0 Z5.
N110 X44.45 Y101.6
N115 G1 Z2.5 F833.33
N120 Z-1.15
N125 Y25.4 F2500.
N130 Z-4.15 F833.33
N135 Y101.6 F2500.
N140 Z-7.15 F833.33
N145 Y25.4 F2500.
N150 G0 Z5.
N155 X57.15 Y101.6
N160 G1 Z2.5 F833.33
N165 Z-1.15
N170 Y25.4 F2500.
N175 Z-4.15 F833.33
N180 Y101.6 F2500.
N185 Z-7.15 F833.33
N190 Y25.4 F2500.
N195 G0 Z5.
N200 X69.85 Y101.6
N205 G1 Z2.5 F833.33
N210 Z-1.15
N215 Y25.4 F2500.
N220 Z-4.15 F833.33
N225 Y101.6 F2500.
N230 Z-7.15 F833.33
N235 Y25.4 F2500.
N240 G0 Z5.
N245 X82.55 Y101.6
N250 G1 Z2.5 F833.33
N255 Z-1.15
N260 Y25.4 F2500.
N265 Z-4.15 F833.33
N270 Y101.6 F2500.
N275 Z-7.15 F833.33
N280 Y25.4 F2500.
N285 G0 Z5.
N290 X95.25 Y101.6
N295 G1 Z2.5 F833.33
N300 Z-1.15
N305 Y25.4 F2500.
N310 Z-4.15 F833.33
N315 Y101.6 F2500.
N320 Z-7.15 F833.33
N325 Y25.4 F2500.
N330 G0 Z5.
N335 X107.95 Y101.6
N340 G1 Z2.5 F833.33
N345 Z-1.15
N350 Y25.4 F2500.
N355 Z-4.15 F833.33
N360 Y101.6 F2500.
N365 Z-7.15 F833.33
N370 Y25.4 F2500.
N375 G0 Z5.
N380 X120.65 Y101.6
N385 G1 Z2.5 F833.33
N390 Z-1.15
N395 Y38.1 F2500.
N400 Z-4.15 F833.33
N405 Y101.6 F2500.
N410 Z-7.15 F833.33
N415 Y38.1 F2500.
N420 G0 Z5.
N425 X133.35 Y101.6
N430 G1 Z2.5 F833.33
N435 Z-1.15
N440 Y38.1 F2500.
N445 Z-4.15 F833.33
N450 Y101.6 F2500.
N455 Z-7.15 F833.33
N460 Y38.1 F2500.
N465 G0 Z5.
N470 X146.05 Y101.6
N475 G1 Z2.5 F833.33
N480 Z-1.15
N485 Y38.1 F2500.
N490 Z-4.15 F833.33
N495 Y101.6 F2500.
N500 Z-7.15 F833.33
N505 Y38.1 F2500.
N510 G0 Z5.
N515 X158.75 Y101.6
N520 G1 Z2.5 F833.33
N525 Z-1.15
N530 Y25.4 F2500.
N535 Z-4.15 F833.33
N540 Y101.6 F2500.
N545 Z-7.15 F833.33
N550 Y25.4 F2500.
N555 G0 Z5.
N560 X171.45 Y101.6
N565 G1 Z2.5 F833.33
N570 Z-1.15
N575 Y25.4 F2500.
N580 Z-4.15 F833.33
N585 Y101.6 F2500.
N590 Z-7.15 F833.33
N595 Y25.4 F2500.
N600 G0 Z5.
N605 X184.15 Y101.6
N610 G1 Z2.5 F833.33
N615 Z-1.15
N620 Y25.4 F2500.
N625 Z-4.15 F833.33
N630 Y101.6 F2500.
N635 Z-7.15 F833.33
N640 Y25.4 F2500.
N645 G0 Z5.
N650 X196.85 Y101.6
N655 G1 Z2.5 F833.33
N660 Z-1.15
N665 Y25.4 F2500.
N670 Z-4.15 F833.33
N675 Y101.6 F2500.
N680 Z-7.15 F833.33
N685 Y25.4 F2500.
N690 G0 Z5.
N695 X209.55 Y101.6
N700 G1 Z2.5 F833.33
N705 Z-1.15
N710 Y25.4 F2500.
N715 Z-4.15 F833.33
N720 Y101.6 F2500.
N725 Z-7.15 F833.33
N730 Y25.4 F2500.
N735 G0 Z5.
N740 X222.25 Y101.6
N745 G1 Z2.5 F833.33
N750 Z-1.15
N755 Y25.4 F2500.
N760 Z-4.15 F833.33
N765 Y101.6 F2500.
N770 Z-7.15 F833.33
N775 Y25.4 F2500.
N780 G0 Z5.
N785 X234.95 Y101.6
N790 G1 Z2.5 F833.33
N795 Z-1.15
N800 Y25.4 F2500.
N805 Z-4.15 F833.33
N810 Y101.6 F2500.
N815 Z-7.15 F833.33
N820 Y25.4 F2500.
N825 G0 Z5.
N830 X247.65 Y101.6
N835 G1 Z2.5 F833.33
N840 Z-1.15
N845 Y25.4 F2500.
N850 Z-4.15 F833.33
N855 Y101.6 F2500.
N860 Z-7.15 F833.33
N865 Y25.4 F2500.
N870 G0 Z15.
N875 X128.588 Y25.525
N880 Z5.
N885 G1 Z2.5 F833.33
N890 Z-0.81
N895 X138.113 F2500.
N900 Z-3.81 F833.33
N905 X128.588 F2500.
N910 G0 Z15.
(2D CONTOUR4)
N915 G0 X25.4 Y16.007
N920 Z15.
N925 Z5.
N930 G1 Z1. F833.33
N935 Z-3.
N940 X254. F2500.
N945 G3 X260.35 Y22.357 I0. J6.35
N950 G1 Y104.643
N955 G3 X254. Y110.993 I-6.35 J0.
N960 G1 X25.4
N965 G3 X19.05 Y104.643 I0. J-6.35
N970 G1 Y22.357
N975 G3 X25.4 Y16.007 I6.35 J0.
N980 G1 Z-4.675 F833.33
N985 X254. F2500.
N990 G3 X260.35 Y22.357 I0. J6.35
N995 G1 Y104.643
N1000 G3 X254. Y110.993 I-6.35 J0.
N1005 G1 X25.4
N1010 G3 X19.05 Y104.643 I0. J-6.35
N1015 G1 Y22.357
N1020 G3 X25.4 Y16.007 I6.35 J0.
N1025 G1 Z-6.35 F833.33
N1030 X47.112 F2500.
N1035 Z-4.762
N1040 X59.813
N1045 Z-6.35 F833.33
N1050 X127.328 F2500.
N1055 Z-4.762
N1060 X140.028
N1065 Z-6.35 F833.33
N1070 X207.543 F2500.
N1075 Z-4.762
N1080 X220.243
N1085 Z-6.35 F833.33
N1090 X254. F2500.
N1095 G3 X260.35 Y22.357 I0. J6.35
N1100 G1 Y51.127
N1105 Z-4.762
N1110 Y63.827
N1115 Z-6.35 F833.33
N1120 Y104.643 F2500.
N1125 G3 X254. Y110.993 I-6.35 J0.
N1130 G1 X232.287
N1135 Z-4.762
N1140 X219.587
N1145 Z-6.35 F833.33
N1150 X152.072 F2500.
N1155 Z-4.762
N1160 X139.372
N1165 Z-6.35 F833.33
N1170 X71.857 F2500.
N1175 Z-4.762
N1180 X59.158
N1185 Z-6.35 F833.33
N1190 X25.4 F2500.
N1195 G3 X19.05 Y104.643 I0. J-6.35
N1200 G1 Y75.872
N1205 Z-4.762
N1210 Y63.173
N1215 Z-6.35 F833.33
N1220 Y22.357 F2500.
N1225 G3 X25.4 Y16.007 I6.35 J0.
N1230 G0 Z15.
N1240 G53 G0 X-200 Y-150
N1245 M30
%
