%
(DAMPERTEMPLATE)
(MACHINE)
(  VENDOR AUTODESK)
(  MODEL GENERIC 3-AXIS ROUTER)
(  DESCRIPTION THIS MACHINE HAS XYZ AXIS ON THE HEAD)
(T20 D=6.35 CR=0. - ZMIN=0.286 - FLAT END MILL)
(T23 D=6.35 CR=0. TAPER=30DEG - ZMIN=-2.104 - CHAMFER MILL)
N10 G90 G94 G17 G91.1
N15 G21
N20 G53 G0 Z0.
(2D POCKET14)
N25 G53 G0 X-200 Y0
N30 T20 M6
N35 T23
N40 S18500 M3
N45 G4 P2.0
N50 G17 G90 G94
N55 G54
N60 G0 X238.662 Y112.944
N65 G43 Z15. H20
N70 G0 Z5.
N75 G1 Z3.411 F833.33
N80 X238.656 Y112.982 Z3.194
N85 X238.642 Y113.091 Z3.003
N90 X238.628 Y113.26 Z2.861
N95 X238.623 Y113.467 Z2.786
N100 G2 X244.655 Y113.396 Z1.115 I3.016 J-0.036
N105 X241.639 Y110.415 Z0.286 I-3.016 J0.036
N110 G1 X241.38 F2500.
N115 G2 X241.061 Y110.734 I0. J0.319
N120 G1 Y257.566
N125 G2 X241.38 Y257.885 I0.319 J0.
N130 G1 X241.898
N135 G2 X242.217 Y257.566 I0. J-0.319
N140 G1 Y110.734
N145 G2 X241.898 Y110.415 I-0.319 J0.
N150 G1 X241.639
N155 G3 X239.586 Y109.306 I0. J-2.455
N160 G2 X237.351 Y109.974 I-1.018 J0.668
N165 G1 Y261.276
N170 G2 X237.67 Y261.595 I0.319 J0.
N175 G1 X245.608
N180 G2 X245.927 Y261.276 I0. J-0.319
N185 G1 Y107.024
N190 G2 X245.608 Y106.705 I-0.319 J0.
N195 G1 X237.67
N200 G2 X237.351 Y107.024 I0. J0.319
N205 G1 Y109.974
N210 G3 X235.496 Y112.757 I-3.014 J0.
N215 G2 X233.641 Y115.539 I1.159 J2.782
N220 G1 Y264.986
N225 G2 X233.96 Y265.305 I0.319 J0.
N230 G1 X249.318
N235 G2 X249.637 Y264.986 I0. J-0.319
N240 G1 Y103.314
N245 G2 X249.318 Y102.995 I-0.319 J0.
N250 G1 X233.96
N255 G2 X233.641 Y103.314 I0. J0.319
N260 G1 Y115.539
N265 G3 X231.786 Y118.322 I-3.014 J0.
N270 G2 X229.931 Y121.104 I1.159 J2.783
N275 G1 Y268.696
N280 G2 X230.25 Y269.015 I0.319 J0.
N285 G1 X253.028
N290 G2 X253.347 Y268.696 I0. J-0.319
N295 G1 Y99.604
N300 G2 X253.028 Y99.285 I-0.319 J0.
N305 G1 X230.25
N310 G2 X229.931 Y99.604 I0. J0.319
N315 G1 Y121.104
N320 G3 X228.076 Y123.887 I-3.014 J0.
N325 G2 X226.221 Y126.669 I1.159 J2.783
N330 G1 Y272.406
N335 G2 X226.54 Y272.725 I0.319 J0.
N340 G1 X256.738
N345 G2 X257.057 Y272.406 I0. J-0.319
N350 G1 Y95.894
N355 G2 X256.738 Y95.575 I-0.319 J0.
N360 G1 X226.54
N365 G2 X226.221 Y95.894 I0. J0.319
N370 G1 Y126.669
N375 G3 X224.366 Y129.452 I-3.014 J0.
N380 G2 X222.511 Y132.234 I1.159 J2.783
N385 G1 Y276.116
N390 G2 X222.83 Y276.435 I0.319 J0.
N395 G1 X260.448
N400 G2 X260.767 Y276.116 I0. J-0.319
N405 G1 Y92.184
N410 G2 X260.448 Y91.865 I-0.319 J0.
N415 G1 X222.83
N420 G2 X222.511 Y92.184 I0. J0.319
N425 G1 Y132.234
N430 G3 X220.656 Y135.017 I-3.014 J0.
N435 G2 X218.801 Y137.799 I1.159 J2.783
N440 G1 Y279.826
N445 G2 X219.12 Y280.145 I0.319 J0.
N450 G1 X264.158
N455 G2 X264.477 Y279.826 I0. J-0.319
N460 G1 Y88.474
N465 G2 X264.158 Y88.155 I-0.319 J0.
N470 G1 X219.12
N475 G2 X218.801 Y88.474 I0. J0.319
N480 G1 Y137.799
N485 G3 X216.946 Y140.582 I-3.014 J0.
N490 G2 X215.091 Y143.364 I1.159 J2.782
N495 G1 Y283.536
N500 G2 X215.41 Y283.855 I0.319 J0.
N505 G1 X267.868
N510 G2 X268.187 Y283.536 I0. J-0.319
N515 G1 Y84.764
N520 G2 X267.868 Y84.445 I-0.319 J0.
N525 G1 X215.41
N530 G2 X215.091 Y84.764 I0. J0.319
N535 G1 Y143.364
N540 G3 X213.236 Y146.147 I-3.014 J0.
N545 G2 X211.381 Y148.929 I1.159 J2.783
N550 G1 Y287.246
N555 G2 X211.7 Y287.565 I0.319 J0.
N560 G1 X271.578
N565 G2 X271.897 Y287.246 I0. J-0.319
N570 G1 Y81.054
N575 G2 X271.578 Y80.735 I-0.319 J0.
N580 G1 X211.7
N585 G2 X211.381 Y81.054 I0. J0.319
N590 G1 Y148.929
N595 G3 X209.526 Y151.712 I-3.014 J0.
N600 G2 X207.671 Y154.494 I1.159 J2.783
N605 G1 Y290.956
N610 G2 X207.99 Y291.275 I0.319 J0.
N615 G1 X275.288
N620 G2 X275.607 Y290.956 I0. J-0.319
N625 G1 Y77.344
N630 G2 X275.288 Y77.025 I-0.319 J0.
N635 G1 X207.99
N640 G2 X207.671 Y77.344 I0. J0.319
N645 G1 Y154.494
N650 G3 X205.816 Y157.277 I-3.014 J0.
N655 G2 X203.961 Y160.059 I1.159 J2.783
N660 G1 Y294.666
N665 G2 X204.28 Y294.985 I0.319 J0.
N670 G1 X278.998
N675 G2 X279.317 Y294.666 I0. J-0.319
N680 G1 Y73.634
N685 G2 X278.998 Y73.315 I-0.319 J0.
N690 G1 X204.28
N695 G2 X203.961 Y73.634 I0. J0.319
N700 G1 Y160.059
N705 G3 X202.104 Y162.845 I-3.018 J0.
N710 G2 X200.246 Y165.632 I1.161 J2.786
N715 G1 Y298.45
N720 G2 X200.496 Y298.7 I0.25 J0.
N725 G1 X282.782
N730 G2 X283.032 Y298.45 I0. J-0.25
N735 G1 Y69.85
N740 G2 X282.782 Y69.6 I-0.25 J0.
N745 G1 X200.496
N750 G2 X200.246 Y69.85 I0. J0.25
N755 G1 Y165.632
N760 X200.256 Y165.729 Z0.301
N765 X200.282 Y165.824 Z0.317
N770 X200.317 Y165.905 Z0.362
N775 X200.364 Y165.98 Z0.407
N780 X200.408 Y166.034 Z0.477
N785 X200.459 Y166.083 Z0.548
N790 X200.531 Y166.137 Z0.725
N795 X200.557 Y166.153 Z0.921
N800 G0 Z15.
N805 M5
N810 G53 G0 Z0.
(TRACE5)
N815 G53 G0 X-200 Y0
N820 M1
N825 T23 M6
N830 T20
N835 S18000 M3
N840 G4 P2.0
N845 G17 G90 G94
N850 G54
N855 G0 X279.739 Y73.025
N860 G43 Z18. H23
N865 G0 Z5.536
N870 G1 Z-2.104 F333.33
N875 X203.539 F2500.
N880 X203.184 Y73.045
N885 X202.833 Y73.105
N890 X202.491 Y73.203
N895 X202.162 Y73.339
N900 X201.85 Y73.512
N905 X201.56 Y73.718
N910 X201.294 Y73.955
N915 X201.057 Y74.22
N920 X200.851 Y74.511
N925 X200.679 Y74.822
N930 X200.542 Y75.151
N935 X200.444 Y75.493
N940 X200.384 Y75.844
N945 X200.364 Y76.2
N950 X200.384 Y76.555
N955 X200.444 Y76.907
N960 X200.542 Y77.249
N965 X200.679 Y77.578
N970 X200.851 Y77.889
N975 X201.057 Y78.18
N980 X201.294 Y78.445
N985 X201.56 Y78.682
N990 X201.85 Y78.888
N995 X202.162 Y79.061
N1000 X202.491 Y79.197
N1005 X202.833 Y79.295
N1010 X203.184 Y79.355
N1015 X203.539 Y79.375
N1020 X279.739
N1025 X280.095 Y79.355
N1030 X280.446 Y79.295
N1035 X280.788 Y79.197
N1040 X281.117 Y79.061
N1045 X281.428 Y78.888
N1050 X281.719 Y78.682
N1055 X281.984 Y78.445
N1060 X282.222 Y78.18
N1065 X282.428 Y77.889
N1070 X282.6 Y77.578
N1075 X282.736 Y77.249
N1080 X282.835 Y76.907
N1085 X282.894 Y76.555
N1090 X282.914 Y76.2
N1095 X282.894 Y75.844
N1100 X282.835 Y75.493
N1105 X282.736 Y75.151
N1110 X282.6 Y74.822
N1115 X282.428 Y74.511
N1120 X282.222 Y74.22
N1125 X281.984 Y73.955
N1130 X281.719 Y73.718
N1135 X281.428 Y73.512
N1140 X281.117 Y73.339
N1145 X280.788 Y73.203
N1150 X280.446 Y73.105
N1155 X280.095 Y73.045
N1160 X279.739 Y73.025
N1165 Z5.536
N1170 G0 Z8.
N1175 Y85.725
N1180 Z5.536
N1185 G1 Z-2.104 F333.33
N1190 X203.539 F2500.
N1195 X203.184 Y85.745
N1200 X202.833 Y85.805
N1205 X202.491 Y85.903
N1210 X202.162 Y86.039
N1215 X201.85 Y86.212
N1220 X201.56 Y86.418
N1225 X201.294 Y86.655
N1230 X201.057 Y86.92
N1235 X200.851 Y87.211
N1240 X200.679 Y87.522
N1245 X200.542 Y87.851
N1250 X200.444 Y88.193
N1255 X200.384 Y88.545
N1260 X200.364 Y88.9
N1265 X200.384 Y89.256
N1270 X200.444 Y89.606
N1275 X200.542 Y89.949
N1280 X200.679 Y90.278
N1285 X200.851 Y90.589
N1290 X201.057 Y90.88
N1295 X201.294 Y91.145
N1300 X201.56 Y91.382
N1305 X201.85 Y91.588
N1310 X202.162 Y91.761
N1315 X202.491 Y91.897
N1320 X202.833 Y91.995
N1325 X203.184 Y92.055
N1330 X203.539 Y92.075
N1335 X279.739
N1340 X280.095 Y92.055
N1345 X280.446 Y91.995
N1350 X280.788 Y91.897
N1355 X281.117 Y91.761
N1360 X281.428 Y91.588
N1365 X281.719 Y91.382
N1370 X281.984 Y91.145
N1375 X282.222 Y90.88
N1380 X282.428 Y90.589
N1385 X282.6 Y90.278
N1390 X282.736 Y89.949
N1395 X282.835 Y89.606
N1400 X282.894 Y89.256
N1405 X282.914 Y88.9
N1410 X282.894 Y88.545
N1415 X282.835 Y88.193
N1420 X282.736 Y87.851
N1425 X282.6 Y87.522
N1430 X282.428 Y87.211
N1435 X282.222 Y86.92
N1440 X281.984 Y86.655
N1445 X281.719 Y86.418
N1450 X281.428 Y86.212
N1455 X281.117 Y86.039
N1460 X280.788 Y85.903
N1465 X280.446 Y85.805
N1470 X280.095 Y85.745
N1475 X279.739 Y85.725
N1480 Z5.536
N1485 G0 Z8.
N1490 Y98.425
N1495 Z5.536
N1500 G1 Z-2.104 F333.33
N1505 X203.539 F2500.
N1510 X203.184 Y98.445
N1515 X202.833 Y98.505
N1520 X202.491 Y98.603
N1525 X202.162 Y98.739
N1530 X201.85 Y98.912
N1535 X201.56 Y99.118
N1540 X201.294 Y99.355
N1545 X201.057 Y99.62
N1550 X200.851 Y99.911
N1555 X200.679 Y100.222
N1560 X200.542 Y100.551
N1565 X200.444 Y100.893
N1570 X200.384 Y101.245
N1575 X200.364 Y101.6
N1580 X200.384 Y101.955
N1585 X200.444 Y102.307
N1590 X200.542 Y102.649
N1595 X200.679 Y102.978
N1600 X200.851 Y103.289
N1605 X201.057 Y103.58
N1610 X201.294 Y103.845
N1615 X201.56 Y104.082
N1620 X201.85 Y104.288
N1625 X202.162 Y104.461
N1630 X202.491 Y104.597
N1635 X202.833 Y104.695
N1640 X203.184 Y104.755
N1645 X203.539 Y104.775
N1650 X279.739
N1655 X280.095 Y104.755
N1660 X280.446 Y104.695
N1665 X280.788 Y104.597
N1670 X281.117 Y104.461
N1675 X281.428 Y104.288
N1680 X281.719 Y104.082
N1685 X281.984 Y103.845
N1690 X282.222 Y103.58
N1695 X282.428 Y103.289
N1700 X282.6 Y102.978
N1705 X282.736 Y102.649
N1710 X282.835 Y102.307
N1715 X282.894 Y101.955
N1720 X282.914 Y101.6
N1725 X282.894 Y101.245
N1730 X282.835 Y100.893
N1735 X282.736 Y100.551
N1740 X282.6 Y100.222
N1745 X282.428 Y99.911
N1750 X282.222 Y99.62
N1755 X281.984 Y99.355
N1760 X281.719 Y99.118
N1765 X281.428 Y98.912
N1770 X281.117 Y98.739
N1775 X280.788 Y98.603
N1780 X280.446 Y98.505
N1785 X280.095 Y98.445
N1790 X279.739 Y98.425
N1795 Z5.536
N1800 G0 Z8.
N1805 Y111.125
N1810 Z5.536
N1815 G1 Z-2.104 F333.33
N1820 X203.539 F2500.
N1825 X203.184 Y111.145
N1830 X202.833 Y111.205
N1835 X202.491 Y111.303
N1840 X202.162 Y111.439
N1845 X201.85 Y111.612
N1850 X201.56 Y111.818
N1855 X201.294 Y112.055
N1860 X201.057 Y112.32
N1865 X200.851 Y112.611
N1870 X200.679 Y112.922
N1875 X200.542 Y113.251
N1880 X200.444 Y113.593
N1885 X200.384 Y113.945
N1890 X200.364 Y114.3
N1895 X200.384 Y114.655
N1900 X200.444 Y115.007
N1905 X200.542 Y115.349
N1910 X200.679 Y115.678
N1915 X200.851 Y115.989
N1920 X201.057 Y116.28
N1925 X201.294 Y116.545
N1930 X201.56 Y116.782
N1935 X201.85 Y116.988
N1940 X202.162 Y117.161
N1945 X202.491 Y117.297
N1950 X202.833 Y117.395
N1955 X203.184 Y117.455
N1960 X203.539 Y117.475
N1965 X279.739
N1970 X280.095 Y117.455
N1975 X280.446 Y117.395
N1980 X280.788 Y117.297
N1985 X281.117 Y117.161
N1990 X281.428 Y116.988
N1995 X281.719 Y116.782
N2000 X281.984 Y116.545
N2005 X282.222 Y116.28
N2010 X282.428 Y115.989
N2015 X282.6 Y115.678
N2020 X282.736 Y115.349
N2025 X282.835 Y115.007
N2030 X282.894 Y114.655
N2035 X282.914 Y114.3
N2040 X282.894 Y113.945
N2045 X282.835 Y113.593
N2050 X282.736 Y113.251
N2055 X282.6 Y112.922
N2060 X282.428 Y112.611
N2065 X282.222 Y112.32
N2070 X281.984 Y112.055
N2075 X281.719 Y111.818
N2080 X281.428 Y111.612
N2085 X281.117 Y111.439
N2090 X280.788 Y111.303
N2095 X280.446 Y111.205
N2100 X280.095 Y111.145
N2105 X279.739 Y111.125
N2110 Z5.536
N2115 G0 Z8.
N2120 Y123.825
N2125 Z5.536
N2130 G1 Z-2.104 F333.33
N2135 X203.539 F2500.
N2140 X203.184 Y123.845
N2145 X202.833 Y123.905
N2150 X202.491 Y124.003
N2155 X202.162 Y124.139
N2160 X201.85 Y124.312
N2165 X201.56 Y124.518
N2170 X201.294 Y124.755
N2175 X201.057 Y125.02
N2180 X200.851 Y125.311
N2185 X200.679 Y125.622
N2190 X200.542 Y125.951
N2195 X200.444 Y126.293
N2200 X200.384 Y126.645
N2205 X200.364 Y127.
N2210 X200.384 Y127.355
N2215 X200.444 Y127.707
N2220 X200.542 Y128.049
N2225 X200.679 Y128.378
N2230 X200.851 Y128.689
N2235 X201.057 Y128.98
N2240 X201.294 Y129.245
N2245 X201.56 Y129.482
N2250 X201.85 Y129.688
N2255 X202.162 Y129.861
N2260 X202.491 Y129.997
N2265 X202.833 Y130.095
N2270 X203.184 Y130.155
N2275 X203.539 Y130.175
N2280 X279.739
N2285 X280.095 Y130.155
N2290 X280.446 Y130.095
N2295 X280.788 Y129.997
N2300 X281.117 Y129.861
N2305 X281.428 Y129.688
N2310 X281.719 Y129.482
N2315 X281.984 Y129.245
N2320 X282.222 Y128.98
N2325 X282.428 Y128.689
N2330 X282.6 Y128.378
N2335 X282.736 Y128.049
N2340 X282.835 Y127.707
N2345 X282.894 Y127.355
N2350 X282.914 Y127.
N2355 X282.894 Y126.645
N2360 X282.835 Y126.293
N2365 X282.736 Y125.951
N2370 X282.6 Y125.622
N2375 X282.428 Y125.311
N2380 X282.222 Y125.02
N2385 X281.984 Y124.755
N2390 X281.719 Y124.518
N2395 X281.428 Y124.312
N2400 X281.117 Y124.139
N2405 X280.788 Y124.003
N2410 X280.446 Y123.905
N2415 X280.095 Y123.845
N2420 X279.739 Y123.825
N2425 Z5.536
N2430 G0 Z8.
N2435 Y136.525
N2440 Z5.536
N2445 G1 Z-2.104 F333.33
N2450 X203.539 F2500.
N2455 X203.184 Y136.545
N2460 X202.833 Y136.605
N2465 X202.491 Y136.703
N2470 X202.162 Y136.839
N2475 X201.85 Y137.012
N2480 X201.56 Y137.218
N2485 X201.294 Y137.455
N2490 X201.057 Y137.72
N2495 X200.851 Y138.011
N2500 X200.679 Y138.322
N2505 X200.542 Y138.651
N2510 X200.444 Y138.993
N2515 X200.384 Y139.345
N2520 X200.364 Y139.7
N2525 X200.384 Y140.055
N2530 X200.444 Y140.407
N2535 X200.542 Y140.749
N2540 X200.679 Y141.078
N2545 X200.851 Y141.389
N2550 X201.057 Y141.68
N2555 X201.294 Y141.945
N2560 X201.56 Y142.182
N2565 X201.85 Y142.388
N2570 X202.162 Y142.561
N2575 X202.491 Y142.697
N2580 X202.833 Y142.795
N2585 X203.184 Y142.855
N2590 X203.539 Y142.875
N2595 X279.739
N2600 X280.095 Y142.855
N2605 X280.446 Y142.795
N2610 X280.788 Y142.697
N2615 X281.117 Y142.561
N2620 X281.428 Y142.388
N2625 X281.719 Y142.182
N2630 X281.984 Y141.945
N2635 X282.222 Y141.68
N2640 X282.428 Y141.389
N2645 X282.6 Y141.078
N2650 X282.736 Y140.749
N2655 X282.835 Y140.407
N2660 X282.894 Y140.055
N2665 X282.914 Y139.7
N2670 X282.894 Y139.345
N2675 X282.835 Y138.993
N2680 X282.736 Y138.651
N2685 X282.6 Y138.322
N2690 X282.428 Y138.011
N2695 X282.222 Y137.72
N2700 X281.984 Y137.455
N2705 X281.719 Y137.218
N2710 X281.428 Y137.012
N2715 X281.117 Y136.839
N2720 X280.788 Y136.703
N2725 X280.446 Y136.605
N2730 X280.095 Y136.545
N2735 X279.739 Y136.525
N2740 Z5.536
N2745 G0 Z8.
N2750 Y149.225
N2755 Z5.536
N2760 G1 Z-2.104 F333.33
N2765 X203.539 F2500.
N2770 X203.184 Y149.245
N2775 X202.833 Y149.305
N2780 X202.491 Y149.403
N2785 X202.162 Y149.539
N2790 X201.85 Y149.712
N2795 X201.56 Y149.918
N2800 X201.294 Y150.155
N2805 X201.057 Y150.42
N2810 X200.851 Y150.711
N2815 X200.679 Y151.022
N2820 X200.542 Y151.351
N2825 X200.444 Y151.693
N2830 X200.384 Y152.045
N2835 X200.364 Y152.4
N2840 X200.384 Y152.755
N2845 X200.444 Y153.107
N2850 X200.542 Y153.449
N2855 X200.679 Y153.778
N2860 X200.851 Y154.089
N2865 X201.057 Y154.38
N2870 X201.294 Y154.645
N2875 X201.56 Y154.882
N2880 X201.85 Y155.088
N2885 X202.162 Y155.261
N2890 X202.491 Y155.397
N2895 X202.833 Y155.495
N2900 X203.184 Y155.555
N2905 X203.539 Y155.575
N2910 X279.739
N2915 X280.095 Y155.555
N2920 X280.446 Y155.495
N2925 X280.788 Y155.397
N2930 X281.117 Y155.261
N2935 X281.428 Y155.088
N2940 X281.719 Y154.882
N2945 X281.984 Y154.645
N2950 X282.222 Y154.38
N2955 X282.428 Y154.089
N2960 X282.6 Y153.778
N2965 X282.736 Y153.449
N2970 X282.835 Y153.107
N2975 X282.894 Y152.755
N2980 X282.914 Y152.4
N2985 X282.894 Y152.045
N2990 X282.835 Y151.693
N2995 X282.736 Y151.351
N3000 X282.6 Y151.022
N3005 X282.428 Y150.711
N3010 X282.222 Y150.42
N3015 X281.984 Y150.155
N3020 X281.719 Y149.918
N3025 X281.428 Y149.712
N3030 X281.117 Y149.539
N3035 X280.788 Y149.403
N3040 X280.446 Y149.305
N3045 X280.095 Y149.245
N3050 X279.739 Y149.225
N3055 Z5.536
N3060 G0 Z8.
N3065 Y161.925
N3070 Z5.536
N3075 G1 Z-2.104 F333.33
N3080 X216.239 F2500.
N3085 X215.884 Y161.945
N3090 X215.533 Y162.005
N3095 X215.191 Y162.103
N3100 X214.862 Y162.239
N3105 X214.55 Y162.412
N3110 X214.26 Y162.618
N3115 X213.994 Y162.855
N3120 X213.757 Y163.12
N3125 X213.551 Y163.411
N3130 X213.379 Y163.722
N3135 X213.242 Y164.051
N3140 X213.144 Y164.393
N3145 X213.084 Y164.745
N3150 X213.064 Y165.1
N3155 X213.084 Y165.455
N3160 X213.144 Y165.807
N3165 X213.242 Y166.149
N3170 X213.379 Y166.478
N3175 X213.551 Y166.789
N3180 X213.757 Y167.08
N3185 X213.994 Y167.345
N3190 X214.26 Y167.582
N3195 X214.55 Y167.788
N3200 X214.862 Y167.961
N3205 X215.191 Y168.097
N3210 X215.533 Y168.195
N3215 X215.884 Y168.255
N3220 X216.239 Y168.275
N3225 X279.739
N3230 X280.095 Y168.255
N3235 X280.446 Y168.195
N3240 X280.788 Y168.097
N3245 X281.117 Y167.961
N3250 X281.428 Y167.788
N3255 X281.719 Y167.582
N3260 X281.984 Y167.345
N3265 X282.222 Y167.08
N3270 X282.428 Y166.789
N3275 X282.6 Y166.478
N3280 X282.736 Y166.149
N3285 X282.835 Y165.807
N3290 X282.894 Y165.455
N3295 X282.914 Y165.1
N3300 X282.894 Y164.745
N3305 X282.835 Y164.393
N3310 X282.736 Y164.051
N3315 X282.6 Y163.722
N3320 X282.428 Y163.411
N3325 X282.222 Y163.12
N3330 X281.984 Y162.855
N3335 X281.719 Y162.618
N3340 X281.428 Y162.412
N3345 X281.117 Y162.239
N3350 X280.788 Y162.103
N3355 X280.446 Y162.005
N3360 X280.095 Y161.945
N3365 X279.739 Y161.925
N3370 Z5.536
N3375 G0 Z8.
N3380 Y174.625
N3385 Z5.536
N3390 G1 Z-2.104 F333.33
N3395 X216.239 F2500.
N3400 X215.884 Y174.645
N3405 X215.533 Y174.705
N3410 X215.191 Y174.803
N3415 X214.862 Y174.939
N3420 X214.55 Y175.112
N3425 X214.26 Y175.318
N3430 X213.994 Y175.555
N3435 X213.757 Y175.82
N3440 X213.551 Y176.111
N3445 X213.379 Y176.422
N3450 X213.242 Y176.751
N3455 X213.144 Y177.093
N3460 X213.084 Y177.445
N3465 X213.064 Y177.8
N3470 X213.084 Y178.155
N3475 X213.144 Y178.507
N3480 X213.242 Y178.849
N3485 X213.379 Y179.178
N3490 X213.551 Y179.489
N3495 X213.757 Y179.78
N3500 X213.994 Y180.045
N3505 X214.26 Y180.282
N3510 X214.55 Y180.488
N3515 X214.862 Y180.661
N3520 X215.191 Y180.797
N3525 X215.533 Y180.895
N3530 X215.884 Y180.955
N3535 X216.239 Y180.975
N3540 X279.739
N3545 X280.095 Y180.955
N3550 X280.446 Y180.895
N3555 X280.788 Y180.797
N3560 X281.117 Y180.661
N3565 X281.428 Y180.488
N3570 X281.719 Y180.282
N3575 X281.984 Y180.045
N3580 X282.222 Y179.78
N3585 X282.428 Y179.489
N3590 X282.6 Y179.178
N3595 X282.736 Y178.849
N3600 X282.835 Y178.507
N3605 X282.894 Y178.155
N3610 X282.914 Y177.8
N3615 X282.894 Y177.445
N3620 X282.835 Y177.093
N3625 X282.736 Y176.751
N3630 X282.6 Y176.422
N3635 X282.428 Y176.111
N3640 X282.222 Y175.82
N3645 X281.984 Y175.555
N3650 X281.719 Y175.318
N3655 X281.428 Y175.112
N3660 X281.117 Y174.939
N3665 X280.788 Y174.803
N3670 X280.446 Y174.705
N3675 X280.095 Y174.645
N3680 X279.739 Y174.625
N3685 Z5.536
N3690 G0 Z8.
N3695 Y187.325
N3700 Z5.536
N3705 G1 Z-2.104 F333.33
N3710 X216.239 F2500.
N3715 X215.884 Y187.345
N3720 X215.533 Y187.405
N3725 X215.191 Y187.503
N3730 X214.862 Y187.639
N3735 X214.55 Y187.812
N3740 X214.26 Y188.018
N3745 X213.994 Y188.255
N3750 X213.757 Y188.52
N3755 X213.551 Y188.811
N3760 X213.379 Y189.122
N3765 X213.242 Y189.451
N3770 X213.144 Y189.793
N3775 X213.084 Y190.145
N3780 X213.064 Y190.5
N3785 X213.084 Y190.855
N3790 X213.144 Y191.207
N3795 X213.242 Y191.549
N3800 X213.379 Y191.878
N3805 X213.551 Y192.189
N3810 X213.757 Y192.48
N3815 X213.994 Y192.745
N3820 X214.26 Y192.982
N3825 X214.55 Y193.188
N3830 X214.862 Y193.361
N3835 X215.191 Y193.497
N3840 X215.533 Y193.595
N3845 X215.884 Y193.655
N3850 X216.239 Y193.675
N3855 X279.739
N3860 X280.095 Y193.655
N3865 X280.446 Y193.595
N3870 X280.788 Y193.497
N3875 X281.117 Y193.361
N3880 X281.428 Y193.188
N3885 X281.719 Y192.982
N3890 X281.984 Y192.745
N3895 X282.222 Y192.48
N3900 X282.428 Y192.189
N3905 X282.6 Y191.878
N3910 X282.736 Y191.549
N3915 X282.835 Y191.207
N3920 X282.894 Y190.855
N3925 X282.914 Y190.5
N3930 X282.894 Y190.145
N3935 X282.835 Y189.793
N3940 X282.736 Y189.451
N3945 X282.6 Y189.122
N3950 X282.428 Y188.811
N3955 X282.222 Y188.52
N3960 X281.984 Y188.255
N3965 X281.719 Y188.018
N3970 X281.428 Y187.812
N3975 X281.117 Y187.639
N3980 X280.788 Y187.503
N3985 X280.446 Y187.405
N3990 X280.095 Y187.345
N3995 X279.739 Y187.325
N4000 Z5.536
N4005 G0 Z8.
N4010 Y200.025
N4015 Z5.536
N4020 G1 Z-2.104 F333.33
N4025 X203.539 F2500.
N4030 X203.184 Y200.045
N4035 X202.833 Y200.105
N4040 X202.491 Y200.203
N4045 X202.162 Y200.339
N4050 X201.85 Y200.512
N4055 X201.56 Y200.718
N4060 X201.294 Y200.955
N4065 X201.057 Y201.22
N4070 X200.851 Y201.511
N4075 X200.679 Y201.822
N4080 X200.542 Y202.151
N4085 X200.444 Y202.493
N4090 X200.384 Y202.845
N4095 X200.364 Y203.2
N4100 X200.384 Y203.555
N4105 X200.444 Y203.907
N4110 X200.542 Y204.249
N4115 X200.679 Y204.578
N4120 X200.851 Y204.889
N4125 X201.057 Y205.18
N4130 X201.294 Y205.445
N4135 X201.56 Y205.682
N4140 X201.85 Y205.888
N4145 X202.162 Y206.061
N4150 X202.491 Y206.197
N4155 X202.833 Y206.295
N4160 X203.184 Y206.355
N4165 X203.539 Y206.375
N4170 X279.739
N4175 X280.095 Y206.355
N4180 X280.446 Y206.295
N4185 X280.788 Y206.197
N4190 X281.117 Y206.061
N4195 X281.428 Y205.888
N4200 X281.719 Y205.682
N4205 X281.984 Y205.445
N4210 X282.222 Y205.18
N4215 X282.428 Y204.889
N4220 X282.6 Y204.578
N4225 X282.736 Y204.249
N4230 X282.835 Y203.907
N4235 X282.894 Y203.555
N4240 X282.914 Y203.2
N4245 X282.894 Y202.845
N4250 X282.835 Y202.493
N4255 X282.736 Y202.151
N4260 X282.6 Y201.822
N4265 X282.428 Y201.511
N4270 X282.222 Y201.22
N4275 X281.984 Y200.955
N4280 X281.719 Y200.718
N4285 X281.428 Y200.512
N4290 X281.117 Y200.339
N4295 X280.788 Y200.203
N4300 X280.446 Y200.105
N4305 X280.095 Y200.045
N4310 X279.739 Y200.025
N4315 X203.539
N4320 X203.184 Y200.045
N4325 X202.833 Y200.105
N4330 X202.491 Y200.203
N4335 X202.162 Y200.339
N4340 X201.85 Y200.512
N4345 X201.56 Y200.718
N4350 X201.294 Y200.955
N4355 X201.057 Y201.22
N4360 X200.851 Y201.511
N4365 X200.679 Y201.822
N4370 X200.542 Y202.151
N4375 X200.444 Y202.493
N4380 X200.384 Y202.845
N4385 X200.364 Y203.2
N4390 X200.384 Y203.555
N4395 X200.444 Y203.907
N4400 X200.542 Y204.249
N4405 X200.679 Y204.578
N4410 X200.851 Y204.889
N4415 X201.057 Y205.18
N4420 X201.294 Y205.445
N4425 X201.56 Y205.682
N4430 X201.85 Y205.888
N4435 X202.162 Y206.061
N4440 X202.491 Y206.197
N4445 X202.833 Y206.295
N4450 X203.184 Y206.355
N4455 X203.539 Y206.375
N4460 X279.739
N4465 X280.095 Y206.355
N4470 X280.446 Y206.295
N4475 X280.788 Y206.197
N4480 X281.117 Y206.061
N4485 X281.428 Y205.888
N4490 X281.719 Y205.682
N4495 X281.984 Y205.445
N4500 X282.222 Y205.18
N4505 X282.428 Y204.889
N4510 X282.6 Y204.578
N4515 X282.736 Y204.249
N4520 X282.835 Y203.907
N4525 X282.894 Y203.555
N4530 X282.914 Y203.2
N4535 X282.894 Y202.845
N4540 X282.835 Y202.493
N4545 X282.736 Y202.151
N4550 X282.6 Y201.822
N4555 X282.428 Y201.511
N4560 X282.222 Y201.22
N4565 X281.984 Y200.955
N4570 X281.719 Y200.718
N4575 X281.428 Y200.512
N4580 X281.117 Y200.339
N4585 X280.788 Y200.203
N4590 X280.446 Y200.105
N4595 X280.095 Y200.045
N4600 X279.739 Y200.025
N4605 Z5.536
N4610 G0 Z8.
N4615 Y212.725
N4620 Z5.536
N4625 G1 Z-2.104 F333.33
N4630 X203.539 F2500.
N4635 X203.184 Y212.745
N4640 X202.833 Y212.805
N4645 X202.491 Y212.903
N4650 X202.162 Y213.039
N4655 X201.85 Y213.212
N4660 X201.56 Y213.418
N4665 X201.294 Y213.655
N4670 X201.057 Y213.92
N4675 X200.851 Y214.211
N4680 X200.679 Y214.522
N4685 X200.542 Y214.851
N4690 X200.444 Y215.193
N4695 X200.384 Y215.545
N4700 X200.364 Y215.9
N4705 X200.384 Y216.255
N4710 X200.444 Y216.607
N4715 X200.542 Y216.949
N4720 X200.679 Y217.278
N4725 X200.851 Y217.589
N4730 X201.057 Y217.88
N4735 X201.294 Y218.145
N4740 X201.56 Y218.382
N4745 X201.85 Y218.588
N4750 X202.162 Y218.761
N4755 X202.491 Y218.897
N4760 X202.833 Y218.995
N4765 X203.184 Y219.055
N4770 X203.539 Y219.075
N4775 X279.739
N4780 X280.095 Y219.055
N4785 X280.446 Y218.995
N4790 X280.788 Y218.897
N4795 X281.117 Y218.761
N4800 X281.428 Y218.588
N4805 X281.719 Y218.382
N4810 X281.984 Y218.145
N4815 X282.222 Y217.88
N4820 X282.428 Y217.589
N4825 X282.6 Y217.278
N4830 X282.736 Y216.949
N4835 X282.835 Y216.607
N4840 X282.894 Y216.255
N4845 X282.914 Y215.9
N4850 X282.894 Y215.545
N4855 X282.835 Y215.193
N4860 X282.736 Y214.851
N4865 X282.6 Y214.522
N4870 X282.428 Y214.211
N4875 X282.222 Y213.92
N4880 X281.984 Y213.655
N4885 X281.719 Y213.418
N4890 X281.428 Y213.212
N4895 X281.117 Y213.039
N4900 X280.788 Y212.903
N4905 X280.446 Y212.805
N4910 X280.095 Y212.745
N4915 X279.739 Y212.725
N4920 Z5.536
N4925 G0 Z8.
N4930 Y225.425
N4935 Z5.536
N4940 G1 Z-2.104 F333.33
N4945 X203.539 F2500.
N4950 X203.184 Y225.445
N4955 X202.833 Y225.505
N4960 X202.491 Y225.603
N4965 X202.162 Y225.739
N4970 X201.85 Y225.912
N4975 X201.56 Y226.118
N4980 X201.294 Y226.355
N4985 X201.057 Y226.62
N4990 X200.851 Y226.911
N4995 X200.679 Y227.222
N5000 X200.542 Y227.551
N5005 X200.444 Y227.893
N5010 X200.384 Y228.245
N5015 X200.364 Y228.6
N5020 X200.384 Y228.955
N5025 X200.444 Y229.307
N5030 X200.542 Y229.649
N5035 X200.679 Y229.978
N5040 X200.851 Y230.289
N5045 X201.057 Y230.58
N5050 X201.294 Y230.845
N5055 X201.56 Y231.082
N5060 X201.85 Y231.288
N5065 X202.162 Y231.461
N5070 X202.491 Y231.597
N5075 X202.833 Y231.695
N5080 X203.184 Y231.755
N5085 X203.539 Y231.775
N5090 X279.739
N5095 X280.095 Y231.755
N5100 X280.446 Y231.695
N5105 X280.788 Y231.597
N5110 X281.117 Y231.461
N5115 X281.428 Y231.288
N5120 X281.719 Y231.082
N5125 X281.984 Y230.845
N5130 X282.222 Y230.58
N5135 X282.428 Y230.289
N5140 X282.6 Y229.978
N5145 X282.736 Y229.649
N5150 X282.835 Y229.307
N5155 X282.894 Y228.955
N5160 X282.914 Y228.6
N5165 X282.894 Y228.245
N5170 X282.835 Y227.893
N5175 X282.736 Y227.551
N5180 X282.6 Y227.222
N5185 X282.428 Y226.911
N5190 X282.222 Y226.62
N5195 X281.984 Y226.355
N5200 X281.719 Y226.118
N5205 X281.428 Y225.912
N5210 X281.117 Y225.739
N5215 X280.788 Y225.603
N5220 X280.446 Y225.505
N5225 X280.095 Y225.445
N5230 X279.739 Y225.425
N5235 Z5.536
N5240 G0 Z8.
N5245 Y238.125
N5250 Z5.536
N5255 G1 Z-2.104 F333.33
N5260 X203.539 F2500.
N5265 X203.184 Y238.145
N5270 X202.833 Y238.205
N5275 X202.491 Y238.303
N5280 X202.162 Y238.439
N5285 X201.85 Y238.612
N5290 X201.56 Y238.818
N5295 X201.294 Y239.055
N5300 X201.057 Y239.32
N5305 X200.851 Y239.611
N5310 X200.679 Y239.922
N5315 X200.542 Y240.251
N5320 X200.444 Y240.593
N5325 X200.384 Y240.945
N5330 X200.364 Y241.3
N5335 X200.384 Y241.655
N5340 X200.444 Y242.007
N5345 X200.542 Y242.349
N5350 X200.679 Y242.678
N5355 X200.851 Y242.989
N5360 X201.057 Y243.28
N5365 X201.294 Y243.545
N5370 X201.56 Y243.782
N5375 X201.85 Y243.988
N5380 X202.162 Y244.161
N5385 X202.491 Y244.297
N5390 X202.833 Y244.395
N5395 X203.184 Y244.455
N5400 X203.539 Y244.475
N5405 X279.739
N5410 X280.095 Y244.455
N5415 X280.446 Y244.395
N5420 X280.788 Y244.297
N5425 X281.117 Y244.161
N5430 X281.428 Y243.988
N5435 X281.719 Y243.782
N5440 X281.984 Y243.545
N5445 X282.222 Y243.28
N5450 X282.428 Y242.989
N5455 X282.6 Y242.678
N5460 X282.736 Y242.349
N5465 X282.835 Y242.007
N5470 X282.894 Y241.655
N5475 X282.914 Y241.3
N5480 X282.894 Y240.945
N5485 X282.835 Y240.593
N5490 X282.736 Y240.251
N5495 X282.6 Y239.922
N5500 X282.428 Y239.611
N5505 X282.222 Y239.32
N5510 X281.984 Y239.055
N5515 X281.719 Y238.818
N5520 X281.428 Y238.612
N5525 X281.117 Y238.439
N5530 X280.788 Y238.303
N5535 X280.446 Y238.205
N5540 X280.095 Y238.145
N5545 X279.739 Y238.125
N5550 Z5.536
N5555 G0 Z8.
N5560 Y250.825
N5565 Z5.536
N5570 G1 Z-2.104 F333.33
N5575 X203.539 F2500.
N5580 X203.184 Y250.845
N5585 X202.833 Y250.905
N5590 X202.491 Y251.003
N5595 X202.162 Y251.139
N5600 X201.85 Y251.312
N5605 X201.56 Y251.518
N5610 X201.294 Y251.755
N5615 X201.057 Y252.02
N5620 X200.851 Y252.311
N5625 X200.679 Y252.622
N5630 X200.542 Y252.951
N5635 X200.444 Y253.293
N5640 X200.384 Y253.645
N5645 X200.364 Y254.
N5650 X200.384 Y254.355
N5655 X200.444 Y254.707
N5660 X200.542 Y255.049
N5665 X200.679 Y255.378
N5670 X200.851 Y255.689
N5675 X201.057 Y255.98
N5680 X201.294 Y256.245
N5685 X201.56 Y256.482
N5690 X201.85 Y256.688
N5695 X202.162 Y256.861
N5700 X202.491 Y256.997
N5705 X202.833 Y257.095
N5710 X203.184 Y257.155
N5715 X203.539 Y257.175
N5720 X279.739
N5725 X280.095 Y257.155
N5730 X280.446 Y257.095
N5735 X280.788 Y256.997
N5740 X281.117 Y256.861
N5745 X281.428 Y256.688
N5750 X281.719 Y256.482
N5755 X281.984 Y256.245
N5760 X282.222 Y255.98
N5765 X282.428 Y255.689
N5770 X282.6 Y255.378
N5775 X282.736 Y255.049
N5780 X282.835 Y254.707
N5785 X282.894 Y254.355
N5790 X282.914 Y254.
N5795 X282.894 Y253.645
N5800 X282.835 Y253.293
N5805 X282.736 Y252.951
N5810 X282.6 Y252.622
N5815 X282.428 Y252.311
N5820 X282.222 Y252.02
N5825 X281.984 Y251.755
N5830 X281.719 Y251.518
N5835 X281.428 Y251.312
N5840 X281.117 Y251.139
N5845 X280.788 Y251.003
N5850 X280.446 Y250.905
N5855 X280.095 Y250.845
N5860 X279.739 Y250.825
N5865 Z5.536
N5870 G0 Z8.
N5875 Y263.525
N5880 Z5.536
N5885 G1 Z-2.104 F333.33
N5890 X203.539 F2500.
N5895 X203.184 Y263.545
N5900 X202.833 Y263.605
N5905 X202.491 Y263.703
N5910 X202.162 Y263.839
N5915 X201.85 Y264.012
N5920 X201.56 Y264.218
N5925 X201.294 Y264.455
N5930 X201.057 Y264.72
N5935 X200.851 Y265.011
N5940 X200.679 Y265.322
N5945 X200.542 Y265.651
N5950 X200.444 Y265.993
N5955 X200.384 Y266.345
N5960 X200.364 Y266.7
N5965 X200.384 Y267.055
N5970 X200.444 Y267.407
N5975 X200.542 Y267.749
N5980 X200.679 Y268.078
N5985 X200.851 Y268.389
N5990 X201.057 Y268.68
N5995 X201.294 Y268.945
N6000 X201.56 Y269.182
N6005 X201.85 Y269.388
N6010 X202.162 Y269.561
N6015 X202.491 Y269.697
N6020 X202.833 Y269.795
N6025 X203.184 Y269.855
N6030 X203.539 Y269.875
N6035 X279.739
N6040 X280.095 Y269.855
N6045 X280.446 Y269.795
N6050 X280.788 Y269.697
N6055 X281.117 Y269.561
N6060 X281.428 Y269.388
N6065 X281.719 Y269.182
N6070 X281.984 Y268.945
N6075 X282.222 Y268.68
N6080 X282.428 Y268.389
N6085 X282.6 Y268.078
N6090 X282.736 Y267.749
N6095 X282.835 Y267.407
N6100 X282.894 Y267.055
N6105 X282.914 Y266.7
N6110 X282.894 Y266.345
N6115 X282.835 Y265.993
N6120 X282.736 Y265.651
N6125 X282.6 Y265.322
N6130 X282.428 Y265.011
N6135 X282.222 Y264.72
N6140 X281.984 Y264.455
N6145 X281.719 Y264.218
N6150 X281.428 Y264.012
N6155 X281.117 Y263.839
N6160 X280.788 Y263.703
N6165 X280.446 Y263.605
N6170 X280.095 Y263.545
N6175 X279.739 Y263.525
N6180 Z5.536
N6185 G0 Z8.
N6190 Y276.225
N6195 Z5.536
N6200 G1 Z-2.104 F333.33
N6205 X203.539 F2500.
N6210 X203.184 Y276.245
N6215 X202.833 Y276.305
N6220 X202.491 Y276.403
N6225 X202.162 Y276.539
N6230 X201.85 Y276.712
N6235 X201.56 Y276.918
N6240 X201.294 Y277.155
N6245 X201.057 Y277.42
N6250 X200.851 Y277.711
N6255 X200.679 Y278.022
N6260 X200.542 Y278.351
N6265 X200.444 Y278.693
N6270 X200.384 Y279.045
N6275 X200.364 Y279.4
N6280 X200.384 Y279.755
N6285 X200.444 Y280.107
N6290 X200.542 Y280.449
N6295 X200.679 Y280.778
N6300 X200.851 Y281.089
N6305 X201.057 Y281.38
N6310 X201.294 Y281.645
N6315 X201.56 Y281.882
N6320 X201.85 Y282.088
N6325 X202.162 Y282.261
N6330 X202.491 Y282.397
N6335 X202.833 Y282.495
N6340 X203.184 Y282.555
N6345 X203.539 Y282.575
N6350 X279.739
N6355 X280.095 Y282.555
N6360 X280.446 Y282.495
N6365 X280.788 Y282.397
N6370 X281.117 Y282.261
N6375 X281.428 Y282.088
N6380 X281.719 Y281.882
N6385 X281.984 Y281.645
N6390 X282.222 Y281.38
N6395 X282.428 Y281.089
N6400 X282.6 Y280.778
N6405 X282.736 Y280.449
N6410 X282.835 Y280.107
N6415 X282.894 Y279.755
N6420 X282.914 Y279.4
N6425 X282.894 Y279.045
N6430 X282.835 Y278.693
N6435 X282.736 Y278.351
N6440 X282.6 Y278.022
N6445 X282.428 Y277.711
N6450 X282.222 Y277.42
N6455 X281.984 Y277.155
N6460 X281.719 Y276.918
N6465 X281.428 Y276.712
N6470 X281.117 Y276.539
N6475 X280.788 Y276.403
N6480 X280.446 Y276.305
N6485 X280.095 Y276.245
N6490 X279.739 Y276.225
N6495 Z5.536
N6500 G0 Z8.
N6505 Y288.925
N6510 Z5.536
N6515 G1 Z-2.104 F333.33
N6520 X203.539 F2500.
N6525 X203.184 Y288.945
N6530 X202.833 Y289.005
N6535 X202.491 Y289.103
N6540 X202.162 Y289.239
N6545 X201.85 Y289.412
N6550 X201.56 Y289.618
N6555 X201.294 Y289.855
N6560 X201.057 Y290.12
N6565 X200.851 Y290.411
N6570 X200.679 Y290.722
N6575 X200.542 Y291.051
N6580 X200.444 Y291.393
N6585 X200.384 Y291.745
N6590 X200.364 Y292.1
N6595 X200.384 Y292.455
N6600 X200.444 Y292.807
N6605 X200.542 Y293.149
N6610 X200.679 Y293.478
N6615 X200.851 Y293.789
N6620 X201.057 Y294.08
N6625 X201.294 Y294.345
N6630 X201.56 Y294.582
N6635 X201.85 Y294.788
N6640 X202.162 Y294.961
N6645 X202.491 Y295.097
N6650 X202.833 Y295.195
N6655 X203.184 Y295.255
N6660 X203.539 Y295.275
N6665 X279.739
N6670 X280.095 Y295.255
N6675 X280.446 Y295.195
N6680 X280.788 Y295.097
N6685 X281.117 Y294.961
N6690 X281.428 Y294.788
N6695 X281.719 Y294.582
N6700 X281.984 Y294.345
N6705 X282.222 Y294.08
N6710 X282.428 Y293.789
N6715 X282.6 Y293.478
N6720 X282.736 Y293.149
N6725 X282.835 Y292.807
N6730 X282.894 Y292.455
N6735 X282.914 Y292.1
N6740 X282.894 Y291.745
N6745 X282.835 Y291.393
N6750 X282.736 Y291.051
N6755 X282.6 Y290.722
N6760 X282.428 Y290.411
N6765 X282.222 Y290.12
N6770 X281.984 Y289.855
N6775 X281.719 Y289.618
N6780 X281.428 Y289.412
N6785 X281.117 Y289.239
N6790 X280.788 Y289.103
N6795 X280.446 Y289.005
N6800 X280.095 Y288.945
N6805 X279.739 Y288.925
N6810 Z5.536
N6815 G0 Z18.
N6820 G53 G0 Z0.
N6825 G53 G0 X-200 Y-150
N6830 M30
%
