%
(DAMPERCLEANUP)
(MACHINE)
(  VENDOR AUTODESK)
(  MODEL GENERIC 3-AXIS ROUTER)
(  DESCRIPTION THIS MACHINE HAS XYZ AXIS ON THE HEAD)
(T23 D=6.35 CR=0. TAPER=30DEG - ZMIN=-1.013 - CHAMFER MILL)
N10 G90 G94 G17 G91.1
N15 G21
N20 G53 G0 Z0.
(TRACE10)
N25 G53 G0 X-200 Y0
N30 T23 M6
N35 S18000 M3
N40 G4 P2.0
N45 G17 G90 G94
N50 G54
N55 G0 X203.539 Y79.307
N60 G43 Z15. H23
N65 G0 Z4.987
N70 G1 Z-1.013 F1500.
N75 X279.739 F2500.
N80 X280.095 Y79.287
N85 X280.446 Y79.228
N90 X280.788 Y79.129
N95 X281.117 Y78.993
N100 X281.428 Y78.821
N105 X281.719 Y78.615
N110 X281.984 Y78.377
N115 X282.222 Y78.112
N120 X282.428 Y77.821
N125 X282.6 Y77.51
N130 X282.736 Y77.181
N135 X282.835 Y76.839
N140 X282.894 Y76.488
N145 X282.914 Y76.132
N150 X282.894 Y75.777
N155 X282.835 Y75.426
N160 X282.736 Y75.084
N165 X282.6 Y74.755
N170 X282.428 Y74.443
N175 X282.222 Y74.153
N180 X281.984 Y73.887
N185 X281.719 Y73.65
N190 X281.428 Y73.444
N195 X281.117 Y73.272
N200 X280.788 Y73.135
N205 X280.446 Y73.037
N210 X280.095 Y72.977
N215 X279.739 Y72.957
N220 X203.539
N225 X203.184 Y72.977
N230 X202.833 Y73.037
N235 X202.491 Y73.135
N240 X202.162 Y73.272
N245 X201.85 Y73.444
N250 X201.56 Y73.65
N255 X201.294 Y73.887
N260 X201.057 Y74.153
N265 X200.851 Y74.443
N270 X200.679 Y74.755
N275 X200.542 Y75.084
N280 X200.444 Y75.426
N285 X200.384 Y75.777
N290 X200.364 Y76.132
N295 X200.384 Y76.488
N300 X200.444 Y76.839
N305 X200.542 Y77.181
N310 X200.679 Y77.51
N315 X200.851 Y77.821
N320 X201.057 Y78.112
N325 X201.294 Y78.377
N330 X201.56 Y78.615
N335 X201.85 Y78.821
N340 X202.162 Y78.993
N345 X202.491 Y79.129
N350 X202.833 Y79.228
N355 X203.184 Y79.287
N360 X203.539 Y79.307
N365 Z4.987
N370 G0 Z5.
N375 Y85.657
N380 Z4.987
N385 G1 Z-1.013 F1500.
N390 X203.184 Y85.677 F2500.
N395 X202.833 Y85.737
N400 X202.491 Y85.835
N405 X202.162 Y85.972
N410 X201.85 Y86.144
N415 X201.56 Y86.35
N420 X201.294 Y86.587
N425 X201.057 Y86.853
N430 X200.851 Y87.143
N435 X200.679 Y87.455
N440 X200.542 Y87.784
N445 X200.444 Y88.126
N450 X200.384 Y88.477
N455 X200.364 Y88.832
N460 X200.384 Y89.188
N465 X200.444 Y89.539
N470 X200.542 Y89.881
N475 X200.679 Y90.21
N480 X200.851 Y90.521
N485 X201.057 Y90.812
N490 X201.294 Y91.077
N495 X201.56 Y91.314
N500 X201.85 Y91.521
N505 X202.162 Y91.693
N510 X202.491 Y91.829
N515 X202.833 Y91.928
N520 X203.184 Y91.987
N525 X203.539 Y92.007
N530 X279.739
N535 X280.095 Y91.987
N540 X280.446 Y91.928
N545 X280.788 Y91.829
N550 X281.117 Y91.693
N555 X281.428 Y91.521
N560 X281.719 Y91.314
N565 X281.984 Y91.077
N570 X282.222 Y90.812
N575 X282.428 Y90.521
N580 X282.6 Y90.21
N585 X282.736 Y89.881
N590 X282.835 Y89.539
N595 X282.894 Y89.188
N600 X282.914 Y88.832
N605 X282.894 Y88.477
N610 X282.835 Y88.126
N615 X282.736 Y87.784
N620 X282.6 Y87.455
N625 X282.428 Y87.143
N630 X282.222 Y86.853
N635 X281.984 Y86.587
N640 X281.719 Y86.35
N645 X281.428 Y86.144
N650 X281.117 Y85.972
N655 X280.788 Y85.835
N660 X280.446 Y85.737
N665 X280.095 Y85.677
N670 X279.739 Y85.657
N675 X203.539
N680 Z4.987
N685 G0 Z5.
N690 Y98.357
N695 Z4.987
N700 G1 Z-1.013 F1500.
N705 X203.184 Y98.377 F2500.
N710 X202.833 Y98.437
N715 X202.491 Y98.535
N720 X202.162 Y98.672
N725 X201.85 Y98.844
N730 X201.56 Y99.05
N735 X201.294 Y99.287
N740 X201.057 Y99.553
N745 X200.851 Y99.843
N750 X200.679 Y100.155
N755 X200.542 Y100.484
N760 X200.444 Y100.826
N765 X200.384 Y101.177
N770 X200.364 Y101.532
N775 X200.384 Y101.888
N780 X200.444 Y102.239
N785 X200.542 Y102.581
N790 X200.679 Y102.91
N795 X200.851 Y103.221
N800 X201.057 Y103.512
N805 X201.294 Y103.777
N810 X201.56 Y104.015
N815 X201.85 Y104.221
N820 X202.162 Y104.393
N825 X202.491 Y104.529
N830 X202.833 Y104.628
N835 X203.184 Y104.687
N840 X203.539 Y104.707
N845 X279.739
N850 X280.095 Y104.687
N855 X280.446 Y104.628
N860 X280.788 Y104.529
N865 X281.117 Y104.393
N870 X281.428 Y104.221
N875 X281.719 Y104.015
N880 X281.984 Y103.777
N885 X282.222 Y103.512
N890 X282.428 Y103.221
N895 X282.6 Y102.91
N900 X282.736 Y102.581
N905 X282.835 Y102.239
N910 X282.894 Y101.888
N915 X282.914 Y101.532
N920 X282.894 Y101.177
N925 X282.835 Y100.826
N930 X282.736 Y100.484
N935 X282.6 Y100.155
N940 X282.428 Y99.843
N945 X282.222 Y99.553
N950 X281.984 Y99.287
N955 X281.719 Y99.05
N960 X281.428 Y98.844
N965 X281.117 Y98.672
N970 X280.788 Y98.535
N975 X280.446 Y98.437
N980 X280.095 Y98.377
N985 X279.739 Y98.357
N990 X203.539
N995 Z4.987
N1000 G0 Z5.
N1005 Y111.057
N1010 Z4.987
N1015 G1 Z-1.013 F1500.
N1020 X203.184 Y111.077 F2500.
N1025 X202.833 Y111.137
N1030 X202.491 Y111.235
N1035 X202.162 Y111.372
N1040 X201.85 Y111.544
N1045 X201.56 Y111.75
N1050 X201.294 Y111.987
N1055 X201.057 Y112.253
N1060 X200.851 Y112.543
N1065 X200.679 Y112.855
N1070 X200.542 Y113.184
N1075 X200.444 Y113.526
N1080 X200.384 Y113.877
N1085 X200.364 Y114.232
N1090 X200.384 Y114.588
N1095 X200.444 Y114.939
N1100 X200.542 Y115.281
N1105 X200.679 Y115.61
N1110 X200.851 Y115.921
N1115 X201.057 Y116.212
N1120 X201.294 Y116.477
N1125 X201.56 Y116.715
N1130 X201.85 Y116.921
N1135 X202.162 Y117.093
N1140 X202.491 Y117.229
N1145 X202.833 Y117.328
N1150 X203.184 Y117.387
N1155 X203.539 Y117.407
N1160 X279.739
N1165 X280.095 Y117.387
N1170 X280.446 Y117.328
N1175 X280.788 Y117.229
N1180 X281.117 Y117.093
N1185 X281.428 Y116.921
N1190 X281.719 Y116.715
N1195 X281.984 Y116.477
N1200 X282.222 Y116.212
N1205 X282.428 Y115.921
N1210 X282.6 Y115.61
N1215 X282.736 Y115.281
N1220 X282.835 Y114.939
N1225 X282.894 Y114.588
N1230 X282.914 Y114.232
N1235 X282.894 Y113.877
N1240 X282.835 Y113.526
N1245 X282.736 Y113.184
N1250 X282.6 Y112.855
N1255 X282.428 Y112.543
N1260 X282.222 Y112.253
N1265 X281.984 Y111.987
N1270 X281.719 Y111.75
N1275 X281.428 Y111.544
N1280 X281.117 Y111.372
N1285 X280.788 Y111.235
N1290 X280.446 Y111.137
N1295 X280.095 Y111.077
N1300 X279.739 Y111.057
N1305 X203.539
N1310 Z4.987
N1315 G0 Z5.
N1320 Y123.757
N1325 Z4.987
N1330 G1 Z-1.013 F1500.
N1335 X203.184 Y123.777 F2500.
N1340 X202.833 Y123.837
N1345 X202.491 Y123.935
N1350 X202.162 Y124.072
N1355 X201.85 Y124.244
N1360 X201.56 Y124.45
N1365 X201.294 Y124.687
N1370 X201.057 Y124.953
N1375 X200.851 Y125.243
N1380 X200.679 Y125.555
N1385 X200.542 Y125.884
N1390 X200.444 Y126.226
N1395 X200.384 Y126.577
N1400 X200.364 Y126.932
N1405 X200.384 Y127.288
N1410 X200.444 Y127.639
N1415 X200.542 Y127.981
N1420 X200.679 Y128.31
N1425 X200.851 Y128.621
N1430 X201.057 Y128.912
N1435 X201.294 Y129.177
N1440 X201.56 Y129.415
N1445 X201.85 Y129.621
N1450 X202.162 Y129.793
N1455 X202.491 Y129.929
N1460 X202.833 Y130.028
N1465 X203.184 Y130.087
N1470 X203.539 Y130.107
N1475 X279.739
N1480 X280.095 Y130.087
N1485 X280.446 Y130.028
N1490 X280.788 Y129.929
N1495 X281.117 Y129.793
N1500 X281.428 Y129.621
N1505 X281.719 Y129.415
N1510 X281.984 Y129.177
N1515 X282.222 Y128.912
N1520 X282.428 Y128.621
N1525 X282.6 Y128.31
N1530 X282.736 Y127.981
N1535 X282.835 Y127.639
N1540 X282.894 Y127.288
N1545 X282.914 Y126.932
N1550 X282.894 Y126.577
N1555 X282.835 Y126.226
N1560 X282.736 Y125.884
N1565 X282.6 Y125.555
N1570 X282.428 Y125.243
N1575 X282.222 Y124.953
N1580 X281.984 Y124.687
N1585 X281.719 Y124.45
N1590 X281.428 Y124.244
N1595 X281.117 Y124.072
N1600 X280.788 Y123.935
N1605 X280.446 Y123.837
N1610 X280.095 Y123.777
N1615 X279.739 Y123.757
N1620 X203.539
N1625 Z4.987
N1630 G0 Z5.
N1635 Y136.457
N1640 Z4.987
N1645 G1 Z-1.013 F1500.
N1650 X203.184 Y136.477 F2500.
N1655 X202.833 Y136.537
N1660 X202.491 Y136.635
N1665 X202.162 Y136.772
N1670 X201.85 Y136.944
N1675 X201.56 Y137.15
N1680 X201.294 Y137.387
N1685 X201.057 Y137.653
N1690 X200.851 Y137.943
N1695 X200.679 Y138.255
N1700 X200.542 Y138.584
N1705 X200.444 Y138.926
N1710 X200.384 Y139.277
N1715 X200.364 Y139.632
N1720 X200.384 Y139.988
N1725 X200.444 Y140.339
N1730 X200.542 Y140.681
N1735 X200.679 Y141.01
N1740 X200.851 Y141.321
N1745 X201.057 Y141.612
N1750 X201.294 Y141.877
N1755 X201.56 Y142.115
N1760 X201.85 Y142.321
N1765 X202.162 Y142.493
N1770 X202.491 Y142.629
N1775 X202.833 Y142.728
N1780 X203.184 Y142.787
N1785 X203.539 Y142.807
N1790 X279.739
N1795 X280.095 Y142.787
N1800 X280.446 Y142.728
N1805 X280.788 Y142.629
N1810 X281.117 Y142.493
N1815 X281.428 Y142.321
N1820 X281.719 Y142.115
N1825 X281.984 Y141.877
N1830 X282.222 Y141.612
N1835 X282.428 Y141.321
N1840 X282.6 Y141.01
N1845 X282.736 Y140.681
N1850 X282.835 Y140.339
N1855 X282.894 Y139.988
N1860 X282.914 Y139.632
N1865 X282.894 Y139.277
N1870 X282.835 Y138.926
N1875 X282.736 Y138.584
N1880 X282.6 Y138.255
N1885 X282.428 Y137.943
N1890 X282.222 Y137.653
N1895 X281.984 Y137.387
N1900 X281.719 Y137.15
N1905 X281.428 Y136.944
N1910 X281.117 Y136.772
N1915 X280.788 Y136.635
N1920 X280.446 Y136.537
N1925 X280.095 Y136.477
N1930 X279.739 Y136.457
N1935 X203.539
N1940 Z4.987
N1945 G0 Z5.
N1950 Y149.157
N1955 Z4.987
N1960 G1 Z-1.013 F1500.
N1965 X203.184 Y149.177 F2500.
N1970 X202.833 Y149.237
N1975 X202.491 Y149.335
N1980 X202.162 Y149.472
N1985 X201.85 Y149.644
N1990 X201.56 Y149.85
N1995 X201.294 Y150.087
N2000 X201.057 Y150.353
N2005 X200.851 Y150.643
N2010 X200.679 Y150.955
N2015 X200.542 Y151.284
N2020 X200.444 Y151.626
N2025 X200.384 Y151.977
N2030 X200.364 Y152.332
N2035 X200.384 Y152.688
N2040 X200.444 Y153.039
N2045 X200.542 Y153.381
N2050 X200.679 Y153.71
N2055 X200.851 Y154.021
N2060 X201.057 Y154.312
N2065 X201.294 Y154.577
N2070 X201.56 Y154.815
N2075 X201.85 Y155.021
N2080 X202.162 Y155.193
N2085 X202.491 Y155.329
N2090 X202.833 Y155.428
N2095 X203.184 Y155.487
N2100 X203.539 Y155.507
N2105 X279.739
N2110 X280.095 Y155.487
N2115 X280.446 Y155.428
N2120 X280.788 Y155.329
N2125 X281.117 Y155.193
N2130 X281.428 Y155.021
N2135 X281.719 Y154.815
N2140 X281.984 Y154.577
N2145 X282.222 Y154.312
N2150 X282.428 Y154.021
N2155 X282.6 Y153.71
N2160 X282.736 Y153.381
N2165 X282.835 Y153.039
N2170 X282.894 Y152.688
N2175 X282.914 Y152.332
N2180 X282.894 Y151.977
N2185 X282.835 Y151.626
N2190 X282.736 Y151.284
N2195 X282.6 Y150.955
N2200 X282.428 Y150.643
N2205 X282.222 Y150.353
N2210 X281.984 Y150.087
N2215 X281.719 Y149.85
N2220 X281.428 Y149.644
N2225 X281.117 Y149.472
N2230 X280.788 Y149.335
N2235 X280.446 Y149.237
N2240 X280.095 Y149.177
N2245 X279.739 Y149.157
N2250 X203.539
N2255 Z4.987
N2260 G0 Z5.
N2265 Y161.857
N2270 Z4.987
N2275 G1 Z-1.013 F1500.
N2280 X203.184 Y161.877 F2500.
N2285 X202.833 Y161.937
N2290 X202.491 Y162.035
N2295 X202.162 Y162.172
N2300 X201.85 Y162.344
N2305 X201.56 Y162.55
N2310 X201.294 Y162.787
N2315 X201.057 Y163.053
N2320 X200.851 Y163.343
N2325 X200.679 Y163.655
N2330 X200.542 Y163.984
N2335 X200.444 Y164.326
N2340 X200.384 Y164.677
N2345 X200.364 Y165.032
N2350 X200.384 Y165.388
N2355 X200.444 Y165.739
N2360 X200.542 Y166.081
N2365 X200.679 Y166.41
N2370 X200.851 Y166.721
N2375 X201.057 Y167.012
N2380 X201.294 Y167.277
N2385 X201.56 Y167.515
N2390 X201.85 Y167.721
N2395 X202.162 Y167.893
N2400 X202.491 Y168.029
N2405 X202.833 Y168.128
N2410 X203.184 Y168.187
N2415 X203.539 Y168.207
N2420 X279.739
N2425 X280.095 Y168.187
N2430 X280.446 Y168.128
N2435 X280.788 Y168.029
N2440 X281.117 Y167.893
N2445 X281.428 Y167.721
N2450 X281.719 Y167.515
N2455 X281.984 Y167.277
N2460 X282.222 Y167.012
N2465 X282.428 Y166.721
N2470 X282.6 Y166.41
N2475 X282.736 Y166.081
N2480 X282.835 Y165.739
N2485 X282.894 Y165.388
N2490 X282.914 Y165.032
N2495 X282.894 Y164.677
N2500 X282.835 Y164.326
N2505 X282.736 Y163.984
N2510 X282.6 Y163.655
N2515 X282.428 Y163.343
N2520 X282.222 Y163.053
N2525 X281.984 Y162.787
N2530 X281.719 Y162.55
N2535 X281.428 Y162.344
N2540 X281.117 Y162.172
N2545 X280.788 Y162.035
N2550 X280.446 Y161.937
N2555 X280.095 Y161.877
N2560 X279.739 Y161.857
N2565 X203.539
N2570 Z4.987
N2575 G0 Z5.
N2580 X213.757 Y175.753
N2585 Z4.987
N2590 G1 Z-1.013 F1500.
N2595 X213.551 Y176.043 F2500.
N2600 X213.379 Y176.355
N2605 X213.242 Y176.684
N2610 X213.144 Y177.026
N2615 X213.084 Y177.377
N2620 X213.064 Y177.732
N2625 X213.084 Y178.088
N2630 X213.144 Y178.439
N2635 X213.242 Y178.781
N2640 X213.379 Y179.11
N2645 X213.551 Y179.421
N2650 X213.757 Y179.712
N2655 X213.994 Y179.977
N2660 X214.26 Y180.215
N2665 X214.55 Y180.421
N2670 X214.862 Y180.593
N2675 X215.191 Y180.729
N2680 X215.533 Y180.828
N2685 X215.884 Y180.887
N2690 X216.239 Y180.907
N2695 X279.739
N2700 X280.095 Y180.887
N2705 X280.446 Y180.828
N2710 X280.788 Y180.729
N2715 X281.117 Y180.593
N2720 X281.428 Y180.421
N2725 X281.719 Y180.215
N2730 X281.984 Y179.977
N2735 X282.222 Y179.712
N2740 X282.428 Y179.421
N2745 X282.6 Y179.11
N2750 X282.736 Y178.781
N2755 X282.835 Y178.439
N2760 X282.894 Y178.088
N2765 X282.914 Y177.732
N2770 X282.894 Y177.377
N2775 X282.835 Y177.026
N2780 X282.736 Y176.684
N2785 X282.6 Y176.355
N2790 X282.428 Y176.043
N2795 X282.222 Y175.753
N2800 X281.984 Y175.487
N2805 X281.719 Y175.25
N2810 X281.428 Y175.044
N2815 X281.117 Y174.872
N2820 X280.788 Y174.735
N2825 X280.446 Y174.637
N2830 X280.095 Y174.577
N2835 X279.739 Y174.557
N2840 X216.239
N2845 X215.884 Y174.577
N2850 X215.533 Y174.637
N2855 X215.191 Y174.735
N2860 X214.862 Y174.872
N2865 X214.55 Y175.044
N2870 X214.26 Y175.25
N2875 X213.994 Y175.487
N2880 X213.757 Y175.753
N2885 Z4.987
N2890 G0 Z5.
N2895 X216.239 Y187.257
N2900 Z4.987
N2905 G1 Z-1.013 F1500.
N2910 X215.884 Y187.277 F2500.
N2915 X215.533 Y187.337
N2920 X215.191 Y187.435
N2925 X214.862 Y187.572
N2930 X214.55 Y187.744
N2935 X214.26 Y187.95
N2940 X213.994 Y188.187
N2945 X213.757 Y188.453
N2950 X213.551 Y188.743
N2955 X213.379 Y189.055
N2960 X213.242 Y189.384
N2965 X213.144 Y189.726
N2970 X213.084 Y190.077
N2975 X213.064 Y190.432
N2980 X213.084 Y190.788
N2985 X213.144 Y191.139
N2990 X213.242 Y191.481
N2995 X213.379 Y191.81
N3000 X213.551 Y192.121
N3005 X213.757 Y192.412
N3010 X213.994 Y192.677
N3015 X214.26 Y192.915
N3020 X214.55 Y193.121
N3025 X214.862 Y193.293
N3030 X215.191 Y193.429
N3035 X215.533 Y193.528
N3040 X215.884 Y193.587
N3045 X216.239 Y193.607
N3050 X279.739
N3055 X280.095 Y193.587
N3060 X280.446 Y193.528
N3065 X280.788 Y193.429
N3070 X281.117 Y193.293
N3075 X281.428 Y193.121
N3080 X281.719 Y192.915
N3085 X281.984 Y192.677
N3090 X282.222 Y192.412
N3095 X282.428 Y192.121
N3100 X282.6 Y191.81
N3105 X282.736 Y191.481
N3110 X282.835 Y191.139
N3115 X282.894 Y190.788
N3120 X282.914 Y190.432
N3125 X282.894 Y190.077
N3130 X282.835 Y189.726
N3135 X282.736 Y189.384
N3140 X282.6 Y189.055
N3145 X282.428 Y188.743
N3150 X282.222 Y188.453
N3155 X281.984 Y188.187
N3160 X281.719 Y187.95
N3165 X281.428 Y187.744
N3170 X281.117 Y187.572
N3175 X280.788 Y187.435
N3180 X280.446 Y187.337
N3185 X280.095 Y187.277
N3190 X279.739 Y187.257
N3195 X216.239
N3200 Z4.987
N3205 G0 Z5.
N3210 Y199.957
N3215 Z4.987
N3220 G1 Z-1.013 F1500.
N3225 X215.884 Y199.977 F2500.
N3230 X215.533 Y200.037
N3235 X215.191 Y200.135
N3240 X214.862 Y200.272
N3245 X214.55 Y200.444
N3250 X214.26 Y200.65
N3255 X213.994 Y200.887
N3260 X213.757 Y201.153
N3265 X213.551 Y201.443
N3270 X213.379 Y201.755
N3275 X213.242 Y202.084
N3280 X213.144 Y202.426
N3285 X213.084 Y202.777
N3290 X213.064 Y203.132
N3295 X213.084 Y203.488
N3300 X213.144 Y203.839
N3305 X213.242 Y204.181
N3310 X213.379 Y204.51
N3315 X213.551 Y204.821
N3320 X213.757 Y205.112
N3325 X213.994 Y205.377
N3330 X214.26 Y205.615
N3335 X214.55 Y205.821
N3340 X214.862 Y205.993
N3345 X215.191 Y206.129
N3350 X215.533 Y206.228
N3355 X215.884 Y206.287
N3360 X216.239 Y206.307
N3365 X279.739
N3370 X280.095 Y206.287
N3375 X280.446 Y206.228
N3380 X280.788 Y206.129
N3385 X281.117 Y205.993
N3390 X281.428 Y205.821
N3395 X281.719 Y205.615
N3400 X281.984 Y205.377
N3405 X282.222 Y205.112
N3410 X282.428 Y204.821
N3415 X282.6 Y204.51
N3420 X282.736 Y204.181
N3425 X282.835 Y203.839
N3430 X282.894 Y203.488
N3435 X282.914 Y203.132
N3440 X282.894 Y202.777
N3445 X282.835 Y202.426
N3450 X282.736 Y202.084
N3455 X282.6 Y201.755
N3460 X282.428 Y201.443
N3465 X282.222 Y201.153
N3470 X281.984 Y200.887
N3475 X281.719 Y200.65
N3480 X281.428 Y200.444
N3485 X281.117 Y200.272
N3490 X280.788 Y200.135
N3495 X280.446 Y200.037
N3500 X280.095 Y199.977
N3505 X279.739 Y199.957
N3510 X216.239
N3515 Z4.987
N3520 G0 Z5.
N3525 Y212.657
N3530 Z4.987
N3535 G1 Z-1.013 F1500.
N3540 X203.539 F2500.
N3545 X203.184 Y212.677
N3550 X202.833 Y212.737
N3555 X202.491 Y212.835
N3560 X202.162 Y212.972
N3565 X201.85 Y213.144
N3570 X201.56 Y213.35
N3575 X201.294 Y213.587
N3580 X201.057 Y213.853
N3585 X200.851 Y214.143
N3590 X200.679 Y214.455
N3595 X200.542 Y214.784
N3600 X200.444 Y215.126
N3605 X200.384 Y215.477
N3610 X200.364 Y215.832
N3615 X200.384 Y216.188
N3620 X200.444 Y216.539
N3625 X200.542 Y216.881
N3630 X200.679 Y217.21
N3635 X200.851 Y217.521
N3640 X201.057 Y217.812
N3645 X201.294 Y218.077
N3650 X201.56 Y218.315
N3655 X201.85 Y218.521
N3660 X202.162 Y218.693
N3665 X202.491 Y218.829
N3670 X202.833 Y218.928
N3675 X203.184 Y218.987
N3680 X203.539 Y219.007
N3685 X279.739
N3690 X280.095 Y218.987
N3695 X280.446 Y218.928
N3700 X280.788 Y218.829
N3705 X281.117 Y218.693
N3710 X281.428 Y218.521
N3715 X281.719 Y218.315
N3720 X281.984 Y218.077
N3725 X282.222 Y217.812
N3730 X282.428 Y217.521
N3735 X282.6 Y217.21
N3740 X282.736 Y216.881
N3745 X282.835 Y216.539
N3750 X282.894 Y216.188
N3755 X282.914 Y215.832
N3760 X282.894 Y215.477
N3765 X282.835 Y215.126
N3770 X282.736 Y214.784
N3775 X282.6 Y214.455
N3780 X282.428 Y214.143
N3785 X282.222 Y213.853
N3790 X281.984 Y213.587
N3795 X281.719 Y213.35
N3800 X281.428 Y213.144
N3805 X281.117 Y212.972
N3810 X280.788 Y212.835
N3815 X280.446 Y212.737
N3820 X280.095 Y212.677
N3825 X279.739 Y212.657
N3830 X216.239
N3835 Z4.987
N3840 G0 Z5.
N3845 X203.539 Y225.357
N3850 Z4.987
N3855 G1 Z-1.013 F1500.
N3860 X203.184 Y225.377 F2500.
N3865 X202.833 Y225.437
N3870 X202.491 Y225.535
N3875 X202.162 Y225.672
N3880 X201.85 Y225.844
N3885 X201.56 Y226.05
N3890 X201.294 Y226.287
N3895 X201.057 Y226.553
N3900 X200.851 Y226.843
N3905 X200.679 Y227.155
N3910 X200.542 Y227.484
N3915 X200.444 Y227.826
N3920 X200.384 Y228.177
N3925 X200.364 Y228.532
N3930 X200.384 Y228.888
N3935 X200.444 Y229.239
N3940 X200.542 Y229.581
N3945 X200.679 Y229.91
N3950 X200.851 Y230.221
N3955 X201.057 Y230.512
N3960 X201.294 Y230.777
N3965 X201.56 Y231.015
N3970 X201.85 Y231.221
N3975 X202.162 Y231.393
N3980 X202.491 Y231.529
N3985 X202.833 Y231.628
N3990 X203.184 Y231.687
N3995 X203.539 Y231.707
N4000 X279.739
N4005 X280.095 Y231.687
N4010 X280.446 Y231.628
N4015 X280.788 Y231.529
N4020 X281.117 Y231.393
N4025 X281.428 Y231.221
N4030 X281.719 Y231.015
N4035 X281.984 Y230.777
N4040 X282.222 Y230.512
N4045 X282.428 Y230.221
N4050 X282.6 Y229.91
N4055 X282.736 Y229.581
N4060 X282.835 Y229.239
N4065 X282.894 Y228.888
N4070 X282.914 Y228.532
N4075 X282.894 Y228.177
N4080 X282.835 Y227.826
N4085 X282.736 Y227.484
N4090 X282.6 Y227.155
N4095 X282.428 Y226.843
N4100 X282.222 Y226.553
N4105 X281.984 Y226.287
N4110 X281.719 Y226.05
N4115 X281.428 Y225.844
N4120 X281.117 Y225.672
N4125 X280.788 Y225.535
N4130 X280.446 Y225.437
N4135 X280.095 Y225.377
N4140 X279.739 Y225.357
N4145 X203.539
N4150 Z4.987
N4155 G0 Z5.
N4160 Y238.057
N4165 Z4.987
N4170 G1 Z-1.013 F1500.
N4175 X203.184 Y238.077 F2500.
N4180 X202.833 Y238.137
N4185 X202.491 Y238.235
N4190 X202.162 Y238.372
N4195 X201.85 Y238.544
N4200 X201.56 Y238.75
N4205 X201.294 Y238.987
N4210 X201.057 Y239.253
N4215 X200.851 Y239.543
N4220 X200.679 Y239.855
N4225 X200.542 Y240.184
N4230 X200.444 Y240.526
N4235 X200.384 Y240.877
N4240 X200.364 Y241.232
N4245 X200.384 Y241.588
N4250 X200.444 Y241.939
N4255 X200.542 Y242.281
N4260 X200.679 Y242.61
N4265 X200.851 Y242.921
N4270 X201.057 Y243.212
N4275 X201.294 Y243.477
N4280 X201.56 Y243.715
N4285 X201.85 Y243.921
N4290 X202.162 Y244.093
N4295 X202.491 Y244.229
N4300 X202.833 Y244.328
N4305 X203.184 Y244.387
N4310 X203.539 Y244.407
N4315 X279.739
N4320 X280.095 Y244.387
N4325 X280.446 Y244.328
N4330 X280.788 Y244.229
N4335 X281.117 Y244.093
N4340 X281.428 Y243.921
N4345 X281.719 Y243.715
N4350 X281.984 Y243.477
N4355 X282.222 Y243.212
N4360 X282.428 Y242.921
N4365 X282.6 Y242.61
N4370 X282.736 Y242.281
N4375 X282.835 Y241.939
N4380 X282.894 Y241.588
N4385 X282.914 Y241.232
N4390 X282.894 Y240.877
N4395 X282.835 Y240.526
N4400 X282.736 Y240.184
N4405 X282.6 Y239.855
N4410 X282.428 Y239.543
N4415 X282.222 Y239.253
N4420 X281.984 Y238.987
N4425 X281.719 Y238.75
N4430 X281.428 Y238.544
N4435 X281.117 Y238.372
N4440 X280.788 Y238.235
N4445 X280.446 Y238.137
N4450 X280.095 Y238.077
N4455 X279.739 Y238.057
N4460 X203.539
N4465 Z4.987
N4470 G0 Z5.
N4475 Y250.757
N4480 Z4.987
N4485 G1 Z-1.013 F1500.
N4490 X203.184 Y250.777 F2500.
N4495 X202.833 Y250.837
N4500 X202.491 Y250.935
N4505 X202.162 Y251.072
N4510 X201.85 Y251.244
N4515 X201.56 Y251.45
N4520 X201.294 Y251.687
N4525 X201.057 Y251.953
N4530 X200.851 Y252.243
N4535 X200.679 Y252.555
N4540 X200.542 Y252.884
N4545 X200.444 Y253.226
N4550 X200.384 Y253.577
N4555 X200.364 Y253.932
N4560 X200.384 Y254.288
N4565 X200.444 Y254.639
N4570 X200.542 Y254.981
N4575 X200.679 Y255.31
N4580 X200.851 Y255.621
N4585 X201.057 Y255.912
N4590 X201.294 Y256.177
N4595 X201.56 Y256.415
N4600 X201.85 Y256.621
N4605 X202.162 Y256.793
N4610 X202.491 Y256.929
N4615 X202.833 Y257.028
N4620 X203.184 Y257.087
N4625 X203.539 Y257.107
N4630 X279.739
N4635 X280.095 Y257.087
N4640 X280.446 Y257.028
N4645 X280.788 Y256.929
N4650 X281.117 Y256.793
N4655 X281.428 Y256.621
N4660 X281.719 Y256.415
N4665 X281.984 Y256.177
N4670 X282.222 Y255.912
N4675 X282.428 Y255.621
N4680 X282.6 Y255.31
N4685 X282.736 Y254.981
N4690 X282.835 Y254.639
N4695 X282.894 Y254.288
N4700 X282.914 Y253.932
N4705 X282.894 Y253.577
N4710 X282.835 Y253.226
N4715 X282.736 Y252.884
N4720 X282.6 Y252.555
N4725 X282.428 Y252.243
N4730 X282.222 Y251.953
N4735 X281.984 Y251.687
N4740 X281.719 Y251.45
N4745 X281.428 Y251.244
N4750 X281.117 Y251.072
N4755 X280.788 Y250.935
N4760 X280.446 Y250.837
N4765 X280.095 Y250.777
N4770 X279.739 Y250.757
N4775 X203.539
N4780 Z4.987
N4785 G0 Z5.
N4790 Y263.457
N4795 Z4.987
N4800 G1 Z-1.013 F1500.
N4805 X203.184 Y263.477 F2500.
N4810 X202.833 Y263.537
N4815 X202.491 Y263.635
N4820 X202.162 Y263.772
N4825 X201.85 Y263.944
N4830 X201.56 Y264.15
N4835 X201.294 Y264.387
N4840 X201.057 Y264.653
N4845 X200.851 Y264.943
N4850 X200.679 Y265.255
N4855 X200.542 Y265.584
N4860 X200.444 Y265.926
N4865 X200.384 Y266.277
N4870 X200.364 Y266.632
N4875 X200.384 Y266.988
N4880 X200.444 Y267.339
N4885 X200.542 Y267.681
N4890 X200.679 Y268.01
N4895 X200.851 Y268.321
N4900 X201.057 Y268.612
N4905 X201.294 Y268.877
N4910 X201.56 Y269.115
N4915 X201.85 Y269.321
N4920 X202.162 Y269.493
N4925 X202.491 Y269.629
N4930 X202.833 Y269.728
N4935 X203.184 Y269.787
N4940 X203.539 Y269.807
N4945 X279.739
N4950 X280.095 Y269.787
N4955 X280.446 Y269.728
N4960 X280.788 Y269.629
N4965 X281.117 Y269.493
N4970 X281.428 Y269.321
N4975 X281.719 Y269.115
N4980 X281.984 Y268.877
N4985 X282.222 Y268.612
N4990 X282.428 Y268.321
N4995 X282.6 Y268.01
N5000 X282.736 Y267.681
N5005 X282.835 Y267.339
N5010 X282.894 Y266.988
N5015 X282.914 Y266.632
N5020 X282.894 Y266.277
N5025 X282.835 Y265.926
N5030 X282.736 Y265.584
N5035 X282.6 Y265.255
N5040 X282.428 Y264.943
N5045 X282.222 Y264.653
N5050 X281.984 Y264.387
N5055 X281.719 Y264.15
N5060 X281.428 Y263.944
N5065 X281.117 Y263.772
N5070 X280.788 Y263.635
N5075 X280.446 Y263.537
N5080 X280.095 Y263.477
N5085 X279.739 Y263.457
N5090 X203.539
N5095 Z4.987
N5100 G0 Z5.
N5105 Y276.157
N5110 Z4.987
N5115 G1 Z-1.013 F1500.
N5120 X203.184 Y276.177 F2500.
N5125 X202.833 Y276.237
N5130 X202.491 Y276.335
N5135 X202.162 Y276.472
N5140 X201.85 Y276.644
N5145 X201.56 Y276.85
N5150 X201.294 Y277.087
N5155 X201.057 Y277.353
N5160 X200.851 Y277.643
N5165 X200.679 Y277.955
N5170 X200.542 Y278.284
N5175 X200.444 Y278.626
N5180 X200.384 Y278.977
N5185 X200.364 Y279.332
N5190 X200.384 Y279.688
N5195 X200.444 Y280.039
N5200 X200.542 Y280.381
N5205 X200.679 Y280.71
N5210 X200.851 Y281.021
N5215 X201.057 Y281.312
N5220 X201.294 Y281.577
N5225 X201.56 Y281.815
N5230 X201.85 Y282.021
N5235 X202.162 Y282.193
N5240 X202.491 Y282.329
N5245 X202.833 Y282.428
N5250 X203.184 Y282.487
N5255 X203.539 Y282.507
N5260 X279.739
N5265 X280.095 Y282.487
N5270 X280.446 Y282.428
N5275 X280.788 Y282.329
N5280 X281.117 Y282.193
N5285 X281.428 Y282.021
N5290 X281.719 Y281.815
N5295 X281.984 Y281.577
N5300 X282.222 Y281.312
N5305 X282.428 Y281.021
N5310 X282.6 Y280.71
N5315 X282.736 Y280.381
N5320 X282.835 Y280.039
N5325 X282.894 Y279.688
N5330 X282.914 Y279.332
N5335 X282.894 Y278.977
N5340 X282.835 Y278.626
N5345 X282.736 Y278.284
N5350 X282.6 Y277.955
N5355 X282.428 Y277.643
N5360 X282.222 Y277.353
N5365 X281.984 Y277.087
N5370 X281.719 Y276.85
N5375 X281.428 Y276.644
N5380 X281.117 Y276.472
N5385 X280.788 Y276.335
N5390 X280.446 Y276.237
N5395 X280.095 Y276.177
N5400 X279.739 Y276.157
N5405 X203.539
N5410 Z4.987
N5415 G0 Z5.
N5420 Y288.857
N5425 Z4.987
N5430 G1 Z-1.013 F1500.
N5435 X203.184 Y288.877 F2500.
N5440 X202.833 Y288.937
N5445 X202.491 Y289.035
N5450 X202.162 Y289.172
N5455 X201.85 Y289.344
N5460 X201.56 Y289.55
N5465 X201.294 Y289.787
N5470 X201.057 Y290.053
N5475 X200.851 Y290.343
N5480 X200.679 Y290.655
N5485 X200.542 Y290.984
N5490 X200.444 Y291.326
N5495 X200.384 Y291.677
N5500 X200.364 Y292.032
N5505 X200.384 Y292.388
N5510 X200.444 Y292.739
N5515 X200.542 Y293.081
N5520 X200.679 Y293.41
N5525 X200.851 Y293.721
N5530 X201.057 Y294.012
N5535 X201.294 Y294.277
N5540 X201.56 Y294.515
N5545 X201.85 Y294.721
N5550 X202.162 Y294.893
N5555 X202.491 Y295.029
N5560 X202.833 Y295.128
N5565 X203.184 Y295.187
N5570 X203.539 Y295.207
N5575 X279.739
N5580 X280.095 Y295.187
N5585 X280.446 Y295.128
N5590 X280.788 Y295.029
N5595 X281.117 Y294.893
N5600 X281.428 Y294.721
N5605 X281.719 Y294.515
N5610 X281.984 Y294.277
N5615 X282.222 Y294.012
N5620 X282.428 Y293.721
N5625 X282.6 Y293.41
N5630 X282.736 Y293.081
N5635 X282.835 Y292.739
N5640 X282.894 Y292.388
N5645 X282.914 Y292.032
N5650 X282.894 Y291.677
N5655 X282.835 Y291.326
N5660 X282.736 Y290.984
N5665 X282.6 Y290.655
N5670 X282.428 Y290.343
N5675 X282.222 Y290.053
N5680 X281.984 Y289.787
N5685 X281.719 Y289.55
N5690 X281.428 Y289.344
N5695 X281.117 Y289.172
N5700 X280.788 Y289.035
N5705 X280.446 Y288.937
N5710 X280.095 Y288.877
N5715 X279.739 Y288.857
N5720 X203.539
N5725 Z4.987
N5730 G0 Z5.
N5735 X203.664 Y198.37
N5740 Z4.987
N5745 G1 Z-1.013 F1500.
N5750 X204.019 Y198.35 F2500.
N5755 X204.37 Y198.29
N5760 X204.712 Y198.192
N5765 X205.041 Y198.055
N5770 X205.353 Y197.883
N5775 X205.643 Y197.677
N5780 X205.909 Y197.44
N5785 X206.146 Y197.174
N5790 X206.352 Y196.884
N5795 X206.524 Y196.572
N5800 X206.661 Y196.243
N5805 X206.759 Y195.901
N5810 X206.819 Y195.55
N5815 X206.839 Y195.195
N5820 Y185.67
N5825 X206.819 Y185.314
N5830 X206.759 Y184.963
N5835 X206.661 Y184.621
N5840 X206.524 Y184.292
N5845 X206.352 Y183.98
N5850 X206.146 Y183.69
N5855 X205.909 Y183.425
N5860 X205.643 Y183.187
N5865 X205.353 Y182.981
N5870 X205.041 Y182.809
N5875 X204.712 Y182.673
N5880 X204.37 Y182.574
N5885 X204.019 Y182.515
N5890 X203.664 Y182.495
N5895 X203.308 Y182.515
N5900 X202.957 Y182.574
N5905 X202.615 Y182.673
N5910 X202.286 Y182.809
N5915 X201.975 Y182.981
N5920 X201.684 Y183.187
N5925 X201.419 Y183.425
N5930 X201.181 Y183.69
N5935 X200.975 Y183.98
N5940 X200.803 Y184.292
N5945 X200.667 Y184.621
N5950 X200.568 Y184.963
N5955 X200.509 Y185.314
N5960 X200.489 Y185.67
N5965 Y195.195
N5970 X200.509 Y195.55
N5975 X200.568 Y195.901
N5980 X200.667 Y196.243
N5985 X200.803 Y196.572
N5990 X200.975 Y196.884
N5995 X201.181 Y197.174
N6000 X201.419 Y197.44
N6005 X201.684 Y197.677
N6010 X201.975 Y197.883
N6015 X202.286 Y198.055
N6020 X202.615 Y198.192
N6025 X202.957 Y198.29
N6030 X203.308 Y198.35
N6035 X203.664 Y198.37
N6040 Z4.987
N6045 G0 Z15.
N6050 G53 G0 Z0.
N6055 G53 G0 X-200 Y-150
N6060 M30
%
