%
(ENGRAVETEMPLATE)
(MACHINE)
(  VENDOR AUTODESK)
(  MODEL GENERIC 3-AXIS ROUTER)
(  DESCRIPTION THIS MACHINE HAS XYZ AXIS ON THE HEAD)
(T20 D=6.35 CR=0. - ZMIN=-19.05 - FLAT END MILL)
(T21 D=12.7 CR=0. - ZMIN=-19.05 - FLAT END MILL)
N10 G90 G94 G17 G91.1
N15 G21
N20 G53 G0 Z0.
(2D POCKET3)
N25 G53 G0 X-200 Y0
N30 M0
(MANUAL TOOL CHANGE TO T21)
N35 S20000 M3
N40 G4 P3.0
N45 G17 G90 G94
N50 G54
N55 G0 X102.669 Y67.099
N60 G43 Z15. H21
N65 G0 Z5.
N70 G1 Z2.5 F333.33
N75 Z-5.08
N80 X102.651 Y67.072 Z-5.363
N85 X102.596 Y66.997 Z-5.631
N90 X102.547 Y66.939 Z-5.751
N95 X102.495 Y66.884 Z-5.872
N100 X102.421 Y66.816 Z-5.972
N105 X102.342 Y66.754 Z-6.073
N110 X102.241 Y66.688 Z-6.149
N115 X102.134 Y66.633 Z-6.224
N120 G2 X101.88 Y66.546 Z-6.318 I-0.534 J1.152
N125 X101.6 Y66.515 Z-6.35 I-0.28 J1.239
N130 G1 X98.584 F3500.
N135 G2 X98.265 Y66.834 I0. J0.319
N140 G1 Y72.866
N145 G2 X98.584 Y73.185 I0.319 J0.
N150 G1 X257.016
N155 G2 X257.335 Y72.866 I0. J-0.319
N160 G1 Y66.834
N165 G2 X257.016 Y66.515 I-0.319 J0.
N170 G1 X101.6
N175 G3 X96.445 Y63.608 I0. J-6.023
N180 G2 X90.745 Y65.197 I-2.629 J1.589
N185 G1 Y80.386
N190 G2 X91.064 Y80.705 I0.319 J0.
N195 G1 X264.536
N200 G2 X264.855 Y80.386 I0. J-0.319
N205 G1 Y59.314
N210 G2 X264.536 Y58.995 I-0.319 J0.
N215 G1 X91.064
N220 G2 X90.745 Y59.314 I0. J0.319
N225 G1 Y65.197
N230 G3 X86.985 Y70.837 I-6.11 J0.
N235 G2 X83.225 Y76.477 I2.35 J5.64
N240 G1 Y87.906
N245 G2 X83.544 Y88.225 I0.319 J0.
N250 G1 X272.056
N255 G2 X272.375 Y87.906 I0. J-0.319
N260 G1 Y51.794
N265 G2 X272.056 Y51.475 I-0.319 J0.
N270 G1 X83.544
N275 G2 X83.225 Y51.794 I0. J0.319
N280 G1 Y76.477
N285 G3 X79.465 Y82.117 I-6.11 J0.
N290 G2 X75.705 Y87.757 I2.35 J5.64
N295 G1 Y95.426
N300 G2 X76.024 Y95.745 I0.319 J0.
N305 G1 X279.576
N310 G2 X279.895 Y95.426 I0. J-0.319
N315 G1 Y44.274
N320 G2 X279.576 Y43.955 I-0.319 J0.
N325 G1 X76.024
N330 G2 X75.705 Y44.274 I0. J0.319
N335 G1 Y87.757
N340 G3 X71.945 Y93.397 I-6.11 J0.
N345 G2 X68.185 Y99.037 I2.35 J5.64
N350 G1 Y102.946
N355 G2 X68.504 Y103.265 I0.319 J0.
N360 G1 X287.096
N365 G2 X287.415 Y102.946 I0. J-0.319
N370 G1 Y36.754
N375 G2 X287.096 Y36.435 I-0.319 J0.
N380 G1 X68.504
N385 G2 X68.185 Y36.754 I0. J0.319
N390 G1 Y99.037
N395 G3 X64.425 Y104.677 I-6.11 J0.
N400 G2 X60.665 Y110.317 I2.35 J5.64
N405 G1 Y110.466
N410 G2 X60.984 Y110.785 I0.319 J0.
N415 G1 X294.616
N420 G2 X294.935 Y110.466 I0. J-0.319
N425 G1 Y29.234
N430 G2 X294.616 Y28.915 I-0.319 J0.
N435 G1 X60.984
N440 G2 X60.665 Y29.234 I0. J0.319
N445 G1 Y110.317
N450 G3 X58.845 Y114.243 I-5.144 J0.
N455 G2 X60.334 Y118.305 I1.489 J1.758
N460 G1 X302.136
N465 G2 X302.455 Y117.986 I0. J-0.319
N470 G1 Y21.714
N475 G2 X302.136 Y21.395 I-0.319 J0.
N480 G1 X53.464
N485 G2 X53.145 Y21.714 I0. J0.319
N490 G1 Y117.986
N495 G2 X53.464 Y118.305 I0.319 J0.
N500 G1 X60.334
N505 G3 X65.974 Y122.065 I0. J6.11
N510 G2 X71.614 Y125.825 I5.64 J-2.35
N515 G1 X309.656
N520 G2 X309.975 Y125.506 I0. J-0.319
N525 G1 Y14.194
N530 G2 X309.656 Y13.875 I-0.319 J0.
N535 G1 X45.944
N540 G2 X45.625 Y14.194 I0. J0.319
N545 G1 Y125.506
N550 G2 X45.944 Y125.825 I0.319 J0.
N555 G1 X71.614
N560 G3 X77.258 Y129.587 I0. J6.114
N565 G2 X82.902 Y133.35 I5.644 J-2.352
N570 G1 X317.5
N575 Y6.35
N580 X38.1
N585 Y133.35
N590 X82.902
N595 G2 X83.181 Y133.311 Z-6.318 I-0.032 J-1.238
N600 X83.431 Y133.216 Z-6.224 I-0.311 J-1.199
N605 G1 X83.536 Y133.156 Z-6.149
N610 X83.634 Y133.087 Z-6.073
N615 X83.711 Y133.021 Z-5.972
N620 X83.782 Y132.95 Z-5.872
N625 X83.831 Y132.893 Z-5.751
N630 X83.877 Y132.833 Z-5.631
N635 X83.929 Y132.754 Z-5.363
N640 X83.945 Y132.727 Z-5.08
N645 G0 Z15.
(2D POCKET4)
N650 G0 X255.069 Y70.273
N655 Z15.
N660 Z5.
N665 G1 Z2.5 F333.33
N670 Z-5.08
N675 X255.051 Y70.246 Z-5.363
N680 X254.996 Y70.171 Z-5.631
N685 X254.947 Y70.113 Z-5.751
N690 X254.895 Y70.058 Z-5.872
N695 X254.821 Y69.99 Z-5.972
N700 X254.742 Y69.928 Z-6.073
N705 X254.641 Y69.863 Z-6.149
N710 X254.534 Y69.807 Z-6.224
N715 G2 X254.28 Y69.72 Z-6.318 I-0.534 J1.152
N720 X254. Y69.689 Z-6.35 I-0.28 J1.239
N725 G1 X101.679 F3500.
N730 G2 Y70.011 I0. J0.161
N735 G1 X254.031
N740 X254.071 Y70.005
N745 X254.107 Y69.986
N750 X254.136 Y69.957
N755 X254.155 Y69.921
N760 X254.161 Y69.881
N765 Y69.819
N770 X254.155 Y69.779
N775 X254.136 Y69.743
N780 X254.107 Y69.714
N785 X254.071 Y69.695
N790 X254.031 Y69.689
N795 X254.
N800 G3 X248.987 Y66.347 I0. J-5.431
N805 G2 X243.974 Y63.005 I-5.013 J2.089
N810 G1 X95.074
N815 G2 X94.755 Y63.324 I0. J0.319
N820 G1 Y76.376
N825 G2 X95.074 Y76.695 I0.319 J0.
N830 G1 X260.526
N835 G2 X260.845 Y76.376 I0. J-0.319
N840 G1 Y63.324
N845 G2 X260.526 Y63.005 I-0.319 J0.
N850 G1 X243.974
N855 G3 X238.334 Y59.245 I0. J-6.11
N860 G2 X232.694 Y55.485 I-5.64 J2.35
N865 G1 X87.554
N870 G2 X87.235 Y55.804 I0. J0.319
N875 G1 Y83.896
N880 G2 X87.554 Y84.215 I0.319 J0.
N885 G1 X268.046
N890 G2 X268.365 Y83.896 I0. J-0.319
N895 G1 Y55.804
N900 G2 X268.046 Y55.485 I-0.319 J0.
N905 G1 X232.694
N910 G3 X227.054 Y51.725 I0. J-6.11
N915 G2 X221.414 Y47.965 I-5.64 J2.35
N920 G1 X80.034
N925 G2 X79.715 Y48.284 I0. J0.319
N930 G1 Y91.416
N935 G2 X80.034 Y91.735 I0.319 J0.
N940 G1 X275.566
N945 G2 X275.885 Y91.416 I0. J-0.319
N950 G1 Y48.284
N955 G2 X275.566 Y47.965 I-0.319 J0.
N960 G1 X221.414
N965 G3 X215.774 Y44.205 I0. J-6.11
N970 G2 X210.134 Y40.445 I-5.64 J2.35
N975 G1 X72.514
N980 G2 X72.195 Y40.764 I0. J0.319
N985 G1 Y98.936
N990 G2 X72.514 Y99.255 I0.319 J0.
N995 G1 X283.086
N1000 G2 X283.405 Y98.936 I0. J-0.319
N1005 G1 Y40.764
N1010 G2 X283.086 Y40.445 I-0.319 J0.
N1015 G1 X210.134
N1020 G3 X204.494 Y36.685 I0. J-6.11
N1025 G2 X198.854 Y32.925 I-5.64 J2.35
N1030 G1 X64.994
N1035 G2 X64.675 Y33.244 I0. J0.319
N1040 G1 Y106.456
N1045 G2 X64.994 Y106.775 I0.319 J0.
N1050 G1 X290.606
N1055 G2 X290.925 Y106.456 I0. J-0.319
N1060 G1 Y33.244
N1065 G2 X290.606 Y32.925 I-0.319 J0.
N1070 G1 X198.854
N1075 G3 X193.21 Y29.163 I0. J-6.114
N1080 G2 X187.566 Y25.4 I-5.644 J2.352
N1085 G1 X57.15
N1090 Y114.3
N1095 X298.45
N1100 Y25.4
N1105 X187.566
N1110 G2 X187.287 Y25.439 Z-6.318 I0.032 J1.238
N1115 X187.037 Y25.534 Z-6.224 I0.311 J1.199
N1120 G1 X186.932 Y25.594 Z-6.149
N1125 X186.834 Y25.663 Z-6.073
N1130 X186.757 Y25.729 Z-5.972
N1135 X186.686 Y25.8 Z-5.872
N1140 X186.637 Y25.857 Z-5.751
N1145 X186.591 Y25.917 Z-5.631
N1150 X186.539 Y25.996 Z-5.363
N1155 X186.523 Y26.023 Z-5.08
N1160 G0 Z5.
N1165 X255.069 Y70.273
N1170 G1 Z-3.85 F333.33
N1175 Z-11.43
N1180 X255.051 Y70.246 Z-11.713
N1185 X254.996 Y70.171 Z-11.981
N1190 X254.947 Y70.113 Z-12.101
N1195 X254.895 Y70.058 Z-12.222
N1200 X254.821 Y69.99 Z-12.322
N1205 X254.742 Y69.928 Z-12.423
N1210 X254.641 Y69.863 Z-12.499
N1215 X254.534 Y69.807 Z-12.574
N1220 G2 X254.28 Y69.72 Z-12.668 I-0.534 J1.152
N1225 X254. Y69.689 Z-12.7 I-0.28 J1.239
N1230 G1 X101.679 F3500.
N1235 G2 Y70.011 I0. J0.161
N1240 G1 X254.031
N1245 X254.071 Y70.005
N1250 X254.107 Y69.986
N1255 X254.136 Y69.957
N1260 X254.155 Y69.921
N1265 X254.161 Y69.881
N1270 Y69.819
N1275 X254.155 Y69.779
N1280 X254.136 Y69.743
N1285 X254.107 Y69.714
N1290 X254.071 Y69.695
N1295 X254.031 Y69.689
N1300 X254.
N1305 G3 X248.987 Y66.347 I0. J-5.431
N1310 G2 X243.974 Y63.005 I-5.013 J2.089
N1315 G1 X95.074
N1320 G2 X94.755 Y63.324 I0. J0.319
N1325 G1 Y76.376
N1330 G2 X95.074 Y76.695 I0.319 J0.
N1335 G1 X260.526
N1340 G2 X260.845 Y76.376 I0. J-0.319
N1345 G1 Y63.324
N1350 G2 X260.526 Y63.005 I-0.319 J0.
N1355 G1 X243.974
N1360 G3 X238.334 Y59.245 I0. J-6.11
N1365 G2 X232.694 Y55.485 I-5.64 J2.35
N1370 G1 X87.554
N1375 G2 X87.235 Y55.804 I0. J0.319
N1380 G1 Y83.896
N1385 G2 X87.554 Y84.215 I0.319 J0.
N1390 G1 X268.046
N1395 G2 X268.365 Y83.896 I0. J-0.319
N1400 G1 Y55.804
N1405 G2 X268.046 Y55.485 I-0.319 J0.
N1410 G1 X232.694
N1415 G3 X227.054 Y51.725 I0. J-6.11
N1420 G2 X221.414 Y47.965 I-5.64 J2.35
N1425 G1 X80.034
N1430 G2 X79.715 Y48.284 I0. J0.319
N1435 G1 Y91.416
N1440 G2 X80.034 Y91.735 I0.319 J0.
N1445 G1 X275.566
N1450 G2 X275.885 Y91.416 I0. J-0.319
N1455 G1 Y48.284
N1460 G2 X275.566 Y47.965 I-0.319 J0.
N1465 G1 X221.414
N1470 G3 X215.774 Y44.205 I0. J-6.11
N1475 G2 X210.134 Y40.445 I-5.64 J2.35
N1480 G1 X72.514
N1485 G2 X72.195 Y40.764 I0. J0.319
N1490 G1 Y98.936
N1495 G2 X72.514 Y99.255 I0.319 J0.
N1500 G1 X283.086
N1505 G2 X283.405 Y98.936 I0. J-0.319
N1510 G1 Y40.764
N1515 G2 X283.086 Y40.445 I-0.319 J0.
N1520 G1 X210.134
N1525 G3 X204.494 Y36.685 I0. J-6.11
N1530 G2 X198.854 Y32.925 I-5.64 J2.35
N1535 G1 X64.994
N1540 G2 X64.675 Y33.244 I0. J0.319
N1545 G1 Y106.456
N1550 G2 X64.994 Y106.775 I0.319 J0.
N1555 G1 X290.606
N1560 G2 X290.925 Y106.456 I0. J-0.319
N1565 G1 Y33.244
N1570 G2 X290.606 Y32.925 I-0.319 J0.
N1575 G1 X198.854
N1580 G3 X193.21 Y29.163 I0. J-6.114
N1585 G2 X187.566 Y25.4 I-5.644 J2.352
N1590 G1 X57.15
N1595 Y114.3
N1600 X298.45
N1605 Y25.4
N1610 X187.566
N1615 G2 X187.287 Y25.439 Z-12.668 I0.032 J1.238
N1620 X187.037 Y25.534 Z-12.574 I0.311 J1.199
N1625 G1 X186.932 Y25.594 Z-12.499
N1630 X186.834 Y25.663 Z-12.423
N1635 X186.757 Y25.729 Z-12.322
N1640 X186.686 Y25.8 Z-12.222
N1645 X186.637 Y25.857 Z-12.101
N1650 X186.591 Y25.917 Z-11.981
N1655 X186.539 Y25.996 Z-11.713
N1660 X186.523 Y26.023 Z-11.43
N1665 G0 Z5.
N1670 X255.069 Y70.273
N1675 G1 Z-10.2 F333.33
N1680 Z-17.78
N1685 X255.051 Y70.246 Z-18.063
N1690 X254.996 Y70.171 Z-18.331
N1695 X254.947 Y70.113 Z-18.451
N1700 X254.895 Y70.058 Z-18.572
N1705 X254.821 Y69.99 Z-18.672
N1710 X254.742 Y69.928 Z-18.773
N1715 X254.641 Y69.863 Z-18.849
N1720 X254.534 Y69.807 Z-18.924
N1725 G2 X254.28 Y69.72 Z-19.018 I-0.534 J1.152
N1730 X254. Y69.689 Z-19.05 I-0.28 J1.239
N1735 G1 X101.679 F3500.
N1740 G2 Y70.011 I0. J0.161
N1745 G1 X254.031
N1750 X254.071 Y70.005
N1755 X254.107 Y69.986
N1760 X254.136 Y69.957
N1765 X254.155 Y69.921
N1770 X254.161 Y69.881
N1775 Y69.819
N1780 X254.155 Y69.779
N1785 X254.136 Y69.743
N1790 X254.107 Y69.714
N1795 X254.071 Y69.695
N1800 X254.031 Y69.689
N1805 X254.
N1810 G3 X248.987 Y66.347 I0. J-5.431
N1815 G2 X243.974 Y63.005 I-5.013 J2.089
N1820 G1 X95.074
N1825 G2 X94.755 Y63.324 I0. J0.319
N1830 G1 Y76.376
N1835 G2 X95.074 Y76.695 I0.319 J0.
N1840 G1 X260.526
N1845 G2 X260.845 Y76.376 I0. J-0.319
N1850 G1 Y63.324
N1855 G2 X260.526 Y63.005 I-0.319 J0.
N1860 G1 X243.974
N1865 G3 X238.334 Y59.245 I0. J-6.11
N1870 G2 X232.694 Y55.485 I-5.64 J2.35
N1875 G1 X87.554
N1880 G2 X87.235 Y55.804 I0. J0.319
N1885 G1 Y83.896
N1890 G2 X87.554 Y84.215 I0.319 J0.
N1895 G1 X268.046
N1900 G2 X268.365 Y83.896 I0. J-0.319
N1905 G1 Y55.804
N1910 G2 X268.046 Y55.485 I-0.319 J0.
N1915 G1 X232.694
N1920 G3 X227.054 Y51.725 I0. J-6.11
N1925 G2 X221.414 Y47.965 I-5.64 J2.35
N1930 G1 X80.034
N1935 G2 X79.715 Y48.284 I0. J0.319
N1940 G1 Y91.416
N1945 G2 X80.034 Y91.735 I0.319 J0.
N1950 G1 X275.566
N1955 G2 X275.885 Y91.416 I0. J-0.319
N1960 G1 Y48.284
N1965 G2 X275.566 Y47.965 I-0.319 J0.
N1970 G1 X221.414
N1975 G3 X215.774 Y44.205 I0. J-6.11
N1980 G2 X210.134 Y40.445 I-5.64 J2.35
N1985 G1 X72.514
N1990 G2 X72.195 Y40.764 I0. J0.319
N1995 G1 Y98.936
N2000 G2 X72.514 Y99.255 I0.319 J0.
N2005 G1 X283.086
N2010 G2 X283.405 Y98.936 I0. J-0.319
N2015 G1 Y40.764
N2020 G2 X283.086 Y40.445 I-0.319 J0.
N2025 G1 X210.134
N2030 G3 X204.494 Y36.685 I0. J-6.11
N2035 G2 X198.854 Y32.925 I-5.64 J2.35
N2040 G1 X64.994
N2045 G2 X64.675 Y33.244 I0. J0.319
N2050 G1 Y106.456
N2055 G2 X64.994 Y106.775 I0.319 J0.
N2060 G1 X290.606
N2065 G2 X290.925 Y106.456 I0. J-0.319
N2070 G1 Y33.244
N2075 G2 X290.606 Y32.925 I-0.319 J0.
N2080 G1 X198.854
N2085 G3 X193.21 Y29.163 I0. J-6.114
N2090 G2 X187.566 Y25.4 I-5.644 J2.352
N2095 G1 X57.15
N2100 Y114.3
N2105 X298.45
N2110 Y25.4
N2115 X187.566
N2120 G2 X187.287 Y25.439 Z-19.018 I0.032 J1.238
N2125 X187.037 Y25.534 Z-18.924 I0.311 J1.199
N2130 G1 X186.932 Y25.594 Z-18.849
N2135 X186.834 Y25.663 Z-18.773
N2140 X186.757 Y25.729 Z-18.672
N2145 X186.686 Y25.8 Z-18.572
N2150 X186.637 Y25.857 Z-18.451
N2155 X186.591 Y25.917 Z-18.331
N2160 X186.539 Y25.996 Z-18.063
N2165 X186.523 Y26.023 Z-17.78
N2170 G0 Z15.
N2175 M5
N2180 G53 G0 Z0.
(2D CONTOUR3)
N2185 G53 G0 X-200 Y0
N2190 M0
(MANUAL TOOL CHANGE TO T20)
N2195 S18500 M3
N2200 G17 G90 G94
N2205 G54
N2210 G0 X299.72 Y70.485
N2215 G43 Z15. H20
N2220 G0 Z-1.35
N2225 G1 Z-5.35 F333.33
N2230 Z-12.065
N2235 G18 G2 X300.355 Z-12.7 I0.635 K0. F2500.
N2240 G1 X300.99
N2245 G17 G2 X301.625 Y69.85 I0. J-0.635
N2250 G1 Y22.225 F1000.
N2255 X53.975
N2260 Y117.475
N2265 X301.625
N2270 Y69.85
N2275 G2 X300.99 Y69.215 I-0.635 J0.
N2280 G1 X300.355
N2285 G18 G3 X299.72 Z-12.065 I0. K0.635
N2290 G1 Y70.485
N2295 Z-18.415 F333.33
N2300 G2 X300.355 Z-19.05 I0.635 K0. F2500.
N2305 G1 X300.99
N2310 G17 G2 X301.625 Y69.85 I0. J-0.635
N2315 G1 Y22.225 F1000.
N2320 X53.975
N2325 Y117.475
N2330 X301.625
N2335 Y69.85
N2340 G2 X300.99 Y69.215 I-0.635 J0.
N2345 G1 X300.355
N2350 G18 G3 X299.72 Z-18.415 I0. K0.635
N2355 G0 Z15.
N2360 G17
N2365 G53 G0 Z0.
N2370 G53 G0 X-200 Y-150
N2375 M30
%
