%
(ENGRAVETEMPLATE)
(MACHINE)
(  VENDOR AUTODESK)
(  MODEL GENERIC 3-AXIS ROUTER)
(  DESCRIPTION THIS MACHINE HAS XYZ AXIS ON THE HEAD)
(T20 D=6.35 CR=0. - ZMIN=-19.15 - FLAT END MILL)
(T21 D=12.7 CR=0. - ZMIN=-19.05 - FLAT END MILL)
N10 G90 G94 G17 G91.1
N15 G21
N20 G53 G0 Z0.
(2D POCKET3)
N25 G53 G0 X-200 Y0
N30 T21 M6
(MANUAL TOOL CHANGE TO T21)
N35 S20000 M3
N40 G4 P3.0
N45 G17 G90 G94
N50 G54
N55 G0 X255.069 Y66.999
N60 G43 Z15. H21
N65 G0 Z5.
N70 G1 Z2.5 F333.33
N75 Z-5.18
N80 X255.051 Y66.972 Z-5.463
N85 X254.996 Y66.897 Z-5.731
N90 X254.947 Y66.839 Z-5.851
N95 X254.895 Y66.784 Z-5.972
N100 X254.821 Y66.716 Z-6.072
N105 X254.742 Y66.654 Z-6.173
N110 X254.641 Y66.588 Z-6.249
N115 X254.534 Y66.533 Z-6.324
N120 G2 X254.28 Y66.446 Z-6.418 I-0.534 J1.152
N125 X254. Y66.415 Z-6.45 I-0.28 J1.239
N130 G1 X98.484 F3500.
N135 G2 X98.165 Y66.734 I0. J0.319
N140 G1 Y72.966
N145 G2 X98.484 Y73.285 I0.319 J0.
N150 G1 X257.116
N155 G2 X257.435 Y72.966 I0. J-0.319
N160 G1 Y66.734
N165 G2 X257.116 Y66.415 I-0.319 J0.
N170 G1 X254.
N175 G3 X248.36 Y62.655 I0. J-6.11
N180 G2 X242.72 Y58.895 I-5.64 J2.35
N185 G1 X90.964
N190 G2 X90.645 Y59.214 I0. J0.319
N195 G1 Y80.486
N200 G2 X90.964 Y80.805 I0.319 J0.
N205 G1 X264.636
N210 G2 X264.955 Y80.486 I0. J-0.319
N215 G1 Y59.214
N220 G2 X264.636 Y58.895 I-0.319 J0.
N225 G1 X242.72
N230 G3 X237.08 Y55.135 I0. J-6.11
N235 G2 X231.44 Y51.375 I-5.64 J2.35
N240 G1 X83.444
N245 G2 X83.125 Y51.694 I0. J0.319
N250 G1 Y88.006
N255 G2 X83.444 Y88.325 I0.319 J0.
N260 G1 X272.156
N265 G2 X272.475 Y88.006 I0. J-0.319
N270 G1 Y51.694
N275 G2 X272.156 Y51.375 I-0.319 J0.
N280 G1 X231.44
N285 G3 X225.8 Y47.615 I0. J-6.11
N290 G2 X220.16 Y43.855 I-5.64 J2.35
N295 G1 X75.924
N300 G2 X75.605 Y44.174 I0. J0.319
N305 G1 Y95.526
N310 G2 X75.924 Y95.845 I0.319 J0.
N315 G1 X279.676
N320 G2 X279.995 Y95.526 I0. J-0.319
N325 G1 Y44.174
N330 G2 X279.676 Y43.855 I-0.319 J0.
N335 G1 X220.16
N340 G3 X214.52 Y40.095 I0. J-6.11
N345 G2 X208.88 Y36.335 I-5.64 J2.35
N350 G1 X68.404
N355 G2 X68.085 Y36.654 I0. J0.319
N360 G1 Y103.046
N365 G2 X68.404 Y103.365 I0.319 J0.
N370 G1 X287.196
N375 G2 X287.515 Y103.046 I0. J-0.319
N380 G1 Y36.654
N385 G2 X287.196 Y36.335 I-0.319 J0.
N390 G1 X208.88
N395 G3 X203.24 Y32.575 I0. J-6.11
N400 G2 X197.6 Y28.815 I-5.64 J2.35
N405 G1 X60.884
N410 G2 X60.565 Y29.134 I0. J0.319
N415 G1 Y110.566
N420 G2 X60.884 Y110.885 I0.319 J0.
N425 G1 X294.716
N430 G2 X295.035 Y110.566 I0. J-0.319
N435 G1 Y29.134
N440 G2 X294.716 Y28.815 I-0.319 J0.
N445 G1 X197.6
N450 G3 X191.96 Y25.055 I0. J-6.11
N455 G2 X186.32 Y21.295 I-5.64 J2.35
N460 G1 X53.364
N465 G2 X53.045 Y21.614 I0. J0.319
N470 G1 Y118.086
N475 G2 X53.364 Y118.405 I0.319 J0.
N480 G1 X302.236
N485 G2 X302.555 Y118.086 I0. J-0.319
N490 G1 Y21.614
N495 G2 X302.236 Y21.295 I-0.319 J0.
N500 G1 X186.32
N505 G3 X180.68 Y17.535 I0. J-6.11
N510 G2 X175.04 Y13.775 I-5.64 J2.35
N515 G1 X45.844
N520 G2 X45.525 Y14.094 I0. J0.319
N525 G1 Y125.606
N530 G2 X45.844 Y125.925 I0.319 J0.
N535 G1 X309.756
N540 G2 X310.075 Y125.606 I0. J-0.319
N545 G1 Y14.094
N550 G2 X309.756 Y13.775 I-0.319 J0.
N555 G1 X175.04
N560 G3 X169.396 Y10.012 I0. J-6.114
N565 G2 X163.753 Y6.25 I-5.644 J2.352
N570 G1 X38.1
N575 X38.062 Y6.258
N580 X38.029 Y6.279
N585 X38.008 Y6.312
N590 X38. Y6.35
N595 Y133.35
N600 X38.008 Y133.388
N605 X38.029 Y133.421
N610 X38.062 Y133.442
N615 X38.1 Y133.45
N620 X317.5
N625 X317.538 Y133.442
N630 X317.571 Y133.421
N635 X317.592 Y133.388
N640 X317.6 Y133.35
N645 Y6.35
N650 X317.592 Y6.312
N655 X317.571 Y6.279
N660 X317.538 Y6.258
N665 X317.5 Y6.25
N670 X163.753
N675 G2 X163.473 Y6.289 Z-6.418 I0.032 J1.238
N680 X163.223 Y6.384 Z-6.324 I0.311 J1.199
N685 G1 X163.118 Y6.444 Z-6.249
N690 X163.02 Y6.513 Z-6.173
N695 X162.943 Y6.579 Z-6.072
N700 X162.873 Y6.65 Z-5.972
N705 X162.823 Y6.707 Z-5.851
N710 X162.777 Y6.767 Z-5.731
N715 X162.725 Y6.846 Z-5.463
N720 X162.709 Y6.873 Z-5.18
N725 G0 Z15.
(2D POCKET4)
N730 G0 X255.069 Y70.263
N735 Z15.
N740 Z5.
N745 G1 Z2.5 F333.33
N750 Z-3.493
N755 X255.051 Y70.236 Z-3.775
N760 X254.996 Y70.161 Z-4.044
N765 X254.947 Y70.103 Z-4.164
N770 X254.895 Y70.048 Z-4.284
N775 X254.821 Y69.98 Z-4.385
N780 X254.742 Y69.918 Z-4.485
N785 X254.641 Y69.853 Z-4.561
N790 X254.534 Y69.797 Z-4.637
N795 G2 X254.28 Y69.71 Z-4.731 I-0.534 J1.152
N800 X254. Y69.679 Z-4.762 I-0.28 J1.239
N805 G1 X101.675 F3500.
N810 G2 Y70.021 I0. J0.171
N815 G1 X254.041
N820 X254.081 Y70.015
N825 X254.117 Y69.996
N830 X254.146 Y69.967
N835 X254.164 Y69.931
N840 X254.171 Y69.891
N845 Y69.809
N850 X254.165 Y69.769
N855 X254.146 Y69.733
N860 X254.117 Y69.704
N865 X254.081 Y69.685
N870 X254.041 Y69.679
N875 X254.
N880 G3 X248.919 Y66.292 I0. J-5.504
N885 G2 X243.839 Y62.905 I-5.081 J2.117
N890 G1 X94.974
N895 G2 X94.655 Y63.224 I0. J0.319
N900 G1 Y76.476
N905 G2 X94.974 Y76.795 I0.319 J0.
N910 G1 X260.626
N915 G2 X260.945 Y76.476 I0. J-0.319
N920 G1 Y63.224
N925 G2 X260.626 Y62.905 I-0.319 J0.
N930 G1 X243.839
N935 G3 X238.199 Y59.145 I0. J-6.11
N940 G2 X232.559 Y55.385 I-5.64 J2.35
N945 G1 X87.454
N950 G2 X87.135 Y55.704 I0. J0.319
N955 G1 Y83.996
N960 G2 X87.454 Y84.315 I0.319 J0.
N965 G1 X268.146
N970 G2 X268.465 Y83.996 I0. J-0.319
N975 G1 Y55.704
N980 G2 X268.146 Y55.385 I-0.319 J0.
N985 G1 X232.559
N990 G3 X226.919 Y51.625 I0. J-6.11
N995 G2 X221.279 Y47.865 I-5.64 J2.35
N1000 G1 X79.934
N1005 G2 X79.615 Y48.184 I0. J0.319
N1010 G1 Y91.516
N1015 G2 X79.934 Y91.835 I0.319 J0.
N1020 G1 X275.666
N1025 G2 X275.985 Y91.516 I0. J-0.319
N1030 G1 Y48.184
N1035 G2 X275.666 Y47.865 I-0.319 J0.
N1040 G1 X221.279
N1045 G3 X215.639 Y44.105 I0. J-6.11
N1050 G2 X209.999 Y40.345 I-5.64 J2.35
N1055 G1 X72.414
N1060 G2 X72.095 Y40.664 I0. J0.319
N1065 G1 Y99.036
N1070 G2 X72.414 Y99.355 I0.319 J0.
N1075 G1 X283.186
N1080 G2 X283.505 Y99.036 I0. J-0.319
N1085 G1 Y40.664
N1090 G2 X283.186 Y40.345 I-0.319 J0.
N1095 G1 X209.999
N1100 G3 X204.359 Y36.585 I0. J-6.11
N1105 G2 X198.719 Y32.825 I-5.64 J2.35
N1110 G1 X64.894
N1115 G2 X64.575 Y33.144 I0. J0.319
N1120 G1 Y106.556
N1125 G2 X64.894 Y106.875 I0.319 J0.
N1130 G1 X290.706
N1135 G2 X291.025 Y106.556 I0. J-0.319
N1140 G1 Y33.144
N1145 G2 X290.706 Y32.825 I-0.319 J0.
N1150 G1 X198.719
N1155 G3 X193.075 Y29.063 I0. J-6.114
N1160 G2 X187.431 Y25.3 I-5.644 J2.352
N1165 G1 X57.05
N1170 Y114.4
N1175 X298.55
N1180 Y25.3
N1185 X187.431
N1190 G2 X187.152 Y25.339 Z-4.731 I0.032 J1.238
N1195 X186.902 Y25.434 Z-4.637 I0.311 J1.199
N1200 G1 X186.797 Y25.494 Z-4.561
N1205 X186.699 Y25.563 Z-4.485
N1210 X186.622 Y25.629 Z-4.385
N1215 X186.551 Y25.7 Z-4.284
N1220 X186.502 Y25.757 Z-4.164
N1225 X186.456 Y25.817 Z-4.044
N1230 X186.404 Y25.896 Z-3.775
N1235 X186.388 Y25.923 Z-3.493
N1240 G0 Z5.
N1245 X255.069 Y70.263
N1250 G1 Z-2.263 F333.33
N1255 Z-8.255
N1260 X255.051 Y70.236 Z-8.538
N1265 X254.996 Y70.161 Z-8.806
N1270 X254.947 Y70.103 Z-8.926
N1275 X254.895 Y70.048 Z-9.047
N1280 X254.821 Y69.98 Z-9.147
N1285 X254.742 Y69.918 Z-9.248
N1290 X254.641 Y69.853 Z-9.324
N1295 X254.534 Y69.797 Z-9.399
N1300 G2 X254.28 Y69.71 Z-9.493 I-0.534 J1.152
N1305 X254. Y69.679 Z-9.525 I-0.28 J1.239
N1310 G1 X101.675 F3500.
N1315 G2 Y70.021 I0. J0.171
N1320 G1 X254.041
N1325 X254.081 Y70.015
N1330 X254.117 Y69.996
N1335 X254.146 Y69.967
N1340 X254.164 Y69.931
N1345 X254.171 Y69.891
N1350 Y69.809
N1355 X254.165 Y69.769
N1360 X254.146 Y69.733
N1365 X254.117 Y69.704
N1370 X254.081 Y69.685
N1375 X254.041 Y69.679
N1380 X254.
N1385 G3 X248.919 Y66.292 I0. J-5.504
N1390 G2 X243.839 Y62.905 I-5.081 J2.117
N1395 G1 X94.974
N1400 G2 X94.655 Y63.224 I0. J0.319
N1405 G1 Y76.476
N1410 G2 X94.974 Y76.795 I0.319 J0.
N1415 G1 X260.626
N1420 G2 X260.945 Y76.476 I0. J-0.319
N1425 G1 Y63.224
N1430 G2 X260.626 Y62.905 I-0.319 J0.
N1435 G1 X243.839
N1440 G3 X238.199 Y59.145 I0. J-6.11
N1445 G2 X232.559 Y55.385 I-5.64 J2.35
N1450 G1 X87.454
N1455 G2 X87.135 Y55.704 I0. J0.319
N1460 G1 Y83.996
N1465 G2 X87.454 Y84.315 I0.319 J0.
N1470 G1 X268.146
N1475 G2 X268.465 Y83.996 I0. J-0.319
N1480 G1 Y55.704
N1485 G2 X268.146 Y55.385 I-0.319 J0.
N1490 G1 X232.559
N1495 G3 X226.919 Y51.625 I0. J-6.11
N1500 G2 X221.279 Y47.865 I-5.64 J2.35
N1505 G1 X79.934
N1510 G2 X79.615 Y48.184 I0. J0.319
N1515 G1 Y91.516
N1520 G2 X79.934 Y91.835 I0.319 J0.
N1525 G1 X275.666
N1530 G2 X275.985 Y91.516 I0. J-0.319
N1535 G1 Y48.184
N1540 G2 X275.666 Y47.865 I-0.319 J0.
N1545 G1 X221.279
N1550 G3 X215.639 Y44.105 I0. J-6.11
N1555 G2 X209.999 Y40.345 I-5.64 J2.35
N1560 G1 X72.414
N1565 G2 X72.095 Y40.664 I0. J0.319
N1570 G1 Y99.036
N1575 G2 X72.414 Y99.355 I0.319 J0.
N1580 G1 X283.186
N1585 G2 X283.505 Y99.036 I0. J-0.319
N1590 G1 Y40.664
N1595 G2 X283.186 Y40.345 I-0.319 J0.
N1600 G1 X209.999
N1605 G3 X204.359 Y36.585 I0. J-6.11
N1610 G2 X198.719 Y32.825 I-5.64 J2.35
N1615 G1 X64.894
N1620 G2 X64.575 Y33.144 I0. J0.319
N1625 G1 Y106.556
N1630 G2 X64.894 Y106.875 I0.319 J0.
N1635 G1 X290.706
N1640 G2 X291.025 Y106.556 I0. J-0.319
N1645 G1 Y33.144
N1650 G2 X290.706 Y32.825 I-0.319 J0.
N1655 G1 X198.719
N1660 G3 X193.075 Y29.063 I0. J-6.114
N1665 G2 X187.431 Y25.3 I-5.644 J2.352
N1670 G1 X57.05
N1675 Y114.4
N1680 X298.55
N1685 Y25.3
N1690 X187.431
N1695 G2 X187.152 Y25.339 Z-9.493 I0.032 J1.238
N1700 X186.902 Y25.434 Z-9.399 I0.311 J1.199
N1705 G1 X186.797 Y25.494 Z-9.324
N1710 X186.699 Y25.563 Z-9.248
N1715 X186.622 Y25.629 Z-9.147
N1720 X186.551 Y25.7 Z-9.047
N1725 X186.502 Y25.757 Z-8.926
N1730 X186.456 Y25.817 Z-8.806
N1735 X186.404 Y25.896 Z-8.538
N1740 X186.388 Y25.923 Z-8.255
N1745 G0 Z5.
N1750 X255.069 Y70.263
N1755 G1 Z-7.025 F333.33
N1760 Z-13.018
N1765 X255.051 Y70.236 Z-13.3
N1770 X254.996 Y70.161 Z-13.569
N1775 X254.947 Y70.103 Z-13.689
N1780 X254.895 Y70.048 Z-13.809
N1785 X254.821 Y69.98 Z-13.91
N1790 X254.742 Y69.918 Z-14.01
N1795 X254.641 Y69.853 Z-14.086
N1800 X254.534 Y69.797 Z-14.162
N1805 G2 X254.28 Y69.71 Z-14.256 I-0.534 J1.152
N1810 X254. Y69.679 Z-14.288 I-0.28 J1.239
N1815 G1 X101.675 F3500.
N1820 G2 Y70.021 I0. J0.171
N1825 G1 X254.041
N1830 X254.081 Y70.015
N1835 X254.117 Y69.996
N1840 X254.146 Y69.967
N1845 X254.164 Y69.931
N1850 X254.171 Y69.891
N1855 Y69.809
N1860 X254.165 Y69.769
N1865 X254.146 Y69.733
N1870 X254.117 Y69.704
N1875 X254.081 Y69.685
N1880 X254.041 Y69.679
N1885 X254.
N1890 G3 X248.919 Y66.292 I0. J-5.504
N1895 G2 X243.839 Y62.905 I-5.081 J2.117
N1900 G1 X94.974
N1905 G2 X94.655 Y63.224 I0. J0.319
N1910 G1 Y76.476
N1915 G2 X94.974 Y76.795 I0.319 J0.
N1920 G1 X260.626
N1925 G2 X260.945 Y76.476 I0. J-0.319
N1930 G1 Y63.224
N1935 G2 X260.626 Y62.905 I-0.319 J0.
N1940 G1 X243.839
N1945 G3 X238.199 Y59.145 I0. J-6.11
N1950 G2 X232.559 Y55.385 I-5.64 J2.35
N1955 G1 X87.454
N1960 G2 X87.135 Y55.704 I0. J0.319
N1965 G1 Y83.996
N1970 G2 X87.454 Y84.315 I0.319 J0.
N1975 G1 X268.146
N1980 G2 X268.465 Y83.996 I0. J-0.319
N1985 G1 Y55.704
N1990 G2 X268.146 Y55.385 I-0.319 J0.
N1995 G1 X232.559
N2000 G3 X226.919 Y51.625 I0. J-6.11
N2005 G2 X221.279 Y47.865 I-5.64 J2.35
N2010 G1 X79.934
N2015 G2 X79.615 Y48.184 I0. J0.319
N2020 G1 Y91.516
N2025 G2 X79.934 Y91.835 I0.319 J0.
N2030 G1 X275.666
N2035 G2 X275.985 Y91.516 I0. J-0.319
N2040 G1 Y48.184
N2045 G2 X275.666 Y47.865 I-0.319 J0.
N2050 G1 X221.279
N2055 G3 X215.639 Y44.105 I0. J-6.11
N2060 G2 X209.999 Y40.345 I-5.64 J2.35
N2065 G1 X72.414
N2070 G2 X72.095 Y40.664 I0. J0.319
N2075 G1 Y99.036
N2080 G2 X72.414 Y99.355 I0.319 J0.
N2085 G1 X283.186
N2090 G2 X283.505 Y99.036 I0. J-0.319
N2095 G1 Y40.664
N2100 G2 X283.186 Y40.345 I-0.319 J0.
N2105 G1 X209.999
N2110 G3 X204.359 Y36.585 I0. J-6.11
N2115 G2 X198.719 Y32.825 I-5.64 J2.35
N2120 G1 X64.894
N2125 G2 X64.575 Y33.144 I0. J0.319
N2130 G1 Y106.556
N2135 G2 X64.894 Y106.875 I0.319 J0.
N2140 G1 X290.706
N2145 G2 X291.025 Y106.556 I0. J-0.319
N2150 G1 Y33.144
N2155 G2 X290.706 Y32.825 I-0.319 J0.
N2160 G1 X198.719
N2165 G3 X193.075 Y29.063 I0. J-6.114
N2170 G2 X187.431 Y25.3 I-5.644 J2.352
N2175 G1 X57.05
N2180 Y114.4
N2185 X298.55
N2190 Y25.3
N2195 X187.431
N2200 G2 X187.152 Y25.339 Z-14.256 I0.032 J1.238
N2205 X186.902 Y25.434 Z-14.162 I0.311 J1.199
N2210 G1 X186.797 Y25.494 Z-14.086
N2215 X186.699 Y25.563 Z-14.01
N2220 X186.622 Y25.629 Z-13.91
N2225 X186.551 Y25.7 Z-13.809
N2230 X186.502 Y25.757 Z-13.689
N2235 X186.456 Y25.817 Z-13.569
N2240 X186.404 Y25.896 Z-13.3
N2245 X186.388 Y25.923 Z-13.018
N2250 G0 Z5.
N2255 X255.069 Y70.263
N2260 G1 Z-11.788 F333.33
N2265 Z-17.78
N2270 X255.051 Y70.236 Z-18.063
N2275 X254.996 Y70.161 Z-18.331
N2280 X254.947 Y70.103 Z-18.451
N2285 X254.895 Y70.048 Z-18.572
N2290 X254.821 Y69.98 Z-18.672
N2295 X254.742 Y69.918 Z-18.773
N2300 X254.641 Y69.853 Z-18.849
N2305 X254.534 Y69.797 Z-18.924
N2310 G2 X254.28 Y69.71 Z-19.018 I-0.534 J1.152
N2315 X254. Y69.679 Z-19.05 I-0.28 J1.239
N2320 G1 X101.675 F3500.
N2325 G2 Y70.021 I0. J0.171
N2330 G1 X254.041
N2335 X254.081 Y70.015
N2340 X254.117 Y69.996
N2345 X254.146 Y69.967
N2350 X254.164 Y69.931
N2355 X254.171 Y69.891
N2360 Y69.809
N2365 X254.165 Y69.769
N2370 X254.146 Y69.733
N2375 X254.117 Y69.704
N2380 X254.081 Y69.685
N2385 X254.041 Y69.679
N2390 X254.
N2395 G3 X248.919 Y66.292 I0. J-5.504
N2400 G2 X243.839 Y62.905 I-5.081 J2.117
N2405 G1 X94.974
N2410 G2 X94.655 Y63.224 I0. J0.319
N2415 G1 Y76.476
N2420 G2 X94.974 Y76.795 I0.319 J0.
N2425 G1 X260.626
N2430 G2 X260.945 Y76.476 I0. J-0.319
N2435 G1 Y63.224
N2440 G2 X260.626 Y62.905 I-0.319 J0.
N2445 G1 X243.839
N2450 G3 X238.199 Y59.145 I0. J-6.11
N2455 G2 X232.559 Y55.385 I-5.64 J2.35
N2460 G1 X87.454
N2465 G2 X87.135 Y55.704 I0. J0.319
N2470 G1 Y83.996
N2475 G2 X87.454 Y84.315 I0.319 J0.
N2480 G1 X268.146
N2485 G2 X268.465 Y83.996 I0. J-0.319
N2490 G1 Y55.704
N2495 G2 X268.146 Y55.385 I-0.319 J0.
N2500 G1 X232.559
N2505 G3 X226.919 Y51.625 I0. J-6.11
N2510 G2 X221.279 Y47.865 I-5.64 J2.35
N2515 G1 X79.934
N2520 G2 X79.615 Y48.184 I0. J0.319
N2525 G1 Y91.516
N2530 G2 X79.934 Y91.835 I0.319 J0.
N2535 G1 X275.666
N2540 G2 X275.985 Y91.516 I0. J-0.319
N2545 G1 Y48.184
N2550 G2 X275.666 Y47.865 I-0.319 J0.
N2555 G1 X221.279
N2560 G3 X215.639 Y44.105 I0. J-6.11
N2565 G2 X209.999 Y40.345 I-5.64 J2.35
N2570 G1 X72.414
N2575 G2 X72.095 Y40.664 I0. J0.319
N2580 G1 Y99.036
N2585 G2 X72.414 Y99.355 I0.319 J0.
N2590 G1 X283.186
N2595 G2 X283.505 Y99.036 I0. J-0.319
N2600 G1 Y40.664
N2605 G2 X283.186 Y40.345 I-0.319 J0.
N2610 G1 X209.999
N2615 G3 X204.359 Y36.585 I0. J-6.11
N2620 G2 X198.719 Y32.825 I-5.64 J2.35
N2625 G1 X64.894
N2630 G2 X64.575 Y33.144 I0. J0.319
N2635 G1 Y106.556
N2640 G2 X64.894 Y106.875 I0.319 J0.
N2645 G1 X290.706
N2650 G2 X291.025 Y106.556 I0. J-0.319
N2655 G1 Y33.144
N2660 G2 X290.706 Y32.825 I-0.319 J0.
N2665 G1 X198.719
N2670 G3 X193.075 Y29.063 I0. J-6.114
N2675 G2 X187.431 Y25.3 I-5.644 J2.352
N2680 G1 X57.05
N2685 Y114.4
N2690 X298.55
N2695 Y25.3
N2700 X187.431
N2705 G2 X187.152 Y25.339 Z-19.018 I0.032 J1.238
N2710 X186.902 Y25.434 Z-18.924 I0.311 J1.199
N2715 G1 X186.797 Y25.494 Z-18.849
N2720 X186.699 Y25.563 Z-18.773
N2725 X186.622 Y25.629 Z-18.672
N2730 X186.551 Y25.7 Z-18.572
N2735 X186.502 Y25.757 Z-18.451
N2740 X186.456 Y25.817 Z-18.331
N2745 X186.404 Y25.896 Z-18.063
N2750 X186.388 Y25.923 Z-17.78
N2755 G0 Z15.
N2760 M5
N2765 G53 G0 Z0.
(2D CONTOUR3)
N2770 G53 G0 X-200 Y0
N2775 T20 M6
(MANUAL TOOL CHANGE TO T20)
N2780 S18500 M3
N2785 G17 G90 G94
N2790 G54
N2795 G0 X299.82 Y70.485
N2800 G43 Z15. H20
N2805 G0 Z-1.35
N2810 G1 Z-5.35 F333.33
N2815 Z-12.065
N2820 G18 G2 X300.455 Z-12.7 I0.635 K0. F2500.
N2825 G1 X301.09
N2830 G17 G2 X301.725 Y69.85 I0. J-0.635
N2835 G1 Y22.225 F1000.
N2840 X301.717 Y22.187
N2845 X301.696 Y22.154
N2850 X301.663 Y22.133
N2855 X301.625 Y22.125
N2860 X53.975
N2865 X53.937 Y22.133
N2870 X53.904 Y22.154
N2875 X53.883 Y22.187
N2880 X53.875 Y22.225
N2885 Y117.475
N2890 X53.883 Y117.513
N2895 X53.904 Y117.546
N2900 X53.937 Y117.567
N2905 X53.975 Y117.575
N2910 X301.625
N2915 X301.663 Y117.567
N2920 X301.696 Y117.546
N2925 X301.717 Y117.513
N2930 X301.725 Y117.475
N2935 Y69.85
N2940 G2 X301.09 Y69.215 I-0.635 J0.
N2945 G1 X300.455
N2950 G18 G3 X299.82 Z-12.065 I0. K0.635
N2955 G1 Y70.485
N2960 Z-15.29 F333.33
N2965 G2 X300.455 Z-15.925 I0.635 K0. F2500.
N2970 G1 X301.09
N2975 G17 G2 X301.725 Y69.85 I0. J-0.635
N2980 G1 Y22.225 F1000.
N2985 X301.717 Y22.187
N2990 X301.696 Y22.154
N2995 X301.663 Y22.133
N3000 X301.625 Y22.125
N3005 X53.975
N3010 X53.937 Y22.133
N3015 X53.904 Y22.154
N3020 X53.883 Y22.187
N3025 X53.875 Y22.225
N3030 Y117.475
N3035 X53.883 Y117.513
N3040 X53.904 Y117.546
N3045 X53.937 Y117.567
N3050 X53.975 Y117.575
N3055 X301.625
N3060 X301.663 Y117.567
N3065 X301.696 Y117.546
N3070 X301.717 Y117.513
N3075 X301.725 Y117.475
N3080 Y69.85
N3085 G2 X301.09 Y69.215 I-0.635 J0.
N3090 G1 X300.455
N3095 G18 G3 X299.82 Z-15.29 I0. K0.635
N3100 G1 Y70.485
N3105 Z-18.515 F333.33
N3110 G2 X300.455 Z-19.15 I0.635 K0. F2500.
N3115 G1 X301.09
N3120 G17 G2 X301.725 Y69.85 I0. J-0.635
N3125 G1 Y22.225 F1000.
N3130 X301.717 Y22.187
N3135 X301.696 Y22.154
N3140 X301.663 Y22.133
N3145 X301.625 Y22.125
N3150 X53.975
N3155 X53.937 Y22.133
N3160 X53.904 Y22.154
N3165 X53.883 Y22.187
N3170 X53.875 Y22.225
N3175 Y117.475
N3180 X53.883 Y117.513
N3185 X53.904 Y117.546
N3190 X53.937 Y117.567
N3195 X53.975 Y117.575
N3200 X301.625
N3205 X301.663 Y117.567
N3210 X301.696 Y117.546
N3215 X301.717 Y117.513
N3220 X301.725 Y117.475
N3225 Y69.85
N3230 G2 X301.09 Y69.215 I-0.635 J0.
N3235 G1 X300.455
N3240 G18 G3 X299.82 Z-18.515 I0. K0.635
N3245 G0 Z15.
N3250 G17
N3255 G53 G0 Z0.
N3260 G53 G0 X-200 Y-150
N3265 M30
%
