%
(FLOORVENTDAMPER)
(MACHINE)
(  VENDOR AUTODESK)
(  MODEL GENERIC 3-AXIS ROUTER)
(  DESCRIPTION THIS MACHINE HAS XYZ AXIS ON THE HEAD)
(T20 D=6.35 CR=0. - ZMIN=-19.05 - FLAT END MILL)
(T21 D=12.7 CR=0. - ZMIN=-12.7 - FLAT END MILL)
N10 G90 G94 G17 G91.1
N15 G21
N20 G53 G0 Z0.
(OUTSIDECLEARING)
N25 G53 G0 X-200 Y0
N30 M0
(MANUAL TOOL CHANGE TO T21)
N35 S18500 M3
N40 G4 P3.0
N45 G17 G90 G94
N50 G54
N55 G0 X30.441 Y152.546
N60 G43 Z15. H21
N65 G0 Z5.
N70 Z-1.46
N75 G1 Z-2.73 F4000.
N80 X30.443 Y152.538 Z-2.872
N85 X30.448 Y152.515 Z-3.013
N90 X30.458 Y152.477 Z-3.149
N95 X30.472 Y152.424 Z-3.281
N100 X30.489 Y152.358 Z-3.406
N105 X30.509 Y152.278 Z-3.522
N110 X30.533 Y152.186 Z-3.628
N115 X30.559 Y152.083 Z-3.723
N120 X30.588 Y151.97 Z-3.805
N125 X30.619 Y151.85 Z-3.874
N130 X30.652 Y151.722 Z-3.929
N135 X30.686 Y151.59 Z-3.968
N140 X30.72 Y151.454 Z-3.992
N145 X30.756 Y151.316 Z-4.
N150 G2 X31.75 Y144.402 I-31.409 J-8.045
N155 G1 Y144.079
N160 X31.802 Y143.606
N165 X31.819 Y143.001
N170 X31.764 Y141.942
N175 X31.594 Y140.661
N180 X31.389 Y139.386
N185 X31.203 Y138.107
N190 X31.055 Y136.824
N195 X30.936 Y135.537
N200 X30.842 Y134.248
N205 X30.767 Y132.959
N210 X30.708 Y131.668
N215 X30.661 Y130.377
N220 X30.623 Y129.085
N225 X30.594 Y127.793
N230 X30.57 Y126.502
N235 X30.551 Y125.21
N240 X30.537 Y123.918
N245 X30.525 Y122.626
N250 X30.516 Y121.334
N255 X30.508 Y120.042
N260 X30.502 Y118.75
N265 X30.494 Y116.165
N270 X30.489 Y113.581
N275 X30.484 Y109.705
N280 X30.481 Y103.245
N285 X30.48 Y94.201
N290 Y43.81
N295 Y11.509
N300 X30.504 Y10.217
N305 X30.594 Y8.928
N310 X30.786 Y7.651
N315 X31.111 Y6.4
N320 X31.591 Y5.2
N325 X32.241 Y4.084
N330 X33.065 Y3.089
N335 X34.046 Y2.247
N340 X35.138 Y1.558
N345 X36.302 Y0.997
N350 X37.512 Y0.543
N355 X38.751 Y0.177
N360 X40.009 Y-0.117
N365 X41.28 Y-0.352
N370 X42.558 Y-0.54
N375 X43.841 Y-0.69
N380 X45.128 Y-0.809
N385 X46.416 Y-0.904
N390 X47.706 Y-0.98
N395 X48.997 Y-1.04
N400 X50.288 Y-1.087
N405 X51.58 Y-1.125
N410 X52.871 Y-1.155
N415 X54.163 Y-1.179
N420 X55.455 Y-1.198
N425 X56.747 Y-1.213
N430 X58.039 Y-1.225
N435 X59.331 Y-1.234
N440 X60.623 Y-1.242
N445 X61.915 Y-1.247
N450 X64.499 Y-1.256
N455 X67.083 Y-1.261
N460 X70.959 Y-1.266
N465 X77.42 Y-1.269
N470 X91.632 Y-1.27
N475 X142.022
N480 X192.413
N485 X242.803
N490 X293.193
N495 X312.574
N500 X313.865 Y-1.24
N505 X315.153 Y-1.136
N510 X316.427 Y-0.922
N515 X317.671 Y-0.57
N520 X318.857 Y-0.059
N525 X319.955 Y0.623
N530 X320.923 Y1.479
N535 X321.736 Y2.483
N540 X322.401 Y3.59
N545 X322.941 Y4.764
N550 X323.378 Y5.98
N555 X323.73 Y7.223
N560 X324.012 Y8.484
N565 X324.238 Y9.756
N570 X324.419 Y11.036
N575 X324.563 Y12.32
N580 X324.677 Y13.607
N585 X324.769 Y14.895
N590 X324.841 Y16.185
N595 X324.899 Y17.476
N600 X324.945 Y18.767
N605 X324.981 Y20.059
N610 X325.01 Y21.351
N615 X325.033 Y22.643
N620 X325.051 Y23.934
N625 X325.065 Y25.226
N630 X325.076 Y26.518
N635 X325.086 Y27.81
N640 X325.093 Y29.103
N645 X325.098 Y30.395
N650 X325.106 Y32.979
N655 X325.111 Y35.563
N660 X325.116 Y39.439
N665 X325.119 Y45.899
N670 X325.12 Y65.28
N675 Y73.032
N680 Y123.422
N685 Y127.299
N690 X325.116 Y128.591
N695 X325.083 Y129.882
N700 X324.969 Y131.169
N705 X324.74 Y132.441
N710 X324.369 Y133.679
N715 X323.837 Y134.856
N720 X323.132 Y135.939
N725 X322.255 Y136.888
N730 X321.234 Y137.68
N735 X320.116 Y138.328
N740 X318.936 Y138.854
N745 X317.716 Y139.278
N750 X316.47 Y139.62
N755 X315.207 Y139.895
N760 X313.934 Y140.114
N765 X312.654 Y140.289
N770 X311.37 Y140.429
N775 X310.082 Y140.541
N780 X308.793 Y140.629
N785 X307.503 Y140.7
N790 X306.212 Y140.755
N795 X304.921 Y140.8
N800 X303.629 Y140.835
N805 X302.338 Y140.863
N810 X301.046 Y140.885
N815 X299.754 Y140.903
N820 X298.462 Y140.917
N825 X297.17 Y140.928
N830 X295.878 Y140.937
N835 X294.586 Y140.943
N840 X293.294 Y140.949
N845 X290.71 Y140.957
N850 X288.126 Y140.962
N855 X286.834 Y140.963
N860 X281.665 Y140.967
N865 X271.329 Y140.97
N870 X236.443
N875 X186.053
N880 X135.663
N885 X85.273
N890 X43.927
N895 X43.283 Y140.927
N900 X42.036 Y140.587
N905 X40.933 Y139.915
N910 X39.987 Y139.034
N915 X39.19 Y138.017
N920 X38.526 Y136.909
N925 X37.977 Y135.74
N930 X37.524 Y134.529
N935 X37.153 Y133.292
N940 X36.85 Y132.036
N945 X36.604 Y130.767
N950 X36.403 Y129.491
N955 X36.241 Y128.209
N960 X36.109 Y126.924
N965 X36.002 Y125.636
N970 X35.916 Y124.347
N975 X35.847 Y123.057
N980 X35.791 Y121.766
N985 X35.746 Y120.475
N990 X35.709 Y119.183
N995 X35.68 Y117.891
N1000 X35.656 Y116.6
N1005 X35.637 Y115.308
N1010 X35.622 Y114.016
N1015 X35.61 Y112.724
N1020 X35.6 Y111.432
N1025 X35.592 Y110.14
N1030 X35.586 Y108.848
N1035 X35.581 Y107.556
N1040 X35.573 Y104.972
N1045 X35.567 Y101.095
N1050 X35.563 Y95.927
N1055 X35.56 Y85.591
N1060 Y84.299
N1065 Y33.909
N1070 Y17.112
N1075 X35.563 Y15.82
N1080 X35.579 Y14.528
N1085 X35.644 Y13.237
N1090 X35.857 Y11.963
N1095 X36.332 Y10.761
N1100 X37.033 Y9.676
N1105 X37.905 Y8.723
N1110 X38.901 Y7.9
N1115 X39.987 Y7.2
N1120 X41.137 Y6.61
N1125 X42.33 Y6.115
N1130 X43.555 Y5.703
N1135 X44.801 Y5.361
N1140 X46.062 Y5.079
N1145 X47.333 Y4.846
N1150 X48.61 Y4.655
N1155 X49.893 Y4.498
N1160 X51.179 Y4.37
N1165 X52.466 Y4.265
N1170 X53.756 Y4.179
N1175 X55.046 Y4.11
N1180 X56.337 Y4.053
N1185 X57.628 Y4.007
N1190 X58.919 Y3.969
N1195 X60.211 Y3.939
N1200 X61.503 Y3.914
N1205 X62.795 Y3.894
N1210 X64.087 Y3.878
N1215 X65.379 Y3.865
N1220 X66.671 Y3.854
N1225 X67.963 Y3.846
N1230 X69.255 Y3.839
N1235 X70.547 Y3.833
N1240 X73.131 Y3.825
N1245 X75.715 Y3.82
N1250 X79.591 Y3.815
N1255 X86.051 Y3.812
N1260 X101.556 Y3.81
N1265 X111.893
N1270 X162.283
N1275 X212.673
N1280 X263.063
N1285 X306.993
N1290 X308.285 Y3.813
N1295 X309.577 Y3.836
N1300 X310.866 Y3.917
N1305 X312.131 Y4.181
N1310 X313.313 Y4.704
N1315 X314.372 Y5.443
N1320 X315.3 Y6.343
N1325 X316.097 Y7.359
N1330 X316.774 Y8.46
N1335 X317.345 Y9.619
N1340 X317.822 Y10.819
N1345 X318.22 Y12.049
N1350 X318.549 Y13.298
N1355 X318.821 Y14.561
N1360 X319.045 Y15.834
N1365 X319.229 Y17.113
N1370 X319.379 Y18.396
N1375 X319.503 Y19.682
N1380 X319.603 Y20.97
N1385 X319.686 Y22.26
N1390 X319.752 Y23.55
N1395 X319.807 Y24.841
N1400 X319.851 Y26.132
N1405 X319.887 Y27.424
N1410 X319.916 Y28.716
N1415 X319.94 Y30.007
N1420 X319.959 Y31.299
N1425 X319.975 Y32.591
N1430 X319.987 Y33.883
N1435 X319.997 Y35.175
N1440 X320.006 Y36.467
N1445 X320.012 Y37.759
N1450 X320.018 Y39.051
N1455 X320.025 Y41.635
N1460 X320.031 Y44.22
N1465 X320.035 Y48.096
N1470 X320.038 Y53.264
N1475 X320.04 Y66.185
N1480 Y103.654
N1485 Y123.035
N1490 X320.035 Y124.327
N1495 X320.008 Y125.619
N1500 X319.912 Y126.907
N1505 X319.611 Y128.164
N1510 X319.053 Y129.329
N1515 X318.287 Y130.369
N1520 X317.367 Y131.277
N1525 X316.336 Y132.056
N1530 X315.226 Y132.716
N1535 X314.059 Y133.272
N1540 X312.854 Y133.736
N1545 X311.621 Y134.123
N1550 X310.369 Y134.443
N1555 X309.104 Y134.707
N1560 X307.83 Y134.925
N1565 X306.551 Y135.103
N1570 X305.267 Y135.249
N1575 X303.981 Y135.369
N1580 X302.692 Y135.467
N1585 X301.403 Y135.546
N1590 X300.112 Y135.611
N1595 X298.821 Y135.664
N1600 X297.53 Y135.707
N1605 X296.238 Y135.742
N1610 X294.947 Y135.77
N1615 X293.655 Y135.793
N1620 X292.363 Y135.812
N1625 X291.071 Y135.827
N1630 X289.779 Y135.839
N1635 X288.487 Y135.849
N1640 X287.195 Y135.857
N1645 X285.903 Y135.863
N1650 X284.611 Y135.868
N1655 X282.027 Y135.876
N1660 X278.15 Y135.883
N1665 X272.982 Y135.887
N1670 X263.938 Y135.889
N1675 X245.849 Y135.89
N1680 X195.459
N1685 X145.069
N1690 X94.679
N1695 X50.749
N1700 X49.457 Y135.876
N1705 X48.207 Y135.549
N1710 X47.06 Y134.954
N1715 X46.043 Y134.157
N1720 X45.159 Y133.215
N1725 X44.402 Y132.167
N1730 X43.761 Y131.046
N1735 X43.221 Y129.872
N1740 X42.769 Y128.662
N1745 X42.393 Y127.426
N1750 X42.08 Y126.172
N1755 X41.822 Y124.906
N1760 X41.608 Y123.632
N1765 X41.433 Y122.352
N1770 X41.288 Y121.068
N1775 X41.169 Y119.781
N1780 X41.072 Y118.493
N1785 X40.992 Y117.203
N1790 X40.927 Y115.913
N1795 X40.874 Y114.622
N1800 X40.831 Y113.33
N1805 X40.795 Y112.039
N1810 X40.766 Y110.747
N1815 X40.743 Y109.455
N1820 X40.723 Y108.163
N1825 X40.708 Y106.871
N1830 X40.695 Y105.579
N1835 X40.685 Y104.287
N1840 X40.676 Y102.995
N1845 X40.669 Y101.703
N1850 X40.664 Y100.411
N1855 X40.656 Y97.827
N1860 X40.65 Y95.243
N1865 X40.645 Y91.367
N1870 X40.642 Y84.907
N1875 Y83.615
N1880 X40.64 Y65.526
N1885 Y33.224
N1890 Y21.596
N1895 X40.642 Y20.304
N1900 X40.652 Y19.012
N1905 X40.817 Y17.73
N1910 X41.241 Y16.51
N1915 X41.889 Y15.392
N1920 X42.714 Y14.398
N1925 X43.669 Y13.528
N1930 X44.721 Y12.777
N1935 X45.843 Y12.136
N1940 X47.015 Y11.593
N1945 X48.223 Y11.135
N1950 X49.457 Y10.75
N1955 X50.708 Y10.429
N1960 X51.972 Y10.161
N1965 X53.245 Y9.938
N1970 X54.524 Y9.754
N1975 X55.807 Y9.601
N1980 X57.093 Y9.474
N1985 X58.38 Y9.37
N1990 X59.67 Y9.284
N1995 X60.96 Y9.213
N2000 X62.25 Y9.155
N2005 X63.542 Y9.107
N2010 X64.833 Y9.067
N2015 X66.125 Y9.035
N2020 X67.416 Y9.009
N2025 X68.708 Y8.987
N2030 X70. Y8.969
N2035 X71.292 Y8.955
N2040 X72.584 Y8.943
N2045 X73.876 Y8.933
N2050 X75.168 Y8.925
N2055 X76.46 Y8.919
N2060 X79.044 Y8.909
N2065 X81.629 Y8.903
N2070 X85.505 Y8.897
N2075 X90.673 Y8.893
N2080 X101.009 Y8.891
N2085 X122.974 Y8.89
N2090 X173.364
N2095 X223.755
N2100 X274.145
N2105 X302.57
N2110 X303.862 Y8.893
N2115 X305.154 Y8.908
N2120 X306.425 Y9.14
N2125 X307.623 Y9.624
N2130 X308.711 Y10.32
N2135 X309.675 Y11.181
N2140 X310.515 Y12.162
N2145 X311.238 Y13.233
N2150 X311.854 Y14.369
N2155 X312.375 Y15.551
N2160 X312.815 Y16.766
N2165 X313.183 Y18.005
N2170 X313.49 Y19.26
N2175 X313.747 Y20.526
N2180 X313.96 Y21.801
N2185 X314.136 Y23.08
N2190 X314.282 Y24.364
N2195 X314.403 Y25.651
N2200 X314.503 Y26.939
N2205 X314.585 Y28.228
N2210 X314.652 Y29.519
N2215 X314.708 Y30.809
N2220 X314.754 Y32.101
N2225 X314.791 Y33.392
N2230 X314.822 Y34.684
N2235 X314.847 Y35.976
N2240 X314.868 Y37.268
N2245 X314.885 Y38.559
N2250 X314.898 Y39.851
N2255 X314.91 Y41.143
N2260 X314.919 Y42.435
N2265 X314.927 Y43.728
N2270 X314.933 Y45.02
N2275 X314.942 Y47.604
N2280 X314.948 Y50.188
N2285 X314.954 Y54.064
N2290 X314.957 Y59.232
N2295 X314.959 Y69.569
N2300 X314.96 Y74.737
N2305 Y117.375
N2310 X314.959 Y118.667
N2315 X314.956 Y119.959
N2320 X314.92 Y121.25
N2325 X314.64 Y122.512
N2330 X314.111 Y123.691
N2335 X313.38 Y124.756
N2340 X312.494 Y125.696
N2345 X311.493 Y126.513
N2350 X310.408 Y127.214
N2355 X309.262 Y127.811
N2360 X308.072 Y128.316
N2365 X306.852 Y128.74
N2370 X305.61 Y129.096
N2375 X304.352 Y129.393
N2380 X303.084 Y129.641
N2385 X301.809 Y129.846
N2390 X300.528 Y130.016
N2395 X299.243 Y130.157
N2400 X297.957 Y130.274
N2405 X296.668 Y130.37
N2410 X295.379 Y130.449
N2415 X294.088 Y130.514
N2420 X292.797 Y130.567
N2425 X291.506 Y130.611
N2430 X290.214 Y130.647
N2435 X288.923 Y130.677
N2440 X287.631 Y130.701
N2445 X286.339 Y130.721
N2450 X285.047 Y130.738
N2455 X283.755 Y130.751
N2460 X282.463 Y130.762
N2465 X281.171 Y130.771
N2470 X279.879 Y130.778
N2475 X278.587 Y130.784
N2480 X276.003 Y130.793
N2485 X273.419 Y130.799
N2490 X269.543 Y130.804
N2495 X264.374 Y130.807
N2500 X254.038 Y130.809
N2505 X213.984 Y130.81
N2510 X163.594
N2515 X113.204
N2520 X62.814
N2525 X56.354
N2530 X55.062 Y130.759
N2535 X53.81 Y130.44
N2540 X52.649 Y129.875
N2545 X51.606 Y129.112
N2550 X50.688 Y128.202
N2555 X49.894 Y127.183
N2560 X49.789 Y127.014
N2565 X49.564 Y126.699
N2570 X49.299 Y126.415
N2575 X48.999 Y126.169
N2580 X48.67 Y125.963
N2585 X48.644 Y125.949
N2590 X48.499 Y125.855
N2595 X47.882 Y125.433
N2600 X47.501 Y125.088
N2605 X47.1 Y124.712
N2610 X46.739 Y124.35
N2615 X46.358 Y123.945
N2620 X46.021 Y123.569
N2625 X45.596 Y122.953
N2630 X45.503 Y122.807
N2635 X45.215 Y122.274
N2640 X45.096 Y122.045
N2645 X44.834 Y121.504
N2650 X44.728 Y121.283
N2655 X44.57 Y120.902
N2660 X44.439 Y120.521
N2665 X44.316 Y120.14
N2670 X44.24 Y119.759
N2675 X44.166 Y119.378
N2680 X44.046 Y118.616
N2685 X44.005 Y118.235
N2690 X43.973 Y117.854
N2695 X43.952 Y117.473
N2700 X43.95 Y116.711
N2705 Y22.989
N2710 X43.952 Y22.227
N2715 X43.973 Y21.846
N2720 X44.005 Y21.465
N2725 X44.046 Y21.084
N2730 X44.166 Y20.322
N2735 X44.24 Y19.941
N2740 X44.316 Y19.56
N2745 X44.439 Y19.179
N2750 X44.57 Y18.798
N2755 X44.728 Y18.417
N2760 X44.911 Y18.036
N2765 X45.096 Y17.655
N2770 X45.215 Y17.426
N2775 X45.503 Y16.893
N2780 X45.596 Y16.747
N2785 X46.02 Y16.131
N2790 X46.362 Y15.75
N2795 X46.739 Y15.35
N2800 X47.1 Y14.988
N2805 X47.507 Y14.607
N2810 X47.882 Y14.267
N2815 X48.5 Y13.845
N2820 X48.644 Y13.751
N2825 X49.179 Y13.464
N2830 X49.406 Y13.346
N2835 X49.787 Y13.161
N2840 X50.168 Y12.978
N2845 X50.549 Y12.819
N2850 X50.93 Y12.69
N2855 X51.311 Y12.567
N2860 X51.692 Y12.488
N2865 X52.073 Y12.416
N2870 X52.835 Y12.296
N2875 X53.216 Y12.254
N2880 X53.597 Y12.223
N2885 X53.978 Y12.201
N2890 X55.121 Y12.2
N2895 X300.86
N2900 X301.622 Y12.201
N2905 X302.003 Y12.223
N2910 X302.384 Y12.254
N2915 X302.765 Y12.296
N2920 X303.527 Y12.416
N2925 X303.908 Y12.488
N2930 X304.289 Y12.567
N2935 X304.67 Y12.69
N2940 X305.051 Y12.819
N2945 X305.432 Y12.978
N2950 X305.813 Y13.161
N2955 X306.194 Y13.346
N2960 X306.42 Y13.464
N2965 X306.956 Y13.751
N2970 X307.1 Y13.845
N2975 X307.718 Y14.267
N2980 X308.099 Y14.613
N2985 X308.5 Y14.988
N2990 X308.861 Y15.349
N2995 X309.242 Y15.754
N3000 X309.58 Y16.131
N3005 X310.004 Y16.746
N3010 X310.098 Y16.893
N3015 X310.385 Y17.425
N3020 X310.504 Y17.655
N3025 X310.766 Y18.195
N3030 X310.873 Y18.417
N3035 X311.031 Y18.798
N3040 X311.161 Y19.179
N3045 X311.284 Y19.56
N3050 X311.36 Y19.941
N3055 X311.434 Y20.322
N3060 X311.554 Y21.084
N3065 X311.595 Y21.465
N3070 X311.627 Y21.846
N3075 X311.648 Y22.227
N3080 X311.65 Y22.989
N3085 Y116.711
N3090 X311.648 Y117.473
N3095 X311.627 Y117.854
N3100 X311.595 Y118.235
N3105 X311.554 Y118.616
N3110 X311.434 Y119.378
N3115 X311.36 Y119.759
N3120 X311.284 Y120.14
N3125 X311.161 Y120.521
N3130 X311.031 Y120.902
N3135 X310.873 Y121.283
N3140 X310.689 Y121.664
N3145 X310.504 Y122.045
N3150 X310.385 Y122.274
N3155 X310.098 Y122.807
N3160 X310.004 Y122.954
N3165 X309.58 Y123.569
N3170 X309.238 Y123.95
N3175 X308.861 Y124.351
N3180 X308.5 Y124.712
N3185 X308.093 Y125.093
N3190 X307.718 Y125.433
N3195 X307.101 Y125.855
N3200 X306.956 Y125.949
N3205 X306.421 Y126.236
N3210 X306.194 Y126.355
N3215 X305.813 Y126.54
N3220 X305.432 Y126.722
N3225 X305.051 Y126.882
N3230 X304.67 Y127.011
N3235 X304.289 Y127.134
N3240 X303.908 Y127.212
N3245 X303.527 Y127.284
N3250 X302.765 Y127.404
N3255 X302.384 Y127.446
N3260 X302.003 Y127.477
N3265 X301.622 Y127.499
N3270 X300.479 Y127.5
N3275 X54.74
N3280 X53.978 Y127.499
N3285 X53.597 Y127.477
N3290 X53.216 Y127.446
N3295 X52.835 Y127.404
N3300 X52.073 Y127.284
N3305 X51.692 Y127.212
N3310 X51.311 Y127.134
N3315 X50.93 Y127.011
N3320 X50.549 Y126.882
N3325 X50.168 Y126.722
N3330 X49.787 Y126.54
N3335 X49.406 Y126.355
N3340 X49.179 Y126.236
N3345 X48.67 Y125.963
N3350 X48.567 Y125.928 Z-3.992
N3355 X48.467 Y125.893 Z-3.97
N3360 X48.37 Y125.86 Z-3.933
N3365 X48.275 Y125.85 Z-3.882
N3370 X48.188 Y125.841 Z-3.819
N3375 X48.11 Y125.833 Z-3.744
N3380 X48.049 Y125.838 Z-3.669
N3385 X47.999 Y125.842 Z-3.586
N3390 X47.958 Y125.845 Z-3.498
N3395 X47.929 Y125.848 Z-3.406
N3400 X47.911 Y125.849 Z-3.311
N3405 X47.906 Y125.85 Z-3.215
N3410 G0 Z5.
N3415 X30.441 Y152.546
N3420 Z-5.46
N3425 G1 Z-6.73 F4000.
N3430 X30.443 Y152.538 Z-6.872
N3435 X30.448 Y152.515 Z-7.013
N3440 X30.458 Y152.477 Z-7.149
N3445 X30.472 Y152.424 Z-7.281
N3450 X30.489 Y152.358 Z-7.406
N3455 X30.509 Y152.278 Z-7.522
N3460 X30.533 Y152.186 Z-7.628
N3465 X30.559 Y152.083 Z-7.723
N3470 X30.588 Y151.97 Z-7.805
N3475 X30.619 Y151.85 Z-7.874
N3480 X30.652 Y151.722 Z-7.929
N3485 X30.686 Y151.59 Z-7.968
N3490 X30.72 Y151.454 Z-7.992
N3495 X30.756 Y151.316 Z-8.
N3500 G2 X31.75 Y144.402 I-31.409 J-8.045
N3505 G1 Y144.079
N3510 X31.802 Y143.606
N3515 X31.819 Y143.001
N3520 X31.764 Y141.942
N3525 X31.594 Y140.661
N3530 X31.389 Y139.386
N3535 X31.203 Y138.107
N3540 X31.055 Y136.824
N3545 X30.936 Y135.537
N3550 X30.842 Y134.248
N3555 X30.767 Y132.959
N3560 X30.708 Y131.668
N3565 X30.661 Y130.377
N3570 X30.623 Y129.085
N3575 X30.594 Y127.793
N3580 X30.57 Y126.502
N3585 X30.551 Y125.21
N3590 X30.537 Y123.918
N3595 X30.525 Y122.626
N3600 X30.516 Y121.334
N3605 X30.508 Y120.042
N3610 X30.502 Y118.75
N3615 X30.494 Y116.165
N3620 X30.489 Y113.581
N3625 X30.484 Y109.705
N3630 X30.481 Y103.245
N3635 X30.48 Y94.201
N3640 Y43.81
N3645 Y11.509
N3650 X30.504 Y10.217
N3655 X30.594 Y8.928
N3660 X30.786 Y7.651
N3665 X31.111 Y6.4
N3670 X31.591 Y5.2
N3675 X32.241 Y4.084
N3680 X33.065 Y3.089
N3685 X34.046 Y2.247
N3690 X35.138 Y1.558
N3695 X36.302 Y0.997
N3700 X37.512 Y0.543
N3705 X38.751 Y0.177
N3710 X40.009 Y-0.117
N3715 X41.28 Y-0.352
N3720 X42.558 Y-0.54
N3725 X43.841 Y-0.69
N3730 X45.128 Y-0.809
N3735 X46.416 Y-0.904
N3740 X47.706 Y-0.98
N3745 X48.997 Y-1.04
N3750 X50.288 Y-1.087
N3755 X51.58 Y-1.125
N3760 X52.871 Y-1.155
N3765 X54.163 Y-1.179
N3770 X55.455 Y-1.198
N3775 X56.747 Y-1.213
N3780 X58.039 Y-1.225
N3785 X59.331 Y-1.234
N3790 X60.623 Y-1.242
N3795 X61.915 Y-1.247
N3800 X64.499 Y-1.256
N3805 X67.083 Y-1.261
N3810 X70.959 Y-1.266
N3815 X77.42 Y-1.269
N3820 X91.632 Y-1.27
N3825 X142.022
N3830 X192.413
N3835 X242.803
N3840 X293.193
N3845 X312.574
N3850 X313.865 Y-1.24
N3855 X315.153 Y-1.136
N3860 X316.427 Y-0.922
N3865 X317.671 Y-0.57
N3870 X318.857 Y-0.059
N3875 X319.955 Y0.623
N3880 X320.923 Y1.479
N3885 X321.736 Y2.483
N3890 X322.401 Y3.59
N3895 X322.941 Y4.764
N3900 X323.378 Y5.98
N3905 X323.73 Y7.223
N3910 X324.012 Y8.484
N3915 X324.238 Y9.756
N3920 X324.419 Y11.036
N3925 X324.563 Y12.32
N3930 X324.677 Y13.607
N3935 X324.769 Y14.895
N3940 X324.841 Y16.185
N3945 X324.899 Y17.476
N3950 X324.945 Y18.767
N3955 X324.981 Y20.059
N3960 X325.01 Y21.351
N3965 X325.033 Y22.643
N3970 X325.051 Y23.934
N3975 X325.065 Y25.226
N3980 X325.076 Y26.518
N3985 X325.086 Y27.81
N3990 X325.093 Y29.103
N3995 X325.098 Y30.395
N4000 X325.106 Y32.979
N4005 X325.111 Y35.563
N4010 X325.116 Y39.439
N4015 X325.119 Y45.899
N4020 X325.12 Y65.28
N4025 Y73.032
N4030 Y123.422
N4035 Y127.299
N4040 X325.116 Y128.591
N4045 X325.083 Y129.882
N4050 X324.969 Y131.169
N4055 X324.74 Y132.441
N4060 X324.369 Y133.679
N4065 X323.837 Y134.856
N4070 X323.132 Y135.939
N4075 X322.255 Y136.888
N4080 X321.234 Y137.68
N4085 X320.116 Y138.328
N4090 X318.936 Y138.854
N4095 X317.716 Y139.278
N4100 X316.47 Y139.62
N4105 X315.207 Y139.895
N4110 X313.934 Y140.114
N4115 X312.654 Y140.289
N4120 X311.37 Y140.429
N4125 X310.082 Y140.541
N4130 X308.793 Y140.629
N4135 X307.503 Y140.7
N4140 X306.212 Y140.755
N4145 X304.921 Y140.8
N4150 X303.629 Y140.835
N4155 X302.338 Y140.863
N4160 X301.046 Y140.885
N4165 X299.754 Y140.903
N4170 X298.462 Y140.917
N4175 X297.17 Y140.928
N4180 X295.878 Y140.937
N4185 X294.586 Y140.943
N4190 X293.294 Y140.949
N4195 X290.71 Y140.957
N4200 X288.126 Y140.962
N4205 X286.834 Y140.963
N4210 X281.665 Y140.967
N4215 X271.329 Y140.97
N4220 X236.443
N4225 X186.053
N4230 X135.663
N4235 X85.273
N4240 X43.927
N4245 X43.283 Y140.927
N4250 X42.036 Y140.587
N4255 X40.933 Y139.915
N4260 X39.987 Y139.034
N4265 X39.19 Y138.017
N4270 X38.526 Y136.909
N4275 X37.977 Y135.74
N4280 X37.524 Y134.529
N4285 X37.153 Y133.292
N4290 X36.85 Y132.036
N4295 X36.604 Y130.767
N4300 X36.403 Y129.491
N4305 X36.241 Y128.209
N4310 X36.109 Y126.924
N4315 X36.002 Y125.636
N4320 X35.916 Y124.347
N4325 X35.847 Y123.057
N4330 X35.791 Y121.766
N4335 X35.746 Y120.475
N4340 X35.709 Y119.183
N4345 X35.68 Y117.891
N4350 X35.656 Y116.6
N4355 X35.637 Y115.308
N4360 X35.622 Y114.016
N4365 X35.61 Y112.724
N4370 X35.6 Y111.432
N4375 X35.592 Y110.14
N4380 X35.586 Y108.848
N4385 X35.581 Y107.556
N4390 X35.573 Y104.972
N4395 X35.567 Y101.095
N4400 X35.563 Y95.927
N4405 X35.56 Y85.591
N4410 Y84.299
N4415 Y33.909
N4420 Y17.112
N4425 X35.563 Y15.82
N4430 X35.579 Y14.528
N4435 X35.644 Y13.237
N4440 X35.857 Y11.963
N4445 X36.332 Y10.761
N4450 X37.033 Y9.676
N4455 X37.905 Y8.723
N4460 X38.901 Y7.9
N4465 X39.987 Y7.2
N4470 X41.137 Y6.61
N4475 X42.33 Y6.115
N4480 X43.555 Y5.703
N4485 X44.801 Y5.361
N4490 X46.062 Y5.079
N4495 X47.333 Y4.846
N4500 X48.61 Y4.655
N4505 X49.893 Y4.498
N4510 X51.179 Y4.37
N4515 X52.466 Y4.265
N4520 X53.756 Y4.179
N4525 X55.046 Y4.11
N4530 X56.337 Y4.053
N4535 X57.628 Y4.007
N4540 X58.919 Y3.969
N4545 X60.211 Y3.939
N4550 X61.503 Y3.914
N4555 X62.795 Y3.894
N4560 X64.087 Y3.878
N4565 X65.379 Y3.865
N4570 X66.671 Y3.854
N4575 X67.963 Y3.846
N4580 X69.255 Y3.839
N4585 X70.547 Y3.833
N4590 X73.131 Y3.825
N4595 X75.715 Y3.82
N4600 X79.591 Y3.815
N4605 X86.051 Y3.812
N4610 X101.556 Y3.81
N4615 X111.893
N4620 X162.283
N4625 X212.673
N4630 X263.063
N4635 X306.993
N4640 X308.285 Y3.813
N4645 X309.577 Y3.836
N4650 X310.866 Y3.917
N4655 X312.131 Y4.181
N4660 X313.313 Y4.704
N4665 X314.372 Y5.443
N4670 X315.3 Y6.343
N4675 X316.097 Y7.359
N4680 X316.774 Y8.46
N4685 X317.345 Y9.619
N4690 X317.822 Y10.819
N4695 X318.22 Y12.049
N4700 X318.549 Y13.298
N4705 X318.821 Y14.561
N4710 X319.045 Y15.834
N4715 X319.229 Y17.113
N4720 X319.379 Y18.396
N4725 X319.503 Y19.682
N4730 X319.603 Y20.97
N4735 X319.686 Y22.26
N4740 X319.752 Y23.55
N4745 X319.807 Y24.841
N4750 X319.851 Y26.132
N4755 X319.887 Y27.424
N4760 X319.916 Y28.716
N4765 X319.94 Y30.007
N4770 X319.959 Y31.299
N4775 X319.975 Y32.591
N4780 X319.987 Y33.883
N4785 X319.997 Y35.175
N4790 X320.006 Y36.467
N4795 X320.012 Y37.759
N4800 X320.018 Y39.051
N4805 X320.025 Y41.635
N4810 X320.031 Y44.22
N4815 X320.035 Y48.096
N4820 X320.038 Y53.264
N4825 X320.04 Y66.185
N4830 Y103.654
N4835 Y123.035
N4840 X320.035 Y124.327
N4845 X320.008 Y125.619
N4850 X319.912 Y126.907
N4855 X319.611 Y128.164
N4860 X319.053 Y129.329
N4865 X318.287 Y130.369
N4870 X317.367 Y131.277
N4875 X316.336 Y132.056
N4880 X315.226 Y132.716
N4885 X314.059 Y133.272
N4890 X312.854 Y133.736
N4895 X311.621 Y134.123
N4900 X310.369 Y134.443
N4905 X309.104 Y134.707
N4910 X307.83 Y134.925
N4915 X306.551 Y135.103
N4920 X305.267 Y135.249
N4925 X303.981 Y135.369
N4930 X302.692 Y135.467
N4935 X301.403 Y135.546
N4940 X300.112 Y135.611
N4945 X298.821 Y135.664
N4950 X297.53 Y135.707
N4955 X296.238 Y135.742
N4960 X294.947 Y135.77
N4965 X293.655 Y135.793
N4970 X292.363 Y135.812
N4975 X291.071 Y135.827
N4980 X289.779 Y135.839
N4985 X288.487 Y135.849
N4990 X287.195 Y135.857
N4995 X285.903 Y135.863
N5000 X284.611 Y135.868
N5005 X282.027 Y135.876
N5010 X278.15 Y135.883
N5015 X272.982 Y135.887
N5020 X263.938 Y135.889
N5025 X245.849 Y135.89
N5030 X195.459
N5035 X145.069
N5040 X94.679
N5045 X50.749
N5050 X49.457 Y135.876
N5055 X48.207 Y135.549
N5060 X47.06 Y134.954
N5065 X46.043 Y134.157
N5070 X45.159 Y133.215
N5075 X44.402 Y132.167
N5080 X43.761 Y131.046
N5085 X43.221 Y129.872
N5090 X42.769 Y128.662
N5095 X42.393 Y127.426
N5100 X42.08 Y126.172
N5105 X41.822 Y124.906
N5110 X41.608 Y123.632
N5115 X41.433 Y122.352
N5120 X41.288 Y121.068
N5125 X41.169 Y119.781
N5130 X41.072 Y118.493
N5135 X40.992 Y117.203
N5140 X40.927 Y115.913
N5145 X40.874 Y114.622
N5150 X40.831 Y113.33
N5155 X40.795 Y112.039
N5160 X40.766 Y110.747
N5165 X40.743 Y109.455
N5170 X40.723 Y108.163
N5175 X40.708 Y106.871
N5180 X40.695 Y105.579
N5185 X40.685 Y104.287
N5190 X40.676 Y102.995
N5195 X40.669 Y101.703
N5200 X40.664 Y100.411
N5205 X40.656 Y97.827
N5210 X40.65 Y95.243
N5215 X40.645 Y91.367
N5220 X40.642 Y84.907
N5225 Y83.615
N5230 X40.64 Y65.526
N5235 Y33.224
N5240 Y21.596
N5245 X40.642 Y20.304
N5250 X40.652 Y19.012
N5255 X40.817 Y17.73
N5260 X41.241 Y16.51
N5265 X41.889 Y15.392
N5270 X42.714 Y14.398
N5275 X43.669 Y13.528
N5280 X44.721 Y12.777
N5285 X45.843 Y12.136
N5290 X47.015 Y11.593
N5295 X48.223 Y11.135
N5300 X49.457 Y10.75
N5305 X50.708 Y10.429
N5310 X51.972 Y10.161
N5315 X53.245 Y9.938
N5320 X54.524 Y9.754
N5325 X55.807 Y9.601
N5330 X57.093 Y9.474
N5335 X58.38 Y9.37
N5340 X59.67 Y9.284
N5345 X60.96 Y9.213
N5350 X62.25 Y9.155
N5355 X63.542 Y9.107
N5360 X64.833 Y9.067
N5365 X66.125 Y9.035
N5370 X67.416 Y9.009
N5375 X68.708 Y8.987
N5380 X70. Y8.969
N5385 X71.292 Y8.955
N5390 X72.584 Y8.943
N5395 X73.876 Y8.933
N5400 X75.168 Y8.925
N5405 X76.46 Y8.919
N5410 X79.044 Y8.909
N5415 X81.629 Y8.903
N5420 X85.505 Y8.897
N5425 X90.673 Y8.893
N5430 X101.009 Y8.891
N5435 X122.974 Y8.89
N5440 X173.364
N5445 X223.755
N5450 X274.145
N5455 X302.57
N5460 X303.862 Y8.893
N5465 X305.154 Y8.908
N5470 X306.425 Y9.14
N5475 X307.623 Y9.624
N5480 X308.711 Y10.32
N5485 X309.675 Y11.181
N5490 X310.515 Y12.162
N5495 X311.238 Y13.233
N5500 X311.854 Y14.369
N5505 X312.375 Y15.551
N5510 X312.815 Y16.766
N5515 X313.183 Y18.005
N5520 X313.49 Y19.26
N5525 X313.747 Y20.526
N5530 X313.96 Y21.801
N5535 X314.136 Y23.08
N5540 X314.282 Y24.364
N5545 X314.403 Y25.651
N5550 X314.503 Y26.939
N5555 X314.585 Y28.228
N5560 X314.652 Y29.519
N5565 X314.708 Y30.809
N5570 X314.754 Y32.101
N5575 X314.791 Y33.392
N5580 X314.822 Y34.684
N5585 X314.847 Y35.976
N5590 X314.868 Y37.268
N5595 X314.885 Y38.559
N5600 X314.898 Y39.851
N5605 X314.91 Y41.143
N5610 X314.919 Y42.435
N5615 X314.927 Y43.728
N5620 X314.933 Y45.02
N5625 X314.942 Y47.604
N5630 X314.948 Y50.188
N5635 X314.954 Y54.064
N5640 X314.957 Y59.232
N5645 X314.959 Y69.569
N5650 X314.96 Y74.737
N5655 Y117.375
N5660 X314.959 Y118.667
N5665 X314.956 Y119.959
N5670 X314.92 Y121.25
N5675 X314.64 Y122.512
N5680 X314.111 Y123.691
N5685 X313.38 Y124.756
N5690 X312.494 Y125.696
N5695 X311.493 Y126.513
N5700 X310.408 Y127.214
N5705 X309.262 Y127.811
N5710 X308.072 Y128.316
N5715 X306.852 Y128.74
N5720 X305.61 Y129.096
N5725 X304.352 Y129.393
N5730 X303.084 Y129.641
N5735 X301.809 Y129.846
N5740 X300.528 Y130.016
N5745 X299.243 Y130.157
N5750 X297.957 Y130.274
N5755 X296.668 Y130.37
N5760 X295.379 Y130.449
N5765 X294.088 Y130.514
N5770 X292.797 Y130.567
N5775 X291.506 Y130.611
N5780 X290.214 Y130.647
N5785 X288.923 Y130.677
N5790 X287.631 Y130.701
N5795 X286.339 Y130.721
N5800 X285.047 Y130.738
N5805 X283.755 Y130.751
N5810 X282.463 Y130.762
N5815 X281.171 Y130.771
N5820 X279.879 Y130.778
N5825 X278.587 Y130.784
N5830 X276.003 Y130.793
N5835 X273.419 Y130.799
N5840 X269.543 Y130.804
N5845 X264.374 Y130.807
N5850 X254.038 Y130.809
N5855 X213.984 Y130.81
N5860 X163.594
N5865 X113.204
N5870 X62.814
N5875 X56.354
N5880 X55.062 Y130.759
N5885 X53.81 Y130.44
N5890 X52.649 Y129.875
N5895 X51.606 Y129.112
N5900 X50.688 Y128.202
N5905 X49.894 Y127.183
N5910 X49.789 Y127.014
N5915 X49.564 Y126.699
N5920 X49.299 Y126.415
N5925 X48.999 Y126.169
N5930 X48.67 Y125.963
N5935 X48.644 Y125.949
N5940 X48.499 Y125.855
N5945 X47.882 Y125.433
N5950 X47.501 Y125.088
N5955 X47.1 Y124.712
N5960 X46.739 Y124.35
N5965 X46.358 Y123.945
N5970 X46.021 Y123.569
N5975 X45.596 Y122.953
N5980 X45.503 Y122.807
N5985 X45.215 Y122.274
N5990 X45.096 Y122.045
N5995 X44.834 Y121.504
N6000 X44.728 Y121.283
N6005 X44.57 Y120.902
N6010 X44.439 Y120.521
N6015 X44.316 Y120.14
N6020 X44.24 Y119.759
N6025 X44.166 Y119.378
N6030 X44.046 Y118.616
N6035 X44.005 Y118.235
N6040 X43.973 Y117.854
N6045 X43.952 Y117.473
N6050 X43.95 Y116.711
N6055 Y22.989
N6060 X43.952 Y22.227
N6065 X43.973 Y21.846
N6070 X44.005 Y21.465
N6075 X44.046 Y21.084
N6080 X44.166 Y20.322
N6085 X44.24 Y19.941
N6090 X44.316 Y19.56
N6095 X44.439 Y19.179
N6100 X44.57 Y18.798
N6105 X44.728 Y18.417
N6110 X44.911 Y18.036
N6115 X45.096 Y17.655
N6120 X45.215 Y17.426
N6125 X45.503 Y16.893
N6130 X45.596 Y16.747
N6135 X46.02 Y16.131
N6140 X46.362 Y15.75
N6145 X46.739 Y15.35
N6150 X47.1 Y14.988
N6155 X47.507 Y14.607
N6160 X47.882 Y14.267
N6165 X48.5 Y13.845
N6170 X48.644 Y13.751
N6175 X49.179 Y13.464
N6180 X49.406 Y13.346
N6185 X49.787 Y13.161
N6190 X50.168 Y12.978
N6195 X50.549 Y12.819
N6200 X50.93 Y12.69
N6205 X51.311 Y12.567
N6210 X51.692 Y12.488
N6215 X52.073 Y12.416
N6220 X52.835 Y12.296
N6225 X53.216 Y12.254
N6230 X53.597 Y12.223
N6235 X53.978 Y12.201
N6240 X55.121 Y12.2
N6245 X300.86
N6250 X301.622 Y12.201
N6255 X302.003 Y12.223
N6260 X302.384 Y12.254
N6265 X302.765 Y12.296
N6270 X303.527 Y12.416
N6275 X303.908 Y12.488
N6280 X304.289 Y12.567
N6285 X304.67 Y12.69
N6290 X305.051 Y12.819
N6295 X305.432 Y12.978
N6300 X305.813 Y13.161
N6305 X306.194 Y13.346
N6310 X306.42 Y13.464
N6315 X306.956 Y13.751
N6320 X307.1 Y13.845
N6325 X307.718 Y14.267
N6330 X308.099 Y14.613
N6335 X308.5 Y14.988
N6340 X308.861 Y15.349
N6345 X309.242 Y15.754
N6350 X309.58 Y16.131
N6355 X310.004 Y16.746
N6360 X310.098 Y16.893
N6365 X310.385 Y17.425
N6370 X310.504 Y17.655
N6375 X310.766 Y18.195
N6380 X310.873 Y18.417
N6385 X311.031 Y18.798
N6390 X311.161 Y19.179
N6395 X311.284 Y19.56
N6400 X311.36 Y19.941
N6405 X311.434 Y20.322
N6410 X311.554 Y21.084
N6415 X311.595 Y21.465
N6420 X311.627 Y21.846
N6425 X311.648 Y22.227
N6430 X311.65 Y22.989
N6435 Y116.711
N6440 X311.648 Y117.473
N6445 X311.627 Y117.854
N6450 X311.595 Y118.235
N6455 X311.554 Y118.616
N6460 X311.434 Y119.378
N6465 X311.36 Y119.759
N6470 X311.284 Y120.14
N6475 X311.161 Y120.521
N6480 X311.031 Y120.902
N6485 X310.873 Y121.283
N6490 X310.689 Y121.664
N6495 X310.504 Y122.045
N6500 X310.385 Y122.274
N6505 X310.098 Y122.807
N6510 X310.004 Y122.954
N6515 X309.58 Y123.569
N6520 X309.238 Y123.95
N6525 X308.861 Y124.351
N6530 X308.5 Y124.712
N6535 X308.093 Y125.093
N6540 X307.718 Y125.433
N6545 X307.101 Y125.855
N6550 X306.956 Y125.949
N6555 X306.421 Y126.236
N6560 X306.194 Y126.355
N6565 X305.813 Y126.54
N6570 X305.432 Y126.722
N6575 X305.051 Y126.882
N6580 X304.67 Y127.011
N6585 X304.289 Y127.134
N6590 X303.908 Y127.212
N6595 X303.527 Y127.284
N6600 X302.765 Y127.404
N6605 X302.384 Y127.446
N6610 X302.003 Y127.477
N6615 X301.622 Y127.499
N6620 X300.479 Y127.5
N6625 X54.74
N6630 X53.978 Y127.499
N6635 X53.597 Y127.477
N6640 X53.216 Y127.446
N6645 X52.835 Y127.404
N6650 X52.073 Y127.284
N6655 X51.692 Y127.212
N6660 X51.311 Y127.134
N6665 X50.93 Y127.011
N6670 X50.549 Y126.882
N6675 X50.168 Y126.722
N6680 X49.787 Y126.54
N6685 X49.406 Y126.355
N6690 X49.179 Y126.236
N6695 X48.67 Y125.963
N6700 X48.567 Y125.928 Z-7.992
N6705 X48.467 Y125.893 Z-7.97
N6710 X48.37 Y125.86 Z-7.933
N6715 X48.275 Y125.85 Z-7.882
N6720 X48.188 Y125.841 Z-7.819
N6725 X48.11 Y125.833 Z-7.744
N6730 X48.049 Y125.838 Z-7.669
N6735 X47.999 Y125.842 Z-7.586
N6740 X47.958 Y125.845 Z-7.498
N6745 X47.929 Y125.848 Z-7.406
N6750 X47.911 Y125.849 Z-7.311
N6755 X47.906 Y125.85 Z-7.215
N6760 G0 Z5.
N6765 X30.441 Y152.546
N6770 Z-9.46
N6775 G1 Z-10.73 F4000.
N6780 X30.443 Y152.538 Z-10.872
N6785 X30.448 Y152.515 Z-11.013
N6790 X30.458 Y152.477 Z-11.149
N6795 X30.472 Y152.424 Z-11.281
N6800 X30.489 Y152.358 Z-11.406
N6805 X30.509 Y152.278 Z-11.522
N6810 X30.533 Y152.186 Z-11.628
N6815 X30.559 Y152.083 Z-11.723
N6820 X30.588 Y151.97 Z-11.805
N6825 X30.619 Y151.85 Z-11.874
N6830 X30.652 Y151.722 Z-11.929
N6835 X30.686 Y151.59 Z-11.968
N6840 X30.72 Y151.454 Z-11.992
N6845 X30.756 Y151.316 Z-12.
N6850 G2 X31.75 Y144.402 I-31.409 J-8.045
N6855 G1 Y144.079
N6860 X31.802 Y143.606
N6865 X31.819 Y143.001
N6870 X31.764 Y141.942
N6875 X31.594 Y140.661
N6880 X31.389 Y139.386
N6885 X31.203 Y138.107
N6890 X31.055 Y136.824
N6895 X30.936 Y135.537
N6900 X30.842 Y134.248
N6905 X30.767 Y132.959
N6910 X30.708 Y131.668
N6915 X30.661 Y130.377
N6920 X30.623 Y129.085
N6925 X30.594 Y127.793
N6930 X30.57 Y126.502
N6935 X30.551 Y125.21
N6940 X30.537 Y123.918
N6945 X30.525 Y122.626
N6950 X30.516 Y121.334
N6955 X30.508 Y120.042
N6960 X30.502 Y118.75
N6965 X30.494 Y116.165
N6970 X30.489 Y113.581
N6975 X30.484 Y109.705
N6980 X30.481 Y103.245
N6985 X30.48 Y94.201
N6990 Y43.81
N6995 Y11.509
N7000 X30.504 Y10.217
N7005 X30.594 Y8.928
N7010 X30.786 Y7.651
N7015 X31.111 Y6.4
N7020 X31.591 Y5.2
N7025 X32.241 Y4.084
N7030 X33.065 Y3.089
N7035 X34.046 Y2.247
N7040 X35.138 Y1.558
N7045 X36.302 Y0.997
N7050 X37.512 Y0.543
N7055 X38.751 Y0.177
N7060 X40.009 Y-0.117
N7065 X41.28 Y-0.352
N7070 X42.558 Y-0.54
N7075 X43.841 Y-0.69
N7080 X45.128 Y-0.809
N7085 X46.416 Y-0.904
N7090 X47.706 Y-0.98
N7095 X48.997 Y-1.04
N7100 X50.288 Y-1.087
N7105 X51.58 Y-1.125
N7110 X52.871 Y-1.155
N7115 X54.163 Y-1.179
N7120 X55.455 Y-1.198
N7125 X56.747 Y-1.213
N7130 X58.039 Y-1.225
N7135 X59.331 Y-1.234
N7140 X60.623 Y-1.242
N7145 X61.915 Y-1.247
N7150 X64.499 Y-1.256
N7155 X67.083 Y-1.261
N7160 X70.959 Y-1.266
N7165 X77.42 Y-1.269
N7170 X91.632 Y-1.27
N7175 X142.022
N7180 X192.413
N7185 X242.803
N7190 X293.193
N7195 X312.574
N7200 X313.865 Y-1.24
N7205 X315.153 Y-1.136
N7210 X316.427 Y-0.922
N7215 X317.671 Y-0.57
N7220 X318.857 Y-0.059
N7225 X319.955 Y0.623
N7230 X320.923 Y1.479
N7235 X321.736 Y2.483
N7240 X322.401 Y3.59
N7245 X322.941 Y4.764
N7250 X323.378 Y5.98
N7255 X323.73 Y7.223
N7260 X324.012 Y8.484
N7265 X324.238 Y9.756
N7270 X324.419 Y11.036
N7275 X324.563 Y12.32
N7280 X324.677 Y13.607
N7285 X324.769 Y14.895
N7290 X324.841 Y16.185
N7295 X324.899 Y17.476
N7300 X324.945 Y18.767
N7305 X324.981 Y20.059
N7310 X325.01 Y21.351
N7315 X325.033 Y22.643
N7320 X325.051 Y23.934
N7325 X325.065 Y25.226
N7330 X325.076 Y26.518
N7335 X325.086 Y27.81
N7340 X325.093 Y29.103
N7345 X325.098 Y30.395
N7350 X325.106 Y32.979
N7355 X325.111 Y35.563
N7360 X325.116 Y39.439
N7365 X325.119 Y45.899
N7370 X325.12 Y65.28
N7375 Y73.032
N7380 Y123.422
N7385 Y127.299
N7390 X325.116 Y128.591
N7395 X325.083 Y129.882
N7400 X324.969 Y131.169
N7405 X324.74 Y132.441
N7410 X324.369 Y133.679
N7415 X323.837 Y134.856
N7420 X323.132 Y135.939
N7425 X322.255 Y136.888
N7430 X321.234 Y137.68
N7435 X320.116 Y138.328
N7440 X318.936 Y138.854
N7445 X317.716 Y139.278
N7450 X316.47 Y139.62
N7455 X315.207 Y139.895
N7460 X313.934 Y140.114
N7465 X312.654 Y140.289
N7470 X311.37 Y140.429
N7475 X310.082 Y140.541
N7480 X308.793 Y140.629
N7485 X307.503 Y140.7
N7490 X306.212 Y140.755
N7495 X304.921 Y140.8
N7500 X303.629 Y140.835
N7505 X302.338 Y140.863
N7510 X301.046 Y140.885
N7515 X299.754 Y140.903
N7520 X298.462 Y140.917
N7525 X297.17 Y140.928
N7530 X295.878 Y140.937
N7535 X294.586 Y140.943
N7540 X293.294 Y140.949
N7545 X290.71 Y140.957
N7550 X288.126 Y140.962
N7555 X286.834 Y140.963
N7560 X281.665 Y140.967
N7565 X271.329 Y140.97
N7570 X236.443
N7575 X186.053
N7580 X135.663
N7585 X85.273
N7590 X43.927
N7595 X43.283 Y140.927
N7600 X42.036 Y140.587
N7605 X40.933 Y139.915
N7610 X39.987 Y139.034
N7615 X39.19 Y138.017
N7620 X38.526 Y136.909
N7625 X37.977 Y135.74
N7630 X37.524 Y134.529
N7635 X37.153 Y133.292
N7640 X36.85 Y132.036
N7645 X36.604 Y130.767
N7650 X36.403 Y129.491
N7655 X36.241 Y128.209
N7660 X36.109 Y126.924
N7665 X36.002 Y125.636
N7670 X35.916 Y124.347
N7675 X35.847 Y123.057
N7680 X35.791 Y121.766
N7685 X35.746 Y120.475
N7690 X35.709 Y119.183
N7695 X35.68 Y117.891
N7700 X35.656 Y116.6
N7705 X35.637 Y115.308
N7710 X35.622 Y114.016
N7715 X35.61 Y112.724
N7720 X35.6 Y111.432
N7725 X35.592 Y110.14
N7730 X35.586 Y108.848
N7735 X35.581 Y107.556
N7740 X35.573 Y104.972
N7745 X35.567 Y101.095
N7750 X35.563 Y95.927
N7755 X35.56 Y85.591
N7760 Y84.299
N7765 Y33.909
N7770 Y17.112
N7775 X35.563 Y15.82
N7780 X35.579 Y14.528
N7785 X35.644 Y13.237
N7790 X35.857 Y11.963
N7795 X36.332 Y10.761
N7800 X37.033 Y9.676
N7805 X37.905 Y8.723
N7810 X38.901 Y7.9
N7815 X39.987 Y7.2
N7820 X41.137 Y6.61
N7825 X42.33 Y6.115
N7830 X43.555 Y5.703
N7835 X44.801 Y5.361
N7840 X46.062 Y5.079
N7845 X47.333 Y4.846
N7850 X48.61 Y4.655
N7855 X49.893 Y4.498
N7860 X51.179 Y4.37
N7865 X52.466 Y4.265
N7870 X53.756 Y4.179
N7875 X55.046 Y4.11
N7880 X56.337 Y4.053
N7885 X57.628 Y4.007
N7890 X58.919 Y3.969
N7895 X60.211 Y3.939
N7900 X61.503 Y3.914
N7905 X62.795 Y3.894
N7910 X64.087 Y3.878
N7915 X65.379 Y3.865
N7920 X66.671 Y3.854
N7925 X67.963 Y3.846
N7930 X69.255 Y3.839
N7935 X70.547 Y3.833
N7940 X73.131 Y3.825
N7945 X75.715 Y3.82
N7950 X79.591 Y3.815
N7955 X86.051 Y3.812
N7960 X101.556 Y3.81
N7965 X111.893
N7970 X162.283
N7975 X212.673
N7980 X263.063
N7985 X306.993
N7990 X308.285 Y3.813
N7995 X309.577 Y3.836
N8000 X310.866 Y3.917
N8005 X312.131 Y4.181
N8010 X313.313 Y4.704
N8015 X314.372 Y5.443
N8020 X315.3 Y6.343
N8025 X316.097 Y7.359
N8030 X316.774 Y8.46
N8035 X317.345 Y9.619
N8040 X317.822 Y10.819
N8045 X318.22 Y12.049
N8050 X318.549 Y13.298
N8055 X318.821 Y14.561
N8060 X319.045 Y15.834
N8065 X319.229 Y17.113
N8070 X319.379 Y18.396
N8075 X319.503 Y19.682
N8080 X319.603 Y20.97
N8085 X319.686 Y22.26
N8090 X319.752 Y23.55
N8095 X319.807 Y24.841
N8100 X319.851 Y26.132
N8105 X319.887 Y27.424
N8110 X319.916 Y28.716
N8115 X319.94 Y30.007
N8120 X319.959 Y31.299
N8125 X319.975 Y32.591
N8130 X319.987 Y33.883
N8135 X319.997 Y35.175
N8140 X320.006 Y36.467
N8145 X320.012 Y37.759
N8150 X320.018 Y39.051
N8155 X320.025 Y41.635
N8160 X320.031 Y44.22
N8165 X320.035 Y48.096
N8170 X320.038 Y53.264
N8175 X320.04 Y66.185
N8180 Y103.654
N8185 Y123.035
N8190 X320.035 Y124.327
N8195 X320.008 Y125.619
N8200 X319.912 Y126.907
N8205 X319.611 Y128.164
N8210 X319.053 Y129.329
N8215 X318.287 Y130.369
N8220 X317.367 Y131.277
N8225 X316.336 Y132.056
N8230 X315.226 Y132.716
N8235 X314.059 Y133.272
N8240 X312.854 Y133.736
N8245 X311.621 Y134.123
N8250 X310.369 Y134.443
N8255 X309.104 Y134.707
N8260 X307.83 Y134.925
N8265 X306.551 Y135.103
N8270 X305.267 Y135.249
N8275 X303.981 Y135.369
N8280 X302.692 Y135.467
N8285 X301.403 Y135.546
N8290 X300.112 Y135.611
N8295 X298.821 Y135.664
N8300 X297.53 Y135.707
N8305 X296.238 Y135.742
N8310 X294.947 Y135.77
N8315 X293.655 Y135.793
N8320 X292.363 Y135.812
N8325 X291.071 Y135.827
N8330 X289.779 Y135.839
N8335 X288.487 Y135.849
N8340 X287.195 Y135.857
N8345 X285.903 Y135.863
N8350 X284.611 Y135.868
N8355 X282.027 Y135.876
N8360 X278.15 Y135.883
N8365 X272.982 Y135.887
N8370 X263.938 Y135.889
N8375 X245.849 Y135.89
N8380 X195.459
N8385 X145.069
N8390 X94.679
N8395 X50.749
N8400 X49.457 Y135.876
N8405 X48.207 Y135.549
N8410 X47.06 Y134.954
N8415 X46.043 Y134.157
N8420 X45.159 Y133.215
N8425 X44.402 Y132.167
N8430 X43.761 Y131.046
N8435 X43.221 Y129.872
N8440 X42.769 Y128.662
N8445 X42.393 Y127.426
N8450 X42.08 Y126.172
N8455 X41.822 Y124.906
N8460 X41.608 Y123.632
N8465 X41.433 Y122.352
N8470 X41.288 Y121.068
N8475 X41.169 Y119.781
N8480 X41.072 Y118.493
N8485 X40.992 Y117.203
N8490 X40.927 Y115.913
N8495 X40.874 Y114.622
N8500 X40.831 Y113.33
N8505 X40.795 Y112.039
N8510 X40.766 Y110.747
N8515 X40.743 Y109.455
N8520 X40.723 Y108.163
N8525 X40.708 Y106.871
N8530 X40.695 Y105.579
N8535 X40.685 Y104.287
N8540 X40.676 Y102.995
N8545 X40.669 Y101.703
N8550 X40.664 Y100.411
N8555 X40.656 Y97.827
N8560 X40.65 Y95.243
N8565 X40.645 Y91.367
N8570 X40.642 Y84.907
N8575 Y83.615
N8580 X40.64 Y65.526
N8585 Y33.224
N8590 Y21.596
N8595 X40.642 Y20.304
N8600 X40.652 Y19.012
N8605 X40.817 Y17.73
N8610 X41.241 Y16.51
N8615 X41.889 Y15.392
N8620 X42.714 Y14.398
N8625 X43.669 Y13.528
N8630 X44.721 Y12.777
N8635 X45.843 Y12.136
N8640 X47.015 Y11.593
N8645 X48.223 Y11.135
N8650 X49.457 Y10.75
N8655 X50.708 Y10.429
N8660 X51.972 Y10.161
N8665 X53.245 Y9.938
N8670 X54.524 Y9.754
N8675 X55.807 Y9.601
N8680 X57.093 Y9.474
N8685 X58.38 Y9.37
N8690 X59.67 Y9.284
N8695 X60.96 Y9.213
N8700 X62.25 Y9.155
N8705 X63.542 Y9.107
N8710 X64.833 Y9.067
N8715 X66.125 Y9.035
N8720 X67.416 Y9.009
N8725 X68.708 Y8.987
N8730 X70. Y8.969
N8735 X71.292 Y8.955
N8740 X72.584 Y8.943
N8745 X73.876 Y8.933
N8750 X75.168 Y8.925
N8755 X76.46 Y8.919
N8760 X79.044 Y8.909
N8765 X81.629 Y8.903
N8770 X85.505 Y8.897
N8775 X90.673 Y8.893
N8780 X101.009 Y8.891
N8785 X122.974 Y8.89
N8790 X173.364
N8795 X223.755
N8800 X274.145
N8805 X302.57
N8810 X303.862 Y8.893
N8815 X305.154 Y8.908
N8820 X306.425 Y9.14
N8825 X307.623 Y9.624
N8830 X308.711 Y10.32
N8835 X309.675 Y11.181
N8840 X310.515 Y12.162
N8845 X311.238 Y13.233
N8850 X311.854 Y14.369
N8855 X312.375 Y15.551
N8860 X312.815 Y16.766
N8865 X313.183 Y18.005
N8870 X313.49 Y19.26
N8875 X313.747 Y20.526
N8880 X313.96 Y21.801
N8885 X314.136 Y23.08
N8890 X314.282 Y24.364
N8895 X314.403 Y25.651
N8900 X314.503 Y26.939
N8905 X314.585 Y28.228
N8910 X314.652 Y29.519
N8915 X314.708 Y30.809
N8920 X314.754 Y32.101
N8925 X314.791 Y33.392
N8930 X314.822 Y34.684
N8935 X314.847 Y35.976
N8940 X314.868 Y37.268
N8945 X314.885 Y38.559
N8950 X314.898 Y39.851
N8955 X314.91 Y41.143
N8960 X314.919 Y42.435
N8965 X314.927 Y43.728
N8970 X314.933 Y45.02
N8975 X314.942 Y47.604
N8980 X314.948 Y50.188
N8985 X314.954 Y54.064
N8990 X314.957 Y59.232
N8995 X314.959 Y69.569
N9000 X314.96 Y74.737
N9005 Y117.375
N9010 X314.959 Y118.667
N9015 X314.956 Y119.959
N9020 X314.92 Y121.25
N9025 X314.64 Y122.512
N9030 X314.111 Y123.691
N9035 X313.38 Y124.756
N9040 X312.494 Y125.696
N9045 X311.493 Y126.513
N9050 X310.408 Y127.214
N9055 X309.262 Y127.811
N9060 X308.072 Y128.316
N9065 X306.852 Y128.74
N9070 X305.61 Y129.096
N9075 X304.352 Y129.393
N9080 X303.084 Y129.641
N9085 X301.809 Y129.846
N9090 X300.528 Y130.016
N9095 X299.243 Y130.157
N9100 X297.957 Y130.274
N9105 X296.668 Y130.37
N9110 X295.379 Y130.449
N9115 X294.088 Y130.514
N9120 X292.797 Y130.567
N9125 X291.506 Y130.611
N9130 X290.214 Y130.647
N9135 X288.923 Y130.677
N9140 X287.631 Y130.701
N9145 X286.339 Y130.721
N9150 X285.047 Y130.738
N9155 X283.755 Y130.751
N9160 X282.463 Y130.762
N9165 X281.171 Y130.771
N9170 X279.879 Y130.778
N9175 X278.587 Y130.784
N9180 X276.003 Y130.793
N9185 X273.419 Y130.799
N9190 X269.543 Y130.804
N9195 X264.374 Y130.807
N9200 X254.038 Y130.809
N9205 X213.984 Y130.81
N9210 X163.594
N9215 X113.204
N9220 X62.814
N9225 X56.354
N9230 X55.062 Y130.759
N9235 X53.81 Y130.44
N9240 X52.649 Y129.875
N9245 X51.606 Y129.112
N9250 X50.688 Y128.202
N9255 X49.894 Y127.183
N9260 X49.789 Y127.014
N9265 X49.564 Y126.699
N9270 X49.299 Y126.415
N9275 X48.999 Y126.169
N9280 X48.67 Y125.963
N9285 X48.644 Y125.949
N9290 X48.499 Y125.855
N9295 X47.882 Y125.433
N9300 X47.501 Y125.088
N9305 X47.1 Y124.712
N9310 X46.739 Y124.35
N9315 X46.358 Y123.945
N9320 X46.021 Y123.569
N9325 X45.596 Y122.953
N9330 X45.503 Y122.807
N9335 X45.215 Y122.274
N9340 X45.096 Y122.045
N9345 X44.834 Y121.504
N9350 X44.728 Y121.283
N9355 X44.57 Y120.902
N9360 X44.439 Y120.521
N9365 X44.316 Y120.14
N9370 X44.24 Y119.759
N9375 X44.166 Y119.378
N9380 X44.046 Y118.616
N9385 X44.005 Y118.235
N9390 X43.973 Y117.854
N9395 X43.952 Y117.473
N9400 X43.95 Y116.711
N9405 Y22.989
N9410 X43.952 Y22.227
N9415 X43.973 Y21.846
N9420 X44.005 Y21.465
N9425 X44.046 Y21.084
N9430 X44.166 Y20.322
N9435 X44.24 Y19.941
N9440 X44.316 Y19.56
N9445 X44.439 Y19.179
N9450 X44.57 Y18.798
N9455 X44.728 Y18.417
N9460 X44.911 Y18.036
N9465 X45.096 Y17.655
N9470 X45.215 Y17.426
N9475 X45.503 Y16.893
N9480 X45.596 Y16.747
N9485 X46.02 Y16.131
N9490 X46.362 Y15.75
N9495 X46.739 Y15.35
N9500 X47.1 Y14.988
N9505 X47.507 Y14.607
N9510 X47.882 Y14.267
N9515 X48.5 Y13.845
N9520 X48.644 Y13.751
N9525 X49.179 Y13.464
N9530 X49.406 Y13.346
N9535 X49.787 Y13.161
N9540 X50.168 Y12.978
N9545 X50.549 Y12.819
N9550 X50.93 Y12.69
N9555 X51.311 Y12.567
N9560 X51.692 Y12.488
N9565 X52.073 Y12.416
N9570 X52.835 Y12.296
N9575 X53.216 Y12.254
N9580 X53.597 Y12.223
N9585 X53.978 Y12.201
N9590 X55.121 Y12.2
N9595 X300.86
N9600 X301.622 Y12.201
N9605 X302.003 Y12.223
N9610 X302.384 Y12.254
N9615 X302.765 Y12.296
N9620 X303.527 Y12.416
N9625 X303.908 Y12.488
N9630 X304.289 Y12.567
N9635 X304.67 Y12.69
N9640 X305.051 Y12.819
N9645 X305.432 Y12.978
N9650 X305.813 Y13.161
N9655 X306.194 Y13.346
N9660 X306.42 Y13.464
N9665 X306.956 Y13.751
N9670 X307.1 Y13.845
N9675 X307.718 Y14.267
N9680 X308.099 Y14.613
N9685 X308.5 Y14.988
N9690 X308.861 Y15.349
N9695 X309.242 Y15.754
N9700 X309.58 Y16.131
N9705 X310.004 Y16.746
N9710 X310.098 Y16.893
N9715 X310.385 Y17.425
N9720 X310.504 Y17.655
N9725 X310.766 Y18.195
N9730 X310.873 Y18.417
N9735 X311.031 Y18.798
N9740 X311.161 Y19.179
N9745 X311.284 Y19.56
N9750 X311.36 Y19.941
N9755 X311.434 Y20.322
N9760 X311.554 Y21.084
N9765 X311.595 Y21.465
N9770 X311.627 Y21.846
N9775 X311.648 Y22.227
N9780 X311.65 Y22.989
N9785 Y116.711
N9790 X311.648 Y117.473
N9795 X311.627 Y117.854
N9800 X311.595 Y118.235
N9805 X311.554 Y118.616
N9810 X311.434 Y119.378
N9815 X311.36 Y119.759
N9820 X311.284 Y120.14
N9825 X311.161 Y120.521
N9830 X311.031 Y120.902
N9835 X310.873 Y121.283
N9840 X310.689 Y121.664
N9845 X310.504 Y122.045
N9850 X310.385 Y122.274
N9855 X310.098 Y122.807
N9860 X310.004 Y122.954
N9865 X309.58 Y123.569
N9870 X309.238 Y123.95
N9875 X308.861 Y124.351
N9880 X308.5 Y124.712
N9885 X308.093 Y125.093
N9890 X307.718 Y125.433
N9895 X307.101 Y125.855
N9900 X306.956 Y125.949
N9905 X306.421 Y126.236
N9910 X306.194 Y126.355
N9915 X305.813 Y126.54
N9920 X305.432 Y126.722
N9925 X305.051 Y126.882
N9930 X304.67 Y127.011
N9935 X304.289 Y127.134
N9940 X303.908 Y127.212
N9945 X303.527 Y127.284
N9950 X302.765 Y127.404
N9955 X302.384 Y127.446
N9960 X302.003 Y127.477
N9965 X301.622 Y127.499
N9970 X300.479 Y127.5
N9975 X54.74
N9980 X53.978 Y127.499
N9985 X53.597 Y127.477
N9990 X53.216 Y127.446
N9995 X52.835 Y127.404
N10000 X52.073 Y127.284
N10005 X51.692 Y127.212
N10010 X51.311 Y127.134
N10015 X50.93 Y127.011
N10020 X50.549 Y126.882
N10025 X50.168 Y126.722
N10030 X49.787 Y126.54
N10035 X49.406 Y126.355
N10040 X49.179 Y126.236
N10045 X48.67 Y125.963
N10050 X48.567 Y125.928 Z-11.992
N10055 X48.467 Y125.893 Z-11.97
N10060 X48.37 Y125.86 Z-11.933
N10065 X48.275 Y125.85 Z-11.882
N10070 X48.188 Y125.841 Z-11.819
N10075 X48.11 Y125.833 Z-11.744
N10080 X48.049 Y125.838 Z-11.669
N10085 X47.999 Y125.842 Z-11.586
N10090 X47.958 Y125.845 Z-11.498
N10095 X47.929 Y125.848 Z-11.406
N10100 X47.911 Y125.849 Z-11.311
N10105 X47.906 Y125.85 Z-11.215
N10110 G0 Z5.
N10115 X30.441 Y152.546
N10120 Z-9.66
N10125 G1 Z-10.93 F4000.
N10130 X30.443 Y152.538 Z-11.072
N10135 X30.448 Y152.515 Z-11.213
N10140 X30.458 Y152.477 Z-11.349
N10145 X30.472 Y152.424 Z-11.481
N10150 X30.489 Y152.358 Z-11.606
N10155 X30.509 Y152.278 Z-11.722
N10160 X30.533 Y152.186 Z-11.828
N10165 X30.559 Y152.083 Z-11.923
N10170 X30.588 Y151.97 Z-12.005
N10175 X30.619 Y151.85 Z-12.074
N10180 X30.652 Y151.722 Z-12.129
N10185 X30.686 Y151.59 Z-12.168
N10190 X30.72 Y151.454 Z-12.192
N10195 X30.756 Y151.316 Z-12.2
N10200 G2 X31.75 Y144.402 I-31.409 J-8.045
N10205 G1 Y144.079
N10210 X31.802 Y143.606
N10215 X31.819 Y143.001
N10220 X31.764 Y141.942
N10225 X31.594 Y140.661
N10230 X31.389 Y139.386
N10235 X31.203 Y138.107
N10240 X31.055 Y136.824
N10245 X30.936 Y135.537
N10250 X30.842 Y134.248
N10255 X30.767 Y132.959
N10260 X30.708 Y131.668
N10265 X30.661 Y130.377
N10270 X30.623 Y129.085
N10275 X30.594 Y127.793
N10280 X30.57 Y126.502
N10285 X30.551 Y125.21
N10290 X30.537 Y123.918
N10295 X30.525 Y122.626
N10300 X30.516 Y121.334
N10305 X30.508 Y120.042
N10310 X30.502 Y118.75
N10315 X30.494 Y116.165
N10320 X30.489 Y113.581
N10325 X30.484 Y109.705
N10330 X30.481 Y103.245
N10335 X30.48 Y94.201
N10340 Y43.81
N10345 Y11.509
N10350 X30.504 Y10.217
N10355 X30.594 Y8.928
N10360 X30.786 Y7.651
N10365 X31.111 Y6.4
N10370 X31.591 Y5.2
N10375 X32.241 Y4.084
N10380 X33.065 Y3.089
N10385 X34.046 Y2.247
N10390 X35.138 Y1.558
N10395 X36.302 Y0.997
N10400 X37.512 Y0.543
N10405 X38.751 Y0.177
N10410 X40.009 Y-0.117
N10415 X41.28 Y-0.352
N10420 X42.558 Y-0.54
N10425 X43.841 Y-0.69
N10430 X45.128 Y-0.809
N10435 X46.416 Y-0.904
N10440 X47.706 Y-0.98
N10445 X48.997 Y-1.04
N10450 X50.288 Y-1.087
N10455 X51.58 Y-1.125
N10460 X52.871 Y-1.155
N10465 X54.163 Y-1.179
N10470 X55.455 Y-1.198
N10475 X56.747 Y-1.213
N10480 X58.039 Y-1.225
N10485 X59.331 Y-1.234
N10490 X60.623 Y-1.242
N10495 X61.915 Y-1.247
N10500 X64.499 Y-1.256
N10505 X67.083 Y-1.261
N10510 X70.959 Y-1.266
N10515 X77.42 Y-1.269
N10520 X91.632 Y-1.27
N10525 X142.022
N10530 X192.413
N10535 X242.803
N10540 X293.193
N10545 X312.574
N10550 X313.865 Y-1.24
N10555 X315.153 Y-1.136
N10560 X316.427 Y-0.922
N10565 X317.671 Y-0.57
N10570 X318.857 Y-0.059
N10575 X319.955 Y0.623
N10580 X320.923 Y1.479
N10585 X321.736 Y2.483
N10590 X322.401 Y3.59
N10595 X322.941 Y4.764
N10600 X323.378 Y5.98
N10605 X323.73 Y7.223
N10610 X324.012 Y8.484
N10615 X324.238 Y9.756
N10620 X324.419 Y11.036
N10625 X324.563 Y12.32
N10630 X324.677 Y13.607
N10635 X324.769 Y14.895
N10640 X324.841 Y16.185
N10645 X324.899 Y17.476
N10650 X324.945 Y18.767
N10655 X324.981 Y20.059
N10660 X325.01 Y21.351
N10665 X325.033 Y22.643
N10670 X325.051 Y23.934
N10675 X325.065 Y25.226
N10680 X325.076 Y26.518
N10685 X325.086 Y27.81
N10690 X325.093 Y29.103
N10695 X325.098 Y30.395
N10700 X325.106 Y32.979
N10705 X325.111 Y35.563
N10710 X325.116 Y39.439
N10715 X325.119 Y45.899
N10720 X325.12 Y65.28
N10725 Y73.032
N10730 Y123.422
N10735 Y127.299
N10740 X325.116 Y128.591
N10745 X325.083 Y129.882
N10750 X324.969 Y131.169
N10755 X324.74 Y132.441
N10760 X324.369 Y133.679
N10765 X323.837 Y134.856
N10770 X323.132 Y135.939
N10775 X322.255 Y136.888
N10780 X321.234 Y137.68
N10785 X320.116 Y138.328
N10790 X318.936 Y138.854
N10795 X317.716 Y139.278
N10800 X316.47 Y139.62
N10805 X315.207 Y139.895
N10810 X313.934 Y140.114
N10815 X312.654 Y140.289
N10820 X311.37 Y140.429
N10825 X310.082 Y140.541
N10830 X308.793 Y140.629
N10835 X307.503 Y140.7
N10840 X306.212 Y140.755
N10845 X304.921 Y140.8
N10850 X303.629 Y140.835
N10855 X302.338 Y140.863
N10860 X301.046 Y140.885
N10865 X299.754 Y140.903
N10870 X298.462 Y140.917
N10875 X297.17 Y140.928
N10880 X295.878 Y140.937
N10885 X294.586 Y140.943
N10890 X293.294 Y140.949
N10895 X290.71 Y140.957
N10900 X288.126 Y140.962
N10905 X286.834 Y140.963
N10910 X281.665 Y140.967
N10915 X271.329 Y140.97
N10920 X236.443
N10925 X186.053
N10930 X135.663
N10935 X85.273
N10940 X43.927
N10945 X43.283 Y140.927
N10950 X42.036 Y140.587
N10955 X40.933 Y139.915
N10960 X39.987 Y139.034
N10965 X39.19 Y138.017
N10970 X38.526 Y136.909
N10975 X37.977 Y135.74
N10980 X37.524 Y134.529
N10985 X37.153 Y133.292
N10990 X36.85 Y132.036
N10995 X36.604 Y130.767
N11000 X36.403 Y129.491
N11005 X36.241 Y128.209
N11010 X36.109 Y126.924
N11015 X36.002 Y125.636
N11020 X35.916 Y124.347
N11025 X35.847 Y123.057
N11030 X35.791 Y121.766
N11035 X35.746 Y120.475
N11040 X35.709 Y119.183
N11045 X35.68 Y117.891
N11050 X35.656 Y116.6
N11055 X35.637 Y115.308
N11060 X35.622 Y114.016
N11065 X35.61 Y112.724
N11070 X35.6 Y111.432
N11075 X35.592 Y110.14
N11080 X35.586 Y108.848
N11085 X35.581 Y107.556
N11090 X35.573 Y104.972
N11095 X35.567 Y101.095
N11100 X35.563 Y95.927
N11105 X35.56 Y85.591
N11110 Y84.299
N11115 Y33.909
N11120 Y17.112
N11125 X35.563 Y15.82
N11130 X35.579 Y14.528
N11135 X35.644 Y13.237
N11140 X35.857 Y11.963
N11145 X36.332 Y10.761
N11150 X37.033 Y9.676
N11155 X37.905 Y8.723
N11160 X38.901 Y7.9
N11165 X39.987 Y7.2
N11170 X41.137 Y6.61
N11175 X42.33 Y6.115
N11180 X43.555 Y5.703
N11185 X44.801 Y5.361
N11190 X46.062 Y5.079
N11195 X47.333 Y4.846
N11200 X48.61 Y4.655
N11205 X49.893 Y4.498
N11210 X51.179 Y4.37
N11215 X52.466 Y4.265
N11220 X53.756 Y4.179
N11225 X55.046 Y4.11
N11230 X56.337 Y4.053
N11235 X57.628 Y4.007
N11240 X58.919 Y3.969
N11245 X60.211 Y3.939
N11250 X61.503 Y3.914
N11255 X62.795 Y3.894
N11260 X64.087 Y3.878
N11265 X65.379 Y3.865
N11270 X66.671 Y3.854
N11275 X67.963 Y3.846
N11280 X69.255 Y3.839
N11285 X70.547 Y3.833
N11290 X73.131 Y3.825
N11295 X75.715 Y3.82
N11300 X79.591 Y3.815
N11305 X86.051 Y3.812
N11310 X101.556 Y3.81
N11315 X111.893
N11320 X162.283
N11325 X212.673
N11330 X263.063
N11335 X306.993
N11340 X308.285 Y3.813
N11345 X309.577 Y3.836
N11350 X310.866 Y3.917
N11355 X312.131 Y4.181
N11360 X313.313 Y4.704
N11365 X314.372 Y5.443
N11370 X315.3 Y6.343
N11375 X316.097 Y7.359
N11380 X316.774 Y8.46
N11385 X317.345 Y9.619
N11390 X317.822 Y10.819
N11395 X318.22 Y12.049
N11400 X318.549 Y13.298
N11405 X318.821 Y14.561
N11410 X319.045 Y15.834
N11415 X319.229 Y17.113
N11420 X319.379 Y18.396
N11425 X319.503 Y19.682
N11430 X319.603 Y20.97
N11435 X319.686 Y22.26
N11440 X319.752 Y23.55
N11445 X319.807 Y24.841
N11450 X319.851 Y26.132
N11455 X319.887 Y27.424
N11460 X319.916 Y28.716
N11465 X319.94 Y30.007
N11470 X319.959 Y31.299
N11475 X319.975 Y32.591
N11480 X319.987 Y33.883
N11485 X319.997 Y35.175
N11490 X320.006 Y36.467
N11495 X320.012 Y37.759
N11500 X320.018 Y39.051
N11505 X320.025 Y41.635
N11510 X320.031 Y44.22
N11515 X320.035 Y48.096
N11520 X320.038 Y53.264
N11525 X320.04 Y66.185
N11530 Y103.654
N11535 Y123.035
N11540 X320.035 Y124.327
N11545 X320.008 Y125.619
N11550 X319.912 Y126.907
N11555 X319.611 Y128.164
N11560 X319.053 Y129.329
N11565 X318.287 Y130.369
N11570 X317.367 Y131.277
N11575 X316.336 Y132.056
N11580 X315.226 Y132.716
N11585 X314.059 Y133.272
N11590 X312.854 Y133.736
N11595 X311.621 Y134.123
N11600 X310.369 Y134.443
N11605 X309.104 Y134.707
N11610 X307.83 Y134.925
N11615 X306.551 Y135.103
N11620 X305.267 Y135.249
N11625 X303.981 Y135.369
N11630 X302.692 Y135.467
N11635 X301.403 Y135.546
N11640 X300.112 Y135.611
N11645 X298.821 Y135.664
N11650 X297.53 Y135.707
N11655 X296.238 Y135.742
N11660 X294.947 Y135.77
N11665 X293.655 Y135.793
N11670 X292.363 Y135.812
N11675 X291.071 Y135.827
N11680 X289.779 Y135.839
N11685 X288.487 Y135.849
N11690 X287.195 Y135.857
N11695 X285.903 Y135.863
N11700 X284.611 Y135.868
N11705 X282.027 Y135.876
N11710 X278.15 Y135.883
N11715 X272.982 Y135.887
N11720 X263.938 Y135.889
N11725 X245.849 Y135.89
N11730 X195.459
N11735 X145.069
N11740 X94.679
N11745 X50.749
N11750 X49.457 Y135.876
N11755 X48.207 Y135.549
N11760 X47.06 Y134.954
N11765 X46.043 Y134.157
N11770 X45.159 Y133.215
N11775 X44.402 Y132.167
N11780 X43.761 Y131.046
N11785 X43.221 Y129.872
N11790 X42.769 Y128.662
N11795 X42.393 Y127.426
N11800 X42.08 Y126.172
N11805 X41.822 Y124.906
N11810 X41.608 Y123.632
N11815 X41.433 Y122.352
N11820 X41.288 Y121.068
N11825 X41.169 Y119.781
N11830 X41.072 Y118.493
N11835 X40.992 Y117.203
N11840 X40.927 Y115.913
N11845 X40.874 Y114.622
N11850 X40.831 Y113.33
N11855 X40.795 Y112.039
N11860 X40.766 Y110.747
N11865 X40.743 Y109.455
N11870 X40.723 Y108.163
N11875 X40.708 Y106.871
N11880 X40.695 Y105.579
N11885 X40.685 Y104.287
N11890 X40.676 Y102.995
N11895 X40.669 Y101.703
N11900 X40.664 Y100.411
N11905 X40.656 Y97.827
N11910 X40.65 Y95.243
N11915 X40.645 Y91.367
N11920 X40.642 Y84.907
N11925 Y83.615
N11930 X40.64 Y65.526
N11935 Y33.224
N11940 Y21.596
N11945 X40.642 Y20.304
N11950 X40.652 Y19.012
N11955 X40.817 Y17.73
N11960 X41.241 Y16.51
N11965 X41.889 Y15.392
N11970 X42.714 Y14.398
N11975 X43.669 Y13.528
N11980 X44.721 Y12.777
N11985 X45.843 Y12.136
N11990 X47.015 Y11.593
N11995 X48.223 Y11.135
N12000 X49.457 Y10.75
N12005 X50.708 Y10.429
N12010 X51.972 Y10.161
N12015 X53.245 Y9.938
N12020 X54.524 Y9.754
N12025 X55.807 Y9.601
N12030 X57.093 Y9.474
N12035 X58.38 Y9.37
N12040 X59.67 Y9.284
N12045 X60.96 Y9.213
N12050 X62.25 Y9.155
N12055 X63.542 Y9.107
N12060 X64.833 Y9.067
N12065 X66.125 Y9.035
N12070 X67.416 Y9.009
N12075 X68.708 Y8.987
N12080 X70. Y8.969
N12085 X71.292 Y8.955
N12090 X72.584 Y8.943
N12095 X73.876 Y8.933
N12100 X75.168 Y8.925
N12105 X76.46 Y8.919
N12110 X79.044 Y8.909
N12115 X81.629 Y8.903
N12120 X85.505 Y8.897
N12125 X90.673 Y8.893
N12130 X101.009 Y8.891
N12135 X122.974 Y8.89
N12140 X173.364
N12145 X223.755
N12150 X274.145
N12155 X302.57
N12160 X303.862 Y8.893
N12165 X305.154 Y8.908
N12170 X306.425 Y9.14
N12175 X307.623 Y9.624
N12180 X308.711 Y10.32
N12185 X309.675 Y11.181
N12190 X310.515 Y12.162
N12195 X311.238 Y13.233
N12200 X311.854 Y14.369
N12205 X312.375 Y15.551
N12210 X312.815 Y16.766
N12215 X313.183 Y18.005
N12220 X313.49 Y19.26
N12225 X313.747 Y20.526
N12230 X313.96 Y21.801
N12235 X314.136 Y23.08
N12240 X314.282 Y24.364
N12245 X314.403 Y25.651
N12250 X314.503 Y26.939
N12255 X314.585 Y28.228
N12260 X314.652 Y29.519
N12265 X314.708 Y30.809
N12270 X314.754 Y32.101
N12275 X314.791 Y33.392
N12280 X314.822 Y34.684
N12285 X314.847 Y35.976
N12290 X314.868 Y37.268
N12295 X314.885 Y38.559
N12300 X314.898 Y39.851
N12305 X314.91 Y41.143
N12310 X314.919 Y42.435
N12315 X314.927 Y43.728
N12320 X314.933 Y45.02
N12325 X314.942 Y47.604
N12330 X314.948 Y50.188
N12335 X314.954 Y54.064
N12340 X314.957 Y59.232
N12345 X314.959 Y69.569
N12350 X314.96 Y74.737
N12355 Y117.375
N12360 X314.959 Y118.667
N12365 X314.956 Y119.959
N12370 X314.92 Y121.25
N12375 X314.64 Y122.512
N12380 X314.111 Y123.691
N12385 X313.38 Y124.756
N12390 X312.494 Y125.696
N12395 X311.493 Y126.513
N12400 X310.408 Y127.214
N12405 X309.262 Y127.811
N12410 X308.072 Y128.316
N12415 X306.852 Y128.74
N12420 X305.61 Y129.096
N12425 X304.352 Y129.393
N12430 X303.084 Y129.641
N12435 X301.809 Y129.846
N12440 X300.528 Y130.016
N12445 X299.243 Y130.157
N12450 X297.957 Y130.274
N12455 X296.668 Y130.37
N12460 X295.379 Y130.449
N12465 X294.088 Y130.514
N12470 X292.797 Y130.567
N12475 X291.506 Y130.611
N12480 X290.214 Y130.647
N12485 X288.923 Y130.677
N12490 X287.631 Y130.701
N12495 X286.339 Y130.721
N12500 X285.047 Y130.738
N12505 X283.755 Y130.751
N12510 X282.463 Y130.762
N12515 X281.171 Y130.771
N12520 X279.879 Y130.778
N12525 X278.587 Y130.784
N12530 X276.003 Y130.793
N12535 X273.419 Y130.799
N12540 X269.543 Y130.804
N12545 X264.374 Y130.807
N12550 X254.038 Y130.809
N12555 X213.984 Y130.81
N12560 X163.594
N12565 X113.204
N12570 X62.814
N12575 X56.354
N12580 X55.062 Y130.759
N12585 X53.81 Y130.44
N12590 X52.649 Y129.875
N12595 X51.606 Y129.112
N12600 X50.688 Y128.202
N12605 X49.894 Y127.183
N12610 X49.789 Y127.014
N12615 X49.564 Y126.699
N12620 X49.299 Y126.415
N12625 X48.999 Y126.169
N12630 X48.67 Y125.963
N12635 X48.644 Y125.949
N12640 X48.499 Y125.855
N12645 X47.882 Y125.433
N12650 X47.501 Y125.088
N12655 X47.1 Y124.712
N12660 X46.739 Y124.35
N12665 X46.358 Y123.945
N12670 X46.021 Y123.569
N12675 X45.596 Y122.953
N12680 X45.503 Y122.807
N12685 X45.215 Y122.274
N12690 X45.096 Y122.045
N12695 X44.834 Y121.504
N12700 X44.728 Y121.283
N12705 X44.57 Y120.902
N12710 X44.439 Y120.521
N12715 X44.316 Y120.14
N12720 X44.24 Y119.759
N12725 X44.166 Y119.378
N12730 X44.046 Y118.616
N12735 X44.005 Y118.235
N12740 X43.973 Y117.854
N12745 X43.952 Y117.473
N12750 X43.95 Y116.711
N12755 Y22.989
N12760 X43.952 Y22.227
N12765 X43.973 Y21.846
N12770 X44.005 Y21.465
N12775 X44.046 Y21.084
N12780 X44.166 Y20.322
N12785 X44.24 Y19.941
N12790 X44.316 Y19.56
N12795 X44.439 Y19.179
N12800 X44.57 Y18.798
N12805 X44.728 Y18.417
N12810 X44.911 Y18.036
N12815 X45.096 Y17.655
N12820 X45.215 Y17.426
N12825 X45.503 Y16.893
N12830 X45.596 Y16.747
N12835 X46.02 Y16.131
N12840 X46.362 Y15.75
N12845 X46.739 Y15.35
N12850 X47.1 Y14.988
N12855 X47.507 Y14.607
N12860 X47.882 Y14.267
N12865 X48.5 Y13.845
N12870 X48.644 Y13.751
N12875 X49.179 Y13.464
N12880 X49.406 Y13.346
N12885 X49.787 Y13.161
N12890 X50.168 Y12.978
N12895 X50.549 Y12.819
N12900 X50.93 Y12.69
N12905 X51.311 Y12.567
N12910 X51.692 Y12.488
N12915 X52.073 Y12.416
N12920 X52.835 Y12.296
N12925 X53.216 Y12.254
N12930 X53.597 Y12.223
N12935 X53.978 Y12.201
N12940 X55.121 Y12.2
N12945 X300.86
N12950 X301.622 Y12.201
N12955 X302.003 Y12.223
N12960 X302.384 Y12.254
N12965 X302.765 Y12.296
N12970 X303.527 Y12.416
N12975 X303.908 Y12.488
N12980 X304.289 Y12.567
N12985 X304.67 Y12.69
N12990 X305.051 Y12.819
N12995 X305.432 Y12.978
N13000 X305.813 Y13.161
N13005 X306.194 Y13.346
N13010 X306.42 Y13.464
N13015 X306.956 Y13.751
N13020 X307.1 Y13.845
N13025 X307.718 Y14.267
N13030 X308.099 Y14.613
N13035 X308.5 Y14.988
N13040 X308.861 Y15.349
N13045 X309.242 Y15.754
N13050 X309.58 Y16.131
N13055 X310.004 Y16.746
N13060 X310.098 Y16.893
N13065 X310.385 Y17.425
N13070 X310.504 Y17.655
N13075 X310.766 Y18.195
N13080 X310.873 Y18.417
N13085 X311.031 Y18.798
N13090 X311.161 Y19.179
N13095 X311.284 Y19.56
N13100 X311.36 Y19.941
N13105 X311.434 Y20.322
N13110 X311.554 Y21.084
N13115 X311.595 Y21.465
N13120 X311.627 Y21.846
N13125 X311.648 Y22.227
N13130 X311.65 Y22.989
N13135 Y116.711
N13140 X311.648 Y117.473
N13145 X311.627 Y117.854
N13150 X311.595 Y118.235
N13155 X311.554 Y118.616
N13160 X311.434 Y119.378
N13165 X311.36 Y119.759
N13170 X311.284 Y120.14
N13175 X311.161 Y120.521
N13180 X311.031 Y120.902
N13185 X310.873 Y121.283
N13190 X310.689 Y121.664
N13195 X310.504 Y122.045
N13200 X310.385 Y122.274
N13205 X310.098 Y122.807
N13210 X310.004 Y122.954
N13215 X309.58 Y123.569
N13220 X309.238 Y123.95
N13225 X308.861 Y124.351
N13230 X308.5 Y124.712
N13235 X308.093 Y125.093
N13240 X307.718 Y125.433
N13245 X307.101 Y125.855
N13250 X306.956 Y125.949
N13255 X306.421 Y126.236
N13260 X306.194 Y126.355
N13265 X305.813 Y126.54
N13270 X305.432 Y126.722
N13275 X305.051 Y126.882
N13280 X304.67 Y127.011
N13285 X304.289 Y127.134
N13290 X303.908 Y127.212
N13295 X303.527 Y127.284
N13300 X302.765 Y127.404
N13305 X302.384 Y127.446
N13310 X302.003 Y127.477
N13315 X301.622 Y127.499
N13320 X300.479 Y127.5
N13325 X54.74
N13330 X53.978 Y127.499
N13335 X53.597 Y127.477
N13340 X53.216 Y127.446
N13345 X52.835 Y127.404
N13350 X52.073 Y127.284
N13355 X51.692 Y127.212
N13360 X51.311 Y127.134
N13365 X50.93 Y127.011
N13370 X50.549 Y126.882
N13375 X50.168 Y126.722
N13380 X49.787 Y126.54
N13385 X49.406 Y126.355
N13390 X49.179 Y126.236
N13395 X48.67 Y125.963
N13400 G2 X48.11 Y125.833 I-0.56 J1.14
N13405 G1 X48.007 Y125.837
N13410 X47.906 Y125.85
N13415 X47.765 Y125.872 Z-12.192
N13420 X47.627 Y125.895 Z-12.168
N13425 X47.492 Y125.917 Z-12.129
N13430 X47.362 Y125.938 Z-12.074
N13435 X47.239 Y125.958 Z-12.005
N13440 X47.124 Y125.977 Z-11.923
N13445 X47.019 Y125.994 Z-11.828
N13450 X46.926 Y126.009 Z-11.722
N13455 X46.844 Y126.023 Z-11.606
N13460 X46.776 Y126.034 Z-11.481
N13465 X46.722 Y126.042 Z-11.349
N13470 X46.683 Y126.049 Z-11.213
N13475 X46.66 Y126.053 Z-11.072
N13480 X46.652 Y126.054 Z-10.93
N13485 G0 Z15.
(OUTSIDEFACEFINISH)
N13490 G0 X40.288 Y-6.274
N13495 Z15.
N13500 Z-5.
N13505 G1 Z-9. F333.33
N13510 Z-12.7 F2000.
N13515 X40.235 Y-6.248
N13520 G2 X25.506 Y8.476 I13.74 J28.473
N13525 G1 X25.485 Y8.521
N13530 G0 Z5.
N13535 X25.476 Y131.162
N13540 Z-5.
N13545 G1 Z-9. F333.33
N13550 Z-12.7 F2000.
N13555 X25.502 Y131.215
N13560 G2 X40.226 Y145.944 I28.473 J-13.74
N13565 G1 X40.271 Y145.965
N13570 G0 Z5.
N13575 X315.312 Y145.974
N13580 Z-5.
N13585 G1 Z-9. F333.33
N13590 Z-12.7 F2000.
N13595 X315.365 Y145.948
N13600 G2 X330.094 Y131.224 I-13.74 J-28.473
N13605 G1 X330.115 Y131.179
N13610 G0 Z5.
N13615 X330.124 Y8.538
N13620 Z-5.
N13625 G1 Z-9. F333.33
N13630 Z-12.7 F2000.
N13635 X330.098 Y8.485
N13640 G2 X315.374 Y-6.244 I-28.473 J13.74
N13645 X311.355 Y-1.924 I-1.343 J2.78
N13650 X315.348 Y2.42 I11.646 J-6.699
N13655 G3 X325.72 Y22.225 I-13.723 J19.805
N13660 G1 Y117.475
N13665 G3 X301.625 Y141.57 I-24.095 J0.
N13670 G1 X53.975
N13675 G3 X29.88 Y117.475 I0. J-24.095
N13680 G1 Y22.225
N13685 G3 X53.975 Y-1.87 I24.095 J0.
N13690 G1 X301.625
N13695 G3 X315.348 Y2.42 I0. J24.095
N13700 X317.758 Y9.869 I-3.674 J5.303
N13705 G2 X317.517 Y17.695 I12.16 J4.291
N13710 G3 X318.15 Y22.225 I-15.892 J4.53
N13715 G1 Y117.475
N13720 G3 X301.625 Y134. I-16.525 J0.
N13725 G1 X53.975
N13730 G3 X37.45 Y117.475 I0. J-16.525
N13735 G1 Y22.225
N13740 G3 X53.975 Y5.7 I16.525 J0.
N13745 G1 X301.625
N13750 G3 X317.517 Y17.695 I0. J16.525
N13755 X314.764 Y24.109 I-5.317 J1.516
N13760 G2 X311.15 Y30.08 I3.126 J5.971
N13765 G1 Y117.475
N13770 G3 X301.625 Y127. I-9.525 J0.
N13775 G1 X53.975
N13780 G3 X44.45 Y117.475 I0. J-9.525
N13785 G1 Y22.225
N13790 G3 X53.975 Y12.7 I9.525 J0.
N13795 G1 X301.625
N13800 G3 X311.15 Y22.225 I0. J9.525
N13805 G1 Y30.08
N13810 G0 Z15.
(SLOT2)
N13815 S88 M3
N13820 G0 X311.165 Y20.644
N13825 Z15.
N13830 Z5.
N13835 G1 Z2.5 F333.33
N13840 Z-2.718
N13845 X44.435 F3500.
N13850 G0 Z5.
N13855 X311.165 Y119.057
N13860 G1 Z2.5 F333.33
N13865 Z-2.718
N13870 X44.435 F3500.
N13875 G0 Z15.
(INSIDECLEARING)
N13880 S18500 M3
N13885 G0 X100.146 Y69.728
N13890 Z15.
N13895 Z5.
N13900 Z2.5
N13905 G1 Z-6. F333.33
N13910 X100.139 Y69.691 F4000.
N13915 X100.102 Y69.7
N13920 X100.084 Y69.732
N13925 X100.089 Y69.769
N13930 X100.113 Y69.798
N13935 X100.148 Y69.812
N13940 X100.185 Y69.809
N13945 X100.219 Y69.793
N13950 X100.247 Y69.768
N13955 X100.267 Y69.736
N13960 X100.287 Y69.664
N13965 X100.269 Y69.591
N13970 X100.223 Y69.531
N13975 X100.159 Y69.492
N13980 X100.086 Y69.475
N13985 X99.937 Y69.485
N13990 X99.81 Y69.566
N13995 X99.73 Y69.692
N14000 X99.701 Y69.84
N14005 X99.724 Y69.988
N14010 X99.791 Y70.122
N14015 X99.894 Y70.231
N14020 X100.022 Y70.31
N14025 X100.165 Y70.354
N14030 X100.315 Y70.364
N14035 X100.463 Y70.341
N14040 X100.603 Y70.288
N14045 X100.73 Y70.207
N14050 X100.839 Y70.104
N14055 X100.927 Y69.983
N14060 X100.992 Y69.848
N14065 X101.033 Y69.703
N14070 X101.05 Y69.554
N14075 X101.042 Y69.404
N14080 X101.012 Y69.257
N14085 X100.961 Y69.117
N14090 X100.89 Y68.984
N14095 X100.803 Y68.862
N14100 X100.699 Y68.754
N14105 X100.583 Y68.659
N14110 X100.455 Y68.58
N14115 X100.319 Y68.518
N14120 X100.176 Y68.472
N14125 X100.029 Y68.444
N14130 X99.879 Y68.432
N14135 X99.729 Y68.437
N14140 X99.581 Y68.459
N14145 X99.436 Y68.497
N14150 X99.295 Y68.549
N14155 X99.161 Y68.616
N14160 X99.034 Y68.696
N14165 X98.916 Y68.788
N14170 X98.806 Y68.893
N14175 X98.707 Y69.007
N14180 X98.62 Y69.129
N14185 X98.54 Y69.266
N14190 X98.473 Y69.41
N14195 X98.421 Y69.558
N14200 X98.38 Y69.72
N14205 X98.355 Y69.885
N14210 X98.345 Y70.05
N14215 X98.352 Y70.227
N14220 X98.374 Y70.4
N14225 X98.413 Y70.573
N14230 X98.471 Y70.749
N14235 X98.543 Y70.915
N14240 X98.636 Y71.084
N14245 X98.743 Y71.242
N14250 X98.868 Y71.392
N14255 X99.009 Y71.533
N14260 X99.163 Y71.661
N14265 X99.334 Y71.778
N14270 X99.514 Y71.877
N14275 X99.712 Y71.964
N14280 X99.913 Y72.03
N14285 X100.13 Y72.08
N14290 X100.348 Y72.108
N14295 X100.577 Y72.117
N14300 X100.803 Y72.104
N14305 X101.038 Y72.068
N14310 X101.265 Y72.011
N14315 X101.495 Y71.931
N14320 X101.715 Y71.829
N14325 X101.931 Y71.704
N14330 X102.136 Y71.558
N14335 X102.328 Y71.392
N14340 X102.51 Y71.202
N14345 X102.674 Y70.996
N14350 X102.82 Y70.771
N14355 X102.948 Y70.528
N14360 X103.052 Y70.274
N14365 X103.134 Y70.005
N14370 X103.192 Y69.725
N14375 X103.223 Y69.437
N14380 X103.227 Y69.145
N14385 X103.204 Y68.846
N14390 X103.152 Y68.549
N14395 X103.072 Y68.254
N14400 X102.963 Y67.964
N14405 X102.824 Y67.679
N14410 X102.657 Y67.406
N14415 X102.464 Y67.147
N14420 X102.245 Y66.904
N14425 X102. Y66.679
N14430 X101.73 Y66.475
N14435 X101.44 Y66.294
N14440 X101.129 Y66.14
N14445 X100.801 Y66.013
N14450 X100.46 Y65.917
N14455 X100.106 Y65.852
N14460 X99.742 Y65.821
N14465 X99.373 Y65.823
N14470 X99.001 Y65.861
N14475 X98.629 Y65.934
N14480 X98.261 Y66.043
N14485 X97.899 Y66.188
N14490 X97.548 Y66.368
N14495 X97.212 Y66.583
N14500 X96.893 Y66.832
N14505 X96.596 Y67.112
N14510 X96.322 Y67.423
N14515 X96.076 Y67.762
N14520 X95.861 Y68.127
N14525 X95.678 Y68.515
N14530 X95.531 Y68.924
N14535 X95.421 Y69.349
N14540 X95.351 Y69.787
N14545 X95.321 Y70.236
N14550 X95.334 Y70.69
N14555 X95.39 Y71.146
N14560 X95.49 Y71.601
N14565 X95.633 Y72.049
N14570 X95.82 Y72.487
N14575 X96.05 Y72.912
N14580 X96.321 Y73.316
N14585 X96.632 Y73.698
N14590 X96.982 Y74.053
N14595 X97.367 Y74.377
N14600 X97.785 Y74.666
N14605 X98.233 Y74.918
N14610 X98.707 Y75.129
N14615 X99.204 Y75.297
N14620 X99.72 Y75.418
N14625 X100.251 Y75.491
N14630 X100.791 Y75.515
N14635 X101.336 Y75.487
N14640 X101.882 Y75.408
N14645 X102.424 Y75.277
N14650 X102.958 Y75.094
N14655 X103.477 Y74.859
N14660 X103.977 Y74.574
N14665 X104.453 Y74.24
N14670 X104.901 Y73.858
N14675 X105.314 Y73.433
N14680 X105.69 Y72.966
N14685 X106.024 Y72.462
N14690 X106.311 Y71.923
N14695 X106.549 Y71.355
N14700 X106.735 Y70.761
N14705 X106.865 Y70.147
N14710 X106.938 Y69.518
N14715 X106.952 Y68.878
N14720 X106.906 Y68.235
N14725 X106.799 Y67.593
N14730 X106.631 Y66.958
N14735 X106.402 Y66.336
N14740 X106.113 Y65.732
N14745 X105.766 Y65.153
N14750 X105.362 Y64.603
N14755 X104.904 Y64.089
N14760 X104.396 Y63.616
N14765 X103.841 Y63.189
N14770 X103.243 Y62.812
N14775 X102.607 Y62.49
N14780 X101.938 Y62.227
N14785 X101.241 Y62.026
N14790 X100.523 Y61.889
N14795 X99.789 Y61.82
N14800 X99.046
N14805 X98.3 Y61.89
N14810 X97.558 Y62.03
N14815 X96.826 Y62.241
N14820 X96.112 Y62.522
N14825 X95.421 Y62.871
N14830 X94.761 Y63.286
N14835 X94.137 Y63.766
N14840 X93.557 Y64.305
N14845 X93.026 Y64.901
N14850 X92.548 Y65.55
N14855 X92.131 Y66.246
N14860 X91.777 Y66.984
N14865 X91.491 Y67.759
N14870 X91.278 Y68.563
N14875 X91.139 Y69.39
N14880 X91.078 Y70.233
N14885 X91.096 Y71.085
N14890 X91.195 Y71.938
N14895 X91.374 Y72.784
N14900 X91.634 Y73.617
N14905 X91.973 Y74.427
N14910 X92.389 Y75.208
N14915 X92.88 Y75.951
N14920 X93.442 Y76.65
N14925 X94.071 Y77.298
N14930 X94.763 Y77.889
N14935 X95.513 Y78.416
N14940 X96.314 Y78.873
N14945 X97.16 Y79.257
N14950 X98.044 Y79.561
N14955 X98.959 Y79.783
N14960 X99.898 Y79.92
N14965 X100.852 Y79.968
N14970 X101.812 Y79.926
N14975 X102.772 Y79.794
N14980 X103.721 Y79.572
N14985 X104.653 Y79.259
N14990 X105.557 Y78.857
N14995 X106.426 Y78.37
N15000 X107.251 Y77.799
N15005 X108.025 Y77.149
N15010 X108.739 Y76.425
N15015 X109.386 Y75.631
N15020 X109.961 Y74.775
N15025 X110.456 Y73.864
N15030 X110.866 Y72.903
N15035 X111.187 Y71.902
N15040 X111.414 Y70.869
N15045 X111.544 Y69.812
N15050 X111.575 Y68.741
N15055 X111.505 Y67.665
N15060 X111.334 Y66.593
N15065 X111.061 Y65.535
N15070 X110.689 Y64.501
N15075 X110.218 Y63.501
N15080 X109.653 Y62.542
N15085 X108.996 Y61.636
N15090 X108.253 Y60.789
N15095 X107.429 Y60.011
N15100 X106.531 Y59.31
N15105 X105.565 Y58.691
N15110 X104.539 Y58.163
N15115 X103.462 Y57.731
N15120 X102.343 Y57.399
N15125 X101.191 Y57.172
N15130 X100.016 Y57.053
N15135 X98.828 Y57.044
N15140 X97.638 Y57.147
N15145 X96.455 Y57.362
N15150 X95.292 Y57.689
N15155 X94.157 Y58.126
N15160 X93.062 Y58.67
N15165 X92.017 Y59.318
N15170 X91.031 Y60.065
N15175 X90.113 Y60.906
N15180 X89.274 Y61.835
N15185 X88.521 Y62.844
N15190 X87.861 Y63.925
N15195 X87.303 Y65.07
N15200 X86.851 Y66.268
N15205 X86.512 Y67.511
N15210 X86.29 Y68.784
N15215 X86.187 Y70.072
N15220 X86.204 Y71.364
N15225 X86.34 Y72.648
N15230 X86.594 Y73.915
N15235 X86.961 Y75.154
N15240 X87.44 Y76.354
N15245 X88.024 Y77.507
N15250 X88.709 Y78.602
N15255 X89.489 Y79.632
N15260 X90.357 Y80.589
N15265 X91.307 Y81.465
N15270 X92.331 Y82.253
N15275 X93.42 Y82.949
N15280 X94.566 Y83.546
N15285 X95.759 Y84.04
N15290 X96.991 Y84.43
N15295 X98.252 Y84.713
N15300 X98.701 Y84.774
N15305 X98.789 Y84.782
N15310 X99.384 Y84.829
N15315 X100.676 Y84.8
N15320 X101.968
N15325 X103.255 Y84.684
N15330 X104.526 Y84.453
N15335 X105.772 Y84.111
N15340 X106.984 Y83.662
N15345 X108.153 Y83.112
N15350 X109.272 Y82.466
N15355 X110.333 Y81.729
N15360 X111.33 Y80.908
N15365 X112.256 Y80.007
N15370 X113.104 Y79.032
N15375 X113.87 Y77.991
N15380 X114.548 Y76.891
N15385 X115.136 Y75.741
N15390 X115.631 Y74.547
N15395 X116.031 Y73.318
N15400 X116.33 Y72.062
N15405 X116.528 Y70.785
N15410 X116.624 Y69.496
N15415 X116.62 Y68.204
N15420 X116.516 Y66.916
N15425 X116.314 Y65.64
N15430 X116.011 Y64.384
N15435 X115.611 Y63.155
N15440 X115.119 Y61.961
N15445 X114.537 Y60.807
N15450 X113.871 Y59.7
N15455 X113.121 Y58.648
N15460 X112.293 Y57.656
N15465 X111.392 Y56.73
N15470 X110.425 Y55.873
N15475 X109.715 Y55.331
N15480 X109.393 Y55.125
N15485 X109.042 Y54.973
N15490 X108.671 Y54.881
N15495 X108.29 Y54.85
N15500 X100.146
N15505 X99.384 Y54.871
N15510 X98.623 Y54.931
N15515 X97.862 Y55.029
N15520 X97.1 Y55.168
N15525 X96.664 Y55.26
N15530 X96.339 Y55.341
N15535 X95.578 Y55.568
N15540 X94.816 Y55.834
N15545 X94.34 Y56.022
N15550 X94.055 Y56.143
N15555 X93.294 Y56.509
N15560 X92.791 Y56.783
N15565 X92.532 Y56.926
N15570 X91.771 Y57.408
N15575 X91.571 Y57.545
N15580 X91.01 Y57.954
N15585 X90.578 Y58.306
N15590 X90.249 Y58.584
N15595 X89.729 Y59.068
N15600 X89.487 Y59.306
N15605 X88.991 Y59.829
N15610 X88.726 Y60.135
N15615 X88.345 Y60.591
N15620 X87.965 Y61.102
N15625 X87.787 Y61.352
N15630 X87.295 Y62.113
N15635 X86.868 Y62.875
N15640 X86.495 Y63.636
N15645 X86.442 Y63.751
N15650 X86.177 Y64.398
N15655 X85.904 Y65.159
N15660 X85.681 Y65.896
N15665 X85.674 Y65.921
N15670 X85.49 Y66.682
N15675 X85.345 Y67.443
N15680 X85.24 Y68.205
N15685 X85.174 Y68.966
N15690 X85.146 Y69.728
N15695 X85.161 Y70.489
N15700 X85.214 Y71.251
N15705 X85.307 Y72.012
N15710 X85.439 Y72.774
N15715 X85.611 Y73.535
N15720 X85.681 Y73.81
N15725 X85.823 Y74.296
N15730 X86.084 Y75.058
N15735 X86.388 Y75.819
N15740 X86.442 Y75.94
N15745 X86.743 Y76.581
N15750 X87.151 Y77.342
N15755 X87.203 Y77.429
N15760 X87.621 Y78.104
N15765 X87.965 Y78.589
N15770 X88.163 Y78.865
N15775 X88.726 Y79.564
N15780 X88.778 Y79.626
N15785 X89.487 Y80.395
N15790 X90.249 Y81.112
N15795 X90.292 Y81.149
N15800 X91.01 Y81.741
N15805 X91.241 Y81.911
N15810 X91.771 Y82.294
N15815 X92.367 Y82.672
N15820 X92.532 Y82.774
N15825 X93.294 Y83.191
N15830 X93.798 Y83.434
N15835 X94.055 Y83.554
N15840 X94.816 Y83.866
N15845 X95.578 Y84.136
N15850 X95.767 Y84.195
N15855 X96.339 Y84.353
N15860 X97.1 Y84.532
N15865 X97.862 Y84.67
N15870 X98.623 Y84.769
N15875 X98.789 Y84.782
N15880 X98.927 Y84.781
N15885 G3 X99.255 Y84.807 I0.074 J1.142
N15890 G1 X99.384 Y84.829
N15895 X100.146 Y84.85
N15900 X110.043
N15905 X110.648 Y84.82
N15910 X111.328 Y84.721
N15915 X112.103 Y84.534
N15920 X112.91 Y84.256
N15925 X113.777 Y83.864
N15930 X114.707 Y83.334
N15935 X115.631 Y82.685
N15940 X116.579 Y81.877
N15945 X117.479 Y80.951
N15950 X118.295 Y79.949
N15955 X119.027 Y78.884
N15960 X119.673 Y77.765
N15965 X120.232 Y76.601
N15970 X120.708 Y75.399
N15975 X121.102 Y74.169
N15980 X121.413 Y72.915
N15985 X121.64 Y71.643
N15990 X121.786 Y70.359
N15995 X121.852 Y69.069
N16000 X121.839 Y67.777
N16005 X121.745 Y66.488
N16010 X121.572 Y65.207
N16015 X121.324 Y63.94
N16020 X121.002 Y62.688
N16025 X120.604 Y61.459
N16030 X120.134 Y60.255
N16035 X119.594 Y59.081
N16040 X118.988 Y57.94
N16045 X118.315 Y56.837
N16050 X117.578 Y55.776
N16055 X117.558 Y55.75
N16060 X117.319 Y55.489
N16065 X117.043 Y55.266
N16070 X116.737 Y55.087
N16075 X116.408 Y54.956
N16080 X116.062 Y54.877
N16085 X115.709 Y54.85
N16090 X108.29
N16095 G2 X107.214 Y55.522 Z-5.867 I0.044 J1.269
N16100 X107.038 Y56.158 Z-5.8 I1.333 J0.71
N16105 X107.823 Y57.558 I1.508 J0.074
N16110 X114.281 Y56.086 I2.397 J-4.388
N16115 X114.632 Y55.522 Z-5.867 I-4.061 J-2.917
N16120 G3 X115.709 Y54.85 Z-6. I1.121 J0.597
N16125 G1 X118.075 F3500.
N16130 X118.522 Y54.872
N16135 X118.948 Y54.934
N16140 X119.414 Y55.047
N16145 X119.946 Y55.229
N16150 X120.517 Y55.488
N16155 X121.151 Y55.849
N16160 X121.803 Y56.307
N16165 X122.507 Y56.907
N16170 X123.228 Y57.649
N16175 X123.948 Y58.543
N16180 X124.66 Y59.621
N16185 X125.27 Y60.76
N16190 X125.783 Y61.946
N16195 X126.206 Y63.167
N16200 X126.544 Y64.414
N16205 X126.798 Y65.681
N16210 X126.972 Y66.961
N16215 X127.07 Y68.25
N16220 X127.095 Y69.541
N16225 X127.048 Y70.833
N16230 X126.928 Y72.119
N16235 X126.736 Y73.397
N16240 X126.475 Y74.662
N16245 X126.147 Y75.912
N16250 X125.75 Y77.141
N16255 X125.282 Y78.346
N16260 X124.746 Y79.522
N16265 X124.146 Y80.666
N16270 X123.477 Y81.771
N16275 X122.74 Y82.832
N16280 X121.938 Y83.846
N16285 X121.734 Y84.073
N16290 X121.447 Y84.342
N16295 X121.119 Y84.559
N16300 X120.76 Y84.719
N16305 X120.379 Y84.817
N16310 X119.988 Y84.85
N16315 X110.043
N16320 G3 X108.966 Y84.178 Z-5.867 I0.044 J-1.269 F4000.
N16325 X108.865 Y83.533 Z-5.8 I0.877 J-0.468
N16330 X109.094 Y83.057 I0.978 J0.177
N16335 X118.566 Y83.61 I4.522 J3.943
N16340 X118.911 Y84.178 Z-5.867 I-4.95 J3.391
N16345 G2 X119.988 Y84.85 Z-6. I1.121 J-0.597
N16350 G1 X122.643
N16355 X123.063 Y84.829
N16360 X123.526 Y84.762
N16365 X124.029 Y84.64
N16370 X124.607 Y84.442
N16375 X125.221 Y84.164
N16380 X125.897 Y83.778
N16385 X126.623 Y83.269
N16390 X127.367 Y82.635
N16395 X128.15 Y81.83
N16400 X128.948 Y80.838
N16405 X129.661 Y79.76
N16410 X130.281 Y78.626
N16415 X130.814 Y77.449
N16420 X131.264 Y76.238
N16425 X131.636 Y75.001
N16430 X131.933 Y73.743
N16435 X132.159 Y72.471
N16440 X132.316 Y71.189
N16445 X132.404 Y69.9
N16450 X132.424 Y68.608
N16455 X132.376 Y67.317
N16460 X132.262 Y66.03
N16465 X132.082 Y64.75
N16470 X131.831 Y63.483
N16475 X131.51 Y62.231
N16480 X131.12 Y60.999
N16485 X130.659 Y59.792
N16490 X130.123 Y58.617
N16495 X129.512 Y57.478
N16500 X128.826 Y56.383
N16505 X128.412 Y55.815
N16510 X128.172 Y55.536
N16515 X127.892 Y55.297
N16520 X127.578 Y55.105
N16525 X127.238 Y54.964
N16530 X126.88 Y54.879
N16535 X126.513 Y54.85
N16540 X118.075
N16545 G2 X116.85 Y56.162 Z-5.8 I0.044 J1.269
N16550 X117.253 Y57.048 I1.269 J-0.043
N16555 X118.655 Y57.718 I1.766 J-1.894
N16560 X124.905 Y55.938 I1.122 J-7.921
N16565 X125.629 Y55.253 Z-5.9 I-5.128 J-6.141
N16570 G3 X126.513 Y54.85 Z-6. I0.929 J0.866
N16575 G1 X129.076 F3500.
N16580 X129.29 Y54.861
N16585 X129.696 Y54.919
N16590 X130.145 Y55.028
N16595 X130.659 Y55.205
N16600 X131.201 Y55.45
N16605 X131.805 Y55.795
N16610 X132.438 Y56.239
N16615 X133.107 Y56.809
N16620 X133.813 Y57.535
N16625 X134.522 Y58.415
N16630 X135.221 Y59.474
N16635 X135.83 Y60.613
N16640 X136.341 Y61.8
N16645 X136.763 Y63.021
N16650 X137.103 Y64.268
N16655 X137.366 Y65.533
N16660 X137.555 Y66.811
N16665 X137.672 Y68.098
N16670 X137.721 Y69.389
N16675 X137.704 Y70.681
N16680 X137.623 Y71.97
N16685 X137.48 Y73.254
N16690 X137.271 Y74.529
N16695 X136.997 Y75.792
N16700 X136.658 Y77.039
N16705 X136.256 Y78.267
N16710 X135.785 Y79.47
N16715 X135.244 Y80.643
N16720 X134.635 Y81.783
N16725 X133.957 Y82.882
N16730 X133.207 Y83.935
N16735 X133.157 Y83.996
N16740 X132.866 Y84.29
N16745 X132.529 Y84.529
N16750 X132.155 Y84.706
N16755 X131.756 Y84.814
N16760 X131.344 Y84.85
N16765 X122.643
N16770 G3 X121.418 Y83.537 Z-5.8 I0.044 J-1.269 F4000.
N16775 X121.821 Y82.652 I1.269 J0.043
N16780 X122.894 Y82.089 I1.565 J1.678
N16785 X129.736 Y83.762 I1.715 J7.814
N16790 X130.46 Y84.447 Z-5.9 I-5.128 J6.141
N16795 G2 X131.344 Y84.85 Z-6. I0.929 J-0.866
N16800 G1 X133.874
N16805 X134.179 Y84.835
N16810 X134.607 Y84.773
N16815 X135.072 Y84.66
N16820 X135.605 Y84.477
N16825 X136.175 Y84.219
N16830 X136.809 Y83.858
N16835 X137.464 Y83.398
N16840 X138.173 Y82.794
N16845 X138.914 Y82.031
N16850 X139.66 Y81.105
N16855 X140.372 Y80.027
N16860 X140.986 Y78.89
N16865 X141.509 Y77.708
N16870 X141.948 Y76.493
N16875 X142.309 Y75.252
N16880 X142.598 Y73.993
N16885 X142.817 Y72.72
N16890 X142.966 Y71.436
N16895 X143.05 Y70.147
N16900 X143.069 Y68.855
N16905 X143.025 Y67.564
N16910 X142.919 Y66.276
N16915 X142.746 Y64.996
N16920 X142.508 Y63.726
N16925 X142.204 Y62.47
N16930 X141.833 Y61.232
N16935 X141.388 Y60.019
N16940 X140.872 Y58.835
N16945 X140.282 Y57.685
N16950 X139.619 Y56.576
N16955 X139.114 Y55.854
N16960 X138.875 Y55.564
N16965 X138.593 Y55.316
N16970 X138.274 Y55.116
N16975 X137.928 Y54.969
N16980 X137.563 Y54.88
N16985 X137.188 Y54.85
N16990 X129.076
N16995 G2 X127.999 Y55.522 Z-5.867 I0.044 J1.269
N17000 X127.894 Y56.167 Z-5.8 I0.897 J0.478
N17005 X128.181 Y56.722 I1.003 J-0.167
N17010 X135.761 Y56.086 I3.518 J-3.553
N17015 X136.112 Y55.522 Z-5.867 I-4.061 J-2.917
N17020 G3 X137.188 Y54.85 Z-6. I1.121 J0.597
N17025 G1 X139.734 F3500.
N17030 X139.933 Y54.86
N17035 X140.343 Y54.919
N17040 X140.783 Y55.026
N17045 X141.294 Y55.201
N17050 X141.834 Y55.446
N17055 X142.44 Y55.791
N17060 X143.062 Y56.227
N17065 X143.735 Y56.802
N17070 X144.433 Y57.519
N17075 X145.136 Y58.393
N17080 X145.845 Y59.466
N17085 X146.454 Y60.606
N17090 X146.967 Y61.792
N17095 X147.392 Y63.012
N17100 X147.736 Y64.257
N17105 X148.004 Y65.521
N17110 X148.2 Y66.798
N17115 X148.326 Y68.084
N17120 X148.386 Y69.375
N17125 X148.383 Y70.667
N17130 X148.317 Y71.957
N17135 X148.188 Y73.243
N17140 X147.996 Y74.52
N17145 X147.74 Y75.787
N17150 X147.421 Y77.039
N17155 X147.038 Y78.273
N17160 X146.584 Y79.482
N17165 X146.061 Y80.664
N17170 X145.468 Y81.812
N17175 X144.805 Y82.921
N17180 X144.163 Y83.842
N17185 X143.924 Y84.133
N17190 X143.641 Y84.382
N17195 X143.322 Y84.583
N17200 X142.976 Y84.73
N17205 X142.61 Y84.82
N17210 X142.234 Y84.85
N17215 X133.874
N17220 G3 X132.649 Y83.537 Z-5.8 I0.044 J-1.269 F4000.
N17225 X133.052 Y82.652 I1.269 J0.043
N17230 X134.537 Y81.961 I1.803 J1.933
N17235 X140.627 Y83.762 I0.962 J7.942
N17240 X141.35 Y84.447 Z-5.9 I-5.128 J6.141
N17245 G2 X142.234 Y84.85 Z-6. I0.929 J-0.866
N17250 G1 X144.721
N17255 X145.019 Y84.835
N17260 X145.434 Y84.775
N17265 X145.89 Y84.665
N17270 X146.407 Y84.487
N17275 X146.967 Y84.233
N17280 X147.584 Y83.881
N17285 X148.227 Y83.431
N17290 X148.921 Y82.839
N17295 X149.638 Y82.101
N17300 X150.367 Y81.196
N17305 X151.08 Y80.118
N17310 X151.692 Y78.98
N17315 X152.211 Y77.797
N17320 X152.646 Y76.58
N17325 X153.003 Y75.338
N17330 X153.286 Y74.078
N17335 X153.499 Y72.803
N17340 X153.643 Y71.519
N17345 X153.722 Y70.23
N17350 X153.738 Y68.938
N17355 X153.692 Y67.646
N17360 X153.583 Y66.359
N17365 X153.409 Y65.079
N17370 X153.171 Y63.809
N17375 X152.869 Y62.553
N17380 X152.5 Y61.314
N17385 X152.058 Y60.1
N17390 X151.546 Y58.914
N17395 X150.962 Y57.761
N17400 X150.304 Y56.65
N17405 X149.76 Y55.863
N17410 X149.521 Y55.571
N17415 X149.238 Y55.32
N17420 X148.918 Y55.119
N17425 X148.571 Y54.971
N17430 X148.204 Y54.88
N17435 X147.827 Y54.85
N17440 X139.734
N17445 G2 X138.658 Y55.522 Z-5.867 I0.044 J1.269
N17450 X138.548 Y56.166 Z-5.8 I0.914 J0.487
N17455 X138.849 Y56.751 I1.024 J-0.157
N17460 X146.4 Y56.086 I3.49 J-3.581
N17465 X146.751 Y55.522 Z-5.867 I-4.061 J-2.917
N17470 G3 X147.827 Y54.85 Z-6. I1.121 J0.597
N17475 G1 X150.238 F3500.
N17480 X150.573 Y54.867
N17485 X150.982 Y54.926
N17490 X151.424 Y55.033
N17495 X151.931 Y55.207
N17500 X152.476 Y55.454
N17505 X153.081 Y55.799
N17510 X153.706 Y56.237
N17515 X154.383 Y56.815
N17520 X155.079 Y57.53
N17525 X155.787 Y58.41
N17530 X156.5 Y59.488
N17535 X157.108 Y60.628
N17540 X157.622 Y61.813
N17545 X158.049 Y63.032
N17550 X158.396 Y64.277
N17555 X158.667 Y65.54
N17560 X158.866 Y66.817
N17565 X158.997 Y68.102
N17570 X159.063 Y69.393
N17575 X159.065 Y70.685
N17580 X159.005 Y71.976
N17585 X158.883 Y73.262
N17590 X158.697 Y74.54
N17595 X158.447 Y75.808
N17600 X158.134 Y77.062
N17605 X157.757 Y78.297
N17610 X157.308 Y79.509
N17615 X156.79 Y80.693
N17620 X156.203 Y81.844
N17625 X155.543 Y82.954
N17630 X154.931 Y83.837
N17635 X154.692 Y84.13
N17640 X154.409 Y84.38
N17645 X154.09 Y84.581
N17650 X153.742 Y84.729
N17655 X153.375 Y84.82
N17660 X152.999 Y84.85
N17665 X144.721
N17670 G3 X143.644 Y84.178 Z-5.867 I0.044 J-1.269 F4000.
N17675 X143.584 Y83.533 Z-5.8 I0.741 J-0.395
N17680 X143.755 Y83.229 I0.801 J0.25
N17685 X151.571 Y83.614 I3.756 J3.301
N17690 X151.923 Y84.178 Z-5.867 I-4.061 J2.917
N17695 G2 X152.999 Y84.85 Z-6. I1.121 J-0.597
N17700 G1 X155.379
N17705 X155.769 Y84.83
N17710 X156.181 Y84.771
N17715 X156.632 Y84.662
N17720 X157.145 Y84.486
N17725 X157.7 Y84.234
N17730 X158.311 Y83.886
N17735 X158.948 Y83.439
N17740 X159.637 Y82.852
N17745 X160.346 Y82.123
N17750 X161.068 Y81.226
N17755 X161.78 Y80.148
N17760 X162.391 Y79.009
N17765 X162.909 Y77.826
N17770 X163.342 Y76.608
N17775 X163.696 Y75.365
N17780 X163.976 Y74.104
N17785 X164.184 Y72.829
N17790 X164.325 Y71.545
N17795 X164.401 Y70.255
N17800 X164.414 Y68.963
N17805 X164.365 Y67.672
N17810 X164.253 Y66.384
N17815 X164.077 Y65.105
N17820 X163.837 Y63.835
N17825 X163.533 Y62.579
N17830 X163.162 Y61.341
N17835 X162.72 Y60.127
N17840 X162.207 Y58.941
N17845 X161.623 Y57.789
N17850 X160.965 Y56.677
N17855 X160.404 Y55.864
N17860 X160.165 Y55.572
N17865 X159.882 Y55.321
N17870 X159.563 Y55.119
N17875 X159.215 Y54.971
N17880 X158.848 Y54.88
N17885 X158.471 Y54.85
N17890 X150.238
N17895 G2 X149.162 Y55.522 Z-5.867 I0.044 J1.269
N17900 X149.086 Y56.167 Z-5.8 I0.786 J0.419
N17905 X149.29 Y56.542 I0.862 J-0.226
N17910 X157.043 Y56.086 I3.692 J-3.372
N17915 X157.394 Y55.522 Z-5.867 I-4.061 J-2.917
N17920 G3 X158.471 Y54.85 Z-6. I1.121 J0.597
N17925 G1 X160.897 F3500.
N17930 X161.22 Y54.866
N17935 X161.629 Y54.925
N17940 X162.073 Y55.033
N17945 X162.581 Y55.207
N17950 X163.129 Y55.455
N17955 X163.734 Y55.8
N17960 X164.362 Y56.241
N17965 X165.042 Y56.821
N17970 X165.74 Y57.538
N17975 X166.452 Y58.422
N17980 X167.164 Y59.5
N17985 X167.773 Y60.639
N17990 X168.288 Y61.824
N17995 X168.716 Y63.043
N18000 X169.065 Y64.288
N18005 X169.338 Y65.55
N18010 X169.54 Y66.827
N18015 X169.673 Y68.112
N18020 X169.742 Y69.402
N18025 X169.747 Y70.694
N18030 X169.69 Y71.985
N18035 X169.571 Y73.271
N18040 X169.388 Y74.55
N18045 X169.141 Y75.819
N18050 X168.832 Y77.073
N18055 X168.456 Y78.31
N18060 X168.01 Y79.522
N18065 X167.494 Y80.707
N18070 X166.908 Y81.858
N18075 X166.249 Y82.969
N18080 X165.65 Y83.836
N18085 X165.41 Y84.129
N18090 X165.127 Y84.379
N18095 X164.808 Y84.581
N18100 X164.46 Y84.729
N18105 X164.093 Y84.82
N18110 X163.717 Y84.85
N18115 X155.379
N18120 G3 X154.154 Y83.537 Z-5.8 I0.044 J-1.269 F4000.
N18125 X154.557 Y82.652 I1.269 J0.043
N18130 X156.066 Y81.955 I1.813 J1.944
N18135 X162.109 Y83.762 I0.915 J7.947
N18140 X162.832 Y84.447 Z-5.9 I-5.128 J6.141
N18145 G2 X163.717 Y84.85 Z-6. I0.929 J-0.866
N18150 G1 X166.038
N18155 X166.482 Y84.828
N18160 X166.893 Y84.768
N18165 X167.342 Y84.66
N18170 X167.853 Y84.484
N18175 X168.406 Y84.234
N18180 X169.015 Y83.886
N18185 X169.649 Y83.441
N18190 X170.336 Y82.856
N18195 X171.041 Y82.131
N18200 X171.759 Y81.238
N18205 X172.472 Y80.16
N18210 X173.082 Y79.021
N18215 X173.6 Y77.837
N18220 X174.031 Y76.62
N18225 X174.383 Y75.376
N18230 X174.661 Y74.115
N18235 X174.868 Y72.839
N18240 X175.007 Y71.555
N18245 X175.081 Y70.265
N18250 X175.092 Y68.973
N18255 X175.041 Y67.682
N18260 X174.928 Y66.395
N18265 X174.75 Y65.115
N18270 X174.508 Y63.846
N18275 X174.203 Y62.59
N18280 X173.831 Y61.353
N18285 X173.388 Y60.139
N18290 X172.874 Y58.953
N18295 X172.29 Y57.801
N18300 X171.632 Y56.689
N18305 X171.063 Y55.864
N18310 X170.824 Y55.572
N18315 X170.54 Y55.321
N18320 X170.221 Y55.119
N18325 X169.873 Y54.971
N18330 X169.506 Y54.88
N18335 X169.129 Y54.85
N18340 X160.897
N18345 G2 X159.82 Y55.522 Z-5.867 I0.044 J1.269
N18350 X159.745 Y56.167 Z-5.8 I0.787 J0.419
N18355 X159.949 Y56.542 I0.862 J-0.226
N18360 X167.702 Y56.086 I3.691 J-3.372
N18365 X168.053 Y55.522 Z-5.867 I-4.061 J-2.917
N18370 G3 X169.129 Y54.85 Z-6. I1.121 J0.597
N18375 G1 X171.555 F3500.
N18380 X171.881 Y54.866
N18385 X172.29 Y54.925
N18390 X172.736 Y55.033
N18395 X173.244 Y55.208
N18400 X173.793 Y55.456
N18405 X174.4 Y55.802
N18410 X175.029 Y56.244
N18415 X175.711 Y56.825
N18420 X176.41 Y57.544
N18425 X177.123 Y58.43
N18430 X177.836 Y59.508
N18435 X178.445 Y60.647
N18440 X178.961 Y61.832
N18445 X179.39 Y63.051
N18450 X179.739 Y64.295
N18455 X180.014 Y65.557
N18460 X180.217 Y66.833
N18465 X180.352 Y68.118
N18470 X180.421 Y69.408
N18475 X180.428 Y70.7
N18480 X180.373 Y71.991
N18485 X180.256 Y73.278
N18490 X180.074 Y74.557
N18495 X179.829 Y75.826
N18500 X179.52 Y77.08
N18505 X179.146 Y78.317
N18510 X178.7 Y79.53
N18515 X178.185 Y80.715
N18520 X177.6 Y81.867
N18525 X176.941 Y82.978
N18530 X176.348 Y83.836
N18535 X176.109 Y84.129
N18540 X175.826 Y84.379
N18545 X175.506 Y84.581
N18550 X175.159 Y84.729
N18555 X174.792 Y84.82
N18560 X174.415 Y84.85
N18565 X166.038
N18570 G3 X164.813 Y83.537 Z-5.8 I0.044 J-1.269 F4000.
N18575 X165.216 Y82.652 I1.269 J0.043
N18580 X166.684 Y81.965 I1.796 J1.926
N18585 X172.807 Y83.762 I0.996 J7.938
N18590 X173.53 Y84.447 Z-5.9 I-5.128 J6.141
N18595 G2 X174.415 Y84.85 Z-6. I0.929 J-0.866
N18600 G1 X176.696
N18605 X177.179 Y84.826
N18610 X177.589 Y84.766
N18615 X178.037 Y84.658
N18620 X178.547 Y84.483
N18625 X179.099 Y84.233
N18630 X179.708 Y83.886
N18635 X180.341 Y83.442
N18640 X181.025 Y82.858
N18645 X181.729 Y82.135
N18650 X182.446 Y81.244
N18655 X183.158 Y80.166
N18660 X183.769 Y79.027
N18665 X184.285 Y77.843
N18670 X184.716 Y76.624
N18675 X185.068 Y75.381
N18680 X185.345 Y74.119
N18685 X185.551 Y72.844
N18690 X185.688 Y71.559
N18695 X185.761 Y70.269
N18700 X185.771 Y68.977
N18705 X185.719 Y67.686
N18710 X185.604 Y66.399
N18715 X185.425 Y65.119
N18720 X185.183 Y63.85
N18725 X184.877 Y62.595
N18730 X184.504 Y61.358
N18735 X184.061 Y60.144
N18740 X183.547 Y58.959
N18745 X182.962 Y57.807
N18750 X182.304 Y56.695
N18755 X181.73 Y55.864
N18760 X181.491 Y55.571
N18765 X181.208 Y55.321
N18770 X180.888 Y55.119
N18775 X180.54 Y54.971
N18780 X180.173 Y54.88
N18785 X179.797 Y54.85
N18790 X171.555
N18795 G2 X170.479 Y55.522 Z-5.867 I0.044 J1.269
N18800 X170.406 Y56.167 Z-5.8 I0.778 J0.415
N18805 X170.604 Y56.528 I0.85 J-0.231
N18810 X178.369 Y56.086 I3.704 J-3.358
N18815 X178.72 Y55.522 Z-5.867 I-4.061 J-2.917
N18820 G3 X179.797 Y54.85 Z-6. I1.121 J0.597
N18825 G1 X182.214 F3500.
N18830 X182.551 Y54.867
N18835 X182.96 Y54.926
N18840 X183.406 Y55.034
N18845 X183.915 Y55.209
N18850 X184.465 Y55.457
N18855 X185.072 Y55.804
N18860 X185.702 Y56.246
N18865 X186.384 Y56.828
N18870 X187.085 Y57.548
N18875 X187.799 Y58.435
N18880 X188.511 Y59.513
N18885 X189.121 Y60.652
N18890 X189.637 Y61.837
N18895 X190.066 Y63.055
N18900 X190.416 Y64.299
N18905 X190.692 Y65.562
N18910 X190.895 Y66.838
N18915 X191.031 Y68.122
N18920 X191.101 Y69.413
N18925 X191.109 Y70.705
N18930 X191.055 Y71.996
N18935 X190.938 Y73.282
N18940 X190.757 Y74.562
N18945 X190.512 Y75.83
N18950 X190.204 Y77.085
N18955 X189.831 Y78.322
N18960 X189.386 Y79.535
N18965 X188.871 Y80.72
N18970 X188.285 Y81.872
N18975 X187.627 Y82.983
N18980 X187.037 Y83.836
N18985 X186.798 Y84.129
N18990 X186.515 Y84.379
N18995 X186.196 Y84.581
N19000 X185.848 Y84.729
N19005 X185.481 Y84.82
N19010 X185.104 Y84.85
N19015 X176.696
N19020 G3 X175.471 Y83.537 Z-5.8 I0.044 J-1.269 F4000.
N19025 X175.874 Y82.652 I1.269 J0.043
N19030 X177.31 Y81.973 I1.781 J1.91
N19035 X183.496 Y83.762 I1.059 J7.93
N19040 X184.22 Y84.447 Z-5.9 I-5.128 J6.141
N19045 G2 X185.104 Y84.85 Z-6. I0.929 J-0.866
N19050 G1 X187.355
N19055 X187.868 Y84.824
N19060 X188.278 Y84.765
N19065 X188.725 Y84.657
N19070 X189.235 Y84.481
N19075 X189.786 Y84.232
N19080 X190.394 Y83.885
N19085 X191.027 Y83.442
N19090 X191.711 Y82.859
N19095 X192.413 Y82.136
N19100 X193.13 Y81.246
N19105 X193.842 Y80.168
N19110 X194.452 Y79.029
N19115 X194.969 Y77.845
N19120 X195.399 Y76.626
N19125 X195.75 Y75.383
N19130 X196.027 Y74.121
N19135 X196.232 Y72.845
N19140 X196.369 Y71.561
N19145 X196.441 Y70.27
N19150 X196.45 Y68.978
N19155 X196.398 Y67.687
N19160 X196.283 Y66.401
N19165 X196.103 Y65.121
N19170 X195.86 Y63.852
N19175 X195.553 Y62.597
N19180 X195.18 Y61.36
N19185 X194.736 Y60.147
N19190 X194.222 Y58.961
N19195 X193.637 Y57.809
N19200 X192.979 Y56.697
N19205 X192.403 Y55.864
N19210 X192.163 Y55.571
N19215 X191.88 Y55.321
N19220 X191.561 Y55.119
N19225 X191.213 Y54.971
N19230 X190.846 Y54.88
N19235 X190.469 Y54.85
N19240 X182.214
N19245 G2 X181.137 Y55.522 Z-5.867 I0.044 J1.269
N19250 X181.069 Y56.167 Z-5.8 I0.763 J0.407
N19255 X181.256 Y56.506 I0.832 J-0.238
N19260 X189.042 Y56.086 I3.724 J-3.336
N19265 X189.393 Y55.522 Z-5.867 I-4.061 J-2.917
N19270 G3 X190.469 Y54.85 Z-6. I1.121 J0.597
N19275 G1 X193.026 F3500.
N19280 X193.221 Y54.86
N19285 X193.631 Y54.919
N19290 X194.078 Y55.027
N19295 X194.587 Y55.202
N19300 X195.137 Y55.451
N19305 X195.745 Y55.797
N19310 X196.376 Y56.241
N19315 X197.059 Y56.823
N19320 X197.76 Y57.544
N19325 X198.475 Y58.432
N19330 X199.188 Y59.51
N19335 X199.798 Y60.649
N19340 X200.314 Y61.834
N19345 X200.744 Y63.052
N19350 X201.094 Y64.296
N19355 X201.37 Y65.558
N19360 X201.574 Y66.834
N19365 X201.71 Y68.119
N19370 X201.781 Y69.409
N19375 X201.789 Y70.701
N19380 X201.736 Y71.992
N19385 X201.62 Y73.279
N19390 X201.439 Y74.558
N19395 X201.195 Y75.827
N19400 X200.888 Y77.082
N19405 X200.515 Y78.319
N19410 X200.07 Y79.532
N19415 X199.556 Y80.717
N19420 X198.971 Y81.869
N19425 X198.313 Y82.981
N19430 X197.723 Y83.835
N19435 X197.483 Y84.128
N19440 X197.2 Y84.379
N19445 X196.881 Y84.581
N19450 X196.533 Y84.729
N19455 X196.166 Y84.819
N19460 X195.789 Y84.85
N19465 X187.355
N19470 G3 X186.13 Y83.537 Z-5.8 I0.044 J-1.269 F4000.
N19475 X186.533 Y82.652 I1.269 J0.043
N19480 X187.94 Y81.981 I1.768 J1.896
N19485 X194.181 Y83.762 I1.114 J7.922
N19490 X194.904 Y84.447 Z-5.9 I-5.128 J6.141
N19495 G2 X195.789 Y84.85 Z-6. I0.929 J-0.866
N19500 G1 X198.356
N19505 X198.544 Y84.84
N19510 X198.954 Y84.781
N19515 X199.402 Y84.673
N19520 X199.912 Y84.498
N19525 X200.464 Y84.248
N19530 X201.072 Y83.901
N19535 X201.705 Y83.457
N19540 X202.39 Y82.873
N19545 X203.092 Y82.151
N19550 X203.809 Y81.26
N19555 X204.521 Y80.182
N19560 X205.132 Y79.043
N19565 X205.648 Y77.859
N19570 X206.079 Y76.641
N19575 X206.43 Y75.397
N19580 X206.707 Y74.135
N19585 X206.912 Y72.86
N19590 X207.049 Y71.575
N19595 X207.122 Y70.285
N19600 X207.131 Y68.993
N19605 X207.079 Y67.702
N19610 X206.964 Y66.415
N19615 X206.785 Y65.135
N19620 X206.542 Y63.866
N19625 X206.236 Y62.611
N19630 X205.864 Y61.374
N19635 X205.42 Y60.16
N19640 X204.907 Y58.975
N19645 X204.323 Y57.822
N19650 X203.666 Y56.71
N19655 X203.084 Y55.866
N19660 X202.844 Y55.573
N19665 X202.561 Y55.322
N19670 X202.242 Y55.119
N19675 X201.893 Y54.971
N19680 X201.526 Y54.88
N19685 X201.149 Y54.85
N19690 X193.026
N19695 G2 X191.95 Y55.522 Z-5.867 I0.044 J1.269
N19700 X191.846 Y56.167 Z-5.8 I0.888 J0.473
N19705 X192.127 Y56.707 I0.992 J-0.172
N19710 X199.722 Y56.086 I3.533 J-3.538
N19715 X200.073 Y55.522 Z-5.867 I-4.061 J-2.917
N19720 G3 X201.149 Y54.85 Z-6. I1.121 J0.597
N19725 G1 X203.685 F3500.
N19730 X203.901 Y54.861
N19735 X204.309 Y54.92
N19740 X204.757 Y55.028
N19745 X205.265 Y55.203
N19750 X205.817 Y55.452
N19755 X206.423 Y55.798
N19760 X207.055 Y56.242
N19765 X207.739 Y56.825
N19770 X208.439 Y57.545
N19775 X209.155 Y58.434
N19780 X209.867 Y59.512
N19785 X210.477 Y60.651
N19790 X210.993 Y61.835
N19795 X211.423 Y63.054
N19800 X211.774 Y64.297
N19805 X212.05 Y65.559
N19810 X212.254 Y66.835
N19815 X212.391 Y68.12
N19820 X212.462 Y69.41
N19825 X212.471 Y70.702
N19830 X212.418 Y71.993
N19835 X212.302 Y73.28
N19840 X212.122 Y74.559
N19845 X211.878 Y75.828
N19850 X211.572 Y77.083
N19855 X211.199 Y78.32
N19860 X210.755 Y79.534
N19865 X210.241 Y80.719
N19870 X209.657 Y81.872
N19875 X209. Y82.984
N19880 X208.413 Y83.834
N19885 X208.174 Y84.127
N19890 X207.891 Y84.378
N19895 X207.571 Y84.581
N19900 X207.223 Y84.729
N19905 X206.856 Y84.819
N19910 X206.479 Y84.85
N19915 X198.356
N19920 G3 X197.279 Y84.178 Z-5.867 I0.044 J-1.269 F4000.
N19925 X197.176 Y83.533 Z-5.8 I0.888 J-0.473
N19930 X197.456 Y82.993 I0.991 J0.172
N19935 X205.051 Y83.614 I3.534 J3.537
N19940 X205.402 Y84.178 Z-5.867 I-4.061 J2.917
N19945 G2 X206.479 Y84.85 Z-6. I1.121 J-0.597
N19950 G1 X209.014
N19955 X209.232 Y84.839
N19960 X209.641 Y84.78
N19965 X210.089 Y84.671
N19970 X210.598 Y84.497
N19975 X211.15 Y84.247
N19980 X211.757 Y83.901
N19985 X212.39 Y83.456
N19990 X213.074 Y82.873
N19995 X213.775 Y82.152
N20000 X214.492 Y81.262
N20005 X215.204 Y80.184
N20010 X215.814 Y79.045
N20015 X216.331 Y77.861
N20020 X216.761 Y76.642
N20025 X217.112 Y75.399
N20030 X217.389 Y74.137
N20035 X217.594 Y72.861
N20040 X217.731 Y71.576
N20045 X217.803 Y70.286
N20050 X217.812 Y68.994
N20055 X217.76 Y67.703
N20060 X217.644 Y66.417
N20065 X217.465 Y65.137
N20070 X217.222 Y63.868
N20075 X216.916 Y62.613
N20080 X216.544 Y61.375
N20085 X216.1 Y60.162
N20090 X215.587 Y58.976
N20095 X215.003 Y57.824
N20100 X214.345 Y56.711
N20105 X213.762 Y55.866
N20110 X213.523 Y55.573
N20115 X213.24 Y55.322
N20120 X212.92 Y55.119
N20125 X212.572 Y54.971
N20130 X212.205 Y54.88
N20135 X211.828 Y54.85
N20140 X203.685
N20145 G2 X202.608 Y55.522 Z-5.867 I0.044 J1.269
N20150 X202.509 Y56.167 Z-5.8 I0.87 J0.464
N20155 X202.776 Y56.677 I0.969 J-0.181
N20160 X210.4 Y56.086 I3.563 J-3.508
N20165 X210.751 Y55.522 Z-5.867 I-4.061 J-2.917
N20170 G3 X211.828 Y54.85 Z-6. I1.121 J0.597
N20175 G1 X214.343 F3500.
N20180 X214.58 Y54.862
N20185 X214.989 Y54.921
N20190 X215.437 Y55.029
N20195 X215.945 Y55.204
N20200 X216.497 Y55.453
N20205 X217.103 Y55.799
N20210 X217.735 Y56.243
N20215 X218.419 Y56.826
N20220 X219.12 Y57.546
N20225 X219.835 Y58.435
N20230 X220.548 Y59.513
N20235 X221.158 Y60.652
N20240 X221.674 Y61.837
N20245 X222.104 Y63.055
N20250 X222.455 Y64.299
N20255 X222.731 Y65.561
N20260 X222.935 Y66.837
N20265 X223.072 Y68.121
N20270 X223.143 Y69.412
N20275 X223.152 Y70.704
N20280 X223.099 Y71.995
N20285 X222.984 Y73.281
N20290 X222.804 Y74.561
N20295 X222.56 Y75.83
N20300 X222.254 Y77.085
N20305 X221.881 Y78.322
N20310 X221.437 Y79.536
N20315 X220.924 Y80.721
N20320 X220.34 Y81.874
N20325 X219.682 Y82.986
N20330 X219.097 Y83.834
N20335 X218.858 Y84.127
N20340 X218.574 Y84.378
N20345 X218.255 Y84.581
N20350 X217.907 Y84.729
N20355 X217.539 Y84.819
N20360 X217.162 Y84.85
N20365 X209.014
N20370 G3 X207.938 Y84.178 Z-5.867 I0.044 J-1.269 F4000.
N20375 X207.84 Y83.533 Z-5.8 I0.865 J-0.461
N20380 X208.103 Y83.03 I0.963 J0.184
N20385 X215.735 Y83.614 I3.571 J3.5
N20390 X216.086 Y84.178 Z-5.867 I-4.061 J2.917
N20395 G2 X217.162 Y84.85 Z-6. I1.121 J-0.597
N20400 G1 X219.672
N20405 X219.916 Y84.838
N20410 X220.325 Y84.779
N20415 X220.773 Y84.67
N20420 X221.281 Y84.495
N20425 X221.833 Y84.246
N20430 X222.44 Y83.9
N20435 X223.072 Y83.456
N20440 X223.757 Y82.873
N20445 X224.458 Y82.152
N20450 X225.174 Y81.262
N20455 X225.886 Y80.184
N20460 X226.496 Y79.045
N20465 X227.013 Y77.861
N20470 X227.443 Y76.642
N20475 X227.794 Y75.399
N20480 X228.07 Y74.137
N20485 X228.275 Y72.861
N20490 X228.412 Y71.576
N20495 X228.484 Y70.286
N20500 X228.493 Y68.994
N20505 X228.441 Y67.703
N20510 X228.325 Y66.416
N20515 X228.146 Y65.137
N20520 X227.902 Y63.868
N20525 X227.596 Y62.613
N20530 X227.224 Y61.375
N20535 X226.78 Y60.162
N20540 X226.267 Y58.976
N20545 X225.683 Y57.824
N20550 X225.025 Y56.712
N20555 X224.441 Y55.866
N20560 X224.202 Y55.572
N20565 X223.919 Y55.322
N20570 X223.599 Y55.119
N20575 X223.251 Y54.971
N20580 X222.884 Y54.88
N20585 X222.507 Y54.85
N20590 X214.343
N20595 G2 X213.267 Y55.522 Z-5.867 I0.044 J1.269
N20600 X213.173 Y56.167 Z-5.8 I0.851 J0.454
N20605 X213.425 Y56.646 I0.945 J-0.192
N20610 X221.08 Y56.086 I3.594 J-3.477
N20615 X221.431 Y55.522 Z-5.867 I-4.061 J-2.917
N20620 G3 X222.507 Y54.85 Z-6. I1.121 J0.597
N20625 G1 X225.002 F3500.
N20630 X225.26 Y54.863
N20635 X225.669 Y54.922
N20640 X226.117 Y55.03
N20645 X226.626 Y55.205
N20650 X227.177 Y55.454
N20655 X227.784 Y55.801
N20660 X228.416 Y56.244
N20665 X229.1 Y56.827
N20670 X229.8 Y57.548
N20675 X230.516 Y58.437
N20680 X231.228 Y59.515
N20685 X231.838 Y60.654
N20690 X232.355 Y61.838
N20695 X232.785 Y63.057
N20700 X233.136 Y64.3
N20705 X233.412 Y65.562
N20710 X233.616 Y66.838
N20715 X233.753 Y68.123
N20720 X233.825 Y69.413
N20725 X233.833 Y70.705
N20730 X233.781 Y71.996
N20735 X233.665 Y73.283
N20740 X233.485 Y74.562
N20745 X233.242 Y75.831
N20750 X232.935 Y77.086
N20755 X232.563 Y78.324
N20760 X232.119 Y79.537
N20765 X231.605 Y80.723
N20770 X231.021 Y81.875
N20775 X230.363 Y82.987
N20780 X229.779 Y83.834
N20785 X229.539 Y84.127
N20790 X229.256 Y84.378
N20795 X228.937 Y84.581
N20800 X228.589 Y84.729
N20805 X228.221 Y84.819
N20810 X227.844 Y84.85
N20815 X219.672
N20820 G3 X218.596 Y84.178 Z-5.867 I0.044 J-1.269 F4000.
N20825 X218.504 Y83.533 Z-5.8 I0.844 J-0.45
N20830 X218.75 Y83.065 I0.936 J0.195
N20835 X226.417 Y83.614 I3.605 J3.465
N20840 X226.768 Y84.178 Z-5.867 I-4.061 J2.917
N20845 G2 X227.844 Y84.85 Z-6. I1.121 J-0.597
N20850 G1 X230.331
N20855 X230.598 Y84.837
N20860 X231.007 Y84.777
N20865 X231.455 Y84.669
N20870 X231.964 Y84.494
N20875 X232.515 Y84.245
N20880 X233.122 Y83.899
N20885 X233.754 Y83.455
N20890 X234.438 Y82.872
N20895 X235.139 Y82.151
N20900 X235.855 Y81.261
N20905 X236.568 Y80.183
N20910 X237.178 Y79.044
N20915 X237.694 Y77.86
N20920 X238.124 Y76.642
N20925 X238.475 Y75.398
N20930 X238.752 Y74.136
N20935 X238.956 Y72.86
N20940 X239.093 Y71.576
N20945 X239.165 Y70.285
N20950 X239.174 Y68.993
N20955 X239.121 Y67.702
N20960 X239.006 Y66.416
N20965 X238.826 Y65.136
N20970 X238.583 Y63.867
N20975 X238.276 Y62.612
N20980 X237.904 Y61.375
N20985 X237.46 Y60.161
N20990 X236.946 Y58.976
N20995 X236.362 Y57.823
N21000 X235.705 Y56.711
N21005 X235.121 Y55.865
N21010 X234.882 Y55.572
N21015 X234.599 Y55.321
N21020 X234.279 Y55.119
N21025 X233.931 Y54.971
N21030 X233.564 Y54.88
N21035 X233.187 Y54.85
N21040 X225.002
N21045 G2 X223.925 Y55.522 Z-5.867 I0.044 J1.269
N21050 X223.836 Y56.167 Z-5.8 I0.832 J0.443
N21055 X224.074 Y56.614 I0.92 J-0.202
N21060 X231.759 Y56.086 I3.624 J-3.444
N21065 X232.11 Y55.522 Z-5.867 I-4.061 J-2.917
N21070 G3 X233.187 Y54.85 Z-6. I1.121 J0.597
N21075 G1 X235.66 F3500.
N21080 X235.941 Y54.864
N21085 X236.35 Y54.923
N21090 X236.798 Y55.031
N21095 X237.306 Y55.206
N21100 X237.858 Y55.456
N21105 X238.464 Y55.802
N21110 X239.096 Y56.245
N21115 X239.78 Y56.828
N21120 X240.481 Y57.549
N21125 X241.197 Y58.438
N21130 X241.909 Y59.516
N21135 X242.519 Y60.655
N21140 X243.035 Y61.84
N21145 X243.466 Y63.058
N21150 X243.816 Y64.301
N21155 X244.093 Y65.564
N21160 X244.297 Y66.839
N21165 X244.434 Y68.124
N21170 X244.506 Y69.414
