%
(FLOORVENTWDAMPER)
(MACHINE)
(  VENDOR AUTODESK)
(  MODEL GENERIC 3-AXIS ROUTER)
(  DESCRIPTION THIS MACHINE HAS XYZ AXIS ON THE HEAD)
(T20 D=6.35 CR=0. - ZMIN=-19.05 - FLAT END MILL)
(T21 D=12.7 CR=0. - ZMIN=-12.7 - FLAT END MILL)
(T23 D=6.35 CR=0. TAPER=30DEG - ZMIN=-12.165 - CHAMFER MILL)
N10 G90 G94 G17 G91.1
N15 G21
N20 G53 G0 Z0.
(OUTSIDECLEARING)
N25 G53 G0 X-200 Y0
N30 T21 M6
(MANUAL TOOL CHANGE TO T21)
N35 S18500 M3
N40 G4 P3.0
N45 G17 G90 G94
N50 G54
(INSIDECLEARING)
N13875 G0 X100.146 Y69.728
N13880 Z15.
N13885 Z5.
N13890 Z2.5
N13895 G1 Z-6. F333.33
N13900 X100.139 Y69.691 F4000.
N13905 X100.102 Y69.7
N13910 X100.084 Y69.732
N13915 X100.089 Y69.769
N13920 X100.113 Y69.798
N13925 X100.148 Y69.812
N13930 X100.185 Y69.809
N13935 X100.219 Y69.793
N13940 X100.247 Y69.768
N13945 X100.267 Y69.736
N13950 X100.287 Y69.664
N13955 X100.269 Y69.591
N13960 X100.223 Y69.531
N13965 X100.159 Y69.492
N13970 X100.086 Y69.475
N13975 X99.937 Y69.485
N13980 X99.81 Y69.566
N13985 X99.73 Y69.692
N13990 X99.701 Y69.84
N13995 X99.724 Y69.988
N14000 X99.791 Y70.122
N14005 X99.894 Y70.231
N14010 X100.022 Y70.31
N14015 X100.165 Y70.354
N14020 X100.315 Y70.364
N14025 X100.463 Y70.341
N14030 X100.603 Y70.288
N14035 X100.73 Y70.207
N14040 X100.839 Y70.104
N14045 X100.927 Y69.983
N14050 X100.992 Y69.848
N14055 X101.033 Y69.703
N14060 X101.05 Y69.554
N14065 X101.042 Y69.404
N14070 X101.012 Y69.257
N14075 X100.961 Y69.117
N14080 X100.89 Y68.984
N14085 X100.803 Y68.862
N14090 X100.699 Y68.754
N14095 X100.583 Y68.659
N14100 X100.455 Y68.58
N14105 X100.319 Y68.518
N14110 X100.176 Y68.472
N14115 X100.029 Y68.444
N14120 X99.879 Y68.432
N14125 X99.729 Y68.437
N14130 X99.581 Y68.459
N14135 X99.436 Y68.497
N14140 X99.295 Y68.549
N14145 X99.161 Y68.616
N14150 X99.034 Y68.696
N14155 X98.916 Y68.788
N14160 X98.806 Y68.893
N14165 X98.707 Y69.007
N14170 X98.62 Y69.129
N14175 X98.54 Y69.266
N14180 X98.473 Y69.41
N14185 X98.421 Y69.558
N14190 X98.38 Y69.72
N14195 X98.355 Y69.885
N14200 X98.345 Y70.05
N14205 X98.352 Y70.227
N14210 X98.374 Y70.4
N14215 X98.413 Y70.573
N14220 X98.471 Y70.749
N14225 X98.543 Y70.915
N14230 X98.636 Y71.084
N14235 X98.743 Y71.242
N14240 X98.868 Y71.392
N14245 X99.009 Y71.533
N14250 X99.163 Y71.661
N14255 X99.334 Y71.778
N14260 X99.514 Y71.877
N14265 X99.712 Y71.964
N14270 X99.913 Y72.03
N14275 X100.13 Y72.08
N14280 X100.348 Y72.108
N14285 X100.577 Y72.117
N14290 X100.803 Y72.104
N14295 X101.038 Y72.068
N14300 X101.265 Y72.011
N14305 X101.495 Y71.931
N14310 X101.715 Y71.829
N14315 X101.931 Y71.704
N14320 X102.136 Y71.558
N14325 X102.328 Y71.392
N14330 X102.51 Y71.202
N14335 X102.674 Y70.996
N14340 X102.82 Y70.771
N14345 X102.948 Y70.528
N14350 X103.052 Y70.274
N14355 X103.134 Y70.005
N14360 X103.192 Y69.725
N14365 X103.223 Y69.437
N14370 X103.227 Y69.145
N14375 X103.204 Y68.846
N14380 X103.152 Y68.549
N14385 X103.072 Y68.254
N14390 X102.963 Y67.964
N14395 X102.824 Y67.679
N14400 X102.657 Y67.406
N14405 X102.464 Y67.147
N14410 X102.245 Y66.904
N14415 X102. Y66.679
N14420 X101.73 Y66.475
N14425 X101.44 Y66.294
N14430 X101.129 Y66.14
N14435 X100.801 Y66.013
N14440 X100.46 Y65.917
N14445 X100.106 Y65.852
N14450 X99.742 Y65.821
N14455 X99.373 Y65.823
N14460 X99.001 Y65.861
N14465 X98.629 Y65.934
N14470 X98.261 Y66.043
N14475 X97.899 Y66.188
N14480 X97.548 Y66.368
N14485 X97.212 Y66.583
N14490 X96.893 Y66.832
N14495 X96.596 Y67.112
N14500 X96.322 Y67.423
N14505 X96.076 Y67.762
N14510 X95.861 Y68.127
N14515 X95.678 Y68.515
N14520 X95.531 Y68.924
N14525 X95.421 Y69.349
N14530 X95.351 Y69.787
N14535 X95.321 Y70.236
N14540 X95.334 Y70.69
N14545 X95.39 Y71.146
N14550 X95.49 Y71.601
N14555 X95.633 Y72.049
N14560 X95.82 Y72.487
N14565 X96.05 Y72.912
N14570 X96.321 Y73.316
N14575 X96.632 Y73.698
N14580 X96.982 Y74.053
N14585 X97.367 Y74.377
N14590 X97.785 Y74.666
N14595 X98.233 Y74.918
N14600 X98.707 Y75.129
N14605 X99.204 Y75.297
N14610 X99.72 Y75.418
N14615 X100.251 Y75.491
N14620 X100.791 Y75.515
N14625 X101.336 Y75.487
N14630 X101.882 Y75.408
N14635 X102.424 Y75.277
N14640 X102.958 Y75.094
N14645 X103.477 Y74.859
N14650 X103.977 Y74.574
N14655 X104.453 Y74.24
N14660 X104.901 Y73.858
N14665 X105.314 Y73.433
N14670 X105.69 Y72.966
N14675 X106.024 Y72.462
N14680 X106.311 Y71.923
N14685 X106.549 Y71.355
N14690 X106.735 Y70.761
N14695 X106.865 Y70.147
N14700 X106.938 Y69.518
N14705 X106.952 Y68.878
N14710 X106.906 Y68.235
N14715 X106.799 Y67.593
N14720 X106.631 Y66.958
N14725 X106.402 Y66.336
N14730 X106.113 Y65.732
N14735 X105.766 Y65.153
N14740 X105.362 Y64.603
N14745 X104.904 Y64.089
N14750 X104.396 Y63.616
N14755 X103.841 Y63.189
N14760 X103.243 Y62.812
N14765 X102.607 Y62.49
N14770 X101.938 Y62.227
N14775 X101.241 Y62.026
N14780 X100.523 Y61.889
N14785 X99.789 Y61.82
N14790 X99.046
N14795 X98.3 Y61.89
N14800 X97.558 Y62.03
N14805 X96.826 Y62.241
N14810 X96.112 Y62.522
N14815 X95.421 Y62.871
N14820 X94.761 Y63.286
N14825 X94.137 Y63.766
N14830 X93.557 Y64.305
N14835 X93.026 Y64.901
N14840 X92.548 Y65.55
N14845 X92.131 Y66.246
N14850 X91.777 Y66.984
N14855 X91.491 Y67.759
N14860 X91.278 Y68.563
N14865 X91.139 Y69.39
N14870 X91.078 Y70.233
N14875 X91.096 Y71.085
N14880 X91.195 Y71.938
N14885 X91.374 Y72.784
N14890 X91.634 Y73.617
N14895 X91.973 Y74.427
N14900 X92.389 Y75.208
N14905 X92.88 Y75.951
N14910 X93.442 Y76.65
N14915 X94.071 Y77.298
N14920 X94.763 Y77.889
N14925 X95.513 Y78.416
N14930 X96.314 Y78.873
N14935 X97.16 Y79.257
N14940 X98.044 Y79.561
N14945 X98.959 Y79.783
N14950 X99.898 Y79.92
N14955 X100.852 Y79.968
N14960 X101.812 Y79.926
N14965 X102.772 Y79.794
N14970 X103.721 Y79.572
N14975 X104.653 Y79.259
N14980 X105.557 Y78.857
N14985 X106.426 Y78.37
N14990 X107.251 Y77.799
N14995 X108.025 Y77.149
N15000 X108.739 Y76.425
N15005 X109.386 Y75.631
N15010 X109.961 Y74.775
N15015 X110.456 Y73.864
N15020 X110.866 Y72.903
N15025 X111.187 Y71.902
N15030 X111.414 Y70.869
N15035 X111.544 Y69.812
N15040 X111.575 Y68.741
N15045 X111.505 Y67.665
N15050 X111.334 Y66.593
N15055 X111.061 Y65.535
N15060 X110.689 Y64.501
N15065 X110.218 Y63.501
N15070 X109.653 Y62.542
N15075 X108.996 Y61.636
N15080 X108.253 Y60.789
N15085 X107.429 Y60.011
N15090 X106.531 Y59.31
N15095 X105.565 Y58.691
N15100 X104.539 Y58.163
N15105 X103.462 Y57.731
N15110 X102.343 Y57.399
N15115 X101.191 Y57.172
N15120 X100.016 Y57.053
N15125 X98.828 Y57.044
N15130 X97.638 Y57.147
N15135 X96.455 Y57.362
N15140 X95.292 Y57.689
N15145 X94.157 Y58.126
N15150 X93.062 Y58.67
N15155 X92.017 Y59.318
N15160 X91.031 Y60.065
N15165 X90.113 Y60.906
N15170 X89.274 Y61.835
N15175 X88.521 Y62.844
N15180 X87.861 Y63.925
N15185 X87.303 Y65.07
N15190 X86.851 Y66.268
N15195 X86.512 Y67.511
N15200 X86.29 Y68.784
N15205 X86.187 Y70.072
N15210 X86.204 Y71.364
N15215 X86.34 Y72.648
N15220 X86.594 Y73.915
N15225 X86.961 Y75.154
N15230 X87.44 Y76.354
N15235 X88.024 Y77.507
N15240 X88.709 Y78.602
N15245 X89.489 Y79.632
N15250 X90.357 Y80.589
N15255 X91.307 Y81.465
N15260 X92.331 Y82.253
N15265 X93.42 Y82.949
N15270 X94.566 Y83.546
N15275 X95.759 Y84.04
N15280 X96.991 Y84.43
N15285 X98.252 Y84.713
N15290 X98.701 Y84.774
N15295 X98.789 Y84.782
N15300 X99.384 Y84.829
N15305 X100.676 Y84.8
N15310 X101.968
N15315 X103.255 Y84.684
N15320 X104.526 Y84.453
N15325 X105.772 Y84.111
N15330 X106.984 Y83.662
N15335 X108.153 Y83.112
N15340 X109.272 Y82.466
N15345 X110.333 Y81.729
N15350 X111.33 Y80.908
N15355 X112.256 Y80.007
N15360 X113.104 Y79.032
N15365 X113.87 Y77.991
N15370 X114.548 Y76.891
N15375 X115.136 Y75.741
N15380 X115.631 Y74.547
N15385 X116.031 Y73.318
N15390 X116.33 Y72.062
N15395 X116.528 Y70.785
N15400 X116.624 Y69.496
N15405 X116.62 Y68.204
N15410 X116.516 Y66.916
N15415 X116.314 Y65.64
N15420 X116.011 Y64.384
N15425 X115.611 Y63.155
N15430 X115.119 Y61.961
N15435 X114.537 Y60.807
N15440 X113.871 Y59.7
N15445 X113.121 Y58.648
N15450 X112.293 Y57.656
N15455 X111.392 Y56.73
N15460 X110.425 Y55.873
N15465 X109.715 Y55.331
N15470 X109.393 Y55.125
N15475 X109.042 Y54.973
N15480 X108.671 Y54.881
N15485 X108.29 Y54.85
N15490 X100.146
N15495 X99.384 Y54.871
N15500 X98.623 Y54.931
N15505 X97.862 Y55.029
N15510 X97.1 Y55.168
N15515 X96.664 Y55.26
N15520 X96.339 Y55.341
N15525 X95.578 Y55.568
N15530 X94.816 Y55.834
N15535 X94.34 Y56.022
N15540 X94.055 Y56.143
N15545 X93.294 Y56.509
N15550 X92.791 Y56.783
N15555 X92.532 Y56.926
N15560 X91.771 Y57.408
N15565 X91.571 Y57.545
N15570 X91.01 Y57.954
N15575 X90.578 Y58.306
N15580 X90.249 Y58.584
N15585 X89.729 Y59.068
N15590 X89.487 Y59.306
N15595 X88.991 Y59.829
N15600 X88.726 Y60.135
N15605 X88.345 Y60.591
N15610 X87.965 Y61.102
N15615 X87.787 Y61.352
N15620 X87.295 Y62.113
N15625 X86.868 Y62.875
N15630 X86.495 Y63.636
N15635 X86.442 Y63.751
N15640 X86.177 Y64.398
N15645 X85.904 Y65.159
N15650 X85.681 Y65.896
N15655 X85.674 Y65.921
N15660 X85.49 Y66.682
N15665 X85.345 Y67.443
N15670 X85.24 Y68.205
N15675 X85.174 Y68.966
N15680 X85.146 Y69.728
N15685 X85.161 Y70.489
N15690 X85.214 Y71.251
N15695 X85.307 Y72.012
N15700 X85.439 Y72.774
N15705 X85.611 Y73.535
N15710 X85.681 Y73.81
N15715 X85.823 Y74.296
N15720 X86.084 Y75.058
N15725 X86.388 Y75.819
N15730 X86.442 Y75.94
N15735 X86.743 Y76.581
N15740 X87.151 Y77.342
N15745 X87.203 Y77.429
N15750 X87.621 Y78.104
N15755 X87.965 Y78.589
N15760 X88.163 Y78.865
N15765 X88.726 Y79.564
N15770 X88.778 Y79.626
N15775 X89.487 Y80.395
N15780 X90.249 Y81.112
N15785 X90.292 Y81.149
N15790 X91.01 Y81.741
N15795 X91.241 Y81.911
N15800 X91.771 Y82.294
N15805 X92.367 Y82.672
N15810 X92.532 Y82.774
N15815 X93.294 Y83.191
N15820 X93.798 Y83.434
N15825 X94.055 Y83.554
N15830 X94.816 Y83.866
N15835 X95.578 Y84.136
N15840 X95.767 Y84.195
N15845 X96.339 Y84.353
N15850 X97.1 Y84.532
N15855 X97.862 Y84.67
N15860 X98.623 Y84.769
N15865 X98.789 Y84.782
N15870 X98.927 Y84.781
N15875 G3 X99.255 Y84.807 I0.074 J1.142
N15880 G1 X99.384 Y84.829
N15885 X100.146 Y84.85
N15890 X110.043
N15895 X110.648 Y84.82
N15900 X111.328 Y84.721
N15905 X112.103 Y84.534
N15910 X112.91 Y84.256
N15915 X113.777 Y83.864
N15920 X114.707 Y83.334
N15925 X115.631 Y82.685
N15930 X116.579 Y81.877
N15935 X117.479 Y80.951
N15940 X118.295 Y79.949
N15945 X119.027 Y78.884
N15950 X119.673 Y77.765
N15955 X120.232 Y76.601
N15960 X120.708 Y75.399
N15965 X121.102 Y74.169
N15970 X121.413 Y72.915
N15975 X121.64 Y71.643
N15980 X121.786 Y70.359
N15985 X121.852 Y69.069
N15990 X121.839 Y67.777
N15995 X121.745 Y66.488
N16000 X121.572 Y65.207
N16005 X121.324 Y63.94
N16010 X121.002 Y62.688
N16015 X120.604 Y61.459
N16020 X120.134 Y60.255
N16025 X119.594 Y59.081
N16030 X118.988 Y57.94
N16035 X118.315 Y56.837
N16040 X117.578 Y55.776
N16045 X117.558 Y55.75
N16050 X117.319 Y55.489
N16055 X117.043 Y55.266
N16060 X116.737 Y55.087
N16065 X116.408 Y54.956
N16070 X116.062 Y54.877
N16075 X115.709 Y54.85
N16080 X108.29
N16085 G2 X107.214 Y55.522 Z-5.867 I0.044 J1.269
N16090 X107.038 Y56.158 Z-5.8 I1.333 J0.71
N16095 X107.823 Y57.558 I1.508 J0.074
N16100 X114.281 Y56.086 I2.397 J-4.388
N16105 X114.632 Y55.522 Z-5.867 I-4.061 J-2.917
N16110 G3 X115.709 Y54.85 Z-6. I1.121 J0.597
N16115 G1 X118.075 F3500.
N16120 X118.522 Y54.872
N16125 X118.948 Y54.934
N16130 X119.414 Y55.047
N16135 X119.946 Y55.229
N16140 X120.517 Y55.488
N16145 X121.151 Y55.849
N16150 X121.803 Y56.307
N16155 X122.507 Y56.907
N16160 X123.228 Y57.649
N16165 X123.948 Y58.543
N16170 X124.66 Y59.621
N16175 X125.27 Y60.76
N16180 X125.783 Y61.946
N16185 X126.206 Y63.167
N16190 X126.544 Y64.414
N16195 X126.798 Y65.681
N16200 X126.972 Y66.961
N16205 X127.07 Y68.25
N16210 X127.095 Y69.541
N16215 X127.048 Y70.833
N16220 X126.928 Y72.119
N16225 X126.736 Y73.397
N16230 X126.475 Y74.662
N16235 X126.147 Y75.912
N16240 X125.75 Y77.141
N16245 X125.282 Y78.346
N16250 X124.746 Y79.522
N16255 X124.146 Y80.666
N16260 X123.477 Y81.771
N16265 X122.74 Y82.832
N16270 X121.938 Y83.846
N16275 X121.734 Y84.073
N16280 X121.447 Y84.342
N16285 X121.119 Y84.559
N16290 X120.76 Y84.719
N16295 X120.379 Y84.817
N16300 X119.988 Y84.85
N16305 X110.043
N16310 G3 X108.966 Y84.178 Z-5.867 I0.044 J-1.269 F4000.
N16315 X108.865 Y83.533 Z-5.8 I0.877 J-0.468
N16320 X109.094 Y83.057 I0.978 J0.177
N16325 X118.566 Y83.61 I4.522 J3.943
N16330 X118.911 Y84.178 Z-5.867 I-4.95 J3.391
N16335 G2 X119.988 Y84.85 Z-6. I1.121 J-0.597
N16340 G1 X122.643
N16345 X123.063 Y84.829
N16350 X123.526 Y84.762
N16355 X124.029 Y84.64
N16360 X124.607 Y84.442
N16365 X125.221 Y84.164
N16370 X125.897 Y83.778
N16375 X126.623 Y83.269
N16380 X127.367 Y82.635
N16385 X128.15 Y81.83
N16390 X128.948 Y80.838
N16395 X129.661 Y79.76
N16400 X130.281 Y78.626
N16405 X130.814 Y77.449
N16410 X131.264 Y76.238
N16415 X131.636 Y75.001
N16420 X131.933 Y73.743
N16425 X132.159 Y72.471
N16430 X132.316 Y71.189
N16435 X132.404 Y69.9
N16440 X132.424 Y68.608
N16445 X132.376 Y67.317
N16450 X132.262 Y66.03
N16455 X132.082 Y64.75
N16460 X131.831 Y63.483
N16465 X131.51 Y62.231
N16470 X131.12 Y60.999
N16475 X130.659 Y59.792
N16480 X130.123 Y58.617
N16485 X129.512 Y57.478
N16490 X128.826 Y56.383
N16495 X128.412 Y55.815
N16500 X128.172 Y55.536
N16505 X127.892 Y55.297
N16510 X127.578 Y55.105
N16515 X127.238 Y54.964
N16520 X126.88 Y54.879
N16525 X126.513 Y54.85
N16530 X118.075
N16535 G2 X116.85 Y56.162 Z-5.8 I0.044 J1.269
N16540 X117.253 Y57.048 I1.269 J-0.043
N16545 X118.655 Y57.718 I1.766 J-1.894
N16550 X124.905 Y55.938 I1.122 J-7.921
N16555 X125.629 Y55.253 Z-5.9 I-5.128 J-6.141
N16560 G3 X126.513 Y54.85 Z-6. I0.929 J0.866
N16565 G1 X129.076 F3500.
N16570 X129.29 Y54.861
N16575 X129.696 Y54.919
N16580 X130.145 Y55.028
N16585 X130.659 Y55.205
N16590 X131.201 Y55.45
N16595 X131.805 Y55.795
N16600 X132.438 Y56.239
N16605 X133.107 Y56.809
N16610 X133.813 Y57.535
N16615 X134.522 Y58.415
N16620 X135.221 Y59.474
N16625 X135.83 Y60.613
N16630 X136.341 Y61.8
N16635 X136.763 Y63.021
N16640 X137.103 Y64.268
N16645 X137.366 Y65.533
N16650 X137.555 Y66.811
N16655 X137.672 Y68.098
N16660 X137.721 Y69.389
N16665 X137.704 Y70.681
N16670 X137.623 Y71.97
N16675 X137.48 Y73.254
N16680 X137.271 Y74.529
N16685 X136.997 Y75.792
N16690 X136.658 Y77.039
N16695 X136.256 Y78.267
N16700 X135.785 Y79.47
N16705 X135.244 Y80.643
N16710 X134.635 Y81.783
N16715 X133.957 Y82.882
N16720 X133.207 Y83.935
N16725 X133.157 Y83.996
N16730 X132.866 Y84.29
N16735 X132.529 Y84.529
N16740 X132.155 Y84.706
N16745 X131.756 Y84.814
N16750 X131.344 Y84.85
N16755 X122.643
N16760 G3 X121.418 Y83.537 Z-5.8 I0.044 J-1.269 F4000.
N16765 X121.821 Y82.652 I1.269 J0.043
N16770 X122.894 Y82.089 I1.565 J1.678
N16775 X129.736 Y83.762 I1.715 J7.814
N16780 X130.46 Y84.447 Z-5.9 I-5.128 J6.141
N16785 G2 X131.344 Y84.85 Z-6. I0.929 J-0.866
N16790 G1 X133.874
N16795 X134.179 Y84.835
N16800 X134.607 Y84.773
N16805 X135.072 Y84.66
N16810 X135.605 Y84.477
N16815 X136.175 Y84.219
N16820 X136.809 Y83.858
N16825 X137.464 Y83.398
N16830 X138.173 Y82.794
N16835 X138.914 Y82.031
N16840 X139.66 Y81.105
N16845 X140.372 Y80.027
N16850 X140.986 Y78.89
N16855 X141.509 Y77.708
N16860 X141.948 Y76.493
N16865 X142.309 Y75.252
N16870 X142.598 Y73.993
N16875 X142.817 Y72.72
N16880 X142.966 Y71.436
N16885 X143.05 Y70.147
N16890 X143.069 Y68.855
N16895 X143.025 Y67.564
N16900 X142.919 Y66.276
N16905 X142.746 Y64.996
N16910 X142.508 Y63.726
N16915 X142.204 Y62.47
N16920 X141.833 Y61.232
N16925 X141.388 Y60.019
N16930 X140.872 Y58.835
N16935 X140.282 Y57.685
N16940 X139.619 Y56.576
N16945 X139.114 Y55.854
N16950 X138.875 Y55.564
N16955 X138.593 Y55.316
N16960 X138.274 Y55.116
N16965 X137.928 Y54.969
N16970 X137.563 Y54.88
N16975 X137.188 Y54.85
N16980 X129.076
N16985 G2 X127.999 Y55.522 Z-5.867 I0.044 J1.269
N16990 X127.894 Y56.167 Z-5.8 I0.897 J0.478
N16995 X128.181 Y56.722 I1.003 J-0.167
N17000 X135.761 Y56.086 I3.518 J-3.553
N17005 X136.112 Y55.522 Z-5.867 I-4.061 J-2.917
N17010 G3 X137.188 Y54.85 Z-6. I1.121 J0.597
N17015 G1 X139.734 F3500.
N17020 X139.933 Y54.86
N17025 X140.343 Y54.919
N17030 X140.783 Y55.026
N17035 X141.294 Y55.201
N17040 X141.834 Y55.446
N17045 X142.44 Y55.791
N17050 X143.062 Y56.227
N17055 X143.735 Y56.802
N17060 X144.433 Y57.519
N17065 X145.136 Y58.393
N17070 X145.845 Y59.466
N17075 X146.454 Y60.606
N17080 X146.967 Y61.792
N17085 X147.392 Y63.012
N17090 X147.736 Y64.257
N17095 X148.004 Y65.521
N17100 X148.2 Y66.798
N17105 X148.326 Y68.084
N17110 X148.386 Y69.375
N17115 X148.383 Y70.667
N17120 X148.317 Y71.957
N17125 X148.188 Y73.243
N17130 X147.996 Y74.52
N17135 X147.74 Y75.787
N17140 X147.421 Y77.039
N17145 X147.038 Y78.273
N17150 X146.584 Y79.482
N17155 X146.061 Y80.664
N17160 X145.468 Y81.812
N17165 X144.805 Y82.921
N17170 X144.163 Y83.842
N17175 X143.924 Y84.133
N17180 X143.641 Y84.382
N17185 X143.322 Y84.583
N17190 X142.976 Y84.73
N17195 X142.61 Y84.82
N17200 X142.234 Y84.85
N17205 X133.874
N17210 G3 X132.649 Y83.537 Z-5.8 I0.044 J-1.269 F4000.
N17215 X133.052 Y82.652 I1.269 J0.043
N17220 X134.537 Y81.961 I1.803 J1.933
N17225 X140.627 Y83.762 I0.962 J7.942
N17230 X141.35 Y84.447 Z-5.9 I-5.128 J6.141
N17235 G2 X142.234 Y84.85 Z-6. I0.929 J-0.866
N17240 G1 X144.721
N17245 X145.019 Y84.835
N17250 X145.434 Y84.775
N17255 X145.89 Y84.665
N17260 X146.407 Y84.487
N17265 X146.967 Y84.233
N17270 X147.584 Y83.881
N17275 X148.227 Y83.431
N17280 X148.921 Y82.839
N17285 X149.638 Y82.101
N17290 X150.367 Y81.196
N17295 X151.08 Y80.118
N17300 X151.692 Y78.98
N17305 X152.211 Y77.797
N17310 X152.646 Y76.58
N17315 X153.003 Y75.338
N17320 X153.286 Y74.078
N17325 X153.499 Y72.803
N17330 X153.643 Y71.519
N17335 X153.722 Y70.23
N17340 X153.738 Y68.938
N17345 X153.692 Y67.646
N17350 X153.583 Y66.359
N17355 X153.409 Y65.079
N17360 X153.171 Y63.809
N17365 X152.869 Y62.553
N17370 X152.5 Y61.314
N17375 X152.058 Y60.1
N17380 X151.546 Y58.914
N17385 X150.962 Y57.761
N17390 X150.304 Y56.65
N17395 X149.76 Y55.863
N17400 X149.521 Y55.571
N17405 X149.238 Y55.32
N17410 X148.918 Y55.119
N17415 X148.571 Y54.971
N17420 X148.204 Y54.88
N17425 X147.827 Y54.85
N17430 X139.734
N17435 G2 X138.658 Y55.522 Z-5.867 I0.044 J1.269
N17440 X138.548 Y56.166 Z-5.8 I0.914 J0.487
N17445 X138.849 Y56.751 I1.024 J-0.157
N17450 X146.4 Y56.086 I3.49 J-3.581
N17455 X146.751 Y55.522 Z-5.867 I-4.061 J-2.917
N17460 G3 X147.827 Y54.85 Z-6. I1.121 J0.597
N17465 G1 X150.238 F3500.
N17470 X150.573 Y54.867
N17475 X150.982 Y54.926
N17480 X151.424 Y55.033
N17485 X151.931 Y55.207
N17490 X152.476 Y55.454
N17495 X153.081 Y55.799
N17500 X153.706 Y56.237
N17505 X154.383 Y56.815
N17510 X155.079 Y57.53
N17515 X155.787 Y58.41
N17520 X156.5 Y59.488
N17525 X157.108 Y60.628
N17530 X157.622 Y61.813
N17535 X158.049 Y63.032
N17540 X158.396 Y64.277
N17545 X158.667 Y65.54
N17550 X158.866 Y66.817
N17555 X158.997 Y68.102
N17560 X159.063 Y69.393
N17565 X159.065 Y70.685
N17570 X159.005 Y71.976
N17575 X158.883 Y73.262
N17580 X158.697 Y74.54
N17585 X158.447 Y75.808
N17590 X158.134 Y77.062
N17595 X157.757 Y78.297
N17600 X157.308 Y79.509
N17605 X156.79 Y80.693
N17610 X156.203 Y81.844
N17615 X155.543 Y82.954
N17620 X154.931 Y83.837
N17625 X154.692 Y84.13
N17630 X154.409 Y84.38
N17635 X154.09 Y84.581
N17640 X153.742 Y84.729
N17645 X153.375 Y84.82
N17650 X152.999 Y84.85
N17655 X144.721
N17660 G3 X143.644 Y84.178 Z-5.867 I0.044 J-1.269 F4000.
N17665 X143.584 Y83.533 Z-5.8 I0.741 J-0.395
N17670 X143.755 Y83.229 I0.801 J0.25
N17675 X151.571 Y83.614 I3.756 J3.301
N17680 X151.923 Y84.178 Z-5.867 I-4.061 J2.917
N17685 G2 X152.999 Y84.85 Z-6. I1.121 J-0.597
N17690 G1 X155.379
N17695 X155.769 Y84.83
N17700 X156.181 Y84.771
N17705 X156.632 Y84.662
N17710 X157.145 Y84.486
N17715 X157.7 Y84.234
N17720 X158.311 Y83.886
N17725 X158.948 Y83.439
N17730 X159.637 Y82.852
N17735 X160.346 Y82.123
N17740 X161.068 Y81.226
N17745 X161.78 Y80.148
N17750 X162.391 Y79.009
N17755 X162.909 Y77.826
N17760 X163.342 Y76.608
N17765 X163.696 Y75.365
N17770 X163.976 Y74.104
N17775 X164.184 Y72.829
N17780 X164.325 Y71.545
N17785 X164.401 Y70.255
N17790 X164.414 Y68.963
N17795 X164.365 Y67.672
N17800 X164.253 Y66.384
N17805 X164.077 Y65.105
N17810 X163.837 Y63.835
N17815 X163.533 Y62.579
N17820 X163.162 Y61.341
N17825 X162.72 Y60.127
N17830 X162.207 Y58.941
N17835 X161.623 Y57.789
N17840 X160.965 Y56.677
N17845 X160.404 Y55.864
N17850 X160.165 Y55.572
N17855 X159.882 Y55.321
N17860 X159.563 Y55.119
N17865 X159.215 Y54.971
N17870 X158.848 Y54.88
N17875 X158.471 Y54.85
N17880 X150.238
N17885 G2 X149.162 Y55.522 Z-5.867 I0.044 J1.269
N17890 X149.086 Y56.167 Z-5.8 I0.786 J0.419
N17895 X149.29 Y56.542 I0.862 J-0.226
N17900 X157.043 Y56.086 I3.692 J-3.372
N17905 X157.394 Y55.522 Z-5.867 I-4.061 J-2.917
N17910 G3 X158.471 Y54.85 Z-6. I1.121 J0.597
N17915 G1 X160.897 F3500.
N17920 X161.22 Y54.866
N17925 X161.629 Y54.925
N17930 X162.073 Y55.033
N17935 X162.581 Y55.207
N17940 X163.129 Y55.455
N17945 X163.734 Y55.8
N17950 X164.362 Y56.241
N17955 X165.042 Y56.821
N17960 X165.74 Y57.538
N17965 X166.452 Y58.422
N17970 X167.164 Y59.5
N17975 X167.773 Y60.639
N17980 X168.288 Y61.824
N17985 X168.716 Y63.043
N17990 X169.065 Y64.288
N17995 X169.338 Y65.55
N18000 X169.54 Y66.827
N18005 X169.673 Y68.112
N18010 X169.742 Y69.402
N18015 X169.747 Y70.694
N18020 X169.69 Y71.985
N18025 X169.571 Y73.271
N18030 X169.388 Y74.55
N18035 X169.141 Y75.819
N18040 X168.832 Y77.073
N18045 X168.456 Y78.31
N18050 X168.01 Y79.522
N18055 X167.494 Y80.707
N18060 X166.908 Y81.858
N18065 X166.249 Y82.969
N18070 X165.65 Y83.836
N18075 X165.41 Y84.129
N18080 X165.127 Y84.379
N18085 X164.808 Y84.581
N18090 X164.46 Y84.729
N18095 X164.093 Y84.82
N18100 X163.717 Y84.85
N18105 X155.379
N18110 G3 X154.154 Y83.537 Z-5.8 I0.044 J-1.269 F4000.
N18115 X154.557 Y82.652 I1.269 J0.043
N18120 X156.066 Y81.955 I1.813 J1.944
N18125 X162.109 Y83.762 I0.915 J7.947
N18130 X162.832 Y84.447 Z-5.9 I-5.128 J6.141
N18135 G2 X163.717 Y84.85 Z-6. I0.929 J-0.866
N18140 G1 X166.038
N18145 X166.482 Y84.828
N18150 X166.893 Y84.768
N18155 X167.342 Y84.66
N18160 X167.853 Y84.484
N18165 X168.406 Y84.234
N18170 X169.015 Y83.886
N18175 X169.649 Y83.441
N18180 X170.336 Y82.856
N18185 X171.041 Y82.131
N18190 X171.759 Y81.238
N18195 X172.472 Y80.16
N18200 X173.082 Y79.021
N18205 X173.6 Y77.837
N18210 X174.031 Y76.62
N18215 X174.383 Y75.376
N18220 X174.661 Y74.115
N18225 X174.868 Y72.839
N18230 X175.007 Y71.555
N18235 X175.081 Y70.265
N18240 X175.092 Y68.973
N18245 X175.041 Y67.682
N18250 X174.928 Y66.395
N18255 X174.75 Y65.115
N18260 X174.508 Y63.846
N18265 X174.203 Y62.59
N18270 X173.831 Y61.353
N18275 X173.388 Y60.139
N18280 X172.874 Y58.953
N18285 X172.29 Y57.801
N18290 X171.632 Y56.689
N18295 X171.063 Y55.864
N18300 X170.824 Y55.572
N18305 X170.54 Y55.321
N18310 X170.221 Y55.119
N18315 X169.873 Y54.971
N18320 X169.506 Y54.88
N18325 X169.129 Y54.85
N18330 X160.897
N18335 G2 X159.82 Y55.522 Z-5.867 I0.044 J1.269
N18340 X159.745 Y56.167 Z-5.8 I0.787 J0.419
N18345 X159.949 Y56.542 I0.862 J-0.226
N18350 X167.702 Y56.086 I3.691 J-3.372
N18355 X168.053 Y55.522 Z-5.867 I-4.061 J-2.917
N18360 G3 X169.129 Y54.85 Z-6. I1.121 J0.597
N18365 G1 X171.555 F3500.
N18370 X171.881 Y54.866
N18375 X172.29 Y54.925
N18380 X172.736 Y55.033
N18385 X173.244 Y55.208
N18390 X173.793 Y55.456
N18395 X174.4 Y55.802
N18400 X175.029 Y56.244
N18405 X175.711 Y56.825
N18410 X176.41 Y57.544
N18415 X177.123 Y58.43
N18420 X177.836 Y59.508
N18425 X178.445 Y60.647
N18430 X178.961 Y61.832
N18435 X179.39 Y63.051
N18440 X179.739 Y64.295
N18445 X180.014 Y65.557
N18450 X180.217 Y66.833
N18455 X180.352 Y68.118
N18460 X180.421 Y69.408
N18465 X180.428 Y70.7
N18470 X180.373 Y71.991
N18475 X180.256 Y73.278
N18480 X180.074 Y74.557
N18485 X179.829 Y75.826
N18490 X179.52 Y77.08
N18495 X179.146 Y78.317
N18500 X178.7 Y79.53
N18505 X178.185 Y80.715
N18510 X177.6 Y81.867
N18515 X176.941 Y82.978
N18520 X176.348 Y83.836
N18525 X176.109 Y84.129
N18530 X175.826 Y84.379
N18535 X175.506 Y84.581
N18540 X175.159 Y84.729
N18545 X174.792 Y84.82
N18550 X174.415 Y84.85
N18555 X166.038
N18560 G3 X164.813 Y83.537 Z-5.8 I0.044 J-1.269 F4000.
N18565 X165.216 Y82.652 I1.269 J0.043
N18570 X166.684 Y81.965 I1.796 J1.926
N18575 X172.807 Y83.762 I0.996 J7.938
N18580 X173.53 Y84.447 Z-5.9 I-5.128 J6.141
N18585 G2 X174.415 Y84.85 Z-6. I0.929 J-0.866
N18590 G1 X176.696
N18595 X177.179 Y84.826
N18600 X177.589 Y84.766
N18605 X178.037 Y84.658
N18610 X178.547 Y84.483
N18615 X179.099 Y84.233
N18620 X179.708 Y83.886
N18625 X180.341 Y83.442
N18630 X181.025 Y82.858
N18635 X181.729 Y82.135
N18640 X182.446 Y81.244
N18645 X183.158 Y80.166
N18650 X183.769 Y79.027
N18655 X184.285 Y77.843
N18660 X184.716 Y76.624
N18665 X185.068 Y75.381
N18670 X185.345 Y74.119
N18675 X185.551 Y72.844
N18680 X185.688 Y71.559
N18685 X185.761 Y70.269
N18690 X185.771 Y68.977
N18695 X185.719 Y67.686
N18700 X185.604 Y66.399
N18705 X185.425 Y65.119
N18710 X185.183 Y63.85
N18715 X184.877 Y62.595
N18720 X184.504 Y61.358
N18725 X184.061 Y60.144
N18730 X183.547 Y58.959
N18735 X182.962 Y57.807
N18740 X182.304 Y56.695
N18745 X181.73 Y55.864
N18750 X181.491 Y55.571
N18755 X181.208 Y55.321
N18760 X180.888 Y55.119
N18765 X180.54 Y54.971
N18770 X180.173 Y54.88
N18775 X179.797 Y54.85
N18780 X171.555
N18785 G2 X170.479 Y55.522 Z-5.867 I0.044 J1.269
N18790 X170.406 Y56.167 Z-5.8 I0.778 J0.415
N18795 X170.604 Y56.528 I0.85 J-0.231
N18800 X178.369 Y56.086 I3.704 J-3.358
N18805 X178.72 Y55.522 Z-5.867 I-4.061 J-2.917
N18810 G3 X179.797 Y54.85 Z-6. I1.121 J0.597
N18815 G1 X182.214 F3500.
N18820 X182.551 Y54.867
N18825 X182.96 Y54.926
N18830 X183.406 Y55.034
N18835 X183.915 Y55.209
N18840 X184.465 Y55.457
N18845 X185.072 Y55.804
N18850 X185.702 Y56.246
N18855 X186.384 Y56.828
N18860 X187.085 Y57.548
N18865 X187.799 Y58.435
N18870 X188.511 Y59.513
N18875 X189.121 Y60.652
N18880 X189.637 Y61.837
N18885 X190.066 Y63.055
N18890 X190.416 Y64.299
N18895 X190.692 Y65.562
N18900 X190.895 Y66.838
N18905 X191.031 Y68.122
N18910 X191.101 Y69.413
N18915 X191.109 Y70.705
N18920 X191.055 Y71.996
N18925 X190.938 Y73.282
N18930 X190.757 Y74.562
N18935 X190.512 Y75.83
N18940 X190.204 Y77.085
N18945 X189.831 Y78.322
N18950 X189.386 Y79.535
N18955 X188.871 Y80.72
N18960 X188.285 Y81.872
N18965 X187.627 Y82.983
N18970 X187.037 Y83.836
N18975 X186.798 Y84.129
N18980 X186.515 Y84.379
N18985 X186.196 Y84.581
N18990 X185.848 Y84.729
N18995 X185.481 Y84.82
N19000 X185.104 Y84.85
N19005 X176.696
N19010 G3 X175.471 Y83.537 Z-5.8 I0.044 J-1.269 F4000.
N19015 X175.874 Y82.652 I1.269 J0.043
N19020 X177.31 Y81.973 I1.781 J1.91
N19025 X183.496 Y83.762 I1.059 J7.93
N19030 X184.22 Y84.447 Z-5.9 I-5.128 J6.141
N19035 G2 X185.104 Y84.85 Z-6. I0.929 J-0.866
N19040 G1 X187.355
N19045 X187.868 Y84.824
N19050 X188.278 Y84.765
N19055 X188.725 Y84.657
N19060 X189.235 Y84.481
N19065 X189.786 Y84.232
N19070 X190.394 Y83.885
N19075 X191.027 Y83.442
N19080 X191.711 Y82.859
N19085 X192.413 Y82.136
N19090 X193.13 Y81.246
N19095 X193.842 Y80.168
N19100 X194.452 Y79.029
N19105 X194.969 Y77.845
N19110 X195.399 Y76.626
N19115 X195.75 Y75.383
N19120 X196.027 Y74.121
N19125 X196.232 Y72.845
N19130 X196.369 Y71.561
N19135 X196.441 Y70.27
N19140 X196.45 Y68.978
N19145 X196.398 Y67.687
N19150 X196.283 Y66.401
N19155 X196.103 Y65.121
N19160 X195.86 Y63.852
N19165 X195.553 Y62.597
N19170 X195.18 Y61.36
N19175 X194.736 Y60.147
N19180 X194.222 Y58.961
N19185 X193.637 Y57.809
N19190 X192.979 Y56.697
N19195 X192.403 Y55.864
N19200 X192.163 Y55.571
N19205 X191.88 Y55.321
N19210 X191.561 Y55.119
N19215 X191.213 Y54.971
N19220 X190.846 Y54.88
N19225 X190.469 Y54.85
N19230 X182.214
N19235 G2 X181.137 Y55.522 Z-5.867 I0.044 J1.269
N19240 X181.069 Y56.167 Z-5.8 I0.763 J0.407
N19245 X181.256 Y56.506 I0.832 J-0.238
N19250 X189.042 Y56.086 I3.724 J-3.336
N19255 X189.393 Y55.522 Z-5.867 I-4.061 J-2.917
N19260 G3 X190.469 Y54.85 Z-6. I1.121 J0.597
N19265 G1 X193.026 F3500.
N19270 X193.221 Y54.86
N19275 X193.631 Y54.919
N19280 X194.078 Y55.027
N19285 X194.587 Y55.202
N19290 X195.137 Y55.451
N19295 X195.745 Y55.797
N19300 X196.376 Y56.241
N19305 X197.059 Y56.823
N19310 X197.76 Y57.544
N19315 X198.475 Y58.432
N19320 X199.188 Y59.51
N19325 X199.798 Y60.649
N19330 X200.314 Y61.834
N19335 X200.744 Y63.052
N19340 X201.094 Y64.296
N19345 X201.37 Y65.558
N19350 X201.574 Y66.834
N19355 X201.71 Y68.119
N19360 X201.781 Y69.409
N19365 X201.789 Y70.701
N19370 X201.736 Y71.992
N19375 X201.62 Y73.279
N19380 X201.439 Y74.558
N19385 X201.195 Y75.827
N19390 X200.888 Y77.082
N19395 X200.515 Y78.319
N19400 X200.07 Y79.532
N19405 X199.556 Y80.717
N19410 X198.971 Y81.869
N19415 X198.313 Y82.981
N19420 X197.723 Y83.835
N19425 X197.483 Y84.128
N19430 X197.2 Y84.379
N19435 X196.881 Y84.581
N19440 X196.533 Y84.729
N19445 X196.166 Y84.819
N19450 X195.789 Y84.85
N19455 X187.355
N19460 G3 X186.13 Y83.537 Z-5.8 I0.044 J-1.269 F4000.
N19465 X186.533 Y82.652 I1.269 J0.043
N19470 X187.94 Y81.981 I1.768 J1.896
N19475 X194.181 Y83.762 I1.114 J7.922
N19480 X194.904 Y84.447 Z-5.9 I-5.128 J6.141
N19485 G2 X195.789 Y84.85 Z-6. I0.929 J-0.866
N19490 G1 X198.356
N19495 X198.544 Y84.84
N19500 X198.954 Y84.781
N19505 X199.402 Y84.673
N19510 X199.912 Y84.498
N19515 X200.464 Y84.248
N19520 X201.072 Y83.901
N19525 X201.705 Y83.457
N19530 X202.39 Y82.873
N19535 X203.092 Y82.151
N19540 X203.809 Y81.26
N19545 X204.521 Y80.182
N19550 X205.132 Y79.043
N19555 X205.648 Y77.859
N19560 X206.079 Y76.641
N19565 X206.43 Y75.397
N19570 X206.707 Y74.135
N19575 X206.912 Y72.86
N19580 X207.049 Y71.575
N19585 X207.122 Y70.285
N19590 X207.131 Y68.993
N19595 X207.079 Y67.702
N19600 X206.964 Y66.415
N19605 X206.785 Y65.135
N19610 X206.542 Y63.866
N19615 X206.236 Y62.611
N19620 X205.864 Y61.374
N19625 X205.42 Y60.16
N19630 X204.907 Y58.975
N19635 X204.323 Y57.822
N19640 X203.666 Y56.71
N19645 X203.084 Y55.866
N19650 X202.844 Y55.573
N19655 X202.561 Y55.322
N19660 X202.242 Y55.119
N19665 X201.893 Y54.971
N19670 X201.526 Y54.88
N19675 X201.149 Y54.85
N19680 X193.026
N19685 G2 X191.95 Y55.522 Z-5.867 I0.044 J1.269
N19690 X191.846 Y56.167 Z-5.8 I0.888 J0.473
N19695 X192.127 Y56.707 I0.992 J-0.172
N19700 X199.722 Y56.086 I3.533 J-3.538
N19705 X200.073 Y55.522 Z-5.867 I-4.061 J-2.917
N19710 G3 X201.149 Y54.85 Z-6. I1.121 J0.597
N19715 G1 X203.685 F3500.
N19720 X203.901 Y54.861
N19725 X204.309 Y54.92
N19730 X204.757 Y55.028
N19735 X205.265 Y55.203
N19740 X205.817 Y55.452
N19745 X206.423 Y55.798
N19750 X207.055 Y56.242
N19755 X207.739 Y56.825
N19760 X208.439 Y57.545
N19765 X209.155 Y58.434
N19770 X209.867 Y59.512
N19775 X210.477 Y60.651
N19780 X210.993 Y61.835
N19785 X211.423 Y63.054
N19790 X211.774 Y64.297
N19795 X212.05 Y65.559
N19800 X212.254 Y66.835
N19805 X212.391 Y68.12
N19810 X212.462 Y69.41
N19815 X212.471 Y70.702
N19820 X212.418 Y71.993
N19825 X212.302 Y73.28
N19830 X212.122 Y74.559
N19835 X211.878 Y75.828
N19840 X211.572 Y77.083
N19845 X211.199 Y78.32
N19850 X210.755 Y79.534
N19855 X210.241 Y80.719
N19860 X209.657 Y81.872
N19865 X209. Y82.984
N19870 X208.413 Y83.834
N19875 X208.174 Y84.127
N19880 X207.891 Y84.378
N19885 X207.571 Y84.581
N19890 X207.223 Y84.729
N19895 X206.856 Y84.819
N19900 X206.479 Y84.85
N19905 X198.356
N19910 G3 X197.279 Y84.178 Z-5.867 I0.044 J-1.269 F4000.
N19915 X197.176 Y83.533 Z-5.8 I0.888 J-0.473
N19920 X197.456 Y82.993 I0.991 J0.172
N19925 X205.051 Y83.614 I3.534 J3.537
N19930 X205.402 Y84.178 Z-5.867 I-4.061 J2.917
N19935 G2 X206.479 Y84.85 Z-6. I1.121 J-0.597
N19940 G1 X209.014
N19945 X209.232 Y84.839
N19950 X209.641 Y84.78
N19955 X210.089 Y84.671
N19960 X210.598 Y84.497
N19965 X211.15 Y84.247
N19970 X211.757 Y83.901
N19975 X212.39 Y83.456
N19980 X213.074 Y82.873
N19985 X213.775 Y82.152
N19990 X214.492 Y81.262
N19995 X215.204 Y80.184
N20000 X215.814 Y79.045
N20005 X216.331 Y77.861
N20010 X216.761 Y76.642
N20015 X217.112 Y75.399
N20020 X217.389 Y74.137
N20025 X217.594 Y72.861
N20030 X217.731 Y71.576
N20035 X217.803 Y70.286
N20040 X217.812 Y68.994
N20045 X217.76 Y67.703
N20050 X217.644 Y66.417
N20055 X217.465 Y65.137
N20060 X217.222 Y63.868
N20065 X216.916 Y62.613
N20070 X216.544 Y61.375
N20075 X216.1 Y60.162
N20080 X215.587 Y58.976
N20085 X215.003 Y57.824
N20090 X214.345 Y56.711
N20095 X213.762 Y55.866
N20100 X213.523 Y55.573
N20105 X213.24 Y55.322
N20110 X212.92 Y55.119
N20115 X212.572 Y54.971
N20120 X212.205 Y54.88
N20125 X211.828 Y54.85
N20130 X203.685
N20135 G2 X202.608 Y55.522 Z-5.867 I0.044 J1.269
N20140 X202.509 Y56.167 Z-5.8 I0.87 J0.464
N20145 X202.776 Y56.677 I0.969 J-0.181
N20150 X210.4 Y56.086 I3.563 J-3.508
N20155 X210.751 Y55.522 Z-5.867 I-4.061 J-2.917
N20160 G3 X211.828 Y54.85 Z-6. I1.121 J0.597
N20165 G1 X214.343 F3500.
N20170 X214.58 Y54.862
N20175 X214.989 Y54.921
N20180 X215.437 Y55.029
N20185 X215.945 Y55.204
N20190 X216.497 Y55.453
N20195 X217.103 Y55.799
N20200 X217.735 Y56.243
N20205 X218.419 Y56.826
N20210 X219.12 Y57.546
N20215 X219.835 Y58.435
N20220 X220.548 Y59.513
N20225 X221.158 Y60.652
N20230 X221.674 Y61.837
N20235 X222.104 Y63.055
N20240 X222.455 Y64.299
N20245 X222.731 Y65.561
N20250 X222.935 Y66.837
N20255 X223.072 Y68.121
N20260 X223.143 Y69.412
N20265 X223.152 Y70.704
N20270 X223.099 Y71.995
N20275 X222.984 Y73.281
N20280 X222.804 Y74.561
N20285 X222.56 Y75.83
N20290 X222.254 Y77.085
N20295 X221.881 Y78.322
N20300 X221.437 Y79.536
N20305 X220.924 Y80.721
N20310 X220.34 Y81.874
N20315 X219.682 Y82.986
N20320 X219.097 Y83.834
N20325 X218.858 Y84.127
N20330 X218.574 Y84.378
N20335 X218.255 Y84.581
N20340 X217.907 Y84.729
N20345 X217.539 Y84.819
N20350 X217.162 Y84.85
N20355 X209.014
N20360 G3 X207.938 Y84.178 Z-5.867 I0.044 J-1.269 F4000.
N20365 X207.84 Y83.533 Z-5.8 I0.865 J-0.461
N20370 X208.103 Y83.03 I0.963 J0.184
N20375 X215.735 Y83.614 I3.571 J3.5
N20380 X216.086 Y84.178 Z-5.867 I-4.061 J2.917
N20385 G2 X217.162 Y84.85 Z-6. I1.121 J-0.597
N20390 G1 X219.672
N20395 X219.916 Y84.838
N20400 X220.325 Y84.779
N20405 X220.773 Y84.67
N20410 X221.281 Y84.495
N20415 X221.833 Y84.246
N20420 X222.44 Y83.9
N20425 X223.072 Y83.456
N20430 X223.757 Y82.873
N20435 X224.458 Y82.152
N20440 X225.174 Y81.262
N20445 X225.886 Y80.184
N20450 X226.496 Y79.045
N20455 X227.013 Y77.861
N20460 X227.443 Y76.642
N20465 X227.794 Y75.399
N20470 X228.07 Y74.137
N20475 X228.275 Y72.861
N20480 X228.412 Y71.576
N20485 X228.484 Y70.286
N20490 X228.493 Y68.994
N20495 X228.441 Y67.703
N20500 X228.325 Y66.416
N20505 X228.146 Y65.137
N20510 X227.902 Y63.868
N20515 X227.596 Y62.613
N20520 X227.224 Y61.375
N20525 X226.78 Y60.162
N20530 X226.267 Y58.976
N20535 X225.683 Y57.824
N20540 X225.025 Y56.712
N20545 X224.441 Y55.866
N20550 X224.202 Y55.572
N20555 X223.919 Y55.322
N20560 X223.599 Y55.119
N20565 X223.251 Y54.971
N20570 X222.884 Y54.88
N20575 X222.507 Y54.85
N20580 X214.343
N20585 G2 X213.267 Y55.522 Z-5.867 I0.044 J1.269
N20590 X213.173 Y56.167 Z-5.8 I0.851 J0.454
N20595 X213.425 Y56.646 I0.945 J-0.192
N20600 X221.08 Y56.086 I3.594 J-3.477
N20605 X221.431 Y55.522 Z-5.867 I-4.061 J-2.917
N20610 G3 X222.507 Y54.85 Z-6. I1.121 J0.597
N20615 G1 X225.002 F3500.
N20620 X225.26 Y54.863
N20625 X225.669 Y54.922
N20630 X226.117 Y55.03
N20635 X226.626 Y55.205
N20640 X227.177 Y55.454
N20645 X227.784 Y55.801
N20650 X228.416 Y56.244
N20655 X229.1 Y56.827
N20660 X229.8 Y57.548
N20665 X230.516 Y58.437
N20670 X231.228 Y59.515
N20675 X231.838 Y60.654
N20680 X232.355 Y61.838
N20685 X232.785 Y63.057
N20690 X233.136 Y64.3
N20695 X233.412 Y65.562
N20700 X233.616 Y66.838
N20705 X233.753 Y68.123
N20710 X233.825 Y69.413
N20715 X233.833 Y70.705
N20720 X233.781 Y71.996
N20725 X233.665 Y73.283
N20730 X233.485 Y74.562
N20735 X233.242 Y75.831
N20740 X232.935 Y77.086
N20745 X232.563 Y78.324
N20750 X232.119 Y79.537
N20755 X231.605 Y80.723
N20760 X231.021 Y81.875
N20765 X230.363 Y82.987
N20770 X229.779 Y83.834
N20775 X229.539 Y84.127
N20780 X229.256 Y84.378
N20785 X228.937 Y84.581
N20790 X228.589 Y84.729
N20795 X228.221 Y84.819
N20800 X227.844 Y84.85
N20805 X219.672
N20810 G3 X218.596 Y84.178 Z-5.867 I0.044 J-1.269 F4000.
N20815 X218.504 Y83.533 Z-5.8 I0.844 J-0.45
N20820 X218.75 Y83.065 I0.936 J0.195
N20825 X226.417 Y83.614 I3.605 J3.465
N20830 X226.768 Y84.178 Z-5.867 I-4.061 J2.917
N20835 G2 X227.844 Y84.85 Z-6. I1.121 J-0.597
N20840 G1 X230.331
N20845 X230.598 Y84.837
N20850 X231.007 Y84.777
N20855 X231.455 Y84.669
N20860 X231.964 Y84.494
N20865 X232.515 Y84.245
N20870 X233.122 Y83.899
N20875 X233.754 Y83.455
N20880 X234.438 Y82.872
N20885 X235.139 Y82.151
N20890 X235.855 Y81.261
N20895 X236.568 Y80.183
N20900 X237.178 Y79.044
N20905 X237.694 Y77.86
N20910 X238.124 Y76.642
N20915 X238.475 Y75.398
N20920 X238.752 Y74.136
N20925 X238.956 Y72.86
N20930 X239.093 Y71.576
N20935 X239.165 Y70.285
N20940 X239.174 Y68.993
N20945 X239.121 Y67.702
N20950 X239.006 Y66.416
N20955 X238.826 Y65.136
N20960 X238.583 Y63.867
N20965 X238.276 Y62.612
N20970 X237.904 Y61.375
N20975 X237.46 Y60.161
N20980 X236.946 Y58.976
N20985 X236.362 Y57.823
N20990 X235.705 Y56.711
N20995 X235.121 Y55.865
N21000 X234.882 Y55.572
N21005 X234.599 Y55.321
N21010 X234.279 Y55.119
N21015 X233.931 Y54.971
N21020 X233.564 Y54.88
N21025 X233.187 Y54.85
N21030 X225.002
N21035 G2 X223.925 Y55.522 Z-5.867 I0.044 J1.269
N21040 X223.836 Y56.167 Z-5.8 I0.832 J0.443
N21045 X224.074 Y56.614 I0.92 J-0.202
N21050 X231.759 Y56.086 I3.624 J-3.444
N21055 X232.11 Y55.522 Z-5.867 I-4.061 J-2.917
N21060 G3 X233.187 Y54.85 Z-6. I1.121 J0.597
N21065 G1 X235.66 F3500.
N21070 X235.941 Y54.864
N21075 X236.35 Y54.923
N21080 X236.798 Y55.031
N21085 X237.306 Y55.206
N21090 X237.858 Y55.456
N21095 X238.464 Y55.802
N21100 X239.096 Y56.245
N21105 X239.78 Y56.828
N21110 X240.481 Y57.549
N21115 X241.197 Y58.438
N21120 X241.909 Y59.516
N21125 X242.519 Y60.655
N21130 X243.035 Y61.84
N21135 X243.466 Y63.058
N21140 X243.816 Y64.301
N21145 X244.093 Y65.564
N21150 X244.297 Y66.839
N21155 X244.434 Y68.124
N21160 X244.506 Y69.414
N21165 X244.514 Y70.706
N21170 X244.462 Y71.997
N21175 X244.346 Y73.284
N21180 X244.166 Y74.564
N21185 X243.923 Y75.833
N21190 X243.616 Y77.088
N21195 X243.243 Y78.325
N21200 X242.799 Y79.538
N21205 X242.286 Y80.724
N21210 X241.701 Y81.876
N21215 X241.043 Y82.988
N21220 X240.46 Y83.835
N21225 X240.22 Y84.128
N21230 X239.937 Y84.378
N21235 X239.618 Y84.581
N21240 X239.27 Y84.729
N21245 X238.902 Y84.819
N21250 X238.525 Y84.85
N21255 X230.331
N21260 G3 X229.254 Y84.178 Z-5.867 I0.044 J-1.269 F4000.
N21265 X229.168 Y83.533 Z-5.8 I0.823 J-0.439
N21270 X229.399 Y83.1 I0.909 J0.207
N21275 X237.098 Y83.614 I3.638 J3.43
N21280 X237.449 Y84.178 Z-5.867 I-4.061 J2.917
N21285 G2 X238.525 Y84.85 Z-6. I1.121 J-0.597
N21290 G1 X240.989
N21295 X241.28 Y84.835
N21300 X241.689 Y84.776
N21305 X242.137 Y84.668
N21310 X242.646 Y84.493
N21315 X243.197 Y84.244
N21320 X243.804 Y83.897
N21325 X244.436 Y83.454
N21330 X245.12 Y82.871
N21335 X245.821 Y82.15
N21340 X246.537 Y81.26
N21345 X247.249 Y80.183
N21350 X247.859 Y79.044
N21355 X248.375 Y77.859
N21360 X248.806 Y76.641
N21365 X249.156 Y75.397
N21370 X249.433 Y74.135
N21375 X249.637 Y72.859
N21380 X249.774 Y71.575
N21385 X249.846 Y70.285
N21390 X249.855 Y68.993
N21395 X249.802 Y67.702
N21400 X249.686 Y66.415
N21405 X249.507 Y65.135
N21410 X249.263 Y63.866
N21415 X248.957 Y62.611
N21420 X248.584 Y61.374
N21425 X248.14 Y60.161
N21430 X247.626 Y58.975
N21435 X247.042 Y57.823
N21440 X246.384 Y56.711
N21445 X245.801 Y55.865
N21450 X245.562 Y55.572
N21455 X245.279 Y55.321
N21460 X244.959 Y55.119
N21465 X244.611 Y54.971
N21470 X244.244 Y54.88
N21475 X243.867 Y54.85
N21480 X235.66
N21485 G2 X234.584 Y55.522 Z-5.867 I0.044 J1.269
N21490 X234.501 Y56.167 Z-5.8 I0.811 J0.432
N21495 X234.723 Y56.582 I0.894 J-0.213
N21500 X242.439 Y56.086 I3.655 J-3.412
N21505 X242.79 Y55.522 Z-5.867 I-4.061 J-2.917
N21510 G3 X243.867 Y54.85 Z-6. I1.121 J0.597
N21515 G1 X246.319 F3500.
N21520 X246.622 Y54.865
N21525 X247.031 Y54.924
N21530 X247.478 Y55.033
N21535 X247.987 Y55.207
N21540 X248.538 Y55.457
N21545 X249.145 Y55.803
N21550 X249.777 Y56.247
N21555 X250.461 Y56.829
N21560 X251.162 Y57.55
N21565 X251.878 Y58.439
N21570 X252.59 Y59.517
N21575 X253.2 Y60.656
N21580 X253.716 Y61.841
N21585 X254.147 Y63.059
N21590 X254.497 Y64.303
N21595 X254.773 Y65.565
N21600 X254.978 Y66.841
N21605 X255.115 Y68.125
N21610 X255.186 Y69.415
N21615 X255.195 Y70.708
N21620 X255.142 Y71.998
N21625 X255.027 Y73.285
N21630 X254.847 Y74.565
N21635 X254.603 Y75.834
N21640 X254.297 Y77.089
N21645 X253.924 Y78.326
N21650 X253.48 Y79.539
N21655 X252.966 Y80.725
N21660 X252.382 Y81.877
N21665 X251.724 Y82.989
N21670 X251.14 Y83.835
N21675 X250.901 Y84.128
N21680 X250.618 Y84.379
N21685 X250.298 Y84.581
N21690 X249.95 Y84.729
N21695 X249.583 Y84.819
N21700 X249.206 Y84.85
N21705 X240.989
N21710 G3 X239.913 Y84.178 Z-5.867 I0.044 J-1.269 F4000.
N21715 X239.833 Y83.533 Z-5.8 I0.802 J-0.427
N21720 X240.048 Y83.134 I0.882 J0.218
N21725 X247.778 Y83.614 I3.669 J3.396
N21730 X248.13 Y84.178 Z-5.867 I-4.061 J2.917
N21735 G2 X249.206 Y84.85 Z-6. I1.121 J-0.597
N21740 G1 X251.648
N21745 X251.962 Y84.834
N21750 X252.371 Y84.775
N21755 X252.818 Y84.667
N21760 X253.327 Y84.492
N21765 X253.878 Y84.243
N21770 X254.485 Y83.896
N21775 X255.117 Y83.453
N21780 X255.801 Y82.87
N21785 X256.502 Y82.149
N21790 X257.218 Y81.26
N21795 X257.93 Y80.182
N21800 X258.54 Y79.043
N21805 X259.057 Y77.858
N21810 X259.487 Y76.64
N21815 X259.837 Y75.396
N21820 X260.114 Y74.134
N21825 X260.318 Y72.858
N21830 X260.455 Y71.574
N21835 X260.527 Y70.284
N21840 X260.535 Y68.992
N21845 X260.483 Y67.701
N21850 X260.367 Y66.414
N21855 X260.187 Y65.134
N21860 X259.944 Y63.865
N21865 X259.637 Y62.61
N21870 X259.264 Y61.373
N21875 X258.82 Y60.16
N21880 X258.306 Y58.974
N21885 X257.722 Y57.822
N21890 X257.064 Y56.71
N21895 X256.493 Y55.883
N21900 X256.227 Y55.562
N21905 X255.908 Y55.293
N21910 X255.546 Y55.085
N21915 X255.154 Y54.944
N21920 X254.743 Y54.875
N21925 X254.693 Y54.871
N21930 X253.932 Y54.85
N21935 X246.319
N21940 G2 X245.094 Y56.162 Z-5.8 I0.044 J1.269
N21945 X245.497 Y57.048 I1.269 J-0.043
N21950 X246.347 Y57.462 I1.102 J-1.182
N21955 X253.059 Y55.838 I1.401 J-8.89
N21960 X253.83 Y55.207 Z-5.9 I-5.311 J-7.266
N21965 G3 X254.743 Y54.875 Z-6. I0.858 J0.936
N21970 G1 X255.454 Y54.931 F3500.
N21975 X256.216 Y55.029
N21980 X256.977 Y55.168
N21985 X257.413 Y55.26
N21990 X257.738 Y55.341
N21995 X258.5 Y55.568
N22000 X259.171 Y55.841
N22005 X259.743 Y56.138
N22010 X260.334 Y56.519
N22015 X260.981 Y57.029
N22020 X261.648 Y57.664
N22025 X262.336 Y58.453
N22030 X263.039 Y59.431
N22035 X263.691 Y60.546
N22040 X264.243 Y61.715
N22045 X264.704 Y62.922
N22050 X265.08 Y64.158
N22055 X265.377 Y65.415
N22060 X265.599 Y66.688
N22065 X265.752 Y67.971
N22070 X265.838 Y69.26
N22075 X265.859 Y70.552
N22080 X265.818 Y71.844
N22085 X265.712 Y73.131
N22090 X265.542 Y74.412
N22095 X265.308 Y75.683
N22100 X265.012 Y76.94
N22105 X264.647 Y78.18
N22110 X264.212 Y79.397
N22115 X263.708 Y80.586
N22120 X263.428 Y81.15
N22125 X263.233 Y81.475
N22130 X262.988 Y81.764
N22135 X262.7 Y82.009
N22140 X262.306 Y82.294
N22145 X261.71 Y82.672
N22150 X261.545 Y82.774
N22155 X260.784 Y83.191
N22160 X260.28 Y83.434
N22165 X260.022 Y83.554
N22170 X259.261 Y83.866
N22175 X258.5 Y84.136
N22180 X258.31 Y84.195
N22185 X257.738 Y84.353
N22190 X256.977 Y84.532
N22195 X256.216 Y84.67
N22200 X255.454 Y84.769
N22205 X254.693 Y84.829
N22210 X253.932 Y84.85
N22215 X251.648
N22220 G3 X250.571 Y84.178 Z-5.867 I0.044 J-1.269 F4000.
N22225 X250.561 Y83.537 Z-5.8 I0.62 J-0.331
N22230 X250.75 Y83.301 I0.63 J0.31
N22235 X260.827 Y81.823 I6.288 J7.776
N22240 X261.434 Y82.095 Z-5.867 I-3.79 J9.254
N22245 G2 X262.7 Y82.009 Z-6. I0.558 J-1.141
N22250 G1 X262.836 Y81.911
N22255 X263.068 Y81.741
N22260 X263.786 Y81.149
N22265 X263.829 Y81.112
N22270 X264.597 Y80.388
N22275 X265.299 Y79.626
N22280 X265.351 Y79.564
N22285 X265.915 Y78.865
N22290 X266.113 Y78.589
N22295 X266.456 Y78.104
N22300 X266.874 Y77.429
N22305 X266.926 Y77.342
N22310 X267.334 Y76.581
N22315 X267.635 Y75.94
N22320 X267.689 Y75.819
N22325 X267.993 Y75.058
N22330 X268.255 Y74.296
N22335 X268.397 Y73.81
N22340 X268.466 Y73.535
N22345 X268.639 Y72.774
N22350 X268.771 Y72.012
N22355 X268.863 Y71.251
N22360 X268.917 Y70.489
N22365 X268.931 Y69.728
N22370 X268.904 Y68.966
N22375 X268.838 Y68.205
N22380 X268.733 Y67.443
N22385 X268.588 Y66.682
N22390 X268.403 Y65.921
N22395 X268.397 Y65.896
N22400 X268.173 Y65.159
N22405 X267.9 Y64.398
N22410 X267.635 Y63.751
N22415 X267.583 Y63.636
N22420 X267.21 Y62.875
N22425 X266.783 Y62.113
N22430 X266.29 Y61.352
N22435 X266.113 Y61.102
N22440 X265.732 Y60.591
N22445 X265.351 Y60.135
N22450 X265.086 Y59.829
N22455 X264.59 Y59.306
N22460 X264.349 Y59.068
N22465 X263.829 Y58.584
N22470 X263.5 Y58.306
N22475 X263.068 Y57.954
N22480 X262.506 Y57.545
N22485 X262.306 Y57.408
N22490 X261.545 Y56.926
N22495 X261.286 Y56.783
N22500 X260.784 Y56.509
N22505 X260.022 Y56.143
N22510 X259.738 Y56.022
N22515 X259.261 Y55.834
N22520 X258.5 Y55.568
N22525 X258.549 Y55.427
N22530 X258.562 Y55.277
N22535 X258.558 Y55.127
N22540 X258.541 Y54.978
N22545 X258.515 Y54.831
N22550 X258.48 Y54.685
N22555 X258.437 Y54.541
N22560 X258.387 Y54.4
N22565 X258.33 Y54.261
N22570 X258.268 Y54.124
N22575 X258.2 Y53.99
N22580 X258.128 Y53.859
N22585 X258.05 Y53.73
N22590 X257.969 Y53.605
N22595 X257.883 Y53.482
N22600 X257.793 Y53.361
N22605 X257.7 Y53.243
N22610 X257.604 Y53.128
N22615 X257.505 Y53.016
N22620 X257.403 Y52.906
N22625 X257.298 Y52.799
N22630 X257.19 Y52.694
N22635 X257.081 Y52.592
N22640 X256.969 Y52.492
N22645 X256.855 Y52.394
N22650 X256.74 Y52.299
N22655 X256.622 Y52.205
N22660 X256.503 Y52.114
N22665 X256.382 Y52.025
N22670 X256.26 Y51.938
N22675 X256.136 Y51.853
N22680 X256.011 Y51.77
N22685 X255.885 Y51.689
N22690 X255.758 Y51.61
N22695 X255.629 Y51.533
N22700 X255.5 Y51.457
N22705 X255.369 Y51.383
N22710 X255.238 Y51.311
N22715 X255.105 Y51.241
N22720 X254.972 Y51.172
N22725 X254.838 Y51.105
N22730 X254.703 Y51.039
N22735 X254.567 Y50.975
N22740 X254.431 Y50.913
N22745 X254.294 Y50.851
N22750 X254.156 Y50.792
N22755 X254.018 Y50.733
N22760 X253.879 Y50.677
N22765 X253.74 Y50.621
N22770 X253.6 Y50.567
N22775 X253.46 Y50.514
N22780 X253.319 Y50.462
N22785 X253.174 Y50.41
N22790 X253.024 Y50.357
N22795 X252.87 Y50.305
N22800 X252.71 Y50.253
N22805 X252.546 Y50.2
N22810 X252.376 Y50.147
N22815 X252.201 Y50.095
N22820 X252.019 Y50.042
N22825 X251.831 Y49.989
N22830 X251.637 Y49.935
N22835 X251.435 Y49.882
N22840 X251.225 Y49.829
N22845 X251.008 Y49.775
N22850 X250.781 Y49.722
N22855 X250.545 Y49.668
N22860 X250.299 Y49.614
N22865 X250.042 Y49.561
N22870 X249.773 Y49.507
N22875 X249.491 Y49.453
N22880 X249.195 Y49.399
N22885 X248.883 Y49.345
N22890 X248.554 Y49.29
N22895 X248.207 Y49.236
N22900 X247.838 Y49.182
N22905 X247.445 Y49.128
N22910 X247.025 Y49.073
N22915 X246.575 Y49.019
N22920 X246.09 Y48.964
N22925 X245.563 Y48.91
N22930 X244.988 Y48.855
N22935 X244.354 Y48.801
N22940 X243.65 Y48.746
N22945 X242.856 Y48.691
N22950 X241.948 Y48.637
N22955 X240.888 Y48.582
N22960 X239.615 Y48.528
N22965 X238.324 Y48.483
N22970 X237.033 Y48.448
N22975 X235.741 Y48.42
N22980 X234.449 Y48.398
N22985 X233.157 Y48.38
N22990 X231.865 Y48.365
N22995 X230.573 Y48.354
N23000 X229.281 Y48.345
N23005 X227.989 Y48.338
N23010 X226.697 Y48.332
N23015 X224.113 Y48.324
N23020 X221.529 Y48.319
N23025 X217.653 Y48.314
N23030 X211.192 Y48.311
N23035 X209.9
N23040 X208.613 Y48.421
N23045 X207.324 Y48.508
N23050 X206.034 Y48.578
N23055 X204.743 Y48.633
N23060 X203.451 Y48.677
N23065 X202.16 Y48.712
N23070 X200.868 Y48.74
N23075 X199.576 Y48.763
N23080 X198.284 Y48.78
N23085 X196.992 Y48.795
N23090 X195.7 Y48.806
N23095 X194.408 Y48.815
N23100 X193.116 Y48.822
N23105 X191.824 Y48.828
N23110 X189.24 Y48.836
N23115 X186.656 Y48.841
N23120 X182.78 Y48.845
N23125 X176.32 Y48.848
N23130 X160.815 Y48.85
N23135 X110.425
N23140 X105.257
N23145 X103.964 Y48.858
N23150 X102.673 Y48.888
N23155 X101.382 Y48.953
N23160 X100.095 Y49.058
N23165 X98.812 Y49.216
N23170 X97.538 Y49.43
N23175 X96.276 Y49.705
N23180 X95.029 Y50.045
N23185 X93.803 Y50.452
N23190 X92.601 Y50.926
N23195 X91.428 Y51.469
N23200 X90.29 Y52.081
N23205 X89.191 Y52.76
N23210 X88.134 Y53.503
N23215 X87.125 Y54.31
N23220 X86.168 Y55.178
N23225 X85.266 Y56.103
N23230 X84.424 Y57.083
N23235 X83.646 Y58.114
N23240 X82.934 Y59.193
N23245 X82.292 Y60.314
N23250 X81.722 Y61.474
N23255 X81.227 Y62.667
N23260 X80.808 Y63.889
N23265 X80.467 Y65.135
N23270 X80.207 Y66.401
N23275 X80.029 Y67.681
N23280 X79.932 Y68.969
N23285 X79.917 Y70.261
N23290 X79.986 Y71.551
N23295 X80.136 Y72.835
N23300 X80.368 Y74.106
N23305 X80.679 Y75.36
N23310 X81.069 Y76.591
N23315 X81.539 Y77.795
N23320 X82.084 Y78.966
N23325 X82.704 Y80.1
N23330 X83.395 Y81.192
N23335 X84.154 Y82.238
N23340 X84.977 Y83.234
N23345 X85.862 Y84.175
N23350 X86.805 Y85.059
N23355 X87.802 Y85.879
N23360 X88.851 Y86.634
N23365 X89.945 Y87.322
N23370 X91.082 Y87.936
N23375 X92.255 Y88.478
N23380 X93.46 Y88.944
N23385 X94.692 Y89.332
N23390 X95.946 Y89.644
N23395 X97.214 Y89.891
N23400 X98.491 Y90.087
N23405 X99.774 Y90.243
N23410 X101.06 Y90.367
N23415 X102.348 Y90.466
N23420 X103.638 Y90.544
N23425 X104.928 Y90.606
N23430 X106.22 Y90.656
N23435 X107.511 Y90.696
N23440 X108.803 Y90.727
N23445 X110.095 Y90.752
N23450 X111.386 Y90.772
N23455 X112.678 Y90.788
N23460 X113.97 Y90.801
N23465 X115.262 Y90.811
N23470 X116.554 Y90.819
N23475 X117.846 Y90.825
N23480 X119.138 Y90.83
N23485 X121.723 Y90.837
N23490 X125.599 Y90.844
N23495 X126.891 Y90.845
N23500 X133.351 Y90.848
N23505 X148.856 Y90.85
N23510 X177.281
N23515 X227.671
N23520 X248.344
N23525 X249.636 Y90.846
N23530 X250.928 Y90.826
N23535 X252.219 Y90.776
N23540 X253.508 Y90.686
N23545 X254.793 Y90.548
N23550 X256.07 Y90.355
N23555 X257.337 Y90.102
N23560 X258.59 Y89.787
N23565 X259.825 Y89.407
N23570 X261.037 Y88.958
N23575 X262.22 Y88.44
N23580 X263.372 Y87.854
N23585 X264.486 Y87.2
N23590 X265.559 Y86.48
N23595 X266.586 Y85.696
N23600 X267.563 Y84.85
N23605 X268.486 Y83.946
N23610 X269.351 Y82.986
N23615 X270.153 Y81.974
N23620 X270.889 Y80.912
N23625 X271.558 Y79.806
N23630 X272.154 Y78.66
N23635 X272.677 Y77.479
N23640 X273.125 Y76.266
N23645 X273.494 Y75.028
N23650 X273.784 Y73.769
N23655 X273.993 Y72.494
N23660 X274.12 Y71.208
N23665 X274.164 Y69.917
N23670 X274.126 Y68.625
N23675 X274.006 Y67.339
N23680 X273.806 Y66.063
N23685 X273.524 Y64.802
N23690 X273.162 Y63.561
N23695 X272.722 Y62.347
N23700 X272.204 Y61.163
N23705 X271.612 Y60.015
N23710 X270.947 Y58.906
N23715 X270.214 Y57.843
N23720 X269.414 Y56.828
N23725 X268.551 Y55.866
N23730 X267.628 Y54.962
N23735 X266.71 Y54.053
N23740 X265.821 Y53.115
N23745 X264.936 Y52.174
N23750 X264.035 Y51.248
N23755 X263.103 Y50.353
N23760 X262.133 Y49.499
N23765 X261.121 Y48.696
N23770 X260.067 Y47.949
N23775 X258.973 Y47.262
N23780 X257.842 Y46.637
N23785 X256.68 Y46.073
N23790 X255.49 Y45.568
N23795 X254.279 Y45.119
N23800 X253.049 Y44.723
N23805 X251.804 Y44.376
N23810 X250.548 Y44.072
N23815 X249.283 Y43.809
N23820 X248.012 Y43.581
N23825 X246.735 Y43.384
N23830 X245.454 Y43.215
N23835 X244.17 Y43.071
N23840 X242.884 Y42.948
N23845 X241.596 Y42.844
N23850 X240.307 Y42.755
N23855 X239.017 Y42.681
N23860 X237.726 Y42.618
N23865 X236.435 Y42.566
N23870 X235.144 Y42.522
N23875 X233.852 Y42.485
N23880 X232.561 Y42.455
N23885 X231.269 Y42.43
N23890 X229.977 Y42.409
N23895 X228.685 Y42.391
N23900 X227.393 Y42.377
N23905 X226.101 Y42.365
N23910 X224.809 Y42.355
N23915 X223.517 Y42.347
N23920 X222.225 Y42.34
N23925 X219.641 Y42.33
N23930 X217.057 Y42.323
N23935 X215.765 Y42.321
N23940 X214.473 Y42.323
N23945 X213.181 Y42.346
N23950 X211.889 Y42.383
N23955 X210.598 Y42.425
N23960 X208.015 Y42.515
N23965 X206.724 Y42.557
N23970 X205.433 Y42.596
N23975 X204.141 Y42.631
N23980 X202.849 Y42.662
N23985 X201.558 Y42.69
N23990 X200.266 Y42.714
N23995 X198.974 Y42.735
N24000 X197.682 Y42.753
N24005 X196.39 Y42.769
N24010 X195.098 Y42.782
N24015 X193.806 Y42.793
N24020 X192.514 Y42.803
N24025 X191.222 Y42.811
N24030 X189.93 Y42.817
N24035 X187.346 Y42.828
N24040 X184.762 Y42.835
N24045 X180.886 Y42.841
N24050 X175.717 Y42.846
N24055 X166.673 Y42.849
N24060 X144.708 Y42.85
N24065 X111.115
N24070 X109.823
N24075 X108.531 Y42.854
N24080 X107.239 Y42.864
N24085 X105.947 Y42.886
N24090 X104.655 Y42.925
N24095 X103.365 Y42.987
N24100 X102.076 Y43.077
N24105 X100.789 Y43.199
N24110 X99.507 Y43.355
N24115 X98.23 Y43.551
N24120 X96.96 Y43.79
N24125 X95.7 Y44.076
N24130 X94.451 Y44.409
N24135 X93.217 Y44.79
N24140 X91.999 Y45.221
N24145 X90.801 Y45.706
N24150 X89.626 Y46.243
N24155 X88.476 Y46.831
N24160 X87.353 Y47.471
N24165 X86.261 Y48.161
N24170 X85.203 Y48.903
N24175 X84.182 Y49.695
N24180 X83.2 Y50.535
N24185 X82.259 Y51.42
N24190 X81.362 Y52.35
N24195 X80.513 Y53.323
N24200 X79.713 Y54.338
N24205 X78.963 Y55.391
N24210 X78.265 Y56.478
N24215 X77.623 Y57.599
N24220 X77.038 Y58.751
N24225 X76.512 Y59.931
N24230 X76.044 Y61.136
N24235 X75.637 Y62.362
N24240 X75.292 Y63.607
N24245 X75.011 Y64.868
N24250 X74.794 Y66.142
N24255 X74.64 Y67.425
N24260 X74.55 Y68.714
N24265 X74.527 Y70.005
N24270 X74.569 Y71.297
N24275 X74.675 Y72.584
N24280 X74.845 Y73.865
N24285 X75.078 Y75.136
N24290 X75.377 Y76.393
N24295 X75.74 Y77.633
N24300 X76.164 Y78.854
N24305 X76.648 Y80.052
N24310 X77.192 Y81.223
N24315 X77.796 Y82.366
N24320 X78.457 Y83.476
N24325 X79.171 Y84.553
N24330 X79.938 Y85.593
N24335 X80.757 Y86.592
N24340 X81.627 Y87.547
N24345 X82.543 Y88.458
N24350 X83.504 Y89.323
N24355 X84.506 Y90.138
N24360 X85.549 Y90.9
N24365 X86.629 Y91.609
N24370 X87.744 Y92.262
N24375 X88.89 Y92.86
N24380 X90.063 Y93.4
N24385 X91.262 Y93.881
N24390 X92.482 Y94.308
N24395 X93.719 Y94.682
N24400 X94.969 Y95.008
N24405 X96.23 Y95.291
N24410 X97.499 Y95.534
N24415 X98.774 Y95.743
N24420 X100.053 Y95.921
N24425 X101.337 Y96.073
N24430 X102.622 Y96.201
N24435 X103.91 Y96.309
N24440 X105.199 Y96.4
N24445 X106.488 Y96.476
N24450 X107.779 Y96.54
N24455 X109.07 Y96.594
N24460 X110.361 Y96.638
N24465 X111.653 Y96.675
N24470 X112.944 Y96.706
N24475 X114.236 Y96.731
N24480 X115.528 Y96.752
N24485 X116.82 Y96.77
N24490 X118.112 Y96.784
N24495 X119.404 Y96.796
N24500 X120.696 Y96.806
N24505 X121.988 Y96.814
N24510 X123.28 Y96.82
N24515 X125.864 Y96.83
N24520 X128.448 Y96.837
N24525 X132.324 Y96.843
N24530 X137.493 Y96.847
N24535 X146.537 Y96.849
N24540 X176.254 Y96.85
N24545 X226.644
N24550 X243.441
N24555 X244.733 Y96.849
N24560 X246.025 Y96.844
N24565 X247.317 Y96.83
N24570 X248.609 Y96.801
N24575 X249.9 Y96.754
N24580 X251.19 Y96.682
N24585 X252.478 Y96.581
N24590 X253.763 Y96.448
N24595 X255.044 Y96.277
N24600 X256.319 Y96.065
N24605 X257.585 Y95.808
N24610 X258.841 Y95.506
N24615 X260.085 Y95.157
N24620 X261.314 Y94.757
N24625 X262.524 Y94.305
N24630 X263.714 Y93.801
N24635 X264.881 Y93.246
N24640 X266.022 Y92.64
N24645 X267.133 Y91.981
N24650 X268.212 Y91.27
N24655 X269.256 Y90.509
N24660 X270.264 Y89.701
N24665 X271.232 Y88.845
N24670 X272.157 Y87.942
N24675 X273.035 Y86.995
N24680 X273.867 Y86.006
N24685 X274.649 Y84.978
N24690 X275.381 Y83.913
N24695 X276.057 Y82.812
N24700 X276.677 Y81.679
N24705 X277.241 Y80.516
N24710 X277.747 Y79.327
N24715 X278.193 Y78.114
N24720 X278.576 Y76.88
N24725 X278.896 Y75.629
N24730 X279.154 Y74.363
N24735 X279.349 Y73.085
N24740 X279.479 Y71.8
N24745 X279.543 Y70.509
N24750 X279.542 Y69.217
N24755 X279.477 Y67.927
N24760 X279.349 Y66.641
N24765 X279.155 Y65.364
N24770 X278.895 Y64.098
N24775 X278.573 Y62.847
N24780 X278.189 Y61.613
N24785 X277.743 Y60.4
N24790 X277.236 Y59.212
N24795 X276.669 Y58.051
N24800 X276.044 Y56.92
N24805 X275.365 Y55.821
N24810 X274.631 Y54.758
N24815 X273.857 Y53.723
N24820 X273.059 Y52.707
N24825 X272.242 Y51.706
N24830 X271.406 Y50.72
N24835 X270.55 Y49.753
N24840 X269.67 Y48.807
N24845 X268.764 Y47.886
N24850 X267.83 Y46.993
N24855 X266.867 Y46.132
N24860 X265.874 Y45.305
N24865 X264.85 Y44.517
N24870 X263.796 Y43.77
N24875 X262.713 Y43.066
N24880 X261.603 Y42.405
N24885 X260.468 Y41.787
N24890 X259.31 Y41.214
N24895 X258.13 Y40.686
N24900 X256.933 Y40.201
N24905 X255.719 Y39.758
N24910 X254.491 Y39.356
N24915 X253.252 Y38.991
N24920 X252.002 Y38.663
N24925 X250.744 Y38.369
N24930 X249.479 Y38.105
N24935 X248.208 Y37.871
N24940 X246.933 Y37.663
N24945 X245.654 Y37.48
N24950 X244.372 Y37.319
N24955 X243.088 Y37.178
N24960 X241.802 Y37.055
N24965 X240.514 Y36.948
N24970 X239.225 Y36.855
N24975 X237.936 Y36.775
N24980 X236.645 Y36.706
N24985 X235.355 Y36.646
N24990 X234.064 Y36.595
N24995 X232.772 Y36.551
N25000 X231.481 Y36.514
N25005 X230.189 Y36.482
N25010 X228.897 Y36.455
N25015 X227.606 Y36.432
N25020 X226.314 Y36.412
N25025 X225.022 Y36.396
N25030 X223.73 Y36.382
N25035 X222.438 Y36.37
N25040 X221.146 Y36.36
N25045 X219.854 Y36.352
N25050 X218.562 Y36.35
N25055 X217.27 Y36.354
N25060 X215.978 Y36.366
N25065 X214.686 Y36.384
N25070 X213.394 Y36.408
N25075 X212.102 Y36.435
N25080 X210.81 Y36.465
N25085 X206.935 Y36.56
N25090 X205.644 Y36.59
N25095 X204.352 Y36.618
N25100 X203.06 Y36.645
N25105 X201.768 Y36.669
N25110 X200.476 Y36.691
N25115 X199.185 Y36.711
N25120 X197.893 Y36.73
N25125 X196.601 Y36.746
N25130 X195.309 Y36.76
N25135 X194.017 Y36.772
N25140 X192.725 Y36.783
N25145 X191.433 Y36.793
N25150 X190.141 Y36.801
N25155 X187.557 Y36.815
N25160 X184.973 Y36.825
N25165 X182.388 Y36.832
N25170 X178.512 Y36.839
N25175 X173.344 Y36.845
N25180 X165.592 Y36.848
N25185 X163.008 Y36.849
N25190 X135.874 Y36.85
N25195 X115.202
N25200 X113.91 Y36.851
N25205 X112.617 Y36.853
N25210 X111.325 Y36.858
N25215 X110.033 Y36.869
N25220 X108.742 Y36.889
N25225 X107.45 Y36.919
N25230 X106.159 Y36.964
N25235 X104.868 Y37.027
N25240 X103.579 Y37.109
N25245 X102.291 Y37.215
N25250 X101.006 Y37.348
N25255 X99.724 Y37.51
N25260 X98.446 Y37.704
N25265 X97.175 Y37.932
N25270 X95.909 Y38.194
N25275 X94.652 Y38.492
N25280 X93.405 Y38.83
N25285 X92.17 Y39.208
N25290 X90.948 Y39.628
N25295 X89.74 Y40.088
N25300 X88.55 Y40.59
N25305 X87.377 Y41.133
N25310 X86.226 Y41.719
N25315 X85.097 Y42.348
N25320 X83.994 Y43.02
N25325 X82.916 Y43.733
N25330 X81.866 Y44.486
N25335 X80.846 Y45.279
N25340 X79.858 Y46.112
N25345 X78.904 Y46.983
N25350 X77.987 Y47.893
N25355 X77.105 Y48.838
N25360 X76.262 Y49.817
N25365 X75.459 Y50.829
N25370 X74.698 Y51.873
N25375 X73.981 Y52.948
N25380 X73.308 Y54.051
N25385 X72.68 Y55.18
N25390 X72.099 Y56.334
N25395 X71.564 Y57.51
N25400 X71.08 Y58.708
N25405 X70.646 Y59.925
N25410 X70.263 Y61.159
N25415 X69.93 Y62.407
N25420 X69.648 Y63.668
N25425 X69.418 Y64.94
N25430 X69.243 Y66.22
N25435 X69.121 Y67.506
N25440 X69.052 Y68.796
N25445 X69.036 Y70.088
N25450 X69.072 Y71.38
N25455 X69.162 Y72.669
N25460 X69.307 Y73.953
N25465 X69.506 Y75.229
N25470 X69.756 Y76.497
N25475 X70.058 Y77.753
N25480 X70.412 Y78.996
N25485 X70.818 Y80.223
N25490 X71.275 Y81.431
N25495 X71.782 Y82.62
N25500 X72.337 Y83.786
N25505 X72.938 Y84.93
N25510 X73.588 Y86.047
N25515 X74.284 Y87.135
N25520 X75.025 Y88.194
N25525 X75.809 Y89.221
N25530 X76.634 Y90.215
N25535 X77.499 Y91.175
N25540 X78.404 Y92.097
N25545 X79.347 Y92.98
N25550 X80.326 Y93.823
N25555 X81.339 Y94.626
N25560 X82.383 Y95.386
N25565 X83.459 Y96.102
N25570 X84.563 Y96.773
N25575 X85.694 Y97.398
N25580 X86.848 Y97.978
N25585 X88.025 Y98.512
N25590 X89.22 Y99.003
N25595 X90.432 Y99.451
N25600 X91.658 Y99.857
N25605 X92.897 Y100.224
N25610 X94.147 Y100.553
N25615 X95.405 Y100.847
N25620 X96.67 Y101.109
N25625 X97.941 Y101.341
N25630 X99.217 Y101.546
N25635 X100.496 Y101.726
N25640 X101.779 Y101.884
N25645 X103.063 Y102.021
N25650 X104.35 Y102.141
N25655 X105.638 Y102.245
N25660 X106.927 Y102.334
N25665 X108.217 Y102.411
N25670 X109.507 Y102.478
N25675 X110.798 Y102.535
N25680 X112.089 Y102.583
N25685 X113.38 Y102.625
N25690 X114.672 Y102.66
N25695 X115.963 Y102.69
N25700 X117.255 Y102.716
N25705 X118.547 Y102.737
N25710 X119.839 Y102.756
N25715 X121.131 Y102.771
N25720 X122.423 Y102.784
N25725 X123.715 Y102.795
N25730 X125.007 Y102.804
N25735 X126.299 Y102.812
N25740 X127.591 Y102.818
N25745 X130.175 Y102.828
N25750 X132.759 Y102.835
N25755 X136.635 Y102.841
N25760 X140.512 Y102.845
N25765 X148.264 Y102.848
N25770 X167.645 Y102.85
N25775 X190.902
N25780 X240. Y102.849
N25785 X241.292 Y102.848
N25790 X242.584 Y102.843
N25795 X243.876 Y102.833
N25800 X245.168 Y102.815
N25805 X246.46 Y102.786
N25810 X247.751 Y102.743
N25815 X249.042 Y102.683
N25820 X250.331 Y102.602
N25825 X251.619 Y102.499
N25830 X252.905 Y102.369
N25835 X254.187 Y102.211
N25840 X255.465 Y102.023
N25845 X256.738 Y101.801
N25850 X258.004 Y101.543
N25855 X259.262 Y101.248
N25860 X260.51 Y100.915
N25865 X261.748 Y100.542
N25870 X262.972 Y100.13
N25875 X264.182 Y99.676
N25880 X265.375 Y99.179
N25885 X266.549 Y98.64
N25890 X267.702 Y98.059
N25895 X268.834 Y97.435
N25900 X269.942 Y96.771
N25905 X271.024 Y96.064
N25910 X272.078 Y95.316
N25915 X273.101 Y94.527
N25920 X274.092 Y93.699
N25925 X275.051 Y92.832
N25930 X275.975 Y91.929
N25935 X276.862 Y90.99
N25940 X277.709 Y90.014
N25945 X278.516 Y89.006
N25950 X279.282 Y87.965
N25955 X280.006 Y86.895
N25960 X280.686 Y85.796
N25965 X281.32 Y84.67
N25970 X281.907 Y83.519
N25975 X282.446 Y82.345
N25980 X282.936 Y81.149
N25985 X283.378 Y79.935
N25990 X283.769 Y78.704
N25995 X284.109 Y77.457
N26000 X284.396 Y76.197
N26005 X284.631 Y74.927
N26010 X284.813 Y73.648
N26015 X284.944 Y72.362
N26020 X285.021 Y71.073
N26025 X285.044 Y69.781
N26030 X285.013 Y68.489
N26035 X284.929 Y67.2
N26040 X284.792 Y65.915
N26045 X284.602 Y64.637
N26050 X284.359 Y63.368
N26055 X284.063 Y62.11
N26060 X283.714 Y60.866
N26065 X283.315 Y59.637
N26070 X282.866 Y58.426
N26075 X282.367 Y57.234
N26080 X281.818 Y56.064
N26085 X281.223 Y54.918
N26090 X280.586 Y53.793
N26095 X279.912 Y52.691
N26100 X279.206 Y51.609
N26105 X278.47 Y50.547
N26110 X277.707 Y49.504
N26115 X276.919 Y48.481
N26120 X276.104 Y47.478
N26125 X275.264 Y46.496
N26130 X274.399 Y45.537
N26135 X273.507 Y44.602
N26140 X272.589 Y43.692
N26145 X271.645 Y42.81
N26150 X270.676 Y41.956
N26155 X269.681 Y41.132
N26160 X268.66 Y40.34
N26165 X267.614 Y39.581
N26170 X266.544 Y38.857
N26175 X265.451 Y38.168
N26180 X264.337 Y37.514
N26185 X263.202 Y36.896
N26190 X262.049 Y36.313
N26195 X260.878 Y35.767
N26200 X259.691 Y35.257
N26205 X258.489 Y34.782
N26210 X257.274 Y34.342
N26215 X256.048 Y33.935
N26220 X254.812 Y33.56
N26225 X253.566 Y33.215
N26230 X252.313 Y32.9
N26235 X251.053 Y32.613
N26240 X249.788 Y32.352
N26245 X248.518 Y32.116
N26250 X247.243 Y31.904
N26255 X245.965 Y31.712
N26260 X244.685 Y31.541
N26265 X243.402 Y31.388
N26270 X242.117 Y31.252
N26275 X240.831 Y31.131
N26280 X239.543 Y31.025
N26285 X238.254 Y30.93
N26290 X236.965 Y30.848
N26295 X235.675 Y30.775
N26300 X234.384 Y30.711
N26305 X233.094 Y30.656
N26310 X232.923 Y30.65
N26315 X232.894
N26320 X208.844
N26325 X207.554 Y30.714
N26330 X206.262 Y30.707
N26335 X204.97 Y30.705
N26340 X203.678 Y30.708
N26345 X202.386 Y30.714
N26350 X201.094 Y30.721
N26355 X197.218 Y30.749
N26360 X193.342 Y30.777
N26365 X190.758 Y30.793
N26370 X188.173 Y30.806
N26375 X185.589 Y30.816
N26380 X181.713 Y30.828
N26385 X177.837 Y30.836
N26390 X172.669 Y30.843
N26395 X166.209 Y30.847
N26400 X158.456 Y30.849
N26405 X127.447 Y30.85
N26410 X118.403
N26415 X117.111 Y30.851
N26420 X115.818 Y30.854
N26425 X114.526 Y30.858
N26430 X113.234 Y30.867
N26435 X111.942 Y30.881
N26440 X110.651 Y30.902
N26445 X109.359 Y30.932
N26450 X108.067 Y30.973
N26455 X106.777 Y31.028
N26460 X105.486 Y31.098
N26465 X104.197 Y31.187
N26470 X102.91 Y31.296
N26475 X101.625 Y31.427
N26480 X100.342 Y31.581
N26485 X99.062 Y31.761
N26490 X97.787 Y31.968
N26495 X96.516 Y32.203
N26500 X95.252 Y32.467
N26505 X93.994 Y32.764
N26510 X92.745 Y33.093
N26515 X91.505 Y33.456
N26520 X90.275 Y33.852
N26525 X89.057 Y34.283
N26530 X87.851 Y34.748
N26535 X86.66 Y35.248
N26540 X85.485 Y35.785
N26545 X84.326 Y36.358
N26550 X83.187 Y36.966
N26555 X82.067 Y37.611
N26560 X80.968 Y38.29
N26565 X79.891 Y39.004
N26570 X78.838 Y39.752
N26575 X77.81 Y40.535
N26580 X76.809 Y41.353
N26585 X75.836 Y42.203
N26590 X74.892 Y43.085
N26595 X73.978 Y43.998
N26600 X73.095 Y44.942
N26605 X72.245 Y45.914
N26610 X71.429 Y46.916
N26615 X70.648 Y47.945
N26620 X69.903 Y49.001
N26625 X69.195 Y50.082
N26630 X68.523 Y51.186
N26635 X67.89 Y52.312
N26640 X67.297 Y53.46
N26645 X66.745 Y54.628
N26650 X66.234 Y55.815
N26655 X65.765 Y57.018
N26660 X65.337 Y58.238
N26665 X64.952 Y59.471
N26670 X64.61 Y60.717
N26675 X64.312 Y61.974
N26680 X64.059 Y63.241
N26685 X63.851 Y64.517
N26690 X63.688 Y65.798
N26695 X63.569 Y67.085
N26700 X63.494 Y68.375
N26705 X63.465 Y69.666
N26710 X63.483 Y70.958
N26715 X63.546 Y72.249
N26720 X63.655 Y73.536
N26725 X63.808 Y74.819
N26730 X64.006 Y76.096
N26735 X64.247 Y77.365
N26740 X64.535 Y78.625
N26745 X64.867 Y79.874
N26750 X65.243 Y81.11
N26755 X65.662 Y82.332
N26760 X66.123 Y83.539
N26765 X66.626 Y84.729
N26770 X67.171 Y85.901
N26775 X67.757 Y87.052
N26780 X68.383 Y88.182
N26785 X69.05 Y89.289
N26790 X69.754 Y90.372
N26795 X70.496 Y91.43
N26800 X71.274 Y92.462
N26805 X72.088 Y93.465
N26810 X72.937 Y94.439
N26815 X73.821 Y95.381
N26820 X74.737 Y96.292
N26825 X75.684 Y97.171
N26830 X76.662 Y98.016
N26835 X77.668 Y98.827
N26840 X78.702 Y99.601
N26845 X79.763 Y100.339
N26850 X80.849 Y101.039
N26855 X81.958 Y101.702
N26860 X83.089 Y102.327
N26865 X84.239 Y102.915
N26870 X85.408 Y103.466
N26875 X86.593 Y103.981
N26880 X87.794 Y104.458
N26885 X89.008 Y104.9
N26890 X90.234 Y105.307
N26895 X91.471 Y105.681
N26900 X92.717 Y106.024
N26905 X93.97 Y106.336
N26910 X95.231 Y106.621
N26915 X96.497 Y106.878
N26920 X97.768 Y107.11
N26925 X99.043 Y107.319
N26930 X100.321 Y107.506
N26935 X101.602 Y107.673
N26940 X102.886 Y107.822
N26945 X104.171 Y107.954
N26950 X105.458 Y108.071
N26955 X106.746 Y108.174
N26960 X108.035 Y108.265
N26965 X109.324 Y108.344
N26970 X110.615 Y108.413
N26975 X111.905 Y108.474
N26980 X113.196 Y108.527
N26985 X114.487 Y108.573
N26990 X115.779 Y108.613
N26995 X117.07 Y108.647
N27000 X118.362 Y108.677
N27005 X119.654 Y108.702
N27010 X120.946 Y108.724
N27015 X122.238 Y108.743
N27020 X123.53 Y108.759
N27025 X124.822 Y108.773
N27030 X126.114 Y108.785
N27035 X127.406 Y108.795
N27040 X128.698 Y108.803
N27045 X129.99 Y108.811
N27050 X132.574 Y108.822
N27055 X135.158 Y108.83
N27060 X139.034 Y108.838
N27065 X142.91 Y108.843
N27070 X149.371 Y108.847
N27075 X160.999 Y108.849
N27080 X177.796 Y108.85
N27085 X228.186
N27090 X235.938 Y108.849
N27095 X237.23 Y108.848
N27100 X238.522 Y108.846
N27105 X239.814 Y108.84
N27110 X241.106 Y108.831
N27115 X242.398 Y108.816
N27120 X243.69 Y108.793
N27125 X244.982 Y108.761
N27130 X246.273 Y108.716
N27135 X247.564 Y108.658
N27140 X248.854 Y108.584
N27145 X250.143 Y108.491
N27150 X251.43 Y108.379
N27155 X252.715 Y108.245
N27160 X253.997 Y108.085
N27165 X255.276 Y107.9
N27170 X256.55 Y107.687
N27175 X257.819 Y107.445
N27180 X259.082 Y107.173
N27185 X260.338 Y106.871
N27190 X261.586 Y106.536
N27195 X262.825 Y106.167
N27200 X264.052 Y105.764
N27205 X265.268 Y105.326
N27210 X266.47 Y104.853
N27215 X267.658 Y104.344
N27220 X268.83 Y103.801
N27225 X269.985 Y103.222
N27230 X271.122 Y102.607
N27235 X272.237 Y101.956
N27240 X273.332 Y101.269
N27245 X274.403 Y100.547
N27250 X275.451 Y99.791
N27255 X276.474 Y99.001
N27260 X277.47 Y98.178
N27265 X278.437 Y97.322
N27270 X279.375 Y96.433
N27275 X280.283 Y95.513
N27280 X281.158 Y94.563
N27285 X282.001 Y93.584
N27290 X282.811 Y92.577
N27295 X283.586 Y91.543
N27300 X284.324 Y90.483
N27305 X285.024 Y89.397
N27310 X285.687 Y88.288
N27315 X286.311 Y87.156
N27320 X286.895 Y86.004
N27325 X287.44 Y84.833
N27330 X287.944 Y83.643
N27335 X288.405 Y82.436
N27340 X288.823 Y81.213
N27345 X289.198 Y79.977
N27350 X289.531 Y78.728
N27355 X289.82 Y77.469
N27360 X290.065 Y76.2
N27365 X290.265 Y74.924
N27370 X290.419 Y73.641
N27375 X290.528 Y72.354
N27380 X290.592 Y71.063
N27385 X290.611 Y69.771
N27390 X290.585 Y68.479
N27395 X290.514 Y67.189
N27400 X290.397 Y65.903
N27405 X290.234 Y64.621
N27410 X290.026 Y63.346
N27415 X289.774 Y62.078
N27420 X289.478 Y60.821
N27425 X289.139 Y59.574
N27430 X288.755 Y58.34
N27435 X288.328 Y57.121
N27440 X287.858 Y55.917
N27445 X287.349 Y54.73
N27450 X286.802 Y53.559
N27455 X286.219 Y52.406
N27460 X285.602 Y51.271
N27465 X284.954 Y50.153
N27470 X284.276 Y49.054
N27475 X283.568 Y47.972
N27480 X282.834 Y46.909
N27485 X282.073 Y45.865
N27490 X281.286 Y44.841
N27495 X280.473 Y43.836
N27500 X279.636 Y42.852
N27505 X278.775 Y41.889
N27510 X277.889 Y40.948
N27515 X276.98 Y40.03
N27520 X276.047 Y39.136
N27525 X275.09 Y38.268
N27530 X274.109 Y37.426
N27535 X273.107 Y36.612
N27540 X272.082 Y35.825
N27545 X271.036 Y35.066
N27550 X269.97 Y34.336
N27555 X268.884 Y33.636
N27560 X267.779 Y32.966
N27565 X266.656 Y32.327
N27570 X265.516 Y31.72
N27575 X264.36 Y31.143
N27580 X263.776 Y30.87
N27585 X263.456 Y30.749
N27590 X263.123 Y30.675
N27595 X262.782 Y30.65
N27600 X232.894
N27605 X232.112 Z-5.922
N27610 X230.9 Z-5.8
N27615 X210.838
N27620 X209.626 Z-5.922
N27625 X208.844 Z-6.
N27630 X88.476
N27635 X87.186 Y30.714
N27640 X85.9 Y30.847
N27645 X84.632 Y31.091
N27650 X83.384 Y31.427
N27655 X82.16 Y31.841
N27660 X80.961 Y32.322
N27665 X79.787 Y32.861
N27670 X78.639 Y33.454
N27675 X77.517 Y34.096
N27680 X76.422 Y34.781
N27685 X75.352 Y35.506
N27690 X74.31 Y36.269
N27695 X73.294 Y37.067
N27700 X72.304 Y37.898
N27705 X71.342 Y38.761
N27710 X70.408 Y39.654
N27715 X69.504 Y40.576
N27720 X68.629 Y41.527
N27725 X67.783 Y42.504
N27730 X66.969 Y43.507
N27735 X66.184 Y44.534
N27740 X65.431 Y45.584
N27745 X64.71 Y46.656
N27750 X64.023 Y47.75
N27755 X63.369 Y48.864
N27760 X62.75 Y49.998
N27765 X62.166 Y51.151
N27770 X61.616 Y52.32
N27775 X61.102 Y53.505
N27780 X60.992 Y53.78
N27785 X60.9 Y54.063
N27790 X60.844 Y54.355
N27795 X60.825 Y54.651
N27800 Y80.386
N27805 X60.89 Y81.676
N27810 X61.014 Y82.962
N27815 X61.236 Y84.235
N27820 X61.542 Y85.491
N27825 X61.92 Y86.726
N27830 X62.362 Y87.94
N27835 X62.861 Y89.132
N27840 X63.413 Y90.3
N27845 X64.013 Y91.445
N27850 X64.658 Y92.564
N27855 X65.343 Y93.66
N27860 X66.068 Y94.729
N27865 X66.829 Y95.774
N27870 X67.624 Y96.792
N27875 X68.453 Y97.783
N27880 X69.315 Y98.746
N27885 X70.207 Y99.68
N27890 X71.128 Y100.586
N27895 X72.077 Y101.463
N27900 X73.054 Y102.309
N27905 X74.056 Y103.125
N27910 X75.082 Y103.91
N27915 X76.132 Y104.663
N27920 X77.204 Y105.384
N27925 X78.297 Y106.073
N27930 X79.41 Y106.729
N27935 X80.541 Y107.353
N27940 X81.69 Y107.945
N27945 X82.854 Y108.505
N27950 X83.613 Y108.845
N27955 X83.922 Y108.958
N27960 X84.245 Y109.027
N27965 X84.573 Y109.05
N27970 X265.6
N27975 X266.891 Y108.985
N27980 X268.176 Y108.853
N27985 X269.445 Y108.61
N27990 X270.693 Y108.275
N27995 X271.917 Y107.862
N28000 X273.116 Y107.381
N28005 X274.29 Y106.84
N28010 X275.437 Y106.247
N28015 X276.559 Y105.605
N28020 X277.655 Y104.92
N28025 X278.724 Y104.195
N28030 X279.767 Y103.433
N28035 X280.784 Y102.636
N28040 X281.773 Y101.805
N28045 X282.735 Y100.942
N28050 X283.668 Y100.048
N28055 X284.572 Y99.125
N28060 X285.448 Y98.175
N28065 X286.294 Y97.198
N28070 X287.109 Y96.196
N28075 X287.894 Y95.17
N28080 X288.647 Y94.119
N28085 X289.367 Y93.047
N28090 X290.054 Y91.952
N28095 X290.707 Y90.838
N28100 X291.327 Y89.704
N28105 X291.912 Y88.552
N28110 X292.462 Y87.383
N28115 X292.977 Y86.198
N28120 X293.033 Y86.055
N28125 X293.125 Y85.773
N28130 X293.181 Y85.482
N28135 X293.2 Y85.186
N28140 Y59.076
N28145 X293.135 Y57.785
N28150 X293.001 Y56.5
N28155 X292.771 Y55.229
N28160 X292.461 Y53.974
N28165 X292.082 Y52.739
N28170 X291.643 Y51.524
N28175 X291.152 Y50.329
N28180 X290.614 Y49.154
N28185 X290.034 Y48.
N28190 X289.415 Y46.865
N28195 X288.762 Y45.75
N28200 X288.076 Y44.656
N28205 X287.36 Y43.58
N28210 X286.615 Y42.524
N28215 X285.844 Y41.488
N28220 X285.046 Y40.471
N28225 X284.224 Y39.474
N28230 X283.378 Y38.498
N28235 X282.508 Y37.543
N28240 X281.615 Y36.609
N28245 X280.698 Y35.698
N28250 X279.76 Y34.81
N28255 X278.801 Y33.945
N28260 X277.82 Y33.103
N28265 X276.82 Y32.285
N28270 X275.8 Y31.492
N28275 X275.283 Y31.11
N28280 X274.966 Y30.913
N28285 X274.622 Y30.768
N28290 X274.259 Y30.68
N28295 X273.886 Y30.65
N28300 X262.782
N28305 G2 X261.706 Y31.322 Z-5.867 I0.044 J1.269
N28310 X261.518 Y31.955 Z-5.8 I1.458 J0.777
N28315 X262.092 Y33.356 I1.646 J0.144
N28320 X272.469 Y31.893 I4.541 J-5.328
N28325 X272.81 Y31.322 Z-5.867 I-5.837 J-3.864
N28330 G3 X273.886 Y30.65 Z-6. I1.121 J0.597
N28335 G1 X278.17 F3500.
N28340 X278.904 Y30.686
N28345 X279.691 Y30.8
N28350 X280.601 Y31.021
N28355 X281.654 Y31.383
N28360 X282.832 Y31.915
N28365 X283.956 Y32.552
N28370 X285.029 Y33.271
N28375 X286.055 Y34.057
N28380 X287.036 Y34.897
N28385 X287.977 Y35.783
N28390 X288.879 Y36.708
N28395 X289.746 Y37.666
N28400 X290.577 Y38.656
N28405 X291.373 Y39.673
N28410 X292.137 Y40.715
N28415 X292.789 Y41.666
N28420 X292.966 Y41.971
N28425 X293.095 Y42.299
N28430 X293.174 Y42.643
N28435 X293.2 Y42.995
N28440 Y59.076
N28445 G3 X292.528 Y60.152 Z-5.867 I-1.269 J-0.044 F4000.
N28450 X291.903 Y60.371 Z-5.8 I-1.021 J-1.915
N28455 X289.92 Y59.717 I-0.395 J-2.134
N28460 X291.952 Y44.403 I7.312 J-6.822
N28465 X292.528 Y44.071 Z-5.867 I5.28 J8.492
N28470 G2 X293.2 Y42.995 Z-6. I-0.597 J-1.121
N28475 G1 Y38.526
N28480 X293.161 Y37.753
N28485 X293.053 Y37.001
N28490 X292.844 Y36.139
N28495 X292.517 Y35.188
N28500 X292.052 Y34.159
N28505 X291.42 Y33.051
N28510 X290.677 Y31.994
N28515 X290.257 Y31.491
N28520 X289.967 Y31.201
N28525 X289.631 Y30.965
N28530 X289.26 Y30.792
N28535 X288.863 Y30.686
N28540 X288.455 Y30.65
N28545 G2 X287.23 Y31.962 Z-5.8 I0.044 J1.269
N28550 X287.374 Y32.507 I1.269 J-0.043
N28555 G1 X290.805 Y39.07
N28560 G2 X291.887 Y39.751 I1.125 J-0.588
N28565 X293.2 Y38.526 Z-6. I0.043 J-1.269
N28570 G1 Y32.057
N28575 X293.198 Y31.867
N28580 X293.174 Y31.676
N28585 X293.119 Y31.486
N28590 X293.029 Y31.296
N28595 X292.965 Y31.197
N28600 X292.892 Y31.103
N28605 X292.791 Y30.999
N28610 X292.691 Y30.915
N28615 X292.645 Y30.883
N28620 X292.455 Y30.772
N28625 X292.264 Y30.7
N28630 X292.074 Y30.66
N28635 X291.883 Y30.65
N28640 X278.17
N28645 G2 X277.443 Y30.911 I0.044 J1.269
N28650 G1 X277.33 Y30.997 Z-5.992
N28655 X277.218 Y31.082 Z-5.968
N28660 X277.11 Y31.166 Z-5.929
N28665 X277.005 Y31.246 Z-5.874
N28670 X276.906 Y31.321 Z-5.805
N28675 X276.814 Y31.392 Z-5.723
N28680 X276.73 Y31.456 Z-5.628
N28685 X276.654 Y31.514 Z-5.522
N28690 X276.589 Y31.564 Z-5.406
N28695 X276.534 Y31.606 Z-5.281
N28700 X276.491 Y31.639 Z-5.149
N28705 X276.46 Y31.663 Z-5.013
N28710 X276.441 Y31.678 Z-4.872
N28715 X276.434 Y31.683 Z-4.73
N28720 G0 Z-3.46
N28725 X292.33 Y83.341
N28730 G1 Z-4.73 F4000.
N28735 X292.334 Y83.347 Z-4.872
N28740 X292.346 Y83.368 Z-5.013
N28745 X292.366 Y83.402 Z-5.149
N28750 X292.394 Y83.449 Z-5.281
N28755 X292.429 Y83.508 Z-5.406
N28760 X292.471 Y83.579 Z-5.522
N28765 X292.52 Y83.66 Z-5.628
N28770 X292.574 Y83.752 Z-5.723
N28775 X292.633 Y83.851 Z-5.805
N28780 X292.697 Y83.958 Z-5.874
N28785 X292.764 Y84.072 Z-5.929
N28790 X292.834 Y84.189 Z-5.968
N28795 X292.906 Y84.31 Z-5.992
N28800 X292.979 Y84.432 Z-6.
N28805 G3 X293.2 Y85.186 I-1.36 J0.809
N28810 G1 Y92.183 F3500.
N28815 X293.151 Y93.157
N28820 X293.003 Y94.183
N28825 X292.716 Y95.37
N28830 X292.296 Y96.592
N28835 X291.776 Y97.775
N28840 X291.173 Y98.918
N28845 X290.502 Y100.022
N28850 X289.772 Y101.088
N28855 X288.991 Y102.117
N28860 X288.164 Y103.11
N28865 X287.298 Y104.069
N28870 X286.395 Y104.993
N28875 X285.459 Y105.884
N28880 X284.492 Y106.741
N28885 X283.496 Y107.564
N28890 X282.472 Y108.351
N28895 X282.106 Y108.612
N28900 X281.794 Y108.8
N28905 X281.457 Y108.938
N28910 X281.103 Y109.022
N28915 X280.74 Y109.05
N28920 X265.6
N28925 G3 X264.524 Y108.378 Z-5.867 I0.044 J-1.269 F4000.
N28930 X264.383 Y107.736 Z-5.8 I1.071 J-0.571
N28935 X264.64 Y107.058 I1.212 J0.071
N28940 X279.33 Y107.803 I7.082 J5.554
N28945 X279.664 Y108.378 Z-5.867 I-7.608 J4.809
N28950 G2 X280.74 Y109.05 Z-6. I1.121 J-0.597
N28955 G1 X284.646
N28960 X285.577 Y109.003
N28965 X286.285 Y108.901
N28970 X287.1 Y108.704
N28975 X288.02 Y108.388
N28980 X289.019 Y107.936
N28985 X290.115 Y107.311
N28990 X291.172 Y106.568
N28995 X292.164 Y105.74
N29000 X292.488 Y105.424
N29005 X292.736 Y105.142
N29010 X292.935 Y104.824
N29015 X293.081 Y104.478
N29020 X293.17 Y104.113
N29025 X293.2 Y103.739
N29030 Y92.183
N29035 G2 X291.887 Y90.958 Z-5.8 I-1.269 J0.044
N29040 X290.779 Y91.691 I0.043 J1.269
N29045 G1 X283.539 Y107.245
N29050 G2 X283.421 Y107.737 I1.151 J0.536
N29055 X284.646 Y109.05 Z-6. I1.269 J0.043
N29060 G1 X291.121
N29065 X291.829 Y109.015
N29070 X292.145 Y108.935
N29075 X292.438 Y108.794
N29080 X292.697 Y108.596
N29085 X292.91 Y108.35
N29090 X293.069 Y108.066
N29095 X293.167 Y107.756
N29100 X293.2 Y107.432
N29105 G2 X292.68 Y105.998 Z-5.844 I-2.472 J0.086
N29110 X292.369 Y105.683 Z-5.8 I-1.492 J1.162
N29115 X289.511 Y108.036 I-1.182 J1.477
N29120 X291.121 Y109.05 Z-6. I1.676 J-0.876
N29125 G1 X291.883
N29130 X292.074 Y109.04
N29135 X292.264 Y109.
N29140 X292.457 Y108.927
N29145 X292.645 Y108.817
N29150 X292.789 Y108.703
N29155 X292.933 Y108.546
N29160 X293.026 Y108.409
N29165 X293.089 Y108.287
N29170 X293.136 Y108.166
N29175 X293.183 Y107.975
N29180 X293.2 Y107.785
N29185 Y103.739
N29190 G2 X292.939 Y103.012 I-1.269 J0.044
N29195 G1 X292.853 Y102.899 Z-5.992
N29200 X292.767 Y102.787 Z-5.968
N29205 X292.684 Y102.679 Z-5.929
N29210 X292.604 Y102.574 Z-5.874
N29215 X292.529 Y102.475 Z-5.805
N29220 X292.458 Y102.383 Z-5.723
N29225 X292.393 Y102.299 Z-5.628
N29230 X292.336 Y102.223 Z-5.522
N29235 X292.286 Y102.158 Z-5.406
N29240 X292.244 Y102.103 Z-5.281
N29245 X292.211 Y102.06 Z-5.149
N29250 X292.187 Y102.029 Z-5.013
N29255 X292.172 Y102.01 Z-4.872
N29260 X292.167 Y102.003 Z-4.73
N29265 G0 Z-3.46
N29270 X90.321 Y31.52
N29275 G1 Z-4.73 F4000.
N29280 X90.314 Y31.516 Z-4.872
N29285 X90.294 Y31.504 Z-5.013
N29290 X90.26 Y31.484 Z-5.149
N29295 X90.213 Y31.456 Z-5.281
N29300 X90.154 Y31.421 Z-5.406
N29305 X90.083 Y31.379 Z-5.522
N29310 X90.001 Y31.33 Z-5.628
N29315 X89.91 Y31.276 Z-5.723
N29320 X89.81 Y31.216 Z-5.805
N29325 X89.703 Y31.153 Z-5.874
N29330 X89.59 Y31.085 Z-5.929
N29335 X89.472 Y31.016 Z-5.968
N29340 X89.352 Y30.944 Z-5.992
N29345 X89.23 Y30.871 Z-6.
N29350 G2 X88.476 Y30.65 I-0.809 J1.36
N29355 G1 X77.81
N29360 X76.725 Y30.704
N29365 X75.707 Y30.851
N29370 X74.533 Y31.135
N29375 X73.311 Y31.555
N29380 X72.129 Y32.077
N29385 X70.988 Y32.682
N29390 X69.886 Y33.357
N29395 X68.822 Y34.09
N29400 X67.796 Y34.875
N29405 X66.805 Y35.705
N29410 X65.849 Y36.574
N29415 X64.926 Y37.478
N29420 X64.037 Y38.415
N29425 X63.179 Y39.382
N29430 X62.353 Y40.375
N29435 X61.559 Y41.394
N29440 X61.279 Y41.778
N29445 X61.084 Y42.093
N29450 X60.941 Y42.435
N29455 X60.854 Y42.796
N29460 X60.825 Y43.165
N29465 Y54.651
N29470 G2 X61.497 Y55.727 Z-5.867 I1.269 J-0.044
N29475 X62.137 Y55.879 Z-5.8 I0.607 J-1.139
N29480 X62.986 Y55.531 I-0.033 J-1.291
N29485 X62.068 Y44.582 I-4.782 J-5.112
N29490 X61.497 Y44.242 Z-5.867 I-3.864 J5.837
N29495 G3 X60.825 Y43.165 Z-6. I0.597 J-1.121
N29500 G1 Y39.287 F3500.
N29505 X60.873 Y38.335
N29510 X60.976 Y37.621
N29515 X61.175 Y36.799
N29520 X61.493 Y35.872
N29525 X61.95 Y34.863
N29530 X62.581 Y33.756
N29535 X63.324 Y32.699
N29540 X64.151 Y31.707
N29545 X64.484 Y31.364
N29550 X64.766 Y31.116
N29555 X65.085 Y30.916
N29560 X65.431 Y30.769
N29565 X65.796 Y30.68
N29570 X66.171 Y30.65
N29575 X77.81
N29580 G3 X79.035 Y31.962 Z-5.8 I-0.044 J1.269 F4000.
N29585 X78.304 Y33.07 I-1.269 J-0.043
N29590 G1 X62.632 Y40.394
N29595 G3 X62.138 Y40.512 I-0.538 J-1.151
N29600 X60.825 Y39.287 Z-6. I-0.043 J-1.269
N29605 G1 Y32.438 F3500.
N29610 X60.844 Y32.053
N29615 X60.925 Y31.73
N29620 X61.07 Y31.429
N29625 X61.273 Y31.165
N29630 X61.525 Y30.947
N29635 X61.816 Y30.784
N29640 X62.133 Y30.684
N29645 X62.465 Y30.65
N29650 X66.171
N29655 G3 X67.396 Y31.962 Z-5.8 I-0.044 J1.269 F4000.
N29660 X66.275 Y33.18 I-1.269 J-0.043
N29665 G1 X62.243 Y33.655
N29670 X62.138 Y33.662
N29675 G3 X60.825 Y32.438 Z-6. I-0.043 J-1.269
N29680 G1 Y32.057 F3500.
N29685 X60.827 Y31.867
N29690 X60.851 Y31.676
N29695 X60.906 Y31.486
N29700 X60.996 Y31.296
N29705 X61.05 Y31.21
N29710 X61.169 Y31.063
N29715 X61.332 Y30.915
N29720 X61.431 Y30.846
N29725 X61.622 Y30.747
N29730 X61.812 Y30.685
N29735 X62.003 Y30.654
N29740 X62.193 Y30.65
N29745 X62.465
N29750 G3 X63.691 Y31.903 I-0.044 J1.269 F4000.
N29755 G1 Y31.918
N29760 Y31.919
N29765 X63.677 Y32.025 Z-5.994
N29770 X63.664 Y32.13 Z-5.979
N29775 X63.651 Y32.234 Z-5.955
N29780 X63.611 Y32.336 Z-5.92
N29785 X63.572 Y32.435 Z-5.874
N29790 X63.535 Y32.529 Z-5.82
N29795 X63.467 Y32.623 Z-5.741
N29800 X63.405 Y32.709 Z-5.651
N29805 X63.349 Y32.786 Z-5.549
N29810 X63.29 Y32.836 Z-5.448
N29815 X63.239 Y32.879 Z-5.34
N29820 X63.197 Y32.914 Z-5.225
N29825 X63.164 Y32.942 Z-5.106
N29830 X63.14 Y32.963 Z-4.983
N29835 X63.125 Y32.975 Z-4.857
N29840 X63.12 Y32.979 Z-4.731
N29845 G0 Z-3.46
N29850 X61.695 Y78.541
N29855 G1 Z-4.73 F4000.
N29860 X61.691 Y78.548 Z-4.872
N29865 X61.679 Y78.568 Z-5.013
N29870 X61.659 Y78.602 Z-5.149
N29875 X61.631 Y78.649 Z-5.281
N29880 X61.596 Y78.708 Z-5.406
N29885 X61.554 Y78.779 Z-5.522
N29890 X61.505 Y78.861 Z-5.628
N29895 X61.451 Y78.952 Z-5.723
N29900 X61.392 Y79.052 Z-5.805
N29905 X61.328 Y79.159 Z-5.874
N29910 X61.261 Y79.272 Z-5.929
N29915 X61.191 Y79.389 Z-5.968
N29920 X61.119 Y79.51 Z-5.992
N29925 X61.046 Y79.632 Z-6.
N29930 G2 X60.825 Y80.386 I1.36 J0.809
N29935 G1 Y91.802
N29940 X60.877 Y92.833
N29945 X61.03 Y93.893
N29950 X61.326 Y95.117
N29955 X61.746 Y96.339
N29960 X62.263 Y97.523
N29965 X62.861 Y98.668
N29970 X63.527 Y99.775
N29975 X64.251 Y100.846
N29980 X65.026 Y101.88
N29985 X65.845 Y102.879
N29990 X66.704 Y103.844
N29995 X67.599 Y104.776
N30000 X68.526 Y105.676
N30005 X69.482 Y106.545
N30010 X70.466 Y107.383
N30015 X71.475 Y108.19
N30020 X71.989 Y108.578
N30025 X72.309 Y108.78
N30030 X72.658 Y108.929
N30035 X73.025 Y109.02
N30040 X73.403 Y109.05
N30045 X84.573
N30050 G2 X85.65 Y108.378 Z-5.867 I-0.044 J-1.269
N30055 X85.833 Y107.744 Z-5.8 I-1.408 J-0.751
N30060 X85.3 Y106.433 I-1.592 J-0.116
N30065 X74.819 Y107.807 I-4.644 J5.238
N30070 X74.479 Y108.378 Z-5.867 I5.837 J3.864
N30075 G3 X73.403 Y109.05 Z-6. I-1.121 J-0.597
N30080 G1 X69.43 F3500.
N30085 X68.648 Y109.011
N30090 X67.93 Y108.907
N30095 X67.105 Y108.707
N30100 X66.197 Y108.395
N30105 X65.185 Y107.938
N30110 X64.073 Y107.303
N30115 X63.016 Y106.561
N30120 X62.023 Y105.734
N30125 X61.542 Y105.27
N30130 X61.293 Y104.987
N30135 X61.092 Y104.668
N30140 X60.945 Y104.321
N30145 X60.855 Y103.955
N30150 X60.825 Y103.58
N30155 Y91.802
N30160 G3 X62.138 Y90.577 Z-5.8 I1.269 J0.044 F4000.
N30165 X63.249 Y91.318 I-0.043 J1.269
N30170 G1 X70.541 Y107.252
N30175 G3 X70.655 Y107.737 I-1.155 J0.528
N30180 X69.43 Y109.05 Z-6. I-1.269 J0.043
N30185 G1 X62.955 F3500.
N30190 X62.299 Y109.017
N30195 X61.959 Y108.932
N30200 X61.644 Y108.78
N30205 X61.366 Y108.567
N30210 X61.137 Y108.302
N30215 X60.966 Y107.997
N30220 X60.861 Y107.663
N30225 X60.825 Y107.314
N30230 Y103.58
N30235 G3 X62.138 Y102.355 Z-5.8 I1.269 J0.044 F4000.
N30240 X63.34 Y103.379 I-0.043 J1.269
N30245 G1 X64.157 Y107.536
N30250 X64.172 Y107.636
N30255 X64.18 Y107.737
N30260 G3 X62.955 Y109.05 Z-6. I-1.269 J0.043
N30265 G1 X62.193 F3500.
N30270 X62.003 Y109.046
N30275 X61.812 Y109.015
N30280 X61.688 Y108.978
N30285 X61.563 Y108.927
N30290 X61.431 Y108.854
N30295 X61.261 Y108.726
N30300 X61.168 Y108.636
N30305 X61.092 Y108.546
N30310 X61.05 Y108.49
N30315 X60.955 Y108.328
N30320 X60.889 Y108.166
N30325 X60.842 Y107.975
N30330 X60.825 Y107.785
N30335 Y107.314
N30340 G3 X62.078 Y106.089 I1.269 J0.044 F4000.
N30345 G1 X62.094
N30350 X62.2 Y106.102 Z-5.994
N30355 X62.305 Y106.115 Z-5.979
N30360 X62.409 Y106.128 Z-5.955
N30365 X62.511 Y106.169 Z-5.92
N30370 X62.61 Y106.208 Z-5.874
N30375 X62.704 Y106.245 Z-5.82
N30380 X62.798 Y106.312 Z-5.741
N30385 X62.884 Y106.375 Z-5.651
N30390 X62.961 Y106.431 Z-5.549
N30395 X63.011 Y106.489 Z-5.448
N30400 X63.054 Y106.54 Z-5.34
N30405 X63.089 Y106.582 Z-5.225
N30410 X63.117 Y106.616 Z-5.106
N30415 X63.138 Y106.64 Z-4.983
N30420 X63.15 Y106.654 Z-4.857
N30425 X63.154 Y106.659 Z-4.731
N30430 G0 Z-3.5
N30435 X100.146 Y69.728
N30440 G1 Z-9.025 F333.33
N30445 X100.139 Y69.691 F4000.
N30450 X100.102 Y69.7
N30455 X100.084 Y69.732
N30460 X100.089 Y69.769
N30465 X100.113 Y69.798
N30470 X100.148 Y69.812
N30475 X100.185 Y69.809
N30480 X100.219 Y69.793
N30485 X100.247 Y69.768
N30490 X100.267 Y69.736
N30495 X100.287 Y69.664
N30500 X100.269 Y69.591
N30505 X100.223 Y69.531
N30510 X100.159 Y69.492
N30515 X100.086 Y69.475
N30520 X99.937 Y69.485
N30525 X99.81 Y69.566
N30530 X99.73 Y69.692
N30535 X99.701 Y69.84
N30540 X99.724 Y69.988
N30545 X99.791 Y70.122
N30550 X99.894 Y70.231
N30555 X100.022 Y70.31
N30560 X100.165 Y70.354
N30565 X100.315 Y70.364
N30570 X100.463 Y70.341
N30575 X100.603 Y70.288
N30580 X100.73 Y70.207
N30585 X100.839 Y70.104
N30590 X100.927 Y69.983
N30595 X100.992 Y69.848
N30600 X101.033 Y69.703
N30605 X101.05 Y69.554
N30610 X101.042 Y69.404
N30615 X101.012 Y69.257
N30620 X100.961 Y69.117
N30625 X100.89 Y68.984
N30630 X100.803 Y68.862
N30635 X100.699 Y68.754
N30640 X100.583 Y68.659
N30645 X100.455 Y68.58
N30650 X100.319 Y68.518
N30655 X100.176 Y68.472
N30660 X100.029 Y68.444
N30665 X99.879 Y68.432
N30670 X99.729 Y68.437
N30675 X99.581 Y68.459
N30680 X99.436 Y68.497
N30685 X99.295 Y68.549
N30690 X99.161 Y68.616
N30695 X99.034 Y68.696
N30700 X98.916 Y68.788
N30705 X98.806 Y68.893
N30710 X98.707 Y69.007
N30715 X98.62 Y69.129
N30720 X98.54 Y69.266
N30725 X98.473 Y69.41
N30730 X98.421 Y69.558
N30735 X98.38 Y69.72
N30740 X98.355 Y69.885
N30745 X98.345 Y70.05
N30750 X98.352 Y70.227
N30755 X98.374 Y70.4
N30760 X98.413 Y70.573
N30765 X98.471 Y70.749
N30770 X98.543 Y70.915
N30775 X98.636 Y71.084
N30780 X98.743 Y71.242
N30785 X98.868 Y71.392
N30790 X99.009 Y71.533
N30795 X99.163 Y71.661
N30800 X99.334 Y71.778
N30805 X99.514 Y71.877
N30810 X99.712 Y71.964
N30815 X99.913 Y72.03
N30820 X100.13 Y72.08
N30825 X100.348 Y72.108
N30830 X100.577 Y72.117
N30835 X100.803 Y72.104
N30840 X101.038 Y72.068
N30845 X101.265 Y72.011
N30850 X101.495 Y71.931
N30855 X101.715 Y71.829
N30860 X101.931 Y71.704
N30865 X102.136 Y71.558
N30870 X102.328 Y71.392
N30875 X102.51 Y71.202
N30880 X102.674 Y70.996
N30885 X102.82 Y70.771
N30890 X102.948 Y70.528
N30895 X103.052 Y70.274
N30900 X103.134 Y70.005
N30905 X103.192 Y69.725
N30910 X103.223 Y69.437
N30915 X103.227 Y69.145
N30920 X103.204 Y68.846
N30925 X103.152 Y68.549
N30930 X103.072 Y68.254
N30935 X102.963 Y67.964
N30940 X102.824 Y67.679
N30945 X102.657 Y67.406
N30950 X102.464 Y67.147
N30955 X102.245 Y66.904
N30960 X102. Y66.679
N30965 X101.73 Y66.475
N30970 X101.44 Y66.294
N30975 X101.129 Y66.14
N30980 X100.801 Y66.013
N30985 X100.46 Y65.917
N30990 X100.106 Y65.852
N30995 X99.742 Y65.821
N31000 X99.373 Y65.823
N31005 X99.001 Y65.861
N31010 X98.629 Y65.934
N31015 X98.261 Y66.043
N31020 X97.899 Y66.188
N31025 X97.548 Y66.368
N31030 X97.212 Y66.583
N31035 X96.893 Y66.832
N31040 X96.596 Y67.112
N31045 X96.322 Y67.423
N31050 X96.076 Y67.762
N31055 X95.861 Y68.127
N31060 X95.678 Y68.515
N31065 X95.531 Y68.924
N31070 X95.421 Y69.349
N31075 X95.351 Y69.787
N31080 X95.321 Y70.236
N31085 X95.334 Y70.69
N31090 X95.39 Y71.146
N31095 X95.49 Y71.601
N31100 X95.633 Y72.049
N31105 X95.82 Y72.487
N31110 X96.05 Y72.912
N31115 X96.321 Y73.316
N31120 X96.632 Y73.698
N31125 X96.982 Y74.053
N31130 X97.367 Y74.377
N31135 X97.785 Y74.666
N31140 X98.233 Y74.918
N31145 X98.707 Y75.129
N31150 X99.204 Y75.297
N31155 X99.72 Y75.418
N31160 X100.251 Y75.491
N31165 X100.791 Y75.515
N31170 X101.336 Y75.487
N31175 X101.882 Y75.408
N31180 X102.424 Y75.277
N31185 X102.958 Y75.094
N31190 X103.477 Y74.859
N31195 X103.977 Y74.574
N31200 X104.453 Y74.24
N31205 X104.901 Y73.858
N31210 X105.314 Y73.433
N31215 X105.69 Y72.966
N31220 X106.024 Y72.462
N31225 X106.311 Y71.923
N31230 X106.549 Y71.355
N31235 X106.735 Y70.761
N31240 X106.865 Y70.147
N31245 X106.938 Y69.518
N31250 X106.952 Y68.878
N31255 X106.906 Y68.235
N31260 X106.799 Y67.593
N31265 X106.631 Y66.958
N31270 X106.402 Y66.336
N31275 X106.113 Y65.732
N31280 X105.766 Y65.153
N31285 X105.362 Y64.603
N31290 X104.904 Y64.089
N31295 X104.396 Y63.616
N31300 X103.841 Y63.189
N31305 X103.243 Y62.812
N31310 X102.607 Y62.49
N31315 X101.938 Y62.227
N31320 X101.241 Y62.026
N31325 X100.523 Y61.889
N31330 X99.789 Y61.82
N31335 X99.046
N31340 X98.3 Y61.89
N31345 X97.558 Y62.03
N31350 X96.826 Y62.241
N31355 X96.112 Y62.522
N31360 X95.421 Y62.871
N31365 X94.761 Y63.286
N31370 X94.137 Y63.766
N31375 X93.557 Y64.305
N31380 X93.026 Y64.901
N31385 X92.548 Y65.55
N31390 X92.131 Y66.246
N31395 X91.777 Y66.984
N31400 X91.491 Y67.759
N31405 X91.278 Y68.563
N31410 X91.139 Y69.39
N31415 X91.078 Y70.233
N31420 X91.096 Y71.085
N31425 X91.195 Y71.938
N31430 X91.374 Y72.784
N31435 X91.634 Y73.617
N31440 X91.973 Y74.427
N31445 X92.389 Y75.208
N31450 X92.88 Y75.951
N31455 X93.442 Y76.65
N31460 X94.071 Y77.298
N31465 X94.763 Y77.889
N31470 X95.513 Y78.416
N31475 X96.314 Y78.873
N31480 X97.16 Y79.257
N31485 X98.044 Y79.561
N31490 X98.959 Y79.783
N31495 X99.898 Y79.92
N31500 X100.852 Y79.968
N31505 X101.812 Y79.926
N31510 X102.772 Y79.794
N31515 X103.721 Y79.572
N31520 X104.653 Y79.259
N31525 X105.557 Y78.857
N31530 X106.426 Y78.37
N31535 X107.251 Y77.799
N31540 X108.025 Y77.149
N31545 X108.739 Y76.425
N31550 X109.386 Y75.631
N31555 X109.961 Y74.775
N31560 X110.456 Y73.864
N31565 X110.866 Y72.903
N31570 X111.187 Y71.902
N31575 X111.414 Y70.869
N31580 X111.544 Y69.812
N31585 X111.575 Y68.741
N31590 X111.505 Y67.665
N31595 X111.334 Y66.593
N31600 X111.061 Y65.535
N31605 X110.689 Y64.501
N31610 X110.218 Y63.501
N31615 X109.653 Y62.542
N31620 X108.996 Y61.636
N31625 X108.253 Y60.789
N31630 X107.429 Y60.011
N31635 X106.531 Y59.31
N31640 X105.565 Y58.691
N31645 X104.539 Y58.163
N31650 X103.462 Y57.731
N31655 X102.343 Y57.399
N31660 X101.191 Y57.172
N31665 X100.016 Y57.053
N31670 X98.828 Y57.044
N31675 X97.638 Y57.147
N31680 X96.455 Y57.362
N31685 X95.292 Y57.689
N31690 X94.157 Y58.126
N31695 X93.062 Y58.67
N31700 X92.017 Y59.318
N31705 X91.031 Y60.065
N31710 X90.113 Y60.906
N31715 X89.274 Y61.835
N31720 X88.521 Y62.844
N31725 X87.861 Y63.925
N31730 X87.303 Y65.07
N31735 X86.851 Y66.268
N31740 X86.512 Y67.511
N31745 X86.29 Y68.784
N31750 X86.187 Y70.072
N31755 X86.204 Y71.364
N31760 X86.34 Y72.648
N31765 X86.594 Y73.915
N31770 X86.961 Y75.154
N31775 X87.44 Y76.354
N31780 X88.024 Y77.507
N31785 X88.709 Y78.602
N31790 X89.489 Y79.632
N31795 X90.357 Y80.589
N31800 X91.307 Y81.465
N31805 X92.331 Y82.253
N31810 X93.42 Y82.949
N31815 X94.566 Y83.546
N31820 X95.759 Y84.04
N31825 X96.991 Y84.43
N31830 X98.252 Y84.713
N31835 X98.701 Y84.774
N31840 X98.789 Y84.782
N31845 X99.384 Y84.829
N31850 X100.676 Y84.8
N31855 X101.968
N31860 X103.255 Y84.684
N31865 X104.526 Y84.453
N31870 X105.772 Y84.111
N31875 X106.984 Y83.662
N31880 X108.153 Y83.112
N31885 X109.272 Y82.466
N31890 X110.333 Y81.729
N31895 X111.33 Y80.908
N31900 X112.256 Y80.007
N31905 X113.104 Y79.032
N31910 X113.87 Y77.991
N31915 X114.548 Y76.891
N31920 X115.136 Y75.741
N31925 X115.631 Y74.547
N31930 X116.031 Y73.318
N31935 X116.33 Y72.062
N31940 X116.528 Y70.785
N31945 X116.624 Y69.496
N31950 X116.62 Y68.204
N31955 X116.516 Y66.916
N31960 X116.314 Y65.64
N31965 X116.011 Y64.384
N31970 X115.611 Y63.155
N31975 X115.119 Y61.961
N31980 X114.537 Y60.807
N31985 X113.871 Y59.7
N31990 X113.121 Y58.648
N31995 X112.293 Y57.656
N32000 X111.392 Y56.73
N32005 X110.425 Y55.873
N32010 X109.715 Y55.331
N32015 X109.393 Y55.125
N32020 X109.042 Y54.973
N32025 X108.671 Y54.881
N32030 X108.29 Y54.85
N32035 X100.146
N32040 X99.384 Y54.871
N32045 X98.623 Y54.931
N32050 X97.862 Y55.029
N32055 X97.1 Y55.168
N32060 X96.664 Y55.26
N32065 X96.339 Y55.341
N32070 X95.578 Y55.568
N32075 X94.816 Y55.834
N32080 X94.34 Y56.022
N32085 X94.055 Y56.143
N32090 X93.294 Y56.509
N32095 X92.791 Y56.783
N32100 X92.532 Y56.926
N32105 X91.771 Y57.408
N32110 X91.571 Y57.545
N32115 X91.01 Y57.954
N32120 X90.578 Y58.306
N32125 X90.249 Y58.584
N32130 X89.729 Y59.068
N32135 X89.487 Y59.306
N32140 X88.991 Y59.829
N32145 X88.726 Y60.135
N32150 X88.345 Y60.591
N32155 X87.965 Y61.102
N32160 X87.787 Y61.352
N32165 X87.295 Y62.113
N32170 X86.868 Y62.875
N32175 X86.495 Y63.636
N32180 X86.442 Y63.751
N32185 X86.177 Y64.398
N32190 X85.904 Y65.159
N32195 X85.681 Y65.896
N32200 X85.674 Y65.921
N32205 X85.49 Y66.682
N32210 X85.345 Y67.443
N32215 X85.24 Y68.205
N32220 X85.174 Y68.966
N32225 X85.146 Y69.728
N32230 X85.161 Y70.489
N32235 X85.214 Y71.251
N32240 X85.307 Y72.012
N32245 X85.439 Y72.774
N32250 X85.611 Y73.535
N32255 X85.681 Y73.81
N32260 X85.823 Y74.296
N32265 X86.084 Y75.058
N32270 X86.388 Y75.819
N32275 X86.442 Y75.94
N32280 X86.743 Y76.581
N32285 X87.151 Y77.342
N32290 X87.203 Y77.429
N32295 X87.621 Y78.104
N32300 X87.965 Y78.589
N32305 X88.163 Y78.865
N32310 X88.726 Y79.564
N32315 X88.778 Y79.626
N32320 X89.487 Y80.395
N32325 X90.249 Y81.112
N32330 X90.292 Y81.149
N32335 X91.01 Y81.741
N32340 X91.241 Y81.911
N32345 X91.771 Y82.294
N32350 X92.367 Y82.672
N32355 X92.532 Y82.774
N32360 X93.294 Y83.191
N32365 X93.798 Y83.434
N32370 X94.055 Y83.554
N32375 X94.816 Y83.866
N32380 X95.578 Y84.136
N32385 X95.767 Y84.195
N32390 X96.339 Y84.353
N32395 X97.1 Y84.532
N32400 X97.862 Y84.67
N32405 X98.623 Y84.769
N32410 X98.789 Y84.782
N32415 X98.927 Y84.781
N32420 G3 X99.255 Y84.807 I0.074 J1.142
N32425 G1 X99.384 Y84.829
N32430 X100.146 Y84.85
N32435 X110.043
N32440 X110.648 Y84.82
N32445 X111.328 Y84.721
N32450 X112.103 Y84.534
N32455 X112.91 Y84.256
N32460 X113.777 Y83.864
N32465 X114.707 Y83.334
N32470 X115.631 Y82.685
N32475 X116.579 Y81.877
N32480 X117.479 Y80.951
N32485 X118.295 Y79.949
N32490 X119.027 Y78.884
N32495 X119.673 Y77.765
N32500 X120.232 Y76.601
N32505 X120.708 Y75.399
N32510 X121.102 Y74.169
N32515 X121.413 Y72.915
N32520 X121.64 Y71.643
N32525 X121.786 Y70.359
N32530 X121.852 Y69.069
N32535 X121.839 Y67.777
N32540 X121.745 Y66.488
N32545 X121.572 Y65.207
N32550 X121.324 Y63.94
N32555 X121.002 Y62.688
N32560 X120.604 Y61.459
N32565 X120.134 Y60.255
N32570 X119.594 Y59.081
N32575 X118.988 Y57.94
N32580 X118.315 Y56.837
N32585 X117.578 Y55.776
N32590 X117.558 Y55.75
N32595 X117.319 Y55.489
N32600 X117.043 Y55.266
N32605 X116.737 Y55.087
N32610 X116.408 Y54.956
N32615 X116.062 Y54.877
N32620 X115.709 Y54.85
N32625 X108.29
N32630 G2 X107.214 Y55.522 Z-8.892 I0.044 J1.269
N32635 X107.038 Y56.158 Z-8.825 I1.333 J0.71
N32640 X107.823 Y57.558 I1.508 J0.074
N32645 X114.281 Y56.086 I2.397 J-4.388
N32650 X114.632 Y55.522 Z-8.892 I-4.061 J-2.917
N32655 G3 X115.709 Y54.85 Z-9.025 I1.121 J0.597
N32660 G1 X118.075 F3500.
N32665 X118.522 Y54.872
N32670 X118.948 Y54.934
N32675 X119.414 Y55.047
N32680 X119.946 Y55.229
N32685 X120.517 Y55.488
N32690 X121.151 Y55.849
N32695 X121.803 Y56.307
N32700 X122.507 Y56.907
N32705 X123.228 Y57.649
N32710 X123.948 Y58.543
N32715 X124.66 Y59.621
N32720 X125.27 Y60.76
N32725 X125.783 Y61.946
N32730 X126.206 Y63.167
N32735 X126.544 Y64.414
N32740 X126.798 Y65.681
N32745 X126.972 Y66.961
N32750 X127.07 Y68.25
N32755 X127.095 Y69.541
N32760 X127.048 Y70.833
N32765 X126.928 Y72.119
N32770 X126.736 Y73.397
N32775 X126.475 Y74.662
N32780 X126.147 Y75.912
N32785 X125.75 Y77.141
N32790 X125.282 Y78.346
N32795 X124.746 Y79.522
N32800 X124.146 Y80.666
N32805 X123.477 Y81.771
N32810 X122.74 Y82.832
N32815 X121.938 Y83.846
N32820 X121.734 Y84.073
N32825 X121.447 Y84.342
N32830 X121.119 Y84.559
N32835 X120.76 Y84.719
N32840 X120.379 Y84.817
N32845 X119.988 Y84.85
N32850 X110.043
N32855 G3 X108.966 Y84.178 Z-8.892 I0.044 J-1.269 F4000.
N32860 X108.865 Y83.533 Z-8.825 I0.877 J-0.468
N32865 X109.094 Y83.057 I0.978 J0.177
N32870 X118.566 Y83.61 I4.522 J3.943
N32875 X118.911 Y84.178 Z-8.892 I-4.95 J3.391
N32880 G2 X119.988 Y84.85 Z-9.025 I1.121 J-0.597
N32885 G1 X122.643
N32890 X123.063 Y84.829
N32895 X123.526 Y84.762
N32900 X124.029 Y84.64
N32905 X124.607 Y84.442
N32910 X125.221 Y84.164
N32915 X125.897 Y83.778
N32920 X126.623 Y83.269
N32925 X127.367 Y82.635
N32930 X128.15 Y81.83
N32935 X128.948 Y80.838
N32940 X129.661 Y79.76
N32945 X130.281 Y78.626
N32950 X130.814 Y77.449
N32955 X131.264 Y76.238
N32960 X131.636 Y75.001
N32965 X131.933 Y73.743
N32970 X132.159 Y72.471
N32975 X132.316 Y71.189
N32980 X132.404 Y69.9
N32985 X132.424 Y68.608
N32990 X132.376 Y67.317
N32995 X132.262 Y66.03
N33000 X132.082 Y64.75
N33005 X131.831 Y63.483
N33010 X131.51 Y62.231
N33015 X131.12 Y60.999
N33020 X130.659 Y59.792
N33025 X130.123 Y58.617
N33030 X129.512 Y57.478
N33035 X128.826 Y56.383
N33040 X128.412 Y55.815
N33045 X128.172 Y55.536
N33050 X127.892 Y55.297
N33055 X127.578 Y55.105
N33060 X127.238 Y54.964
N33065 X126.88 Y54.879
N33070 X126.513 Y54.85
N33075 X118.075
N33080 G2 X116.85 Y56.162 Z-8.825 I0.044 J1.269
N33085 X117.253 Y57.048 I1.269 J-0.043
N33090 X118.655 Y57.718 I1.766 J-1.894
N33095 X124.905 Y55.938 I1.122 J-7.921
N33100 X125.629 Y55.253 Z-8.925 I-5.128 J-6.141
N33105 G3 X126.513 Y54.85 Z-9.025 I0.929 J0.866
N33110 G1 X129.076 F3500.
N33115 X129.29 Y54.861
N33120 X129.696 Y54.919
N33125 X130.145 Y55.028
N33130 X130.659 Y55.205
N33135 X131.201 Y55.45
N33140 X131.805 Y55.795
N33145 X132.438 Y56.239
N33150 X133.107 Y56.809
N33155 X133.813 Y57.535
N33160 X134.522 Y58.415
N33165 X135.221 Y59.474
N33170 X135.83 Y60.613
N33175 X136.341 Y61.8
N33180 X136.763 Y63.021
N33185 X137.103 Y64.268
N33190 X137.366 Y65.533
N33195 X137.555 Y66.811
N33200 X137.672 Y68.098
N33205 X137.721 Y69.389
N33210 X137.704 Y70.681
N33215 X137.623 Y71.97
N33220 X137.48 Y73.254
N33225 X137.271 Y74.529
N33230 X136.997 Y75.792
N33235 X136.658 Y77.039
N33240 X136.256 Y78.267
N33245 X135.785 Y79.47
N33250 X135.244 Y80.643
N33255 X134.635 Y81.783
N33260 X133.957 Y82.882
N33265 X133.207 Y83.935
N33270 X133.157 Y83.996
N33275 X132.866 Y84.29
N33280 X132.529 Y84.529
N33285 X132.155 Y84.706
N33290 X131.756 Y84.814
N33295 X131.344 Y84.85
N33300 X122.643
N33305 G3 X121.418 Y83.537 Z-8.825 I0.044 J-1.269 F4000.
N33310 X121.821 Y82.652 I1.269 J0.043
N33315 X122.894 Y82.089 I1.565 J1.678
N33320 X129.736 Y83.762 I1.715 J7.814
N33325 X130.46 Y84.447 Z-8.925 I-5.128 J6.141
N33330 G2 X131.344 Y84.85 Z-9.025 I0.929 J-0.866
N33335 G1 X133.874
N33340 X134.179 Y84.835
N33345 X134.607 Y84.773
N33350 X135.072 Y84.66
N33355 X135.605 Y84.477
N33360 X136.175 Y84.219
N33365 X136.809 Y83.858
N33370 X137.464 Y83.398
N33375 X138.173 Y82.794
N33380 X138.914 Y82.031
N33385 X139.66 Y81.105
N33390 X140.372 Y80.027
N33395 X140.986 Y78.89
N33400 X141.509 Y77.708
N33405 X141.948 Y76.493
N33410 X142.309 Y75.252
N33415 X142.598 Y73.993
N33420 X142.817 Y72.72
N33425 X142.966 Y71.436
N33430 X143.05 Y70.147
N33435 X143.069 Y68.855
N33440 X143.025 Y67.564
N33445 X142.919 Y66.276
N33450 X142.746 Y64.996
N33455 X142.508 Y63.726
N33460 X142.204 Y62.47
N33465 X141.833 Y61.232
N33470 X141.388 Y60.019
N33475 X140.872 Y58.835
N33480 X140.282 Y57.685
N33485 X139.619 Y56.576
N33490 X139.114 Y55.854
N33495 X138.875 Y55.564
N33500 X138.593 Y55.316
N33505 X138.274 Y55.116
N33510 X137.928 Y54.969
N33515 X137.563 Y54.88
N33520 X137.188 Y54.85
N33525 X129.076
N33530 G2 X127.999 Y55.522 Z-8.892 I0.044 J1.269
N33535 X127.894 Y56.167 Z-8.825 I0.897 J0.478
N33540 X128.181 Y56.722 I1.003 J-0.167
N33545 X135.761 Y56.086 I3.518 J-3.553
N33550 X136.112 Y55.522 Z-8.892 I-4.061 J-2.917
N33555 G3 X137.188 Y54.85 Z-9.025 I1.121 J0.597
N33560 G1 X139.734 F3500.
N33565 X139.933 Y54.86
N33570 X140.343 Y54.919
N33575 X140.783 Y55.026
N33580 X141.294 Y55.201
N33585 X141.834 Y55.446
N33590 X142.44 Y55.791
N33595 X143.062 Y56.227
N33600 X143.735 Y56.802
N33605 X144.433 Y57.519
N33610 X145.136 Y58.393
N33615 X145.845 Y59.466
N33620 X146.454 Y60.606
N33625 X146.967 Y61.792
N33630 X147.392 Y63.012
N33635 X147.736 Y64.257
N33640 X148.004 Y65.521
N33645 X148.2 Y66.798
N33650 X148.326 Y68.084
N33655 X148.386 Y69.375
N33660 X148.383 Y70.667
N33665 X148.317 Y71.957
N33670 X148.188 Y73.243
N33675 X147.996 Y74.52
N33680 X147.74 Y75.787
N33685 X147.421 Y77.039
N33690 X147.038 Y78.273
N33695 X146.584 Y79.482
N33700 X146.061 Y80.664
N33705 X145.468 Y81.812
N33710 X144.805 Y82.921
N33715 X144.163 Y83.842
N33720 X143.924 Y84.133
N33725 X143.641 Y84.382
N33730 X143.322 Y84.583
N33735 X142.976 Y84.73
N33740 X142.61 Y84.82
N33745 X142.234 Y84.85
N33750 X133.874
N33755 G3 X132.649 Y83.537 Z-8.825 I0.044 J-1.269 F4000.
N33760 X133.052 Y82.652 I1.269 J0.043
N33765 X134.537 Y81.961 I1.803 J1.933
N33770 X140.627 Y83.762 I0.962 J7.942
N33775 X141.35 Y84.447 Z-8.925 I-5.128 J6.141
N33780 G2 X142.234 Y84.85 Z-9.025 I0.929 J-0.866
N33785 G1 X144.721
N33790 X145.019 Y84.835
N33795 X145.434 Y84.775
