%
(FLOORVENT)
(MACHINE)
(  VENDOR AUTODESK)
(  MODEL GENERIC 3-AXIS ROUTER)
(  DESCRIPTION THIS MACHINE HAS XYZ AXIS ON THE HEAD)
(T20 D=6.35 CR=0. - ZMIN=-19.55 - FLAT END MILL)
(T21 D=12.7 CR=0. - ZMIN=-12.7 - FLAT END MILL)
(T23 D=6.35 CR=0. TAPER=30DEG - ZMIN=-12.165 - CHAMFER MILL)
N10 G90 G94 G17 G91.1
N15 G21
N20 G53 G0 Z0.
(OUTSIDECLEARING)
N25 G53 G0 X-200 Y0
N30 T21 M6
N35 T20
N40 S18500 M3
N45 G4 P2.0
N50 G17 G90 G94
N55 G54
N60 G0 X30.441 Y165.246
N65 G43 Z15. H21
N70 G0 Z5.
N75 Z-1.46
N80 G1 Z-2.73 F3500.
N85 X30.443 Y165.238 Z-2.872
N90 X30.448 Y165.215 Z-3.013
N95 X30.458 Y165.177 Z-3.149
N100 X30.472 Y165.124 Z-3.281
N105 X30.489 Y165.058 Z-3.406
N110 X30.509 Y164.978 Z-3.522
N115 X30.533 Y164.886 Z-3.628
N120 X30.559 Y164.783 Z-3.723
N125 X30.588 Y164.67 Z-3.805
N130 X30.619 Y164.55 Z-3.874
N135 X30.652 Y164.422 Z-3.929
N140 X30.686 Y164.29 Z-3.968
N145 X30.72 Y164.154 Z-3.992
N150 X30.756 Y164.016 Z-4.
N155 G2 X31.75 Y157.102 I-31.409 J-8.045
N160 G1 Y156.779
N165 X31.802 Y156.306
N170 X31.819 Y155.701
N175 X31.764 Y154.642
N180 X31.594 Y153.361
N185 X31.389 Y152.086
N190 X31.203 Y150.807
N195 X31.055 Y149.524
N200 X30.936 Y148.237
N205 X30.842 Y146.948
N210 X30.767 Y145.659
N215 X30.708 Y144.368
N220 X30.661 Y143.077
N225 X30.623 Y141.785
N230 X30.594 Y140.493
N235 X30.57 Y139.202
N240 X30.551 Y137.91
N245 X30.537 Y136.618
N250 X30.525 Y135.326
N255 X30.516 Y134.034
N260 X30.508 Y132.742
N265 X30.502 Y131.45
N270 X30.494 Y128.865
N275 X30.489 Y126.281
N280 X30.484 Y122.405
N285 X30.481 Y115.945
N290 X30.48 Y106.901
N295 Y56.51
N300 Y24.209
N305 X30.504 Y22.917
N310 X30.594 Y21.628
N315 X30.786 Y20.351
N320 X31.111 Y19.1
N325 X31.591 Y17.9
N330 X32.241 Y16.784
N335 X33.065 Y15.789
N340 X34.046 Y14.947
N345 X35.138 Y14.258
N350 X36.302 Y13.697
N355 X37.512 Y13.243
N360 X38.751 Y12.877
N365 X40.009 Y12.583
N370 X41.28 Y12.348
N375 X42.558 Y12.16
N380 X43.841 Y12.01
N385 X45.128 Y11.891
N390 X46.416 Y11.796
N395 X47.706 Y11.72
N400 X48.997 Y11.66
N405 X50.288 Y11.613
N410 X51.58 Y11.575
N415 X52.871 Y11.545
N420 X54.163 Y11.521
N425 X55.455 Y11.502
N430 X56.747 Y11.487
N435 X58.039 Y11.475
N440 X59.331 Y11.466
N445 X60.623 Y11.458
N450 X61.915 Y11.453
N455 X64.499 Y11.444
N460 X67.083 Y11.439
N465 X70.959 Y11.434
N470 X77.42 Y11.431
N475 X91.632 Y11.43
N480 X142.022
N485 X192.413
N490 X242.803
N495 X293.193
N500 X312.574
N505 X313.865 Y11.46
N510 X315.153 Y11.564
N515 X316.427 Y11.778
N520 X317.671 Y12.13
N525 X318.857 Y12.641
N530 X319.955 Y13.323
N535 X320.923 Y14.178
N540 X321.736 Y15.183
N545 X322.401 Y16.29
N550 X322.941 Y17.464
N555 X323.378 Y18.68
N560 X323.73 Y19.923
N565 X324.012 Y21.184
N570 X324.238 Y22.456
N575 X324.419 Y23.736
N580 X324.563 Y25.02
N585 X324.677 Y26.307
N590 X324.769 Y27.595
N595 X324.841 Y28.885
N600 X324.899 Y30.176
N605 X324.945 Y31.467
N610 X324.981 Y32.759
N615 X325.01 Y34.051
N620 X325.033 Y35.343
N625 X325.051 Y36.634
N630 X325.065 Y37.926
N635 X325.076 Y39.218
N640 X325.086 Y40.51
N645 X325.093 Y41.803
N650 X325.098 Y43.095
N655 X325.106 Y45.679
N660 X325.111 Y48.263
N665 X325.116 Y52.139
N670 X325.119 Y58.599
N675 X325.12 Y77.98
N680 Y85.732
N685 Y136.122
N690 Y139.999
N695 X325.116 Y141.291
N700 X325.083 Y142.582
N705 X324.969 Y143.869
N710 X324.74 Y145.141
N715 X324.369 Y146.379
N720 X323.837 Y147.556
N725 X323.132 Y148.639
N730 X322.255 Y149.588
N735 X321.234 Y150.38
N740 X320.116 Y151.028
N745 X318.936 Y151.554
N750 X317.716 Y151.978
N755 X316.47 Y152.32
N760 X315.207 Y152.595
N765 X313.934 Y152.814
N770 X312.654 Y152.989
N775 X311.37 Y153.129
N780 X310.082 Y153.241
N785 X308.793 Y153.329
N790 X307.503 Y153.4
N795 X306.212 Y153.455
N800 X304.921 Y153.5
N805 X303.629 Y153.535
N810 X302.338 Y153.563
N815 X301.046 Y153.585
N820 X299.754 Y153.603
N825 X298.462 Y153.617
N830 X297.17 Y153.628
N835 X295.878 Y153.637
N840 X294.586 Y153.643
N845 X293.294 Y153.649
N850 X290.71 Y153.657
N855 X288.126 Y153.662
N860 X286.834 Y153.663
N865 X281.665 Y153.667
N870 X271.329 Y153.67
N875 X236.443
N880 X186.053
N885 X135.663
N890 X85.273
N895 X43.927
N900 X43.283 Y153.627
N905 X42.036 Y153.287
N910 X40.933 Y152.615
N915 X39.987 Y151.734
N920 X39.19 Y150.717
N925 X38.526 Y149.609
N930 X37.977 Y148.44
N935 X37.524 Y147.229
N940 X37.153 Y145.992
N945 X36.85 Y144.736
N950 X36.604 Y143.467
N955 X36.403 Y142.191
N960 X36.241 Y140.909
N965 X36.109 Y139.624
N970 X36.002 Y138.336
N975 X35.916 Y137.047
N980 X35.847 Y135.757
N985 X35.791 Y134.466
N990 X35.746 Y133.175
N995 X35.709 Y131.883
N1000 X35.68 Y130.592
N1005 X35.656 Y129.3
N1010 X35.637 Y128.008
N1015 X35.622 Y126.716
N1020 X35.61 Y125.424
N1025 X35.6 Y124.132
N1030 X35.592 Y122.84
N1035 X35.586 Y121.548
N1040 X35.581 Y120.256
N1045 X35.573 Y117.672
N1050 X35.567 Y113.795
N1055 X35.563 Y108.627
N1060 X35.56 Y98.291
N1065 Y96.999
N1070 Y46.609
N1075 Y29.812
N1080 X35.563 Y28.52
N1085 X35.579 Y27.228
N1090 X35.644 Y25.937
N1095 X35.857 Y24.663
N1100 X36.332 Y23.462
N1105 X37.033 Y22.376
N1110 X37.905 Y21.423
N1115 X38.901 Y20.6
N1120 X39.987 Y19.9
N1125 X41.137 Y19.31
N1130 X42.33 Y18.815
N1135 X43.555 Y18.403
N1140 X44.801 Y18.061
N1145 X46.062 Y17.779
N1150 X47.333 Y17.546
N1155 X48.61 Y17.355
N1160 X49.893 Y17.198
N1165 X51.179 Y17.07
N1170 X52.466 Y16.965
N1175 X53.756 Y16.879
N1180 X55.046 Y16.81
N1185 X56.337 Y16.753
N1190 X57.628 Y16.707
N1195 X58.919 Y16.669
N1200 X60.211 Y16.639
N1205 X61.503 Y16.614
N1210 X62.795 Y16.594
N1215 X64.087 Y16.578
N1220 X65.379 Y16.565
N1225 X66.671 Y16.554
N1230 X67.963 Y16.546
N1235 X69.255 Y16.539
N1240 X70.547 Y16.533
N1245 X73.131 Y16.525
N1250 X75.715 Y16.52
N1255 X79.591 Y16.515
N1260 X86.051 Y16.512
N1265 X101.556 Y16.51
N1270 X111.893
N1275 X162.283
N1280 X212.673
N1285 X263.063
N1290 X306.993
N1295 X308.285 Y16.513
N1300 X309.577 Y16.536
N1305 X310.866 Y16.617
N1310 X312.131 Y16.881
N1315 X313.313 Y17.404
N1320 X314.372 Y18.143
N1325 X315.3 Y19.043
N1330 X316.097 Y20.059
N1335 X316.774 Y21.16
N1340 X317.345 Y22.319
N1345 X317.822 Y23.519
N1350 X318.22 Y24.749
N1355 X318.549 Y25.998
N1360 X318.821 Y27.261
N1365 X319.045 Y28.534
N1370 X319.229 Y29.813
N1375 X319.379 Y31.096
N1380 X319.503 Y32.382
N1385 X319.603 Y33.67
N1390 X319.686 Y34.96
N1395 X319.752 Y36.25
N1400 X319.807 Y37.541
N1405 X319.851 Y38.832
N1410 X319.887 Y40.124
N1415 X319.916 Y41.416
N1420 X319.94 Y42.707
N1425 X319.959 Y43.999
N1430 X319.975 Y45.291
N1435 X319.987 Y46.583
N1440 X319.997 Y47.875
N1445 X320.006 Y49.167
N1450 X320.012 Y50.459
N1455 X320.018 Y51.751
N1460 X320.025 Y54.335
N1465 X320.031 Y56.92
N1470 X320.035 Y60.796
N1475 X320.038 Y65.964
N1480 X320.04 Y78.884
N1485 Y116.354
N1490 Y135.735
N1495 X320.035 Y137.027
N1500 X320.008 Y138.319
N1505 X319.912 Y139.607
N1510 X319.611 Y140.864
N1515 X319.053 Y142.029
N1520 X318.287 Y143.069
N1525 X317.367 Y143.977
N1530 X316.336 Y144.756
N1535 X315.226 Y145.416
N1540 X314.059 Y145.972
N1545 X312.854 Y146.436
N1550 X311.621 Y146.823
N1555 X310.369 Y147.143
N1560 X309.104 Y147.407
N1565 X307.83 Y147.625
N1570 X306.551 Y147.803
N1575 X305.267 Y147.949
N1580 X303.981 Y148.069
N1585 X302.692 Y148.167
N1590 X301.403 Y148.246
N1595 X300.112 Y148.311
N1600 X298.821 Y148.364
N1605 X297.53 Y148.407
N1610 X296.238 Y148.442
N1615 X294.947 Y148.47
N1620 X293.655 Y148.493
N1625 X292.363 Y148.512
N1630 X291.071 Y148.527
N1635 X289.779 Y148.539
N1640 X288.487 Y148.549
N1645 X287.195 Y148.557
N1650 X285.903 Y148.563
N1655 X284.611 Y148.568
N1660 X282.027 Y148.576
N1665 X278.15 Y148.583
N1670 X272.982 Y148.587
N1675 X263.938 Y148.589
N1680 X245.849 Y148.59
N1685 X195.459
N1690 X145.069
N1695 X94.679
N1700 X50.749
N1705 X49.457 Y148.576
N1710 X48.207 Y148.249
N1715 X47.06 Y147.654
N1720 X46.043 Y146.857
N1725 X45.159 Y145.915
N1730 X44.402 Y144.867
N1735 X43.761 Y143.746
N1740 X43.221 Y142.572
N1745 X42.769 Y141.362
N1750 X42.393 Y140.126
N1755 X42.08 Y138.872
N1760 X41.822 Y137.606
N1765 X41.608 Y136.332
N1770 X41.433 Y135.052
N1775 X41.288 Y133.768
N1780 X41.169 Y132.481
N1785 X41.072 Y131.193
N1790 X40.992 Y129.903
N1795 X40.927 Y128.613
N1800 X40.874 Y127.322
N1805 X40.831 Y126.03
N1810 X40.795 Y124.739
N1815 X40.766 Y123.447
N1820 X40.743 Y122.155
N1825 X40.723 Y120.863
N1830 X40.708 Y119.571
N1835 X40.695 Y118.279
N1840 X40.685 Y116.987
N1845 X40.676 Y115.695
N1850 X40.669 Y114.403
N1855 X40.664 Y113.111
N1860 X40.656 Y110.527
N1865 X40.65 Y107.943
N1870 X40.645 Y104.067
N1875 X40.642 Y97.607
N1880 Y96.315
N1885 X40.64 Y78.226
N1890 Y45.924
N1895 Y34.296
N1900 X40.642 Y33.004
N1905 X40.652 Y31.712
N1910 X40.817 Y30.43
N1915 X41.241 Y29.21
N1920 X41.889 Y28.092
N1925 X42.714 Y27.098
N1930 X43.669 Y26.228
N1935 X44.721 Y25.477
N1940 X45.843 Y24.836
N1945 X47.015 Y24.293
N1950 X48.223 Y23.835
N1955 X49.457 Y23.45
N1960 X50.708 Y23.129
N1965 X51.972 Y22.861
N1970 X53.245 Y22.638
N1975 X54.524 Y22.454
N1980 X55.807 Y22.301
N1985 X57.093 Y22.174
N1990 X58.38 Y22.07
N1995 X59.67 Y21.984
N2000 X60.96 Y21.913
N2005 X62.25 Y21.855
N2010 X63.542 Y21.807
N2015 X64.833 Y21.767
N2020 X66.125 Y21.735
N2025 X67.416 Y21.709
N2030 X68.708 Y21.687
N2035 X70. Y21.669
N2040 X71.292 Y21.655
N2045 X72.584 Y21.643
N2050 X73.876 Y21.633
N2055 X75.168 Y21.625
N2060 X76.46 Y21.619
N2065 X79.044 Y21.609
N2070 X81.628 Y21.603
N2075 X85.505 Y21.597
N2080 X90.673 Y21.593
N2085 X101.009 Y21.591
N2090 X122.974 Y21.59
N2095 X173.364
N2100 X223.754
N2105 X274.145
N2110 X302.57
N2115 X303.862 Y21.593
N2120 X305.154 Y21.608
N2125 X306.425 Y21.839
N2130 X307.623 Y22.324
N2135 X308.711 Y23.02
N2140 X309.675 Y23.881
N2145 X310.515 Y24.862
N2150 X311.238 Y25.933
N2155 X311.854 Y27.069
N2160 X312.375 Y28.251
N2165 X312.815 Y29.466
N2170 X313.183 Y30.705
N2175 X313.49 Y31.96
N2180 X313.747 Y33.226
N2185 X313.96 Y34.5
N2190 X314.136 Y35.78
N2195 X314.282 Y37.064
N2200 X314.403 Y38.351
N2205 X314.503 Y39.639
N2210 X314.585 Y40.928
N2215 X314.652 Y42.219
N2220 X314.708 Y43.509
N2225 X314.754 Y44.801
N2230 X314.791 Y46.092
N2235 X314.822 Y47.384
N2240 X314.847 Y48.676
N2245 X314.868 Y49.968
N2250 X314.885 Y51.259
N2255 X314.898 Y52.551
N2260 X314.91 Y53.843
N2265 X314.919 Y55.135
N2270 X314.927 Y56.427
N2275 X314.933 Y57.72
N2280 X314.942 Y60.304
N2285 X314.948 Y62.888
N2290 X314.954 Y66.764
N2295 X314.957 Y71.932
N2300 X314.959 Y82.269
N2305 X314.96 Y87.437
N2310 Y130.075
N2315 X314.959 Y131.367
N2320 X314.956 Y132.659
N2325 X314.92 Y133.95
N2330 X314.64 Y135.212
N2335 X314.112 Y136.391
N2340 X313.38 Y137.456
N2345 X312.494 Y138.396
N2350 X311.493 Y139.213
N2355 X310.408 Y139.914
N2360 X309.262 Y140.511
N2365 X308.072 Y141.016
N2370 X306.852 Y141.44
N2375 X305.61 Y141.796
N2380 X304.352 Y142.093
N2385 X303.084 Y142.341
N2390 X301.809 Y142.546
N2395 X300.528 Y142.716
N2400 X299.243 Y142.857
N2405 X297.957 Y142.974
N2410 X296.668 Y143.07
N2415 X295.379 Y143.149
N2420 X294.088 Y143.214
N2425 X292.797 Y143.267
N2430 X291.506 Y143.311
N2435 X290.214 Y143.347
N2440 X288.923 Y143.377
N2445 X287.631 Y143.401
N2450 X286.339 Y143.421
N2455 X285.047 Y143.438
N2460 X283.755 Y143.451
N2465 X282.463 Y143.462
N2470 X281.171 Y143.471
N2475 X279.879 Y143.478
N2480 X278.587 Y143.484
N2485 X276.003 Y143.493
N2490 X273.419 Y143.499
N2495 X269.543 Y143.504
N2500 X264.374 Y143.507
N2505 X254.038 Y143.509
N2510 X213.984 Y143.51
N2515 X163.594
N2520 X113.204
N2525 X62.814
N2530 X56.354
N2535 X55.063 Y143.459
N2540 X53.81 Y143.14
N2545 X52.649 Y142.575
N2550 X51.606 Y141.812
N2555 X50.688 Y140.902
N2560 X49.894 Y139.883
N2565 X49.789 Y139.714
N2570 X49.564 Y139.399
N2575 X49.299 Y139.115
N2580 X48.999 Y138.869
N2585 X48.67 Y138.663
N2590 X48.644 Y138.649
N2595 X48.499 Y138.555
N2600 X47.882 Y138.133
N2605 X47.501 Y137.788
N2610 X47.1 Y137.412
N2615 X46.739 Y137.05
N2620 X46.358 Y136.645
N2625 X46.021 Y136.269
N2630 X45.596 Y135.653
N2635 X45.503 Y135.507
N2640 X45.215 Y134.974
N2645 X45.096 Y134.745
N2650 X44.834 Y134.204
N2655 X44.728 Y133.983
N2660 X44.57 Y133.602
N2665 X44.439 Y133.221
N2670 X44.316 Y132.84
N2675 X44.24 Y132.459
N2680 X44.166 Y132.078
N2685 X44.046 Y131.316
N2690 X44.005 Y130.935
N2695 X43.973 Y130.554
N2700 X43.952 Y130.173
N2705 X43.95 Y129.411
N2710 Y35.689
N2715 X43.952 Y34.927
N2720 X43.973 Y34.546
N2725 X44.005 Y34.165
N2730 X44.046 Y33.784
N2735 X44.166 Y33.022
N2740 X44.24 Y32.641
N2745 X44.316 Y32.26
N2750 X44.439 Y31.879
N2755 X44.57 Y31.498
N2760 X44.728 Y31.117
N2765 X44.911 Y30.736
N2770 X45.096 Y30.355
N2775 X45.215 Y30.126
N2780 X45.503 Y29.593
N2785 X45.596 Y29.447
N2790 X46.02 Y28.831
N2795 X46.362 Y28.45
N2800 X46.739 Y28.05
N2805 X47.1 Y27.688
N2810 X47.507 Y27.307
N2815 X47.882 Y26.967
N2820 X48.5 Y26.545
N2825 X48.644 Y26.451
N2830 X49.179 Y26.164
N2835 X49.406 Y26.046
N2840 X49.787 Y25.861
N2845 X50.168 Y25.678
N2850 X50.549 Y25.519
N2855 X50.93 Y25.39
N2860 X51.311 Y25.267
N2865 X51.692 Y25.188
N2870 X52.073 Y25.116
N2875 X52.835 Y24.996
N2880 X53.216 Y24.954
N2885 X53.597 Y24.923
N2890 X53.978 Y24.901
N2895 X55.121 Y24.9
N2900 X300.86
N2905 X301.622 Y24.901
N2910 X302.003 Y24.923
N2915 X302.384 Y24.954
N2920 X302.765 Y24.996
N2925 X303.527 Y25.116
N2930 X303.908 Y25.188
N2935 X304.289 Y25.267
N2940 X304.67 Y25.39
N2945 X305.051 Y25.519
N2950 X305.432 Y25.678
N2955 X305.813 Y25.861
N2960 X306.194 Y26.046
N2965 X306.42 Y26.164
N2970 X306.956 Y26.451
N2975 X307.1 Y26.545
N2980 X307.718 Y26.967
N2985 X308.099 Y27.313
N2990 X308.5 Y27.688
N2995 X308.861 Y28.049
N3000 X309.242 Y28.454
N3005 X309.58 Y28.831
N3010 X310.004 Y29.446
N3015 X310.098 Y29.593
N3020 X310.385 Y30.125
N3025 X310.504 Y30.355
N3030 X310.766 Y30.895
N3035 X310.873 Y31.117
N3040 X311.031 Y31.498
N3045 X311.161 Y31.879
N3050 X311.284 Y32.26
N3055 X311.36 Y32.641
N3060 X311.434 Y33.022
N3065 X311.554 Y33.784
N3070 X311.595 Y34.165
N3075 X311.627 Y34.546
N3080 X311.648 Y34.927
N3085 X311.65 Y35.689
N3090 Y129.411
N3095 X311.648 Y130.173
N3100 X311.627 Y130.554
N3105 X311.595 Y130.935
N3110 X311.554 Y131.316
N3115 X311.434 Y132.078
N3120 X311.36 Y132.459
N3125 X311.284 Y132.84
N3130 X311.161 Y133.221
N3135 X311.031 Y133.602
N3140 X310.873 Y133.983
N3145 X310.689 Y134.364
N3150 X310.504 Y134.745
N3155 X310.385 Y134.974
N3160 X310.098 Y135.507
N3165 X310.004 Y135.654
N3170 X309.58 Y136.269
N3175 X309.238 Y136.65
N3180 X308.861 Y137.051
N3185 X308.5 Y137.412
N3190 X308.093 Y137.793
N3195 X307.718 Y138.133
N3200 X307.101 Y138.555
N3205 X306.956 Y138.649
N3210 X306.421 Y138.936
N3215 X306.194 Y139.055
N3220 X305.813 Y139.24
N3225 X305.432 Y139.422
N3230 X305.051 Y139.582
N3235 X304.67 Y139.711
N3240 X304.289 Y139.834
N3245 X303.908 Y139.912
N3250 X303.527 Y139.984
N3255 X302.765 Y140.104
N3260 X302.384 Y140.146
N3265 X302.003 Y140.177
N3270 X301.622 Y140.199
N3275 X300.479 Y140.2
N3280 X54.74
N3285 X53.978 Y140.199
N3290 X53.597 Y140.177
N3295 X53.216 Y140.146
N3300 X52.835 Y140.104
N3305 X52.073 Y139.984
N3310 X51.692 Y139.912
N3315 X51.311 Y139.834
N3320 X50.93 Y139.711
N3325 X50.549 Y139.582
N3330 X50.168 Y139.422
N3335 X49.787 Y139.24
N3340 X49.406 Y139.055
N3345 X49.179 Y138.936
N3350 X48.67 Y138.663
N3355 X48.567 Y138.628 Z-3.992
N3360 X48.467 Y138.593 Z-3.97
N3365 X48.37 Y138.56 Z-3.933
N3370 X48.275 Y138.55 Z-3.882
N3375 X48.188 Y138.541 Z-3.819
N3380 X48.11 Y138.533 Z-3.744
N3385 X48.049 Y138.538 Z-3.669
N3390 X47.999 Y138.542 Z-3.586
N3395 X47.958 Y138.545 Z-3.498
N3400 X47.929 Y138.548 Z-3.406
N3405 X47.911 Y138.549 Z-3.311
N3410 X47.906 Y138.55 Z-3.215
N3415 G0 Z5.
N3420 X30.441 Y165.246
N3425 Z-5.46
N3430 G1 Z-6.73 F3500.
N3435 X30.443 Y165.238 Z-6.872
N3440 X30.448 Y165.215 Z-7.013
N3445 X30.458 Y165.177 Z-7.149
N3450 X30.472 Y165.124 Z-7.281
N3455 X30.489 Y165.058 Z-7.406
N3460 X30.509 Y164.978 Z-7.522
N3465 X30.533 Y164.886 Z-7.628
N3470 X30.559 Y164.783 Z-7.723
N3475 X30.588 Y164.67 Z-7.805
N3480 X30.619 Y164.55 Z-7.874
N3485 X30.652 Y164.422 Z-7.929
N3490 X30.686 Y164.29 Z-7.968
N3495 X30.72 Y164.154 Z-7.992
N3500 X30.756 Y164.016 Z-8.
N3505 G2 X31.75 Y157.102 I-31.409 J-8.045
N3510 G1 Y156.779
N3515 X31.802 Y156.306
N3520 X31.819 Y155.701
N3525 X31.764 Y154.642
N3530 X31.594 Y153.361
N3535 X31.389 Y152.086
N3540 X31.203 Y150.807
N3545 X31.055 Y149.524
N3550 X30.936 Y148.237
N3555 X30.842 Y146.948
N3560 X30.767 Y145.659
N3565 X30.708 Y144.368
N3570 X30.661 Y143.077
N3575 X30.623 Y141.785
N3580 X30.594 Y140.493
N3585 X30.57 Y139.202
N3590 X30.551 Y137.91
N3595 X30.537 Y136.618
N3600 X30.525 Y135.326
N3605 X30.516 Y134.034
N3610 X30.508 Y132.742
N3615 X30.502 Y131.45
N3620 X30.494 Y128.865
N3625 X30.489 Y126.281
N3630 X30.484 Y122.405
N3635 X30.481 Y115.945
N3640 X30.48 Y106.901
N3645 Y56.51
N3650 Y24.209
N3655 X30.504 Y22.917
N3660 X30.594 Y21.628
N3665 X30.786 Y20.351
N3670 X31.111 Y19.1
N3675 X31.591 Y17.9
N3680 X32.241 Y16.784
N3685 X33.065 Y15.789
N3690 X34.046 Y14.947
N3695 X35.138 Y14.258
N3700 X36.302 Y13.697
N3705 X37.512 Y13.243
N3710 X38.751 Y12.877
N3715 X40.009 Y12.583
N3720 X41.28 Y12.348
N3725 X42.558 Y12.16
N3730 X43.841 Y12.01
N3735 X45.128 Y11.891
N3740 X46.416 Y11.796
N3745 X47.706 Y11.72
N3750 X48.997 Y11.66
N3755 X50.288 Y11.613
N3760 X51.58 Y11.575
N3765 X52.871 Y11.545
N3770 X54.163 Y11.521
N3775 X55.455 Y11.502
N3780 X56.747 Y11.487
N3785 X58.039 Y11.475
N3790 X59.331 Y11.466
N3795 X60.623 Y11.458
N3800 X61.915 Y11.453
N3805 X64.499 Y11.444
N3810 X67.083 Y11.439
N3815 X70.959 Y11.434
N3820 X77.42 Y11.431
N3825 X91.632 Y11.43
N3830 X142.022
N3835 X192.413
N3840 X242.803
N3845 X293.193
N3850 X312.574
N3855 X313.865 Y11.46
N3860 X315.153 Y11.564
N3865 X316.427 Y11.778
N3870 X317.671 Y12.13
N3875 X318.857 Y12.641
N3880 X319.955 Y13.323
N3885 X320.923 Y14.178
N3890 X321.736 Y15.183
N3895 X322.401 Y16.29
N3900 X322.941 Y17.464
N3905 X323.378 Y18.68
N3910 X323.73 Y19.923
N3915 X324.012 Y21.184
N3920 X324.238 Y22.456
N3925 X324.419 Y23.736
N3930 X324.563 Y25.02
N3935 X324.677 Y26.307
N3940 X324.769 Y27.595
N3945 X324.841 Y28.885
N3950 X324.899 Y30.176
N3955 X324.945 Y31.467
N3960 X324.981 Y32.759
N3965 X325.01 Y34.051
N3970 X325.033 Y35.343
N3975 X325.051 Y36.634
N3980 X325.065 Y37.926
N3985 X325.076 Y39.218
N3990 X325.086 Y40.51
N3995 X325.093 Y41.803
N4000 X325.098 Y43.095
N4005 X325.106 Y45.679
N4010 X325.111 Y48.263
N4015 X325.116 Y52.139
N4020 X325.119 Y58.599
N4025 X325.12 Y77.98
N4030 Y85.732
N4035 Y136.122
N4040 Y139.999
N4045 X325.116 Y141.291
N4050 X325.083 Y142.582
N4055 X324.969 Y143.869
N4060 X324.74 Y145.141
N4065 X324.369 Y146.379
N4070 X323.837 Y147.556
N4075 X323.132 Y148.639
N4080 X322.255 Y149.588
N4085 X321.234 Y150.38
N4090 X320.116 Y151.028
N4095 X318.936 Y151.554
N4100 X317.716 Y151.978
N4105 X316.47 Y152.32
N4110 X315.207 Y152.595
N4115 X313.934 Y152.814
N4120 X312.654 Y152.989
N4125 X311.37 Y153.129
N4130 X310.082 Y153.241
N4135 X308.793 Y153.329
N4140 X307.503 Y153.4
N4145 X306.212 Y153.455
N4150 X304.921 Y153.5
N4155 X303.629 Y153.535
N4160 X302.338 Y153.563
N4165 X301.046 Y153.585
N4170 X299.754 Y153.603
N4175 X298.462 Y153.617
N4180 X297.17 Y153.628
N4185 X295.878 Y153.637
N4190 X294.586 Y153.643
N4195 X293.294 Y153.649
N4200 X290.71 Y153.657
N4205 X288.126 Y153.662
N4210 X286.834 Y153.663
N4215 X281.665 Y153.667
N4220 X271.329 Y153.67
N4225 X236.443
N4230 X186.053
N4235 X135.663
N4240 X85.273
N4245 X43.927
N4250 X43.283 Y153.627
N4255 X42.036 Y153.287
N4260 X40.933 Y152.615
N4265 X39.987 Y151.734
N4270 X39.19 Y150.717
N4275 X38.526 Y149.609
N4280 X37.977 Y148.44
N4285 X37.524 Y147.229
N4290 X37.153 Y145.992
N4295 X36.85 Y144.736
N4300 X36.604 Y143.467
N4305 X36.403 Y142.191
N4310 X36.241 Y140.909
N4315 X36.109 Y139.624
N4320 X36.002 Y138.336
N4325 X35.916 Y137.047
N4330 X35.847 Y135.757
N4335 X35.791 Y134.466
N4340 X35.746 Y133.175
N4345 X35.709 Y131.883
N4350 X35.68 Y130.592
N4355 X35.656 Y129.3
N4360 X35.637 Y128.008
N4365 X35.622 Y126.716
N4370 X35.61 Y125.424
N4375 X35.6 Y124.132
N4380 X35.592 Y122.84
N4385 X35.586 Y121.548
N4390 X35.581 Y120.256
N4395 X35.573 Y117.672
N4400 X35.567 Y113.795
N4405 X35.563 Y108.627
N4410 X35.56 Y98.291
N4415 Y96.999
N4420 Y46.609
N4425 Y29.812
N4430 X35.563 Y28.52
N4435 X35.579 Y27.228
N4440 X35.644 Y25.937
N4445 X35.857 Y24.663
N4450 X36.332 Y23.462
N4455 X37.033 Y22.376
N4460 X37.905 Y21.423
N4465 X38.901 Y20.6
N4470 X39.987 Y19.9
N4475 X41.137 Y19.31
N4480 X42.33 Y18.815
N4485 X43.555 Y18.403
N4490 X44.801 Y18.061
N4495 X46.062 Y17.779
N4500 X47.333 Y17.546
N4505 X48.61 Y17.355
N4510 X49.893 Y17.198
N4515 X51.179 Y17.07
N4520 X52.466 Y16.965
N4525 X53.756 Y16.879
N4530 X55.046 Y16.81
N4535 X56.337 Y16.753
N4540 X57.628 Y16.707
N4545 X58.919 Y16.669
N4550 X60.211 Y16.639
N4555 X61.503 Y16.614
N4560 X62.795 Y16.594
N4565 X64.087 Y16.578
N4570 X65.379 Y16.565
N4575 X66.671 Y16.554
N4580 X67.963 Y16.546
N4585 X69.255 Y16.539
N4590 X70.547 Y16.533
N4595 X73.131 Y16.525
N4600 X75.715 Y16.52
N4605 X79.591 Y16.515
N4610 X86.051 Y16.512
N4615 X101.556 Y16.51
N4620 X111.893
N4625 X162.283
N4630 X212.673
N4635 X263.063
N4640 X306.993
N4645 X308.285 Y16.513
N4650 X309.577 Y16.536
N4655 X310.866 Y16.617
N4660 X312.131 Y16.881
N4665 X313.313 Y17.404
N4670 X314.372 Y18.143
N4675 X315.3 Y19.043
N4680 X316.097 Y20.059
N4685 X316.774 Y21.16
N4690 X317.345 Y22.319
N4695 X317.822 Y23.519
N4700 X318.22 Y24.749
N4705 X318.549 Y25.998
N4710 X318.821 Y27.261
N4715 X319.045 Y28.534
N4720 X319.229 Y29.813
N4725 X319.379 Y31.096
N4730 X319.503 Y32.382
N4735 X319.603 Y33.67
N4740 X319.686 Y34.96
N4745 X319.752 Y36.25
N4750 X319.807 Y37.541
N4755 X319.851 Y38.832
N4760 X319.887 Y40.124
N4765 X319.916 Y41.416
N4770 X319.94 Y42.707
N4775 X319.959 Y43.999
N4780 X319.975 Y45.291
N4785 X319.987 Y46.583
N4790 X319.997 Y47.875
N4795 X320.006 Y49.167
N4800 X320.012 Y50.459
N4805 X320.018 Y51.751
N4810 X320.025 Y54.335
N4815 X320.031 Y56.92
N4820 X320.035 Y60.796
N4825 X320.038 Y65.964
N4830 X320.04 Y78.884
N4835 Y116.354
N4840 Y135.735
N4845 X320.035 Y137.027
N4850 X320.008 Y138.319
N4855 X319.912 Y139.607
N4860 X319.611 Y140.864
N4865 X319.053 Y142.029
N4870 X318.287 Y143.069
N4875 X317.367 Y143.977
N4880 X316.336 Y144.756
N4885 X315.226 Y145.416
N4890 X314.059 Y145.972
N4895 X312.854 Y146.436
N4900 X311.621 Y146.823
N4905 X310.369 Y147.143
N4910 X309.104 Y147.407
N4915 X307.83 Y147.625
N4920 X306.551 Y147.803
N4925 X305.267 Y147.949
N4930 X303.981 Y148.069
N4935 X302.692 Y148.167
N4940 X301.403 Y148.246
N4945 X300.112 Y148.311
N4950 X298.821 Y148.364
N4955 X297.53 Y148.407
N4960 X296.238 Y148.442
N4965 X294.947 Y148.47
N4970 X293.655 Y148.493
N4975 X292.363 Y148.512
N4980 X291.071 Y148.527
N4985 X289.779 Y148.539
N4990 X288.487 Y148.549
N4995 X287.195 Y148.557
N5000 X285.903 Y148.563
N5005 X284.611 Y148.568
N5010 X282.027 Y148.576
N5015 X278.15 Y148.583
N5020 X272.982 Y148.587
N5025 X263.938 Y148.589
N5030 X245.849 Y148.59
N5035 X195.459
N5040 X145.069
N5045 X94.679
N5050 X50.749
N5055 X49.457 Y148.576
N5060 X48.207 Y148.249
N5065 X47.06 Y147.654
N5070 X46.043 Y146.857
N5075 X45.159 Y145.915
N5080 X44.402 Y144.867
N5085 X43.761 Y143.746
N5090 X43.221 Y142.572
N5095 X42.769 Y141.362
N5100 X42.393 Y140.126
N5105 X42.08 Y138.872
N5110 X41.822 Y137.606
N5115 X41.608 Y136.332
N5120 X41.433 Y135.052
N5125 X41.288 Y133.768
N5130 X41.169 Y132.481
N5135 X41.072 Y131.193
N5140 X40.992 Y129.903
N5145 X40.927 Y128.613
N5150 X40.874 Y127.322
N5155 X40.831 Y126.03
N5160 X40.795 Y124.739
N5165 X40.766 Y123.447
N5170 X40.743 Y122.155
N5175 X40.723 Y120.863
N5180 X40.708 Y119.571
N5185 X40.695 Y118.279
N5190 X40.685 Y116.987
N5195 X40.676 Y115.695
N5200 X40.669 Y114.403
N5205 X40.664 Y113.111
N5210 X40.656 Y110.527
N5215 X40.65 Y107.943
N5220 X40.645 Y104.067
N5225 X40.642 Y97.607
N5230 Y96.315
N5235 X40.64 Y78.226
N5240 Y45.924
N5245 Y34.296
N5250 X40.642 Y33.004
N5255 X40.652 Y31.712
N5260 X40.817 Y30.43
N5265 X41.241 Y29.21
N5270 X41.889 Y28.092
N5275 X42.714 Y27.098
N5280 X43.669 Y26.228
N5285 X44.721 Y25.477
N5290 X45.843 Y24.836
N5295 X47.015 Y24.293
N5300 X48.223 Y23.835
N5305 X49.457 Y23.45
N5310 X50.708 Y23.129
N5315 X51.972 Y22.861
N5320 X53.245 Y22.638
N5325 X54.524 Y22.454
N5330 X55.807 Y22.301
N5335 X57.093 Y22.174
N5340 X58.38 Y22.07
N5345 X59.67 Y21.984
N5350 X60.96 Y21.913
N5355 X62.25 Y21.855
N5360 X63.542 Y21.807
N5365 X64.833 Y21.767
N5370 X66.125 Y21.735
N5375 X67.416 Y21.709
N5380 X68.708 Y21.687
N5385 X70. Y21.669
N5390 X71.292 Y21.655
N5395 X72.584 Y21.643
N5400 X73.876 Y21.633
N5405 X75.168 Y21.625
N5410 X76.46 Y21.619
N5415 X79.044 Y21.609
N5420 X81.628 Y21.603
N5425 X85.505 Y21.597
N5430 X90.673 Y21.593
N5435 X101.009 Y21.591
N5440 X122.974 Y21.59
N5445 X173.364
N5450 X223.754
N5455 X274.145
N5460 X302.57
N5465 X303.862 Y21.593
N5470 X305.154 Y21.608
N5475 X306.425 Y21.839
N5480 X307.623 Y22.324
N5485 X308.711 Y23.02
N5490 X309.675 Y23.881
N5495 X310.515 Y24.862
N5500 X311.238 Y25.933
N5505 X311.854 Y27.069
N5510 X312.375 Y28.251
N5515 X312.815 Y29.466
N5520 X313.183 Y30.705
N5525 X313.49 Y31.96
N5530 X313.747 Y33.226
N5535 X313.96 Y34.5
N5540 X314.136 Y35.78
N5545 X314.282 Y37.064
N5550 X314.403 Y38.351
N5555 X314.503 Y39.639
N5560 X314.585 Y40.928
N5565 X314.652 Y42.219
N5570 X314.708 Y43.509
N5575 X314.754 Y44.801
N5580 X314.791 Y46.092
N5585 X314.822 Y47.384
N5590 X314.847 Y48.676
N5595 X314.868 Y49.968
N5600 X314.885 Y51.259
N5605 X314.898 Y52.551
N5610 X314.91 Y53.843
N5615 X314.919 Y55.135
N5620 X314.927 Y56.427
N5625 X314.933 Y57.72
N5630 X314.942 Y60.304
N5635 X314.948 Y62.888
N5640 X314.954 Y66.764
N5645 X314.957 Y71.932
N5650 X314.959 Y82.269
N5655 X314.96 Y87.437
N5660 Y130.075
N5665 X314.959 Y131.367
N5670 X314.956 Y132.659
N5675 X314.92 Y133.95
N5680 X314.64 Y135.212
N5685 X314.112 Y136.391
N5690 X313.38 Y137.456
N5695 X312.494 Y138.396
N5700 X311.493 Y139.213
N5705 X310.408 Y139.914
N5710 X309.262 Y140.511
N5715 X308.072 Y141.016
N5720 X306.852 Y141.44
N5725 X305.61 Y141.796
N5730 X304.352 Y142.093
N5735 X303.084 Y142.341
N5740 X301.809 Y142.546
N5745 X300.528 Y142.716
N5750 X299.243 Y142.857
N5755 X297.957 Y142.974
N5760 X296.668 Y143.07
N5765 X295.379 Y143.149
N5770 X294.088 Y143.214
N5775 X292.797 Y143.267
N5780 X291.506 Y143.311
N5785 X290.214 Y143.347
N5790 X288.923 Y143.377
N5795 X287.631 Y143.401
N5800 X286.339 Y143.421
N5805 X285.047 Y143.438
N5810 X283.755 Y143.451
N5815 X282.463 Y143.462
N5820 X281.171 Y143.471
N5825 X279.879 Y143.478
N5830 X278.587 Y143.484
N5835 X276.003 Y143.493
N5840 X273.419 Y143.499
N5845 X269.543 Y143.504
N5850 X264.374 Y143.507
N5855 X254.038 Y143.509
N5860 X213.984 Y143.51
N5865 X163.594
N5870 X113.204
N5875 X62.814
N5880 X56.354
N5885 X55.063 Y143.459
N5890 X53.81 Y143.14
N5895 X52.649 Y142.575
N5900 X51.606 Y141.812
N5905 X50.688 Y140.902
N5910 X49.894 Y139.883
N5915 X49.789 Y139.714
N5920 X49.564 Y139.399
N5925 X49.299 Y139.115
N5930 X48.999 Y138.869
N5935 X48.67 Y138.663
N5940 X48.644 Y138.649
N5945 X48.499 Y138.555
N5950 X47.882 Y138.133
N5955 X47.501 Y137.788
N5960 X47.1 Y137.412
N5965 X46.739 Y137.05
N5970 X46.358 Y136.645
N5975 X46.021 Y136.269
N5980 X45.596 Y135.653
N5985 X45.503 Y135.507
N5990 X45.215 Y134.974
N5995 X45.096 Y134.745
N6000 X44.834 Y134.204
N6005 X44.728 Y133.983
N6010 X44.57 Y133.602
N6015 X44.439 Y133.221
N6020 X44.316 Y132.84
N6025 X44.24 Y132.459
N6030 X44.166 Y132.078
N6035 X44.046 Y131.316
N6040 X44.005 Y130.935
N6045 X43.973 Y130.554
N6050 X43.952 Y130.173
N6055 X43.95 Y129.411
N6060 Y35.689
N6065 X43.952 Y34.927
N6070 X43.973 Y34.546
N6075 X44.005 Y34.165
N6080 X44.046 Y33.784
N6085 X44.166 Y33.022
N6090 X44.24 Y32.641
N6095 X44.316 Y32.26
N6100 X44.439 Y31.879
N6105 X44.57 Y31.498
N6110 X44.728 Y31.117
N6115 X44.911 Y30.736
N6120 X45.096 Y30.355
N6125 X45.215 Y30.126
N6130 X45.503 Y29.593
N6135 X45.596 Y29.447
N6140 X46.02 Y28.831
N6145 X46.362 Y28.45
N6150 X46.739 Y28.05
N6155 X47.1 Y27.688
N6160 X47.507 Y27.307
N6165 X47.882 Y26.967
N6170 X48.5 Y26.545
N6175 X48.644 Y26.451
N6180 X49.179 Y26.164
N6185 X49.406 Y26.046
N6190 X49.787 Y25.861
N6195 X50.168 Y25.678
N6200 X50.549 Y25.519
N6205 X50.93 Y25.39
N6210 X51.311 Y25.267
N6215 X51.692 Y25.188
N6220 X52.073 Y25.116
N6225 X52.835 Y24.996
N6230 X53.216 Y24.954
N6235 X53.597 Y24.923
N6240 X53.978 Y24.901
N6245 X55.121 Y24.9
N6250 X300.86
N6255 X301.622 Y24.901
N6260 X302.003 Y24.923
N6265 X302.384 Y24.954
N6270 X302.765 Y24.996
N6275 X303.527 Y25.116
N6280 X303.908 Y25.188
N6285 X304.289 Y25.267
N6290 X304.67 Y25.39
N6295 X305.051 Y25.519
N6300 X305.432 Y25.678
N6305 X305.813 Y25.861
N6310 X306.194 Y26.046
N6315 X306.42 Y26.164
N6320 X306.956 Y26.451
N6325 X307.1 Y26.545
N6330 X307.718 Y26.967
N6335 X308.099 Y27.313
N6340 X308.5 Y27.688
N6345 X308.861 Y28.049
N6350 X309.242 Y28.454
N6355 X309.58 Y28.831
N6360 X310.004 Y29.446
N6365 X310.098 Y29.593
N6370 X310.385 Y30.125
N6375 X310.504 Y30.355
N6380 X310.766 Y30.895
N6385 X310.873 Y31.117
N6390 X311.031 Y31.498
N6395 X311.161 Y31.879
N6400 X311.284 Y32.26
N6405 X311.36 Y32.641
N6410 X311.434 Y33.022
N6415 X311.554 Y33.784
N6420 X311.595 Y34.165
N6425 X311.627 Y34.546
N6430 X311.648 Y34.927
N6435 X311.65 Y35.689
N6440 Y129.411
N6445 X311.648 Y130.173
N6450 X311.627 Y130.554
N6455 X311.595 Y130.935
N6460 X311.554 Y131.316
N6465 X311.434 Y132.078
N6470 X311.36 Y132.459
N6475 X311.284 Y132.84
N6480 X311.161 Y133.221
N6485 X311.031 Y133.602
N6490 X310.873 Y133.983
N6495 X310.689 Y134.364
N6500 X310.504 Y134.745
N6505 X310.385 Y134.974
N6510 X310.098 Y135.507
N6515 X310.004 Y135.654
N6520 X309.58 Y136.269
N6525 X309.238 Y136.65
N6530 X308.861 Y137.051
N6535 X308.5 Y137.412
N6540 X308.093 Y137.793
N6545 X307.718 Y138.133
N6550 X307.101 Y138.555
N6555 X306.956 Y138.649
N6560 X306.421 Y138.936
N6565 X306.194 Y139.055
N6570 X305.813 Y139.24
N6575 X305.432 Y139.422
N6580 X305.051 Y139.582
N6585 X304.67 Y139.711
N6590 X304.289 Y139.834
N6595 X303.908 Y139.912
N6600 X303.527 Y139.984
N6605 X302.765 Y140.104
N6610 X302.384 Y140.146
N6615 X302.003 Y140.177
N6620 X301.622 Y140.199
N6625 X300.479 Y140.2
N6630 X54.74
N6635 X53.978 Y140.199
N6640 X53.597 Y140.177
N6645 X53.216 Y140.146
N6650 X52.835 Y140.104
N6655 X52.073 Y139.984
N6660 X51.692 Y139.912
N6665 X51.311 Y139.834
N6670 X50.93 Y139.711
N6675 X50.549 Y139.582
N6680 X50.168 Y139.422
N6685 X49.787 Y139.24
N6690 X49.406 Y139.055
N6695 X49.179 Y138.936
N6700 X48.67 Y138.663
N6705 X48.567 Y138.628 Z-7.992
N6710 X48.467 Y138.593 Z-7.97
N6715 X48.37 Y138.56 Z-7.933
N6720 X48.275 Y138.55 Z-7.882
N6725 X48.188 Y138.541 Z-7.819
N6730 X48.11 Y138.533 Z-7.744
N6735 X48.049 Y138.538 Z-7.669
N6740 X47.999 Y138.542 Z-7.586
N6745 X47.958 Y138.545 Z-7.498
N6750 X47.929 Y138.548 Z-7.406
N6755 X47.911 Y138.549 Z-7.311
N6760 X47.906 Y138.55 Z-7.215
N6765 G0 Z5.
N6770 X30.441 Y165.246
N6775 Z-9.46
N6780 G1 Z-10.73 F3500.
N6785 X30.443 Y165.238 Z-10.872
N6790 X30.448 Y165.215 Z-11.013
N6795 X30.458 Y165.177 Z-11.149
N6800 X30.472 Y165.124 Z-11.281
N6805 X30.489 Y165.058 Z-11.406
N6810 X30.509 Y164.978 Z-11.522
N6815 X30.533 Y164.886 Z-11.628
N6820 X30.559 Y164.783 Z-11.723
N6825 X30.588 Y164.67 Z-11.805
N6830 X30.619 Y164.55 Z-11.874
N6835 X30.652 Y164.422 Z-11.929
N6840 X30.686 Y164.29 Z-11.968
N6845 X30.72 Y164.154 Z-11.992
N6850 X30.756 Y164.016 Z-12.
N6855 G2 X31.75 Y157.102 I-31.409 J-8.045
N6860 G1 Y156.779
N6865 X31.802 Y156.306
N6870 X31.819 Y155.701
N6875 X31.764 Y154.642
N6880 X31.594 Y153.361
N6885 X31.389 Y152.086
N6890 X31.203 Y150.807
N6895 X31.055 Y149.524
N6900 X30.936 Y148.237
N6905 X30.842 Y146.948
N6910 X30.767 Y145.659
N6915 X30.708 Y144.368
N6920 X30.661 Y143.077
N6925 X30.623 Y141.785
N6930 X30.594 Y140.493
N6935 X30.57 Y139.202
N6940 X30.551 Y137.91
N6945 X30.537 Y136.618
N6950 X30.525 Y135.326
N6955 X30.516 Y134.034
N6960 X30.508 Y132.742
N6965 X30.502 Y131.45
N6970 X30.494 Y128.865
N6975 X30.489 Y126.281
N6980 X30.484 Y122.405
N6985 X30.481 Y115.945
N6990 X30.48 Y106.901
N6995 Y56.51
N7000 Y24.209
N7005 X30.504 Y22.917
N7010 X30.594 Y21.628
N7015 X30.786 Y20.351
N7020 X31.111 Y19.1
N7025 X31.591 Y17.9
N7030 X32.241 Y16.784
N7035 X33.065 Y15.789
N7040 X34.046 Y14.947
N7045 X35.138 Y14.258
N7050 X36.302 Y13.697
N7055 X37.512 Y13.243
N7060 X38.751 Y12.877
N7065 X40.009 Y12.583
N7070 X41.28 Y12.348
N7075 X42.558 Y12.16
N7080 X43.841 Y12.01
N7085 X45.128 Y11.891
N7090 X46.416 Y11.796
N7095 X47.706 Y11.72
N7100 X48.997 Y11.66
N7105 X50.288 Y11.613
N7110 X51.58 Y11.575
N7115 X52.871 Y11.545
N7120 X54.163 Y11.521
N7125 X55.455 Y11.502
N7130 X56.747 Y11.487
N7135 X58.039 Y11.475
N7140 X59.331 Y11.466
N7145 X60.623 Y11.458
N7150 X61.915 Y11.453
N7155 X64.499 Y11.444
N7160 X67.083 Y11.439
N7165 X70.959 Y11.434
N7170 X77.42 Y11.431
N7175 X91.632 Y11.43
N7180 X142.022
N7185 X192.413
N7190 X242.803
N7195 X293.193
N7200 X312.574
N7205 X313.865 Y11.46
N7210 X315.153 Y11.564
N7215 X316.427 Y11.778
N7220 X317.671 Y12.13
N7225 X318.857 Y12.641
N7230 X319.955 Y13.323
N7235 X320.923 Y14.178
N7240 X321.736 Y15.183
N7245 X322.401 Y16.29
N7250 X322.941 Y17.464
N7255 X323.378 Y18.68
N7260 X323.73 Y19.923
N7265 X324.012 Y21.184
N7270 X324.238 Y22.456
N7275 X324.419 Y23.736
N7280 X324.563 Y25.02
N7285 X324.677 Y26.307
N7290 X324.769 Y27.595
N7295 X324.841 Y28.885
N7300 X324.899 Y30.176
N7305 X324.945 Y31.467
N7310 X324.981 Y32.759
N7315 X325.01 Y34.051
N7320 X325.033 Y35.343
N7325 X325.051 Y36.634
N7330 X325.065 Y37.926
N7335 X325.076 Y39.218
N7340 X325.086 Y40.51
N7345 X325.093 Y41.803
N7350 X325.098 Y43.095
N7355 X325.106 Y45.679
N7360 X325.111 Y48.263
N7365 X325.116 Y52.139
N7370 X325.119 Y58.599
N7375 X325.12 Y77.98
N7380 Y85.732
N7385 Y136.122
N7390 Y139.999
N7395 X325.116 Y141.291
N7400 X325.083 Y142.582
N7405 X324.969 Y143.869
N7410 X324.74 Y145.141
N7415 X324.369 Y146.379
N7420 X323.837 Y147.556
N7425 X323.132 Y148.639
N7430 X322.255 Y149.588
N7435 X321.234 Y150.38
N7440 X320.116 Y151.028
N7445 X318.936 Y151.554
N7450 X317.716 Y151.978
N7455 X316.47 Y152.32
N7460 X315.207 Y152.595
N7465 X313.934 Y152.814
N7470 X312.654 Y152.989
N7475 X311.37 Y153.129
N7480 X310.082 Y153.241
N7485 X308.793 Y153.329
N7490 X307.503 Y153.4
N7495 X306.212 Y153.455
N7500 X304.921 Y153.5
N7505 X303.629 Y153.535
N7510 X302.338 Y153.563
N7515 X301.046 Y153.585
N7520 X299.754 Y153.603
N7525 X298.462 Y153.617
N7530 X297.17 Y153.628
N7535 X295.878 Y153.637
N7540 X294.586 Y153.643
N7545 X293.294 Y153.649
N7550 X290.71 Y153.657
N7555 X288.126 Y153.662
N7560 X286.834 Y153.663
N7565 X281.665 Y153.667
N7570 X271.329 Y153.67
N7575 X236.443
N7580 X186.053
N7585 X135.663
N7590 X85.273
N7595 X43.927
N7600 X43.283 Y153.627
N7605 X42.036 Y153.287
N7610 X40.933 Y152.615
N7615 X39.987 Y151.734
N7620 X39.19 Y150.717
N7625 X38.526 Y149.609
N7630 X37.977 Y148.44
N7635 X37.524 Y147.229
N7640 X37.153 Y145.992
N7645 X36.85 Y144.736
N7650 X36.604 Y143.467
N7655 X36.403 Y142.191
N7660 X36.241 Y140.909
N7665 X36.109 Y139.624
N7670 X36.002 Y138.336
N7675 X35.916 Y137.047
N7680 X35.847 Y135.757
N7685 X35.791 Y134.466
N7690 X35.746 Y133.175
N7695 X35.709 Y131.883
N7700 X35.68 Y130.592
N7705 X35.656 Y129.3
N7710 X35.637 Y128.008
N7715 X35.622 Y126.716
N7720 X35.61 Y125.424
N7725 X35.6 Y124.132
N7730 X35.592 Y122.84
N7735 X35.586 Y121.548
N7740 X35.581 Y120.256
N7745 X35.573 Y117.672
N7750 X35.567 Y113.795
N7755 X35.563 Y108.627
N7760 X35.56 Y98.291
N7765 Y96.999
N7770 Y46.609
N7775 Y29.812
N7780 X35.563 Y28.52
N7785 X35.579 Y27.228
N7790 X35.644 Y25.937
N7795 X35.857 Y24.663
N7800 X36.332 Y23.462
N7805 X37.033 Y22.376
N7810 X37.905 Y21.423
N7815 X38.901 Y20.6
N7820 X39.987 Y19.9
N7825 X41.137 Y19.31
N7830 X42.33 Y18.815
N7835 X43.555 Y18.403
N7840 X44.801 Y18.061
N7845 X46.062 Y17.779
N7850 X47.333 Y17.546
N7855 X48.61 Y17.355
N7860 X49.893 Y17.198
N7865 X51.179 Y17.07
N7870 X52.466 Y16.965
N7875 X53.756 Y16.879
N7880 X55.046 Y16.81
N7885 X56.337 Y16.753
N7890 X57.628 Y16.707
N7895 X58.919 Y16.669
N7900 X60.211 Y16.639
N7905 X61.503 Y16.614
N7910 X62.795 Y16.594
N7915 X64.087 Y16.578
N7920 X65.379 Y16.565
N7925 X66.671 Y16.554
N7930 X67.963 Y16.546
N7935 X69.255 Y16.539
N7940 X70.547 Y16.533
N7945 X73.131 Y16.525
N7950 X75.715 Y16.52
N7955 X79.591 Y16.515
N7960 X86.051 Y16.512
N7965 X101.556 Y16.51
N7970 X111.893
N7975 X162.283
N7980 X212.673
N7985 X263.063
N7990 X306.993
N7995 X308.285 Y16.513
N8000 X309.577 Y16.536
N8005 X310.866 Y16.617
N8010 X312.131 Y16.881
N8015 X313.313 Y17.404
N8020 X314.372 Y18.143
N8025 X315.3 Y19.043
N8030 X316.097 Y20.059
N8035 X316.774 Y21.16
N8040 X317.345 Y22.319
N8045 X317.822 Y23.519
N8050 X318.22 Y24.749
N8055 X318.549 Y25.998
N8060 X318.821 Y27.261
N8065 X319.045 Y28.534
N8070 X319.229 Y29.813
N8075 X319.379 Y31.096
N8080 X319.503 Y32.382
N8085 X319.603 Y33.67
N8090 X319.686 Y34.96
N8095 X319.752 Y36.25
N8100 X319.807 Y37.541
N8105 X319.851 Y38.832
N8110 X319.887 Y40.124
N8115 X319.916 Y41.416
N8120 X319.94 Y42.707
N8125 X319.959 Y43.999
N8130 X319.975 Y45.291
N8135 X319.987 Y46.583
N8140 X319.997 Y47.875
N8145 X320.006 Y49.167
N8150 X320.012 Y50.459
N8155 X320.018 Y51.751
N8160 X320.025 Y54.335
N8165 X320.031 Y56.92
N8170 X320.035 Y60.796
N8175 X320.038 Y65.964
N8180 X320.04 Y78.884
N8185 Y116.354
N8190 Y135.735
N8195 X320.035 Y137.027
N8200 X320.008 Y138.319
N8205 X319.912 Y139.607
N8210 X319.611 Y140.864
N8215 X319.053 Y142.029
N8220 X318.287 Y143.069
N8225 X317.367 Y143.977
N8230 X316.336 Y144.756
N8235 X315.226 Y145.416
N8240 X314.059 Y145.972
N8245 X312.854 Y146.436
N8250 X311.621 Y146.823
N8255 X310.369 Y147.143
N8260 X309.104 Y147.407
N8265 X307.83 Y147.625
N8270 X306.551 Y147.803
N8275 X305.267 Y147.949
N8280 X303.981 Y148.069
N8285 X302.692 Y148.167
N8290 X301.403 Y148.246
N8295 X300.112 Y148.311
N8300 X298.821 Y148.364
N8305 X297.53 Y148.407
N8310 X296.238 Y148.442
N8315 X294.947 Y148.47
N8320 X293.655 Y148.493
N8325 X292.363 Y148.512
N8330 X291.071 Y148.527
N8335 X289.779 Y148.539
N8340 X288.487 Y148.549
N8345 X287.195 Y148.557
N8350 X285.903 Y148.563
N8355 X284.611 Y148.568
N8360 X282.027 Y148.576
N8365 X278.15 Y148.583
N8370 X272.982 Y148.587
N8375 X263.938 Y148.589
N8380 X245.849 Y148.59
N8385 X195.459
N8390 X145.069
N8395 X94.679
N8400 X50.749
N8405 X49.457 Y148.576
N8410 X48.207 Y148.249
N8415 X47.06 Y147.654
N8420 X46.043 Y146.857
N8425 X45.159 Y145.915
N8430 X44.402 Y144.867
N8435 X43.761 Y143.746
N8440 X43.221 Y142.572
N8445 X42.769 Y141.362
N8450 X42.393 Y140.126
N8455 X42.08 Y138.872
N8460 X41.822 Y137.606
N8465 X41.608 Y136.332
N8470 X41.433 Y135.052
N8475 X41.288 Y133.768
N8480 X41.169 Y132.481
N8485 X41.072 Y131.193
N8490 X40.992 Y129.903
N8495 X40.927 Y128.613
N8500 X40.874 Y127.322
N8505 X40.831 Y126.03
N8510 X40.795 Y124.739
N8515 X40.766 Y123.447
N8520 X40.743 Y122.155
N8525 X40.723 Y120.863
N8530 X40.708 Y119.571
N8535 X40.695 Y118.279
N8540 X40.685 Y116.987
N8545 X40.676 Y115.695
N8550 X40.669 Y114.403
N8555 X40.664 Y113.111
N8560 X40.656 Y110.527
N8565 X40.65 Y107.943
N8570 X40.645 Y104.067
N8575 X40.642 Y97.607
N8580 Y96.315
N8585 X40.64 Y78.226
N8590 Y45.924
N8595 Y34.296
N8600 X40.642 Y33.004
N8605 X40.652 Y31.712
N8610 X40.817 Y30.43
N8615 X41.241 Y29.21
N8620 X41.889 Y28.092
N8625 X42.714 Y27.098
N8630 X43.669 Y26.228
N8635 X44.721 Y25.477
N8640 X45.843 Y24.836
N8645 X47.015 Y24.293
N8650 X48.223 Y23.835
N8655 X49.457 Y23.45
N8660 X50.708 Y23.129
N8665 X51.972 Y22.861
N8670 X53.245 Y22.638
N8675 X54.524 Y22.454
N8680 X55.807 Y22.301
N8685 X57.093 Y22.174
N8690 X58.38 Y22.07
N8695 X59.67 Y21.984
N8700 X60.96 Y21.913
N8705 X62.25 Y21.855
N8710 X63.542 Y21.807
N8715 X64.833 Y21.767
N8720 X66.125 Y21.735
N8725 X67.416 Y21.709
N8730 X68.708 Y21.687
N8735 X70. Y21.669
N8740 X71.292 Y21.655
N8745 X72.584 Y21.643
N8750 X73.876 Y21.633
N8755 X75.168 Y21.625
N8760 X76.46 Y21.619
N8765 X79.044 Y21.609
N8770 X81.628 Y21.603
N8775 X85.505 Y21.597
N8780 X90.673 Y21.593
N8785 X101.009 Y21.591
N8790 X122.974 Y21.59
N8795 X173.364
N8800 X223.754
N8805 X274.145
N8810 X302.57
N8815 X303.862 Y21.593
N8820 X305.154 Y21.608
N8825 X306.425 Y21.839
N8830 X307.623 Y22.324
N8835 X308.711 Y23.02
N8840 X309.675 Y23.881
N8845 X310.515 Y24.862
N8850 X311.238 Y25.933
N8855 X311.854 Y27.069
N8860 X312.375 Y28.251
N8865 X312.815 Y29.466
N8870 X313.183 Y30.705
N8875 X313.49 Y31.96
N8880 X313.747 Y33.226
N8885 X313.96 Y34.5
N8890 X314.136 Y35.78
N8895 X314.282 Y37.064
N8900 X314.403 Y38.351
N8905 X314.503 Y39.639
N8910 X314.585 Y40.928
N8915 X314.652 Y42.219
N8920 X314.708 Y43.509
N8925 X314.754 Y44.801
N8930 X314.791 Y46.092
N8935 X314.822 Y47.384
N8940 X314.847 Y48.676
N8945 X314.868 Y49.968
N8950 X314.885 Y51.259
N8955 X314.898 Y52.551
N8960 X314.91 Y53.843
N8965 X314.919 Y55.135
N8970 X314.927 Y56.427
N8975 X314.933 Y57.72
N8980 X314.942 Y60.304
N8985 X314.948 Y62.888
N8990 X314.954 Y66.764
N8995 X314.957 Y71.932
N9000 X314.959 Y82.269
N9005 X314.96 Y87.437
N9010 Y130.075
N9015 X314.959 Y131.367
N9020 X314.956 Y132.659
N9025 X314.92 Y133.95
N9030 X314.64 Y135.212
N9035 X314.112 Y136.391
N9040 X313.38 Y137.456
N9045 X312.494 Y138.396
N9050 X311.493 Y139.213
N9055 X310.408 Y139.914
N9060 X309.262 Y140.511
N9065 X308.072 Y141.016
N9070 X306.852 Y141.44
N9075 X305.61 Y141.796
N9080 X304.352 Y142.093
N9085 X303.084 Y142.341
N9090 X301.809 Y142.546
N9095 X300.528 Y142.716
N9100 X299.243 Y142.857
N9105 X297.957 Y142.974
N9110 X296.668 Y143.07
N9115 X295.379 Y143.149
N9120 X294.088 Y143.214
N9125 X292.797 Y143.267
N9130 X291.506 Y143.311
N9135 X290.214 Y143.347
N9140 X288.923 Y143.377
N9145 X287.631 Y143.401
N9150 X286.339 Y143.421
N9155 X285.047 Y143.438
N9160 X283.755 Y143.451
N9165 X282.463 Y143.462
N9170 X281.171 Y143.471
N9175 X279.879 Y143.478
N9180 X278.587 Y143.484
N9185 X276.003 Y143.493
N9190 X273.419 Y143.499
N9195 X269.543 Y143.504
N9200 X264.374 Y143.507
N9205 X254.038 Y143.509
N9210 X213.984 Y143.51
N9215 X163.594
N9220 X113.204
N9225 X62.814
N9230 X56.354
N9235 X55.063 Y143.459
N9240 X53.81 Y143.14
N9245 X52.649 Y142.575
N9250 X51.606 Y141.812
N9255 X50.688 Y140.902
N9260 X49.894 Y139.883
N9265 X49.789 Y139.714
N9270 X49.564 Y139.399
N9275 X49.299 Y139.115
N9280 X48.999 Y138.869
N9285 X48.67 Y138.663
N9290 X48.644 Y138.649
N9295 X48.499 Y138.555
N9300 X47.882 Y138.133
N9305 X47.501 Y137.788
N9310 X47.1 Y137.412
N9315 X46.739 Y137.05
N9320 X46.358 Y136.645
N9325 X46.021 Y136.269
N9330 X45.596 Y135.653
N9335 X45.503 Y135.507
N9340 X45.215 Y134.974
N9345 X45.096 Y134.745
N9350 X44.834 Y134.204
N9355 X44.728 Y133.983
N9360 X44.57 Y133.602
N9365 X44.439 Y133.221
N9370 X44.316 Y132.84
N9375 X44.24 Y132.459
N9380 X44.166 Y132.078
N9385 X44.046 Y131.316
N9390 X44.005 Y130.935
N9395 X43.973 Y130.554
N9400 X43.952 Y130.173
N9405 X43.95 Y129.411
N9410 Y35.689
N9415 X43.952 Y34.927
N9420 X43.973 Y34.546
N9425 X44.005 Y34.165
N9430 X44.046 Y33.784
N9435 X44.166 Y33.022
N9440 X44.24 Y32.641
N9445 X44.316 Y32.26
N9450 X44.439 Y31.879
N9455 X44.57 Y31.498
N9460 X44.728 Y31.117
N9465 X44.911 Y30.736
N9470 X45.096 Y30.355
N9475 X45.215 Y30.126
N9480 X45.503 Y29.593
N9485 X45.596 Y29.447
N9490 X46.02 Y28.831
N9495 X46.362 Y28.45
N9500 X46.739 Y28.05
N9505 X47.1 Y27.688
N9510 X47.507 Y27.307
N9515 X47.882 Y26.967
N9520 X48.5 Y26.545
N9525 X48.644 Y26.451
N9530 X49.179 Y26.164
N9535 X49.406 Y26.046
N9540 X49.787 Y25.861
N9545 X50.168 Y25.678
N9550 X50.549 Y25.519
N9555 X50.93 Y25.39
N9560 X51.311 Y25.267
N9565 X51.692 Y25.188
N9570 X52.073 Y25.116
N9575 X52.835 Y24.996
N9580 X53.216 Y24.954
N9585 X53.597 Y24.923
N9590 X53.978 Y24.901
N9595 X55.121 Y24.9
N9600 X300.86
N9605 X301.622 Y24.901
N9610 X302.003 Y24.923
N9615 X302.384 Y24.954
N9620 X302.765 Y24.996
N9625 X303.527 Y25.116
N9630 X303.908 Y25.188
N9635 X304.289 Y25.267
N9640 X304.67 Y25.39
N9645 X305.051 Y25.519
N9650 X305.432 Y25.678
N9655 X305.813 Y25.861
N9660 X306.194 Y26.046
N9665 X306.42 Y26.164
N9670 X306.956 Y26.451
N9675 X307.1 Y26.545
N9680 X307.718 Y26.967
N9685 X308.099 Y27.313
N9690 X308.5 Y27.688
N9695 X308.861 Y28.049
N9700 X309.242 Y28.454
N9705 X309.58 Y28.831
N9710 X310.004 Y29.446
N9715 X310.098 Y29.593
N9720 X310.385 Y30.125
N9725 X310.504 Y30.355
N9730 X310.766 Y30.895
N9735 X310.873 Y31.117
N9740 X311.031 Y31.498
N9745 X311.161 Y31.879
N9750 X311.284 Y32.26
N9755 X311.36 Y32.641
N9760 X311.434 Y33.022
N9765 X311.554 Y33.784
N9770 X311.595 Y34.165
N9775 X311.627 Y34.546
N9780 X311.648 Y34.927
N9785 X311.65 Y35.689
N9790 Y129.411
N9795 X311.648 Y130.173
N9800 X311.627 Y130.554
N9805 X311.595 Y130.935
N9810 X311.554 Y131.316
N9815 X311.434 Y132.078
N9820 X311.36 Y132.459
N9825 X311.284 Y132.84
N9830 X311.161 Y133.221
N9835 X311.031 Y133.602
N9840 X310.873 Y133.983
N9845 X310.689 Y134.364
N9850 X310.504 Y134.745
N9855 X310.385 Y134.974
N9860 X310.098 Y135.507
N9865 X310.004 Y135.654
N9870 X309.58 Y136.269
N9875 X309.238 Y136.65
N9880 X308.861 Y137.051
N9885 X308.5 Y137.412
N9890 X308.093 Y137.793
N9895 X307.718 Y138.133
N9900 X307.101 Y138.555
N9905 X306.956 Y138.649
N9910 X306.421 Y138.936
N9915 X306.194 Y139.055
N9920 X305.813 Y139.24
N9925 X305.432 Y139.422
N9930 X305.051 Y139.582
N9935 X304.67 Y139.711
N9940 X304.289 Y139.834
N9945 X303.908 Y139.912
N9950 X303.527 Y139.984
N9955 X302.765 Y140.104
N9960 X302.384 Y140.146
N9965 X302.003 Y140.177
N9970 X301.622 Y140.199
N9975 X300.479 Y140.2
N9980 X54.74
N9985 X53.978 Y140.199
N9990 X53.597 Y140.177
N9995 X53.216 Y140.146
N10000 X52.835 Y140.104
N10005 X52.073 Y139.984
N10010 X51.692 Y139.912
N10015 X51.311 Y139.834
N10020 X50.93 Y139.711
N10025 X50.549 Y139.582
N10030 X50.168 Y139.422
N10035 X49.787 Y139.24
N10040 X49.406 Y139.055
N10045 X49.179 Y138.936
N10050 X48.67 Y138.663
N10055 X48.567 Y138.628 Z-11.992
N10060 X48.467 Y138.593 Z-11.97
N10065 X48.37 Y138.56 Z-11.933
N10070 X48.275 Y138.55 Z-11.882
N10075 X48.188 Y138.541 Z-11.819
N10080 X48.11 Y138.533 Z-11.744
N10085 X48.049 Y138.538 Z-11.669
N10090 X47.999 Y138.542 Z-11.586
N10095 X47.958 Y138.545 Z-11.498
N10100 X47.929 Y138.548 Z-11.406
N10105 X47.911 Y138.549 Z-11.311
N10110 X47.906 Y138.55 Z-11.215
N10115 G0 Z5.
N10120 X30.441 Y165.246
N10125 Z-9.66
N10130 G1 Z-10.93 F3500.
N10135 X30.443 Y165.238 Z-11.072
N10140 X30.448 Y165.215 Z-11.213
N10145 X30.458 Y165.177 Z-11.349
N10150 X30.472 Y165.124 Z-11.481
N10155 X30.489 Y165.058 Z-11.606
N10160 X30.509 Y164.978 Z-11.722
N10165 X30.533 Y164.886 Z-11.828
N10170 X30.559 Y164.783 Z-11.923
N10175 X30.588 Y164.67 Z-12.005
N10180 X30.619 Y164.55 Z-12.074
N10185 X30.652 Y164.422 Z-12.129
N10190 X30.686 Y164.29 Z-12.168
N10195 X30.72 Y164.154 Z-12.192
N10200 X30.756 Y164.016 Z-12.2
N10205 G2 X31.75 Y157.102 I-31.409 J-8.045
N10210 G1 Y156.779
N10215 X31.802 Y156.306
N10220 X31.819 Y155.701
N10225 X31.764 Y154.642
N10230 X31.594 Y153.361
N10235 X31.389 Y152.086
N10240 X31.203 Y150.807
N10245 X31.055 Y149.524
N10250 X30.936 Y148.237
N10255 X30.842 Y146.948
N10260 X30.767 Y145.659
N10265 X30.708 Y144.368
N10270 X30.661 Y143.077
N10275 X30.623 Y141.785
N10280 X30.594 Y140.493
N10285 X30.57 Y139.202
N10290 X30.551 Y137.91
N10295 X30.537 Y136.618
N10300 X30.525 Y135.326
N10305 X30.516 Y134.034
N10310 X30.508 Y132.742
N10315 X30.502 Y131.45
N10320 X30.494 Y128.865
N10325 X30.489 Y126.281
N10330 X30.484 Y122.405
N10335 X30.481 Y115.945
N10340 X30.48 Y106.901
N10345 Y56.51
N10350 Y24.209
N10355 X30.504 Y22.917
N10360 X30.594 Y21.628
N10365 X30.786 Y20.351
N10370 X31.111 Y19.1
N10375 X31.591 Y17.9
N10380 X32.241 Y16.784
N10385 X33.065 Y15.789
N10390 X34.046 Y14.947
N10395 X35.138 Y14.258
N10400 X36.302 Y13.697
N10405 X37.512 Y13.243
N10410 X38.751 Y12.877
N10415 X40.009 Y12.583
N10420 X41.28 Y12.348
N10425 X42.558 Y12.16
N10430 X43.841 Y12.01
N10435 X45.128 Y11.891
N10440 X46.416 Y11.796
N10445 X47.706 Y11.72
N10450 X48.997 Y11.66
N10455 X50.288 Y11.613
N10460 X51.58 Y11.575
N10465 X52.871 Y11.545
N10470 X54.163 Y11.521
N10475 X55.455 Y11.502
N10480 X56.747 Y11.487
N10485 X58.039 Y11.475
N10490 X59.331 Y11.466
N10495 X60.623 Y11.458
N10500 X61.915 Y11.453
N10505 X64.499 Y11.444
N10510 X67.083 Y11.439
N10515 X70.959 Y11.434
N10520 X77.42 Y11.431
N10525 X91.632 Y11.43
N10530 X142.022
N10535 X192.413
N10540 X242.803
N10545 X293.193
N10550 X312.574
N10555 X313.865 Y11.46
N10560 X315.153 Y11.564
N10565 X316.427 Y11.778
N10570 X317.671 Y12.13
N10575 X318.857 Y12.641
N10580 X319.955 Y13.323
N10585 X320.923 Y14.178
N10590 X321.736 Y15.183
N10595 X322.401 Y16.29
N10600 X322.941 Y17.464
N10605 X323.378 Y18.68
N10610 X323.73 Y19.923
N10615 X324.012 Y21.184
N10620 X324.238 Y22.456
N10625 X324.419 Y23.736
N10630 X324.563 Y25.02
N10635 X324.677 Y26.307
N10640 X324.769 Y27.595
N10645 X324.841 Y28.885
N10650 X324.899 Y30.176
N10655 X324.945 Y31.467
N10660 X324.981 Y32.759
N10665 X325.01 Y34.051
N10670 X325.033 Y35.343
N10675 X325.051 Y36.634
N10680 X325.065 Y37.926
N10685 X325.076 Y39.218
N10690 X325.086 Y40.51
N10695 X325.093 Y41.803
N10700 X325.098 Y43.095
N10705 X325.106 Y45.679
N10710 X325.111 Y48.263
N10715 X325.116 Y52.139
N10720 X325.119 Y58.599
N10725 X325.12 Y77.98
N10730 Y85.732
N10735 Y136.122
N10740 Y139.999
N10745 X325.116 Y141.291
N10750 X325.083 Y142.582
N10755 X324.969 Y143.869
N10760 X324.74 Y145.141
N10765 X324.369 Y146.379
N10770 X323.837 Y147.556
N10775 X323.132 Y148.639
N10780 X322.255 Y149.588
N10785 X321.234 Y150.38
N10790 X320.116 Y151.028
N10795 X318.936 Y151.554
N10800 X317.716 Y151.978
N10805 X316.47 Y152.32
N10810 X315.207 Y152.595
N10815 X313.934 Y152.814
N10820 X312.654 Y152.989
N10825 X311.37 Y153.129
N10830 X310.082 Y153.241
N10835 X308.793 Y153.329
N10840 X307.503 Y153.4
N10845 X306.212 Y153.455
N10850 X304.921 Y153.5
N10855 X303.629 Y153.535
N10860 X302.338 Y153.563
N10865 X301.046 Y153.585
N10870 X299.754 Y153.603
N10875 X298.462 Y153.617
N10880 X297.17 Y153.628
N10885 X295.878 Y153.637
N10890 X294.586 Y153.643
N10895 X293.294 Y153.649
N10900 X290.71 Y153.657
N10905 X288.126 Y153.662
N10910 X286.834 Y153.663
N10915 X281.665 Y153.667
N10920 X271.329 Y153.67
N10925 X236.443
N10930 X186.053
N10935 X135.663
N10940 X85.273
N10945 X43.927
N10950 X43.283 Y153.627
N10955 X42.036 Y153.287
N10960 X40.933 Y152.615
N10965 X39.987 Y151.734
N10970 X39.19 Y150.717
N10975 X38.526 Y149.609
N10980 X37.977 Y148.44
N10985 X37.524 Y147.229
N10990 X37.153 Y145.992
N10995 X36.85 Y144.736
N11000 X36.604 Y143.467
N11005 X36.403 Y142.191
N11010 X36.241 Y140.909
N11015 X36.109 Y139.624
N11020 X36.002 Y138.336
N11025 X35.916 Y137.047
N11030 X35.847 Y135.757
N11035 X35.791 Y134.466
N11040 X35.746 Y133.175
N11045 X35.709 Y131.883
N11050 X35.68 Y130.592
N11055 X35.656 Y129.3
N11060 X35.637 Y128.008
N11065 X35.622 Y126.716
N11070 X35.61 Y125.424
N11075 X35.6 Y124.132
N11080 X35.592 Y122.84
N11085 X35.586 Y121.548
N11090 X35.581 Y120.256
N11095 X35.573 Y117.672
N11100 X35.567 Y113.795
N11105 X35.563 Y108.627
N11110 X35.56 Y98.291
N11115 Y96.999
N11120 Y46.609
N11125 Y29.812
N11130 X35.563 Y28.52
N11135 X35.579 Y27.228
N11140 X35.644 Y25.937
N11145 X35.857 Y24.663
N11150 X36.332 Y23.462
N11155 X37.033 Y22.376
N11160 X37.905 Y21.423
N11165 X38.901 Y20.6
N11170 X39.987 Y19.9
N11175 X41.137 Y19.31
N11180 X42.33 Y18.815
N11185 X43.555 Y18.403
N11190 X44.801 Y18.061
N11195 X46.062 Y17.779
N11200 X47.333 Y17.546
N11205 X48.61 Y17.355
N11210 X49.893 Y17.198
N11215 X51.179 Y17.07
N11220 X52.466 Y16.965
N11225 X53.756 Y16.879
N11230 X55.046 Y16.81
N11235 X56.337 Y16.753
N11240 X57.628 Y16.707
N11245 X58.919 Y16.669
N11250 X60.211 Y16.639
N11255 X61.503 Y16.614
N11260 X62.795 Y16.594
N11265 X64.087 Y16.578
N11270 X65.379 Y16.565
N11275 X66.671 Y16.554
N11280 X67.963 Y16.546
N11285 X69.255 Y16.539
N11290 X70.547 Y16.533
N11295 X73.131 Y16.525
N11300 X75.715 Y16.52
N11305 X79.591 Y16.515
N11310 X86.051 Y16.512
N11315 X101.556 Y16.51
N11320 X111.893
N11325 X162.283
N11330 X212.673
N11335 X263.063
N11340 X306.993
N11345 X308.285 Y16.513
N11350 X309.577 Y16.536
N11355 X310.866 Y16.617
N11360 X312.131 Y16.881
N11365 X313.313 Y17.404
N11370 X314.372 Y18.143
N11375 X315.3 Y19.043
N11380 X316.097 Y20.059
N11385 X316.774 Y21.16
N11390 X317.345 Y22.319
N11395 X317.822 Y23.519
N11400 X318.22 Y24.749
N11405 X318.549 Y25.998
N11410 X318.821 Y27.261
N11415 X319.045 Y28.534
N11420 X319.229 Y29.813
N11425 X319.379 Y31.096
N11430 X319.503 Y32.382
N11435 X319.603 Y33.67
N11440 X319.686 Y34.96
N11445 X319.752 Y36.25
N11450 X319.807 Y37.541
N11455 X319.851 Y38.832
N11460 X319.887 Y40.124
N11465 X319.916 Y41.416
N11470 X319.94 Y42.707
N11475 X319.959 Y43.999
N11480 X319.975 Y45.291
N11485 X319.987 Y46.583
N11490 X319.997 Y47.875
N11495 X320.006 Y49.167
N11500 X320.012 Y50.459
N11505 X320.018 Y51.751
N11510 X320.025 Y54.335
N11515 X320.031 Y56.92
N11520 X320.035 Y60.796
N11525 X320.038 Y65.964
N11530 X320.04 Y78.884
N11535 Y116.354
N11540 Y135.735
N11545 X320.035 Y137.027
N11550 X320.008 Y138.319
N11555 X319.912 Y139.607
N11560 X319.611 Y140.864
N11565 X319.053 Y142.029
N11570 X318.287 Y143.069
N11575 X317.367 Y143.977
N11580 X316.336 Y144.756
N11585 X315.226 Y145.416
N11590 X314.059 Y145.972
N11595 X312.854 Y146.436
N11600 X311.621 Y146.823
N11605 X310.369 Y147.143
N11610 X309.104 Y147.407
N11615 X307.83 Y147.625
N11620 X306.551 Y147.803
N11625 X305.267 Y147.949
N11630 X303.981 Y148.069
N11635 X302.692 Y148.167
N11640 X301.403 Y148.246
N11645 X300.112 Y148.311
N11650 X298.821 Y148.364
N11655 X297.53 Y148.407
N11660 X296.238 Y148.442
N11665 X294.947 Y148.47
N11670 X293.655 Y148.493
N11675 X292.363 Y148.512
N11680 X291.071 Y148.527
N11685 X289.779 Y148.539
N11690 X288.487 Y148.549
N11695 X287.195 Y148.557
N11700 X285.903 Y148.563
N11705 X284.611 Y148.568
N11710 X282.027 Y148.576
N11715 X278.15 Y148.583
N11720 X272.982 Y148.587
N11725 X263.938 Y148.589
N11730 X245.849 Y148.59
N11735 X195.459
N11740 X145.069
N11745 X94.679
N11750 X50.749
N11755 X49.457 Y148.576
N11760 X48.207 Y148.249
N11765 X47.06 Y147.654
N11770 X46.043 Y146.857
N11775 X45.159 Y145.915
N11780 X44.402 Y144.867
N11785 X43.761 Y143.746
N11790 X43.221 Y142.572
N11795 X42.769 Y141.362
N11800 X42.393 Y140.126
N11805 X42.08 Y138.872
N11810 X41.822 Y137.606
N11815 X41.608 Y136.332
N11820 X41.433 Y135.052
N11825 X41.288 Y133.768
N11830 X41.169 Y132.481
N11835 X41.072 Y131.193
N11840 X40.992 Y129.903
N11845 X40.927 Y128.613
N11850 X40.874 Y127.322
N11855 X40.831 Y126.03
N11860 X40.795 Y124.739
N11865 X40.766 Y123.447
N11870 X40.743 Y122.155
N11875 X40.723 Y120.863
N11880 X40.708 Y119.571
N11885 X40.695 Y118.279
N11890 X40.685 Y116.987
N11895 X40.676 Y115.695
N11900 X40.669 Y114.403
N11905 X40.664 Y113.111
N11910 X40.656 Y110.527
N11915 X40.65 Y107.943
N11920 X40.645 Y104.067
N11925 X40.642 Y97.607
N11930 Y96.315
N11935 X40.64 Y78.226
N11940 Y45.924
N11945 Y34.296
N11950 X40.642 Y33.004
N11955 X40.652 Y31.712
N11960 X40.817 Y30.43
N11965 X41.241 Y29.21
N11970 X41.889 Y28.092
N11975 X42.714 Y27.098
N11980 X43.669 Y26.228
N11985 X44.721 Y25.477
N11990 X45.843 Y24.836
N11995 X47.015 Y24.293
N12000 X48.223 Y23.835
N12005 X49.457 Y23.45
N12010 X50.708 Y23.129
N12015 X51.972 Y22.861
N12020 X53.245 Y22.638
N12025 X54.524 Y22.454
N12030 X55.807 Y22.301
N12035 X57.093 Y22.174
N12040 X58.38 Y22.07
N12045 X59.67 Y21.984
N12050 X60.96 Y21.913
N12055 X62.25 Y21.855
N12060 X63.542 Y21.807
N12065 X64.833 Y21.767
N12070 X66.125 Y21.735
N12075 X67.416 Y21.709
N12080 X68.708 Y21.687
N12085 X70. Y21.669
N12090 X71.292 Y21.655
N12095 X72.584 Y21.643
N12100 X73.876 Y21.633
N12105 X75.168 Y21.625
N12110 X76.46 Y21.619
N12115 X79.044 Y21.609
N12120 X81.628 Y21.603
N12125 X85.505 Y21.597
N12130 X90.673 Y21.593
N12135 X101.009 Y21.591
N12140 X122.974 Y21.59
N12145 X173.364
N12150 X223.754
N12155 X274.145
N12160 X302.57
N12165 X303.862 Y21.593
N12170 X305.154 Y21.608
N12175 X306.425 Y21.839
N12180 X307.623 Y22.324
N12185 X308.711 Y23.02
N12190 X309.675 Y23.881
N12195 X310.515 Y24.862
N12200 X311.238 Y25.933
N12205 X311.854 Y27.069
N12210 X312.375 Y28.251
N12215 X312.815 Y29.466
N12220 X313.183 Y30.705
N12225 X313.49 Y31.96
N12230 X313.747 Y33.226
N12235 X313.96 Y34.5
N12240 X314.136 Y35.78
N12245 X314.282 Y37.064
N12250 X314.403 Y38.351
N12255 X314.503 Y39.639
N12260 X314.585 Y40.928
N12265 X314.652 Y42.219
N12270 X314.708 Y43.509
N12275 X314.754 Y44.801
N12280 X314.791 Y46.092
N12285 X314.822 Y47.384
N12290 X314.847 Y48.676
N12295 X314.868 Y49.968
N12300 X314.885 Y51.259
N12305 X314.898 Y52.551
N12310 X314.91 Y53.843
N12315 X314.919 Y55.135
N12320 X314.927 Y56.427
N12325 X314.933 Y57.72
N12330 X314.942 Y60.304
N12335 X314.948 Y62.888
N12340 X314.954 Y66.764
N12345 X314.957 Y71.932
N12350 X314.959 Y82.269
N12355 X314.96 Y87.437
N12360 Y130.075
N12365 X314.959 Y131.367
N12370 X314.956 Y132.659
N12375 X314.92 Y133.95
N12380 X314.64 Y135.212
N12385 X314.112 Y136.391
N12390 X313.38 Y137.456
N12395 X312.494 Y138.396
N12400 X311.493 Y139.213
N12405 X310.408 Y139.914
N12410 X309.262 Y140.511
N12415 X308.072 Y141.016
N12420 X306.852 Y141.44
N12425 X305.61 Y141.796
N12430 X304.352 Y142.093
N12435 X303.084 Y142.341
N12440 X301.809 Y142.546
N12445 X300.528 Y142.716
N12450 X299.243 Y142.857
N12455 X297.957 Y142.974
N12460 X296.668 Y143.07
N12465 X295.379 Y143.149
N12470 X294.088 Y143.214
N12475 X292.797 Y143.267
N12480 X291.506 Y143.311
N12485 X290.214 Y143.347
N12490 X288.923 Y143.377
N12495 X287.631 Y143.401
N12500 X286.339 Y143.421
N12505 X285.047 Y143.438
N12510 X283.755 Y143.451
N12515 X282.463 Y143.462
N12520 X281.171 Y143.471
N12525 X279.879 Y143.478
N12530 X278.587 Y143.484
N12535 X276.003 Y143.493
N12540 X273.419 Y143.499
N12545 X269.543 Y143.504
N12550 X264.374 Y143.507
N12555 X254.038 Y143.509
N12560 X213.984 Y143.51
N12565 X163.594
N12570 X113.204
N12575 X62.814
N12580 X56.354
N12585 X55.063 Y143.459
N12590 X53.81 Y143.14
N12595 X52.649 Y142.575
N12600 X51.606 Y141.812
N12605 X50.688 Y140.902
N12610 X49.894 Y139.883
N12615 X49.789 Y139.714
N12620 X49.564 Y139.399
N12625 X49.299 Y139.115
N12630 X48.999 Y138.869
N12635 X48.67 Y138.663
N12640 X48.644 Y138.649
N12645 X48.499 Y138.555
N12650 X47.882 Y138.133
N12655 X47.501 Y137.788
N12660 X47.1 Y137.412
N12665 X46.739 Y137.05
N12670 X46.358 Y136.645
N12675 X46.021 Y136.269
N12680 X45.596 Y135.653
N12685 X45.503 Y135.507
N12690 X45.215 Y134.974
N12695 X45.096 Y134.745
N12700 X44.834 Y134.204
N12705 X44.728 Y133.983
N12710 X44.57 Y133.602
N12715 X44.439 Y133.221
N12720 X44.316 Y132.84
N12725 X44.24 Y132.459
N12730 X44.166 Y132.078
N12735 X44.046 Y131.316
N12740 X44.005 Y130.935
N12745 X43.973 Y130.554
N12750 X43.952 Y130.173
N12755 X43.95 Y129.411
N12760 Y35.689
N12765 X43.952 Y34.927
N12770 X43.973 Y34.546
N12775 X44.005 Y34.165
N12780 X44.046 Y33.784
N12785 X44.166 Y33.022
N12790 X44.24 Y32.641
N12795 X44.316 Y32.26
N12800 X44.439 Y31.879
N12805 X44.57 Y31.498
N12810 X44.728 Y31.117
N12815 X44.911 Y30.736
N12820 X45.096 Y30.355
N12825 X45.215 Y30.126
N12830 X45.503 Y29.593
N12835 X45.596 Y29.447
N12840 X46.02 Y28.831
N12845 X46.362 Y28.45
N12850 X46.739 Y28.05
N12855 X47.1 Y27.688
N12860 X47.507 Y27.307
N12865 X47.882 Y26.967
N12870 X48.5 Y26.545
N12875 X48.644 Y26.451
N12880 X49.179 Y26.164
N12885 X49.406 Y26.046
N12890 X49.787 Y25.861
N12895 X50.168 Y25.678
N12900 X50.549 Y25.519
N12905 X50.93 Y25.39
N12910 X51.311 Y25.267
N12915 X51.692 Y25.188
N12920 X52.073 Y25.116
N12925 X52.835 Y24.996
N12930 X53.216 Y24.954
N12935 X53.597 Y24.923
N12940 X53.978 Y24.901
N12945 X55.121 Y24.9
N12950 X300.86
N12955 X301.622 Y24.901
N12960 X302.003 Y24.923
N12965 X302.384 Y24.954
N12970 X302.765 Y24.996
N12975 X303.527 Y25.116
N12980 X303.908 Y25.188
N12985 X304.289 Y25.267
N12990 X304.67 Y25.39
N12995 X305.051 Y25.519
N13000 X305.432 Y25.678
N13005 X305.813 Y25.861
N13010 X306.194 Y26.046
N13015 X306.42 Y26.164
N13020 X306.956 Y26.451
N13025 X307.1 Y26.545
N13030 X307.718 Y26.967
N13035 X308.099 Y27.313
N13040 X308.5 Y27.688
N13045 X308.861 Y28.049
N13050 X309.242 Y28.454
N13055 X309.58 Y28.831
N13060 X310.004 Y29.446
N13065 X310.098 Y29.593
N13070 X310.385 Y30.125
N13075 X310.504 Y30.355
N13080 X310.766 Y30.895
N13085 X310.873 Y31.117
N13090 X311.031 Y31.498
N13095 X311.161 Y31.879
N13100 X311.284 Y32.26
N13105 X311.36 Y32.641
N13110 X311.434 Y33.022
N13115 X311.554 Y33.784
N13120 X311.595 Y34.165
N13125 X311.627 Y34.546
N13130 X311.648 Y34.927
N13135 X311.65 Y35.689
N13140 Y129.411
N13145 X311.648 Y130.173
N13150 X311.627 Y130.554
N13155 X311.595 Y130.935
N13160 X311.554 Y131.316
N13165 X311.434 Y132.078
N13170 X311.36 Y132.459
N13175 X311.284 Y132.84
N13180 X311.161 Y133.221
N13185 X311.031 Y133.602
N13190 X310.873 Y133.983
N13195 X310.689 Y134.364
N13200 X310.504 Y134.745
N13205 X310.385 Y134.974
N13210 X310.098 Y135.507
N13215 X310.004 Y135.654
N13220 X309.58 Y136.269
N13225 X309.238 Y136.65
N13230 X308.861 Y137.051
N13235 X308.5 Y137.412
N13240 X308.093 Y137.793
N13245 X307.718 Y138.133
N13250 X307.101 Y138.555
N13255 X306.956 Y138.649
N13260 X306.421 Y138.936
N13265 X306.194 Y139.055
N13270 X305.813 Y139.24
N13275 X305.432 Y139.422
N13280 X305.051 Y139.582
N13285 X304.67 Y139.711
N13290 X304.289 Y139.834
N13295 X303.908 Y139.912
N13300 X303.527 Y139.984
N13305 X302.765 Y140.104
N13310 X302.384 Y140.146
N13315 X302.003 Y140.177
N13320 X301.622 Y140.199
N13325 X300.479 Y140.2
N13330 X54.74
N13335 X53.978 Y140.199
N13340 X53.597 Y140.177
N13345 X53.216 Y140.146
N13350 X52.835 Y140.104
N13355 X52.073 Y139.984
N13360 X51.692 Y139.912
N13365 X51.311 Y139.834
N13370 X50.93 Y139.711
N13375 X50.549 Y139.582
N13380 X50.168 Y139.422
N13385 X49.787 Y139.24
N13390 X49.406 Y139.055
N13395 X49.179 Y138.936
N13400 X48.67 Y138.663
N13405 G2 X48.11 Y138.533 I-0.56 J1.14
N13410 G1 X48.007 Y138.537
N13415 X47.906 Y138.55
N13420 X47.765 Y138.572 Z-12.192
N13425 X47.627 Y138.595 Z-12.168
N13430 X47.492 Y138.617 Z-12.129
N13435 X47.362 Y138.638 Z-12.074
N13440 X47.239 Y138.658 Z-12.005
N13445 X47.124 Y138.677 Z-11.923
N13450 X47.019 Y138.694 Z-11.828
N13455 X46.926 Y138.709 Z-11.722
N13460 X46.844 Y138.723 Z-11.606
N13465 X46.776 Y138.734 Z-11.481
N13470 X46.722 Y138.742 Z-11.349
N13475 X46.683 Y138.749 Z-11.213
N13480 X46.66 Y138.753 Z-11.072
N13485 X46.652 Y138.754 Z-10.93
N13490 G0 Z15.
(OUTSIDEFACEFINISH)
N13495 G0 X315.312 Y158.674
N13500 Z15.
N13505 Z-5.
N13510 G1 Z-9. F1500.
N13515 Z-12.7 F3500.
N13520 X315.365 Y158.648
N13525 G2 X330.094 Y143.924 I-13.74 J-28.473
N13530 G1 X330.115 Y143.879
N13535 G0 Z5.
N13540 X330.124 Y21.238
N13545 Z-5.
N13550 G1 Z-9. F1500.
N13555 Z-12.7 F3500.
N13560 X330.098 Y21.185
N13565 G2 X315.374 Y6.456 I-28.473 J13.74
N13570 G1 X315.329 Y6.435
N13575 G0 Z5.
N13580 X40.288 Y6.426
N13585 Z-5.
N13590 G1 Z-9. F1500.
N13595 Z-12.7 F3500.
N13600 X40.235 Y6.452
N13605 G2 X25.506 Y21.176 I13.74 J28.473
N13610 G1 X25.485 Y21.221
N13615 G0 Z5.
N13620 X25.476 Y143.862
N13625 Z-5.
N13630 G1 Z-9. F1500.
N13635 Z-12.7 F3500.
N13640 X25.502 Y143.915
N13645 G2 X40.226 Y158.644 I28.473 J-13.74
N13650 X44.245 Y154.324 I1.343 J-2.78
N13655 X40.252 Y149.98 I-11.646 J6.699
N13660 G3 X29.88 Y130.175 I13.723 J-19.805
N13665 G1 Y34.925
N13670 G3 X53.975 Y10.83 I24.095 J0.
N13675 G1 X301.625
N13680 G3 X325.72 Y34.925 I0. J24.095
N13685 G1 Y130.175
N13690 G3 X301.625 Y154.27 I-24.095 J0.
N13695 G1 X53.975
N13700 G3 X40.252 Y149.98 I0. J-24.095
N13705 X37.842 Y142.531 I3.674 J-5.303
N13710 G2 X38.083 Y134.705 I-12.16 J-4.291
N13715 G3 X37.45 Y130.175 I15.892 J-4.53
N13720 G1 Y34.925
N13725 G3 X53.975 Y18.4 I16.525 J0.
N13730 G1 X301.625
N13735 G3 X318.15 Y34.925 I0. J16.525
N13740 G1 Y130.175
N13745 G3 X301.625 Y146.7 I-16.525 J0.
N13750 G1 X53.975
N13755 G3 X38.083 Y134.705 I0. J-16.525
N13760 X40.836 Y128.291 I5.317 J-1.516
N13765 G2 X44.45 Y122.32 I-3.126 J-5.971
N13770 G1 Y34.925
N13775 G3 X53.975 Y25.4 I9.525 J0.
N13780 G1 X301.625
N13785 G3 X311.15 Y34.925 I0. J9.525
N13790 G1 Y130.175
N13795 G3 X301.625 Y139.7 I-9.525 J0.
N13800 G1 X53.975
N13805 G3 X44.45 Y130.175 I0. J-9.525
N13810 G1 Y122.32
N13815 G0 Z15.
(SLOT2)
N13820 G0 X44.435 Y131.756
N13825 Z15.
N13830 Z5.
N13835 G1 Z2.5 F1500.
N13840 Z-2.718
N13845 X311.165 F3500.
N13850 G0 Z5.
N13855 X44.435 Y33.344
N13860 G1 Z2.5 F1500.
N13865 Z-2.718
N13870 X311.165 F3500.
N13875 G0 Z15.
(2D POCKET13)
N13880 G0 X260.032 Y82.922
N13885 Z15.
N13890 Z5.
N13895 G1 Z3.753 F1500.
N13900 X260.008 Y82.896 Z3.458
N13905 X259.938 Y82.822 Z3.179
N13910 X259.824 Y82.705 Z2.932
N13915 X259.667 Y82.555 Z2.73
N13920 G2 X259.474 Y82.384 Z2.583 I-4.092 J4.432
N13925 X259.252 Y82.205 Z2.5 I-3.899 J4.603
N13930 X251.898 Y91.769 Z-0.675 I-3.677 J4.782
N13935 X259.252 Y82.205 Z-3.85 I3.677 J-4.782
N13940 X255.575 Y80.955 Z-4.512 I-3.677 J4.782
N13945 G1 X100.324 F3500.
N13950 G2 X100.005 Y81.274 I0. J0.319
N13955 G1 Y83.826
N13960 G2 X100.324 Y84.145 I0.319 J0.
N13965 G1 X256.851
N13970 G2 X257.17 Y83.826 I0. J-0.319
N13975 G1 Y81.274
N13980 G2 X256.851 Y80.955 I-0.319 J0.
N13985 G1 X255.575
N13990 G3 X249.935 Y77.195 I0. J-6.11
N13995 G2 X244.295 Y73.435 I-5.64 J2.35
N14000 G1 X92.804
N14005 G2 X92.485 Y73.754 I0. J0.319
N14010 G1 Y91.346
N14015 G2 X92.804 Y91.665 I0.319 J0.
N14020 G1 X264.371
N14025 G2 X264.69 Y91.346 I0. J-0.319
N14030 G1 Y73.754
N14035 G2 X264.371 Y73.435 I-0.319 J0.
N14040 G1 X244.295
N14045 G3 X238.655 Y69.675 I0. J-6.11
N14050 G2 X233.015 Y65.915 I-5.64 J2.35
N14055 G1 X85.284
N14060 G2 X84.965 Y66.234 I0. J0.319
N14065 G1 Y98.866
N14070 G2 X85.284 Y99.185 I0.319 J0.
N14075 G1 X271.891
N14080 G2 X272.21 Y98.866 I0. J-0.319
N14085 G1 Y66.234
N14090 G2 X271.891 Y65.915 I-0.319 J0.
N14095 G1 X233.015
N14100 G3 X227.375 Y62.155 I0. J-6.11
N14105 G2 X221.735 Y58.395 I-5.64 J2.35
N14110 G1 X77.764
N14115 G2 X77.445 Y58.714 I0. J0.319
N14120 G1 Y106.386
N14125 G2 X77.764 Y106.705 I0.319 J0.
N14130 G1 X279.411
N14135 G2 X279.73 Y106.386 I0. J-0.319
N14140 G1 Y58.714
N14145 G2 X279.411 Y58.395 I-0.319 J0.
N14150 G1 X221.735
N14155 G3 X216.095 Y54.635 I0. J-6.11
N14160 G2 X210.455 Y50.875 I-5.64 J2.35
N14165 G1 X70.244
N14170 G2 X69.925 Y51.194 I0. J0.319
N14175 G1 Y113.906
N14180 G2 X70.244 Y114.225 I0.319 J0.
N14185 G1 X286.931
N14190 G2 X287.25 Y113.906 I0. J-0.319
N14195 G1 Y51.194
N14200 G2 X286.931 Y50.875 I-0.319 J0.
N14205 G1 X210.455
N14210 G3 X204.811 Y47.112 I0. J-6.114
N14215 G2 X199.167 Y43.35 I-5.644 J2.352
N14220 G1 X62.4
N14225 Y121.75
N14230 X294.775
N14235 Y43.35
N14240 X199.167
N14245 G2 X198.888 Y43.389 Z-4.481 I0.032 J1.238
N14250 X198.638 Y43.484 Z-4.387 I0.311 J1.199
N14255 G1 X198.533 Y43.544 Z-4.311
N14260 X198.435 Y43.613 Z-4.235
N14265 X198.358 Y43.678 Z-4.135
N14270 X198.287 Y43.75 Z-4.034
N14275 X198.238 Y43.807 Z-3.914
N14280 X198.192 Y43.867 Z-3.794
N14285 X198.14 Y43.945 Z-3.525
N14290 X198.124 Y43.973 Z-3.243
N14295 G0 Z5.
N14300 X260.032 Y82.922
N14305 G1 Z-0.76 F1500.
N14310 X260.008 Y82.896 Z-1.055
N14315 X259.938 Y82.822 Z-1.333
N14320 X259.824 Y82.705 Z-1.58
N14325 X259.667 Y82.555 Z-1.783
N14330 G2 X259.474 Y82.384 Z-1.93 I-4.092 J4.432
N14335 X259.252 Y82.205 Z-2.013 I-3.899 J4.603
N14340 X251.898 Y91.769 Z-5.187 I-3.677 J4.782
N14345 X259.252 Y82.205 Z-8.362 I3.677 J-4.782
N14350 X255.575 Y80.955 Z-9.025 I-3.677 J4.782
N14355 G1 X100.324 F3500.
N14360 G2 X100.005 Y81.274 I0. J0.319
N14365 G1 Y83.826
N14370 G2 X100.324 Y84.145 I0.319 J0.
N14375 G1 X256.851
N14380 G2 X257.17 Y83.826 I0. J-0.319
N14385 G1 Y81.274
N14390 G2 X256.851 Y80.955 I-0.319 J0.
N14395 G1 X255.575
N14400 G3 X249.935 Y77.195 I0. J-6.11
N14405 G2 X244.295 Y73.435 I-5.64 J2.35
N14410 G1 X92.804
N14415 G2 X92.485 Y73.754 I0. J0.319
N14420 G1 Y91.346
N14425 G2 X92.804 Y91.665 I0.319 J0.
N14430 G1 X264.371
N14435 G2 X264.69 Y91.346 I0. J-0.319
N14440 G1 Y73.754
N14445 G2 X264.371 Y73.435 I-0.319 J0.
N14450 G1 X244.295
N14455 G3 X238.655 Y69.675 I0. J-6.11
N14460 G2 X233.015 Y65.915 I-5.64 J2.35
N14465 G1 X85.284
N14470 G2 X84.965 Y66.234 I0. J0.319
N14475 G1 Y98.866
N14480 G2 X85.284 Y99.185 I0.319 J0.
N14485 G1 X271.891
N14490 G2 X272.21 Y98.866 I0. J-0.319
N14495 G1 Y66.234
N14500 G2 X271.891 Y65.915 I-0.319 J0.
N14505 G1 X233.015
N14510 G3 X227.375 Y62.155 I0. J-6.11
N14515 G2 X221.735 Y58.395 I-5.64 J2.35
N14520 G1 X77.764
N14525 G2 X77.445 Y58.714 I0. J0.319
N14530 G1 Y106.386
N14535 G2 X77.764 Y106.705 I0.319 J0.
N14540 G1 X279.411
N14545 G2 X279.73 Y106.386 I0. J-0.319
N14550 G1 Y58.714
N14555 G2 X279.411 Y58.395 I-0.319 J0.
N14560 G1 X221.735
N14565 G3 X216.095 Y54.635 I0. J-6.11
N14570 G2 X210.455 Y50.875 I-5.64 J2.35
N14575 G1 X70.244
N14580 G2 X69.925 Y51.194 I0. J0.319
N14585 G1 Y113.906
N14590 G2 X70.244 Y114.225 I0.319 J0.
N14595 G1 X286.931
N14600 G2 X287.25 Y113.906 I0. J-0.319
N14605 G1 Y51.194
N14610 G2 X286.931 Y50.875 I-0.319 J0.
N14615 G1 X210.455
N14620 G3 X204.811 Y47.112 I0. J-6.114
N14625 G2 X199.167 Y43.35 I-5.644 J2.352
N14630 G1 X62.4
N14635 Y121.75
N14640 X294.775
N14645 Y43.35
N14650 X199.167
N14655 G2 X198.888 Y43.389 Z-8.993 I0.032 J1.238
N14660 X198.638 Y43.484 Z-8.899 I0.311 J1.199
N14665 G1 X198.533 Y43.544 Z-8.824
N14670 X198.435 Y43.613 Z-8.748
N14675 X198.358 Y43.678 Z-8.647
N14680 X198.287 Y43.75 Z-8.547
N14685 X198.238 Y43.807 Z-8.426
N14690 X198.192 Y43.867 Z-8.306
N14695 X198.14 Y43.945 Z-8.038
N14700 X198.124 Y43.973 Z-7.755
N14705 G0 Z15.
N14710 M5
N14715 G53 G0 Z0.
(INSIDEFACEFINISH)
N14720 G53 G0 X-200 Y0
N14725 M1
N14730 T20 M6
N14735 T23
N14740 S18500 M3
N14745 G4 P2.0
N14750 G17 G90 G94
N14755 G54
N14760 G0 X255.575 Y82.307
N14765 G43 Z15. H20
N14770 G0 Z-2.525
N14775 G1 Z-5.025 F1500.
N14780 Z-9.525
N14785 X101.642 F3500.
N14790 G2 Y82.793 I0. J0.243
N14795 G1 X255.583
N14800 G2 X255.818 Y82.558 I0. J-0.235
N14805 G1 Y82.542
N14810 G2 X255.583 Y82.307 I-0.235 J0.
N14815 G1 X255.575
N14820 G3 X252.33 Y80.143 I0. J-3.516
N14825 G2 X249.084 Y77.98 I-3.245 J1.352
N14830 G1 X97.349
N14835 G2 X97.03 Y78.299 I0. J0.319
N14840 G1 Y86.801
N14845 G2 X97.349 Y87.12 I0.319 J0.
N14850 G1 X259.826
N14855 G2 X260.145 Y86.801 I0. J-0.319
N14860 G1 Y78.299
N14865 G2 X259.826 Y77.98 I-0.319 J0.
N14870 G1 X249.084
N14875 G3 X245.409 Y75.53 I0. J-3.981
N14880 G2 X241.734 Y73.08 I-3.675 J1.531
N14885 G1 X92.449
N14890 G2 X92.13 Y73.399 I0. J0.319
N14895 G1 Y91.701
N14900 G2 X92.449 Y92.02 I0.319 J0.
N14905 G1 X264.726
N14910 G2 X265.045 Y91.701 I0. J-0.319
N14915 G1 Y73.399
N14920 G2 X264.726 Y73.08 I-0.319 J0.
N14925 G1 X241.734
N14930 G3 X238.059 Y70.63 I0. J-3.981
N14935 G2 X234.384 Y68.18 I-3.675 J1.531
N14940 G1 X87.549
N14945 G2 X87.23 Y68.499 I0. J0.319
N14950 G1 Y96.601
N14955 G2 X87.549 Y96.92 I0.319 J0.
N14960 G1 X269.626
N14965 G2 X269.945 Y96.601 I0. J-0.319
N14970 G1 Y68.499
N14975 G2 X269.626 Y68.18 I-0.319 J0.
N14980 G1 X234.384
N14985 G3 X230.709 Y65.73 I0. J-3.981
N14990 G2 X227.034 Y63.28 I-3.675 J1.531
N14995 G1 X82.649
N15000 G2 X82.33 Y63.599 I0. J0.319
N15005 G1 Y101.501
N15010 G2 X82.649 Y101.82 I0.319 J0.
N15015 G1 X274.526
N15020 G2 X274.845 Y101.501 I0. J-0.319
N15025 G1 Y63.599
N15030 G2 X274.526 Y63.28 I-0.319 J0.
N15035 G1 X227.034
N15040 G3 X223.359 Y60.83 I0. J-3.981
N15045 G2 X219.684 Y58.38 I-3.675 J1.531
N15050 G1 X77.749
N15055 G2 X77.43 Y58.699 I0. J0.319
N15060 G1 Y106.401
N15065 G2 X77.749 Y106.72 I0.319 J0.
N15070 G1 X279.426
N15075 G2 X279.745 Y106.401 I0. J-0.319
N15080 G1 Y58.699
N15085 G2 X279.426 Y58.38 I-0.319 J0.
N15090 G1 X219.684
N15095 G3 X216.009 Y55.93 I0. J-3.981
N15100 G2 X212.334 Y53.48 I-3.675 J1.531
N15105 G1 X72.849
N15110 G2 X72.53 Y53.799 I0. J0.319
N15115 G1 Y111.301
N15120 G2 X72.849 Y111.62 I0.319 J0.
N15125 G1 X284.326
N15130 G2 X284.645 Y111.301 I0. J-0.319
N15135 G1 Y53.799
N15140 G2 X284.326 Y53.48 I-0.319 J0.
N15145 G1 X212.334
N15150 G3 X208.659 Y51.03 I0. J-3.981
N15155 G2 X204.984 Y48.58 I-3.675 J1.531
N15160 G1 X67.949
N15165 G2 X67.63 Y48.899 I0. J0.319
N15170 G1 Y116.201
N15175 G2 X67.949 Y116.52 I0.319 J0.
N15180 G1 X289.226
N15185 G2 X289.545 Y116.201 I0. J-0.319
N15190 G1 Y48.899
N15195 G2 X289.226 Y48.58 I-0.319 J0.
N15200 G1 X204.984
N15205 G3 X201.305 Y46.127 I0. J-3.985
N15210 G2 X197.627 Y43.675 I-3.679 J1.533
N15215 G1 X62.725
N15220 Y121.425
N15225 X294.45
N15230 Y43.675
N15235 X197.627
N15240 G3 X194.627 Y41.675 I0. J-3.25
N15245 G2 X191.627 Y39.675 I-3. J1.25
N15250 G1 X58.725
N15255 Y125.425
N15260 X298.45
N15265 Y39.675
N15270 X191.627
N15275 G0 Z15.
(HANDLEHOLE)
N15280 G0 X190.398 Y120.192
N15285 Z15.
N15290 Z-3.525
N15295 G1 Z-6.025 F1500.
N15300 Z-11.398
N15305 X190.412 Y120.204 Z-11.551
N15310 X190.449 Y120.244 Z-11.694
N15315 X190.475 Y120.286 Z-11.764
N15320 X190.492 Y120.333 Z-11.834
N15325 X190.499 Y120.377 Z-11.87
N15330 Y120.422 Z-11.906
N15335 X190.49 Y120.466 Z-11.942
N15340 X190.471 Y120.514 Z-11.965
N15345 X190.442 Y120.558 Z-11.987
N15350 X190.404 Y120.595 Z-12.01
N15355 X190.356 Y120.625 Z-12.018
N15360 X190.303 Y120.643 Z-12.026
N15365 X190.246 Y120.65 Z-12.033
N15370 X165.1 F3500.
N15375 Y120.638
N15380 X165.102 Y120.522
N15385 X165.1 Y120.406
N15390 G3 X165.354 Y120.142 I0.254 J-0.01
N15395 G1 X190.246
N15400 G3 X190.5 Y120.406 I0. J0.254
N15405 G1 X190.498 Y120.528
N15410 X190.5 Y120.65
N15415 X190.246
N15420 X190.214 Y120.643
N15425 X190.187 Y120.625
N15430 X190.168 Y120.598
N15435 X190.162 Y120.566
N15440 X190.168 Y120.534
N15445 X190.186 Y120.506
N15450 X190.394 Y120.295
N15455 X190.421 Y120.284
N15460 X190.451 Y120.288
N15465 X190.476 Y120.304
N15470 X190.49 Y120.33
N15475 X190.492 Y120.359
N15480 X190.479 Y120.386
N15485 X190.456 Y120.405
N15490 X190.427 Y120.411
N15495 X190.399 Y120.403
N15500 X190.377 Y120.383
N15505 X190.307 Y120.279
N15510 X190.297 Y120.251
N15515 X190.3 Y120.222
N15520 X190.316 Y120.197
N15525 X190.341 Y120.183
N15530 X190.371 Y120.181
N15535 X190.398 Y120.192
N15540 Z-14.907 F1500.
N15545 X190.412 Y120.204 Z-15.059
N15550 X190.449 Y120.244 Z-15.202
N15555 X190.475 Y120.286 Z-15.272
N15560 X190.492 Y120.333 Z-15.342
N15565 X190.499 Y120.377 Z-15.378
N15570 Y120.422 Z-15.414
N15575 X190.49 Y120.466 Z-15.45
N15580 X190.471 Y120.514 Z-15.473
N15585 X190.442 Y120.558 Z-15.496
N15590 X190.404 Y120.595 Z-15.518
N15595 X190.356 Y120.625 Z-15.526
N15600 X190.303 Y120.643 Z-15.534
N15605 X190.246 Y120.65 Z-15.542
N15610 X165.1 F3500.
N15615 Y120.638
N15620 X165.102 Y120.522
N15625 X165.1 Y120.406
N15630 G3 X165.354 Y120.142 I0.254 J-0.01
N15635 G1 X190.246
N15640 G3 X190.5 Y120.406 I0. J0.254
N15645 G1 X190.498 Y120.528
N15650 X190.5 Y120.65
N15655 X190.246
N15660 X190.214 Y120.643
N15665 X190.187 Y120.625
N15670 X190.168 Y120.598
N15675 X190.162 Y120.566
N15680 X190.168 Y120.534
N15685 X190.186 Y120.506
N15690 X190.394 Y120.295
N15695 X190.421 Y120.284
N15700 X190.451 Y120.288
N15705 X190.476 Y120.304
N15710 X190.49 Y120.33
N15715 X190.492 Y120.359
N15720 X190.479 Y120.386
N15725 X190.456 Y120.405
N15730 X190.427 Y120.411
N15735 X190.399 Y120.403
N15740 X190.377 Y120.383
N15745 X190.307 Y120.279
N15750 X190.297 Y120.251
N15755 X190.3 Y120.222
N15760 X190.316 Y120.197
N15765 X190.341 Y120.183
N15770 X190.371 Y120.181
N15775 X190.398 Y120.192
N15780 Z-18.415 F1500.
N15785 X190.412 Y120.204 Z-18.567
N15790 X190.449 Y120.244 Z-18.711
N15795 X190.475 Y120.286 Z-18.781
N15800 X190.492 Y120.333 Z-18.851
N15805 X190.499 Y120.377 Z-18.887
N15810 Y120.422 Z-18.923
N15815 X190.49 Y120.466 Z-18.959
N15820 X190.471 Y120.514 Z-18.981
N15825 X190.442 Y120.558 Z-19.004
N15830 X190.404 Y120.595 Z-19.027
N15835 X190.356 Y120.625 Z-19.034
N15840 X190.303 Y120.643 Z-19.042
N15845 X190.246 Y120.65 Z-19.05
N15850 X165.1 F3500.
N15855 Y120.638
N15860 X165.102 Y120.522
N15865 X165.1 Y120.406
N15870 G3 X165.354 Y120.142 I0.254 J-0.01
N15875 G1 X190.246
N15880 G3 X190.5 Y120.406 I0. J0.254
N15885 G1 X190.498 Y120.528
N15890 X190.5 Y120.65
N15895 X190.246
N15900 X190.169 Y120.644 Z-19.038
N15905 X190.094 Y120.626 Z-19.025
N15910 X190.029 Y120.6 Z-18.99
N15915 X189.968 Y120.566 Z-18.954
N15920 X189.924 Y120.532 Z-18.899
N15925 X189.883 Y120.494 Z-18.843
N15930 X189.838 Y120.44 Z-18.704
N15935 X189.824 Y120.419 Z-18.549
N15940 G0 Z15.
(VENTSLOTS)
N15945 G0 X292.1 Y68.929
N15950 Z15.
N15955 Z-2.025
N15960 G1 Z-7.025 F3500.
N15965 Y120.65 Z-11.55 F1500.
N15970 Y44.45 F3500.
N15975 Y120.65 Z-15.55 F1500.
N15980 Y44.45 F3500.
N15985 Y120.65 Z-19.55 F1500.
N15990 Y44.45 F3500.
N15995 G0 Z5.
N16000 X279.4 Y96.171
N16005 Z-2.025
N16010 G1 Z-7.025 F3500.
N16015 Y44.45 Z-11.55 F1500.
N16020 Y120.65 F3500.
N16025 Y44.45 Z-15.55 F1500.
N16030 Y120.65 F3500.
N16035 Y44.45 Z-19.55 F1500.
N16040 Y120.65 F3500.
N16045 G0 Z5.
N16050 X266.7 Y96.171
N16055 Z-2.025
N16060 G1 Z-7.025 F3500.
N16065 Y44.45 Z-11.55 F1500.
N16070 Y120.65 F3500.
N16075 Y44.45 Z-15.55 F1500.
N16080 Y120.65 F3500.
N16085 Y44.45 Z-19.55 F1500.
N16090 Y120.65 F3500.
N16095 G0 Z5.
N16100 X254. Y96.171
N16105 Z-2.025
N16110 G1 Z-7.025 F3500.
N16115 Y44.45 Z-11.55 F1500.
N16120 Y120.65 F3500.
N16125 Y44.45 Z-15.55 F1500.
N16130 Y120.65 F3500.
N16135 Y44.45 Z-19.55 F1500.
N16140 Y120.65 F3500.
N16145 G0 Z5.
N16150 X241.3 Y96.171
N16155 Z-2.025
N16160 G1 Z-7.025 F3500.
N16165 Y44.45 Z-11.55 F1500.
N16170 Y120.65 F3500.
N16175 Y44.45 Z-15.55 F1500.
N16180 Y120.65 F3500.
N16185 Y44.45 Z-19.55 F1500.
N16190 Y120.65 F3500.
N16195 G0 Z5.
N16200 X228.6 Y96.171
N16205 Z-2.025
N16210 G1 Z-7.025 F3500.
N16215 Y44.45 Z-11.55 F1500.
N16220 Y120.65 F3500.
N16225 Y44.45 Z-15.55 F1500.
N16230 Y120.65 F3500.
N16235 Y44.45 Z-19.55 F1500.
N16240 Y120.65 F3500.
N16245 G0 Z5.
N16250 X215.9 Y96.171
N16255 Z-2.025
N16260 G1 Z-7.025 F3500.
N16265 Y44.45 Z-11.55 F1500.
N16270 Y120.65 F3500.
N16275 Y44.45 Z-15.55 F1500.
N16280 Y120.65 F3500.
N16285 Y44.45 Z-19.55 F1500.
N16290 Y120.65 F3500.
N16295 G0 Z5.
N16300 X203.2 Y68.929
N16305 Z-2.025
N16310 G1 Z-7.025 F3500.
N16315 Y120.65 Z-11.55 F1500.
N16320 Y44.45 F3500.
N16325 Y120.65 Z-15.55 F1500.
N16330 Y44.45 F3500.
N16335 Y120.65 Z-19.55 F1500.
N16340 Y44.45 F3500.
N16345 G0 Z5.
N16350 X190.5 Y56.229
N16355 Z-2.025
N16360 G1 Z-7.025 F3500.
N16365 Y107.95 Z-11.55 F1500.
N16370 Y44.45 F3500.
N16375 Y107.95 Z-15.55 F1500.
N16380 Y44.45 F3500.
N16385 Y107.95 Z-19.55 F1500.
N16390 Y44.45 F3500.
N16395 G0 Z5.
N16400 X177.8 Y56.229
N16405 Z-2.025
N16410 G1 Z-7.025 F3500.
N16415 Y107.95 Z-11.55 F1500.
N16420 Y44.45 F3500.
N16425 Y107.95 Z-15.55 F1500.
N16430 Y44.45 F3500.
N16435 Y107.95 Z-19.55 F1500.
N16440 Y44.45 F3500.
N16445 G0 Z5.
N16450 X165.1 Y56.229
N16455 Z-2.025
N16460 G1 Z-7.025 F3500.
N16465 Y107.95 Z-11.55 F1500.
N16470 Y44.45 F3500.
N16475 Y107.95 Z-15.55 F1500.
N16480 Y44.45 F3500.
N16485 Y107.95 Z-19.55 F1500.
N16490 Y44.45 F3500.
N16495 G0 Z5.
N16500 X152.4 Y68.929
N16505 Z-2.025
N16510 G1 Z-7.025 F3500.
N16515 Y120.65 Z-11.55 F1500.
N16520 Y44.45 F3500.
N16525 Y120.65 Z-15.55 F1500.
N16530 Y44.45 F3500.
N16535 Y120.65 Z-19.55 F1500.
N16540 Y44.45 F3500.
N16545 G0 Z5.
N16550 X139.7 Y68.929
N16555 Z-2.025
N16560 G1 Z-7.025 F3500.
N16565 Y120.65 Z-11.55 F1500.
N16570 Y44.45 F3500.
N16575 Y120.65 Z-15.55 F1500.
N16580 Y44.45 F3500.
N16585 Y120.65 Z-19.55 F1500.
N16590 Y44.45 F3500.
N16595 G0 Z5.
N16600 X127. Y68.929
N16605 Z-2.025
N16610 G1 Z-7.025 F3500.
N16615 Y120.65 Z-11.55 F1500.
N16620 Y44.45 F3500.
N16625 Y120.65 Z-15.55 F1500.
N16630 Y44.45 F3500.
N16635 Y120.65 Z-19.55 F1500.
N16640 Y44.45 F3500.
N16645 G0 Z5.
N16650 X114.3 Y68.929
N16655 Z-2.025
N16660 G1 Z-7.025 F3500.
N16665 Y120.65 Z-11.55 F1500.
N16670 Y44.45 F3500.
N16675 Y120.65 Z-15.55 F1500.
N16680 Y44.45 F3500.
N16685 Y120.65 Z-19.55 F1500.
N16690 Y44.45 F3500.
N16695 G0 Z5.
N16700 X101.6 Y68.929
N16705 Z-2.025
N16710 G1 Z-7.025 F3500.
N16715 Y120.65 Z-11.55 F1500.
N16720 Y44.45 F3500.
N16725 Y120.65 Z-15.55 F1500.
N16730 Y44.45 F3500.
N16735 Y120.65 Z-19.55 F1500.
N16740 Y44.45 F3500.
N16745 G0 Z5.
N16750 X88.9 Y68.929
N16755 Z-2.025
N16760 G1 Z-7.025 F3500.
N16765 Y120.65 Z-11.55 F1500.
N16770 Y44.45 F3500.
N16775 Y120.65 Z-15.55 F1500.
N16780 Y44.45 F3500.
N16785 Y120.65 Z-19.55 F1500.
N16790 Y44.45 F3500.
N16795 G0 Z5.
N16800 X76.2 Y68.929
N16805 Z-2.025
N16810 G1 Z-7.025 F3500.
N16815 Y120.65 Z-11.55 F1500.
N16820 Y44.45 F3500.
N16825 Y120.65 Z-15.55 F1500.
N16830 Y44.45 F3500.
N16835 Y120.65 Z-19.55 F1500.
N16840 Y44.45 F3500.
N16845 G0 Z5.
N16850 X63.5 Y68.929
N16855 Z-2.025
N16860 G1 Z-7.025 F3500.
N16865 Y120.65 Z-11.55 F1500.
N16870 Y44.45 F3500.
N16875 Y120.65 Z-15.55 F1500.
N16880 Y44.45 F3500.
N16885 Y120.65 Z-19.55 F1500.
N16890 Y44.45 F3500.
N16895 G0 Z15.
N16900 M5
N16905 G53 G0 Z0.
(TRACE2)
N16910 G53 G0 X-200 Y0
N16915 M1
N16920 T23 M6
N16925 T20
N16930 S18000 M3
N16935 G4 P2.0
N16940 G17 G90 G94
N16945 G54
N16950 G0 X288.925 Y44.45
N16955 G43 Z5. H23
N16960 G0 Z-6.525
N16965 G1 Z-12.165 F1500.
N16970 Y120.65 F2032.
N16975 X288.945 Y121.005
N16980 X289.005 Y121.357
N16985 X289.103 Y121.699
N16990 X289.239 Y122.028
N16995 X289.412 Y122.339
N17000 X289.618 Y122.63
N17005 X289.855 Y122.895
N17010 X290.12 Y123.132
N17015 X290.411 Y123.338
N17020 X290.722 Y123.511
N17025 X291.051 Y123.647
N17030 X291.393 Y123.745
N17035 X291.745 Y123.805
N17040 X292.1 Y123.825
N17045 X292.455 Y123.805
N17050 X292.807 Y123.745
N17055 X293.149 Y123.647
N17060 X293.478 Y123.511
N17065 X293.789 Y123.338
N17070 X294.08 Y123.132
N17075 X294.345 Y122.895
N17080 X294.582 Y122.63
N17085 X294.788 Y122.339
N17090 X294.961 Y122.028
N17095 X295.097 Y121.699
N17100 X295.195 Y121.357
N17105 X295.255 Y121.005
N17110 X295.275 Y120.65
N17115 Y44.45
N17120 X295.255 Y44.095
N17125 X295.195 Y43.743
N17130 X295.097 Y43.401
N17135 X294.961 Y43.072
N17140 X294.788 Y42.761
N17145 X294.582 Y42.47
N17150 X294.345 Y42.205
N17155 X294.08 Y41.968
N17160 X293.789 Y41.762
N17165 X293.478 Y41.589
N17170 X293.149 Y41.453
N17175 X292.807 Y41.355
N17180 X292.455 Y41.295
N17185 X292.1 Y41.275
N17190 X291.745 Y41.295
N17195 X291.393 Y41.355
N17200 X291.051 Y41.453
N17205 X290.722 Y41.589
N17210 X290.411 Y41.762
N17215 X290.12 Y41.968
N17220 X289.855 Y42.205
N17225 X289.618 Y42.47
N17230 X289.412 Y42.761
N17235 X289.239 Y43.072
N17240 X289.103 Y43.401
N17245 X289.005 Y43.743
N17250 X288.945 Y44.095
N17255 X288.925 Y44.45
N17260 Z-6.525
N17265 G0 Z5.
N17270 X282.575
N17275 Z-6.525
N17280 G1 Z-12.165 F1500.
N17285 X282.555 Y44.095 F2032.
N17290 X282.495 Y43.743
N17295 X282.397 Y43.401
N17300 X282.261 Y43.072
N17305 X282.088 Y42.761
N17310 X281.882 Y42.47
N17315 X281.645 Y42.205
N17320 X281.38 Y41.968
N17325 X281.089 Y41.762
N17330 X280.778 Y41.589
N17335 X280.449 Y41.453
N17340 X280.107 Y41.355
N17345 X279.755 Y41.295
N17350 X279.4 Y41.275
N17355 X279.045 Y41.295
N17360 X278.693 Y41.355
N17365 X278.351 Y41.453
N17370 X278.022 Y41.589
N17375 X277.711 Y41.762
N17380 X277.42 Y41.968
N17385 X277.155 Y42.205
N17390 X276.918 Y42.47
N17395 X276.712 Y42.761
N17400 X276.539 Y43.072
N17405 X276.403 Y43.401
N17410 X276.305 Y43.743
N17415 X276.245 Y44.095
N17420 X276.225 Y44.45
N17425 Y120.65
N17430 X276.245 Y121.005
N17435 X276.305 Y121.357
N17440 X276.403 Y121.699
N17445 X276.539 Y122.028
N17450 X276.712 Y122.339
N17455 X276.918 Y122.63
N17460 X277.155 Y122.895
N17465 X277.42 Y123.132
N17470 X277.711 Y123.338
N17475 X278.022 Y123.511
N17480 X278.351 Y123.647
N17485 X278.693 Y123.745
N17490 X279.045 Y123.805
N17495 X279.4 Y123.825
N17500 X279.755 Y123.805
N17505 X280.107 Y123.745
N17510 X280.449 Y123.647
N17515 X280.778 Y123.511
N17520 X281.089 Y123.338
N17525 X281.38 Y123.132
N17530 X281.645 Y122.895
N17535 X281.882 Y122.63
N17540 X282.088 Y122.339
N17545 X282.261 Y122.028
N17550 X282.397 Y121.699
N17555 X282.495 Y121.357
N17560 X282.555 Y121.005
N17565 X282.575 Y120.65
N17570 Y44.45
N17575 Z-6.525
N17580 G0 Z5.
N17585 X269.875
N17590 Z-6.525
N17595 G1 Z-12.165 F1500.
N17600 X269.855 Y44.095 F2032.
N17605 X269.795 Y43.743
N17610 X269.697 Y43.401
N17615 X269.561 Y43.072
N17620 X269.388 Y42.761
N17625 X269.182 Y42.47
N17630 X268.945 Y42.205
N17635 X268.68 Y41.968
N17640 X268.389 Y41.762
N17645 X268.078 Y41.589
N17650 X267.749 Y41.453
N17655 X267.407 Y41.355
N17660 X267.055 Y41.295
N17665 X266.7 Y41.275
N17670 X266.345 Y41.295
N17675 X265.993 Y41.355
N17680 X265.651 Y41.453
N17685 X265.322 Y41.589
N17690 X265.011 Y41.762
N17695 X264.72 Y41.968
N17700 X264.455 Y42.205
N17705 X264.218 Y42.47
N17710 X264.012 Y42.761
N17715 X263.839 Y43.072
N17720 X263.703 Y43.401
N17725 X263.605 Y43.743
N17730 X263.545 Y44.095
N17735 X263.525 Y44.45
N17740 Y120.65
N17745 X263.545 Y121.005
N17750 X263.605 Y121.357
N17755 X263.703 Y121.699
N17760 X263.839 Y122.028
N17765 X264.012 Y122.339
N17770 X264.218 Y122.63
N17775 X264.455 Y122.895
N17780 X264.72 Y123.132
N17785 X265.011 Y123.338
N17790 X265.322 Y123.511
N17795 X265.651 Y123.647
N17800 X265.993 Y123.745
N17805 X266.345 Y123.805
N17810 X266.7 Y123.825
N17815 X267.055 Y123.805
N17820 X267.407 Y123.745
N17825 X267.749 Y123.647
N17830 X268.078 Y123.511
N17835 X268.389 Y123.338
N17840 X268.68 Y123.132
N17845 X268.945 Y122.895
N17850 X269.182 Y122.63
N17855 X269.388 Y122.339
N17860 X269.561 Y122.028
N17865 X269.697 Y121.699
N17870 X269.795 Y121.357
N17875 X269.855 Y121.005
N17880 X269.875 Y120.65
N17885 Y44.45
N17890 Z-6.525
N17895 G0 Z5.
N17900 X257.175
N17905 Z-6.525
N17910 G1 Z-12.165 F1500.
N17915 X257.155 Y44.095 F2032.
N17920 X257.095 Y43.743
N17925 X256.997 Y43.401
N17930 X256.861 Y43.072
N17935 X256.688 Y42.761
N17940 X256.482 Y42.47
N17945 X256.245 Y42.205
N17950 X255.98 Y41.968
N17955 X255.689 Y41.762
N17960 X255.378 Y41.589
N17965 X255.049 Y41.453
N17970 X254.707 Y41.355
N17975 X254.355 Y41.295
N17980 X254. Y41.275
N17985 X253.645 Y41.295
N17990 X253.293 Y41.355
N17995 X252.951 Y41.453
N18000 X252.622 Y41.589
N18005 X252.311 Y41.762
N18010 X252.02 Y41.968
N18015 X251.755 Y42.205
N18020 X251.518 Y42.47
N18025 X251.312 Y42.761
N18030 X251.139 Y43.072
N18035 X251.003 Y43.401
N18040 X250.905 Y43.743
N18045 X250.845 Y44.095
N18050 X250.825 Y44.45
N18055 Y120.65
N18060 X250.845 Y121.005
N18065 X250.905 Y121.357
N18070 X251.003 Y121.699
N18075 X251.139 Y122.028
N18080 X251.312 Y122.339
N18085 X251.518 Y122.63
N18090 X251.755 Y122.895
N18095 X252.02 Y123.132
N18100 X252.311 Y123.338
N18105 X252.622 Y123.511
N18110 X252.951 Y123.647
N18115 X253.293 Y123.745
N18120 X253.645 Y123.805
N18125 X254. Y123.825
N18130 X254.355 Y123.805
N18135 X254.707 Y123.745
N18140 X255.049 Y123.647
N18145 X255.378 Y123.511
N18150 X255.689 Y123.338
N18155 X255.98 Y123.132
N18160 X256.245 Y122.895
N18165 X256.482 Y122.63
N18170 X256.688 Y122.339
N18175 X256.861 Y122.028
N18180 X256.997 Y121.699
N18185 X257.095 Y121.357
N18190 X257.155 Y121.005
N18195 X257.175 Y120.65
N18200 Y44.45
N18205 Z-6.525
N18210 G0 Z5.
N18215 X244.475
N18220 Z-6.525
N18225 G1 Z-12.165 F1500.
N18230 X244.455 Y44.095 F2032.
N18235 X244.395 Y43.743
N18240 X244.297 Y43.401
N18245 X244.161 Y43.072
N18250 X243.988 Y42.761
N18255 X243.782 Y42.47
N18260 X243.545 Y42.205
N18265 X243.28 Y41.968
N18270 X242.989 Y41.762
N18275 X242.678 Y41.589
N18280 X242.349 Y41.453
N18285 X242.007 Y41.355
N18290 X241.655 Y41.295
N18295 X241.3 Y41.275
N18300 X240.945 Y41.295
N18305 X240.593 Y41.355
N18310 X240.251 Y41.453
N18315 X239.922 Y41.589
N18320 X239.611 Y41.762
N18325 X239.32 Y41.968
N18330 X239.055 Y42.205
N18335 X238.818 Y42.47
N18340 X238.612 Y42.761
N18345 X238.439 Y43.072
N18350 X238.303 Y43.401
N18355 X238.205 Y43.743
N18360 X238.145 Y44.095
N18365 X238.125 Y44.45
N18370 Y120.65
N18375 X238.145 Y121.005
N18380 X238.205 Y121.357
N18385 X238.303 Y121.699
N18390 X238.439 Y122.028
N18395 X238.612 Y122.339
N18400 X238.818 Y122.63
N18405 X239.055 Y122.895
N18410 X239.32 Y123.132
N18415 X239.611 Y123.338
N18420 X239.922 Y123.511
N18425 X240.251 Y123.647
N18430 X240.593 Y123.745
N18435 X240.945 Y123.805
N18440 X241.3 Y123.825
N18445 X241.655 Y123.805
N18450 X242.007 Y123.745
N18455 X242.349 Y123.647
N18460 X242.678 Y123.511
N18465 X242.989 Y123.338
N18470 X243.28 Y123.132
N18475 X243.545 Y122.895
N18480 X243.782 Y122.63
N18485 X243.988 Y122.339
N18490 X244.161 Y122.028
N18495 X244.297 Y121.699
N18500 X244.395 Y121.357
N18505 X244.455 Y121.005
N18510 X244.475 Y120.65
N18515 Y44.45
N18520 Z-6.525
N18525 G0 Z5.
N18530 X231.775
N18535 Z-6.525
N18540 G1 Z-12.165 F1500.
N18545 X231.755 Y44.095 F2032.
N18550 X231.695 Y43.743
N18555 X231.597 Y43.401
N18560 X231.461 Y43.072
N18565 X231.288 Y42.761
N18570 X231.082 Y42.47
N18575 X230.845 Y42.205
N18580 X230.58 Y41.968
N18585 X230.289 Y41.762
N18590 X229.978 Y41.589
N18595 X229.649 Y41.453
N18600 X229.307 Y41.355
N18605 X228.955 Y41.295
N18610 X228.6 Y41.275
N18615 X228.245 Y41.295
N18620 X227.893 Y41.355
N18625 X227.551 Y41.453
N18630 X227.222 Y41.589
N18635 X226.911 Y41.762
N18640 X226.62 Y41.968
N18645 X226.355 Y42.205
N18650 X226.118 Y42.47
N18655 X225.912 Y42.761
N18660 X225.739 Y43.072
N18665 X225.603 Y43.401
N18670 X225.505 Y43.743
N18675 X225.445 Y44.095
N18680 X225.425 Y44.45
N18685 Y120.65
N18690 X225.445 Y121.005
N18695 X225.505 Y121.357
N18700 X225.603 Y121.699
N18705 X225.739 Y122.028
N18710 X225.912 Y122.339
N18715 X226.118 Y122.63
N18720 X226.355 Y122.895
N18725 X226.62 Y123.132
N18730 X226.911 Y123.338
N18735 X227.222 Y123.511
N18740 X227.551 Y123.647
N18745 X227.893 Y123.745
N18750 X228.245 Y123.805
N18755 X228.6 Y123.825
N18760 X228.955 Y123.805
N18765 X229.307 Y123.745
N18770 X229.649 Y123.647
N18775 X229.978 Y123.511
N18780 X230.289 Y123.338
N18785 X230.58 Y123.132
N18790 X230.845 Y122.895
N18795 X231.082 Y122.63
N18800 X231.288 Y122.339
N18805 X231.461 Y122.028
N18810 X231.597 Y121.699
N18815 X231.695 Y121.357
N18820 X231.755 Y121.005
N18825 X231.775 Y120.65
N18830 Y44.45
N18835 Z-6.525
N18840 G0 Z5.
N18845 X219.075
N18850 Z-6.525
N18855 G1 Z-12.165 F1500.
N18860 X219.055 Y44.095 F2032.
N18865 X218.995 Y43.743
N18870 X218.897 Y43.401
N18875 X218.761 Y43.072
N18880 X218.588 Y42.761
N18885 X218.382 Y42.47
N18890 X218.145 Y42.205
N18895 X217.88 Y41.968
N18900 X217.589 Y41.762
N18905 X217.278 Y41.589
N18910 X216.949 Y41.453
N18915 X216.607 Y41.355
N18920 X216.255 Y41.295
N18925 X215.9 Y41.275
N18930 X215.545 Y41.295
N18935 X215.193 Y41.355
N18940 X214.851 Y41.453
N18945 X214.522 Y41.589
N18950 X214.211 Y41.762
N18955 X213.92 Y41.968
N18960 X213.655 Y42.205
N18965 X213.418 Y42.47
N18970 X213.212 Y42.761
N18975 X213.039 Y43.072
N18980 X212.903 Y43.401
N18985 X212.805 Y43.743
N18990 X212.745 Y44.095
N18995 X212.725 Y44.45
N19000 Y120.65
N19005 X212.745 Y121.005
N19010 X212.805 Y121.357
N19015 X212.903 Y121.699
N19020 X213.039 Y122.028
N19025 X213.212 Y122.339
N19030 X213.418 Y122.63
N19035 X213.655 Y122.895
N19040 X213.92 Y123.132
N19045 X214.211 Y123.338
N19050 X214.522 Y123.511
N19055 X214.851 Y123.647
N19060 X215.193 Y123.745
N19065 X215.545 Y123.805
N19070 X215.9 Y123.825
N19075 X216.255 Y123.805
N19080 X216.607 Y123.745
N19085 X216.949 Y123.647
N19090 X217.278 Y123.511
N19095 X217.589 Y123.338
N19100 X217.88 Y123.132
N19105 X218.145 Y122.895
N19110 X218.382 Y122.63
N19115 X218.588 Y122.339
N19120 X218.761 Y122.028
N19125 X218.897 Y121.699
N19130 X218.995 Y121.357
N19135 X219.055 Y121.005
N19140 X219.075 Y120.65
N19145 Y44.45
N19150 Z-6.525
N19155 G0 Z5.
N19160 X206.375
N19165 Z-6.525
N19170 G1 Z-12.165 F1500.
N19175 X206.355 Y44.095 F2032.
N19180 X206.295 Y43.743
N19185 X206.197 Y43.401
N19190 X206.061 Y43.072
N19195 X205.888 Y42.761
N19200 X205.682 Y42.47
N19205 X205.445 Y42.205
N19210 X205.18 Y41.968
N19215 X204.889 Y41.762
N19220 X204.578 Y41.589
N19225 X204.249 Y41.453
N19230 X203.907 Y41.355
N19235 X203.555 Y41.295
N19240 X203.2 Y41.275
N19245 X202.845 Y41.295
N19250 X202.493 Y41.355
N19255 X202.151 Y41.453
N19260 X201.822 Y41.589
N19265 X201.511 Y41.762
N19270 X201.22 Y41.968
N19275 X200.955 Y42.205
N19280 X200.718 Y42.47
N19285 X200.512 Y42.761
N19290 X200.339 Y43.072
N19295 X200.203 Y43.401
N19300 X200.105 Y43.743
N19305 X200.045 Y44.095
N19310 X200.025 Y44.45
N19315 Y120.65
N19320 X200.045 Y121.005
N19325 X200.105 Y121.357
N19330 X200.203 Y121.699
N19335 X200.339 Y122.028
N19340 X200.512 Y122.339
N19345 X200.718 Y122.63
N19350 X200.955 Y122.895
N19355 X201.22 Y123.132
N19360 X201.511 Y123.338
N19365 X201.822 Y123.511
N19370 X202.151 Y123.647
N19375 X202.493 Y123.745
N19380 X202.845 Y123.805
N19385 X203.2 Y123.825
N19390 X203.555 Y123.805
N19395 X203.907 Y123.745
N19400 X204.249 Y123.647
N19405 X204.578 Y123.511
N19410 X204.889 Y123.338
N19415 X205.18 Y123.132
N19420 X205.445 Y122.895
N19425 X205.682 Y122.63
N19430 X205.888 Y122.339
N19435 X206.061 Y122.028
N19440 X206.197 Y121.699
N19445 X206.295 Y121.357
N19450 X206.355 Y121.005
N19455 X206.375 Y120.65
N19460 Y44.45
N19465 Z-6.525
N19470 G0 Z5.
N19475 X193.675
N19480 Z-6.525
N19485 G1 Z-12.165 F1500.
N19490 X193.655 Y44.095 F2032.
N19495 X193.595 Y43.743
N19500 X193.497 Y43.401
N19505 X193.361 Y43.072
N19510 X193.188 Y42.761
N19515 X192.982 Y42.47
N19520 X192.745 Y42.205
N19525 X192.48 Y41.968
N19530 X192.189 Y41.762
N19535 X191.878 Y41.589
N19540 X191.549 Y41.453
N19545 X191.207 Y41.355
N19550 X190.855 Y41.295
N19555 X190.5 Y41.275
N19560 X190.145 Y41.295
N19565 X189.793 Y41.355
N19570 X189.451 Y41.453
N19575 X189.122 Y41.589
N19580 X188.811 Y41.762
N19585 X188.52 Y41.968
N19590 X188.255 Y42.205
N19595 X188.018 Y42.47
N19600 X187.812 Y42.761
N19605 X187.639 Y43.072
N19610 X187.503 Y43.401
N19615 X187.405 Y43.743
N19620 X187.345 Y44.095
N19625 X187.325 Y44.45
N19630 Y107.95
N19635 X187.345 Y108.305
N19640 X187.405 Y108.657
N19645 X187.503 Y108.999
N19650 X187.639 Y109.328
N19655 X187.812 Y109.639
N19660 X188.018 Y109.93
N19665 X188.255 Y110.195
N19670 X188.52 Y110.432
N19675 X188.811 Y110.638
N19680 X189.122 Y110.811
N19685 X189.451 Y110.947
N19690 X189.793 Y111.045
N19695 X190.145 Y111.105
N19700 X190.5 Y111.125
N19705 X190.855 Y111.105
N19710 X191.207 Y111.045
N19715 X191.549 Y110.947
N19720 X191.878 Y110.811
N19725 X192.189 Y110.638
N19730 X192.48 Y110.432
N19735 X192.745 Y110.195
N19740 X192.982 Y109.93
N19745 X193.188 Y109.639
N19750 X193.361 Y109.328
N19755 X193.497 Y108.999
N19760 X193.595 Y108.657
N19765 X193.655 Y108.305
N19770 X193.675 Y107.95
N19775 Y44.45
N19780 Z-6.525
N19785 G0 Z5.
N19790 X180.975
N19795 Z-6.525
N19800 G1 Z-12.165 F1500.
N19805 X180.955 Y44.095 F2032.
N19810 X180.895 Y43.743
N19815 X180.797 Y43.401
N19820 X180.661 Y43.072
N19825 X180.488 Y42.761
N19830 X180.282 Y42.47
N19835 X180.045 Y42.205
N19840 X179.78 Y41.968
N19845 X179.489 Y41.762
N19850 X179.178 Y41.589
N19855 X178.849 Y41.453
N19860 X178.507 Y41.355
N19865 X178.155 Y41.295
N19870 X177.8 Y41.275
N19875 X177.445 Y41.295
N19880 X177.093 Y41.355
N19885 X176.751 Y41.453
N19890 X176.422 Y41.589
N19895 X176.111 Y41.762
N19900 X175.82 Y41.968
N19905 X175.555 Y42.205
N19910 X175.318 Y42.47
N19915 X175.112 Y42.761
N19920 X174.939 Y43.072
N19925 X174.803 Y43.401
N19930 X174.705 Y43.743
N19935 X174.645 Y44.095
N19940 X174.625 Y44.45
N19945 Y107.95
N19950 X174.645 Y108.305
N19955 X174.705 Y108.657
N19960 X174.803 Y108.999
N19965 X174.939 Y109.328
N19970 X175.112 Y109.639
N19975 X175.318 Y109.93
N19980 X175.555 Y110.195
N19985 X175.82 Y110.432
N19990 X176.111 Y110.638
N19995 X176.422 Y110.811
N20000 X176.751 Y110.947
N20005 X177.093 Y111.045
N20010 X177.445 Y111.105
N20015 X177.8 Y111.125
N20020 X178.155 Y111.105
N20025 X178.507 Y111.045
N20030 X178.849 Y110.947
N20035 X179.178 Y110.811
N20040 X179.489 Y110.638
N20045 X179.78 Y110.432
N20050 X180.045 Y110.195
N20055 X180.282 Y109.93
N20060 X180.488 Y109.639
N20065 X180.661 Y109.328
N20070 X180.797 Y108.999
N20075 X180.895 Y108.657
N20080 X180.955 Y108.305
N20085 X180.975 Y107.95
N20090 Y44.45
N20095 Z-6.525
N20100 G0 Z5.
N20105 X168.275
N20110 Z-6.525
N20115 G1 Z-12.165 F1500.
N20120 X168.255 Y44.095 F2032.
N20125 X168.195 Y43.743
N20130 X168.097 Y43.401
N20135 X167.961 Y43.072
N20140 X167.788 Y42.761
N20145 X167.582 Y42.47
N20150 X167.345 Y42.205
N20155 X167.08 Y41.968
N20160 X166.789 Y41.762
N20165 X166.478 Y41.589
N20170 X166.149 Y41.453
N20175 X165.807 Y41.355
N20180 X165.455 Y41.295
N20185 X165.1 Y41.275
N20190 X164.745 Y41.295
N20195 X164.393 Y41.355
N20200 X164.051 Y41.453
N20205 X163.722 Y41.589
N20210 X163.411 Y41.762
N20215 X163.12 Y41.968
N20220 X162.855 Y42.205
N20225 X162.618 Y42.47
N20230 X162.412 Y42.761
N20235 X162.239 Y43.072
N20240 X162.103 Y43.401
N20245 X162.005 Y43.743
N20250 X161.945 Y44.095
N20255 X161.925 Y44.45
N20260 Y107.95
N20265 X161.945 Y108.305
N20270 X162.005 Y108.657
N20275 X162.103 Y108.999
N20280 X162.239 Y109.328
N20285 X162.412 Y109.639
N20290 X162.618 Y109.93
N20295 X162.855 Y110.195
N20300 X163.12 Y110.432
N20305 X163.411 Y110.638
N20310 X163.722 Y110.811
N20315 X164.051 Y110.947
N20320 X164.393 Y111.045
N20325 X164.745 Y111.105
N20330 X165.1 Y111.125
N20335 X165.455 Y111.105
N20340 X165.807 Y111.045
N20345 X166.149 Y110.947
N20350 X166.478 Y110.811
N20355 X166.789 Y110.638
N20360 X167.08 Y110.432
N20365 X167.345 Y110.195
N20370 X167.582 Y109.93
N20375 X167.788 Y109.639
N20380 X167.961 Y109.328
N20385 X168.097 Y108.999
N20390 X168.195 Y108.657
N20395 X168.255 Y108.305
N20400 X168.275 Y107.95
N20405 Y44.45
N20410 Z-6.525
N20415 G0 Z5.
N20420 X155.575
N20425 Z-6.525
N20430 G1 Z-12.165 F1500.
N20435 X155.555 Y44.095 F2032.
N20440 X155.495 Y43.743
N20445 X155.397 Y43.401
N20450 X155.261 Y43.072
N20455 X155.088 Y42.761
N20460 X154.882 Y42.47
N20465 X154.645 Y42.205
N20470 X154.38 Y41.968
N20475 X154.089 Y41.762
N20480 X153.778 Y41.589
N20485 X153.449 Y41.453
N20490 X153.107 Y41.355
N20495 X152.755 Y41.295
N20500 X152.4 Y41.275
N20505 X152.045 Y41.295
N20510 X151.693 Y41.355
N20515 X151.351 Y41.453
N20520 X151.022 Y41.589
N20525 X150.711 Y41.762
N20530 X150.42 Y41.968
N20535 X150.155 Y42.205
N20540 X149.918 Y42.47
N20545 X149.712 Y42.761
N20550 X149.539 Y43.072
N20555 X149.403 Y43.401
N20560 X149.305 Y43.743
N20565 X149.245 Y44.095
N20570 X149.225 Y44.45
N20575 Y120.65
N20580 X149.245 Y121.005
N20585 X149.305 Y121.357
N20590 X149.403 Y121.699
N20595 X149.539 Y122.028
N20600 X149.712 Y122.339
N20605 X149.918 Y122.63
N20610 X150.155 Y122.895
N20615 X150.42 Y123.132
N20620 X150.711 Y123.338
N20625 X151.022 Y123.511
N20630 X151.351 Y123.647
N20635 X151.693 Y123.745
N20640 X152.045 Y123.805
N20645 X152.4 Y123.825
N20650 X152.755 Y123.805
N20655 X153.107 Y123.745
N20660 X153.449 Y123.647
N20665 X153.778 Y123.511
N20670 X154.089 Y123.338
N20675 X154.38 Y123.132
N20680 X154.645 Y122.895
N20685 X154.882 Y122.63
N20690 X155.088 Y122.339
N20695 X155.261 Y122.028
N20700 X155.397 Y121.699
N20705 X155.495 Y121.357
N20710 X155.555 Y121.005
N20715 X155.575 Y120.65
N20720 Y44.45
N20725 Z-6.525
N20730 G0 Z5.
N20735 X142.875
N20740 Z-6.525
N20745 G1 Z-12.165 F1500.
N20750 X142.855 Y44.095 F2032.
N20755 X142.795 Y43.743
N20760 X142.697 Y43.401
N20765 X142.561 Y43.072
N20770 X142.388 Y42.761
N20775 X142.182 Y42.47
N20780 X141.945 Y42.205
N20785 X141.68 Y41.968
N20790 X141.389 Y41.762
N20795 X141.078 Y41.589
N20800 X140.749 Y41.453
N20805 X140.407 Y41.355
N20810 X140.055 Y41.295
N20815 X139.7 Y41.275
N20820 X139.345 Y41.295
N20825 X138.993 Y41.355
N20830 X138.651 Y41.453
N20835 X138.322 Y41.589
N20840 X138.011 Y41.762
N20845 X137.72 Y41.968
N20850 X137.455 Y42.205
N20855 X137.218 Y42.47
N20860 X137.012 Y42.761
N20865 X136.839 Y43.072
N20870 X136.703 Y43.401
N20875 X136.605 Y43.743
N20880 X136.545 Y44.095
N20885 X136.525 Y44.45
N20890 Y120.65
N20895 X136.545 Y121.005
N20900 X136.605 Y121.357
N20905 X136.703 Y121.699
N20910 X136.839 Y122.028
N20915 X137.012 Y122.339
N20920 X137.218 Y122.63
N20925 X137.455 Y122.895
N20930 X137.72 Y123.132
N20935 X138.011 Y123.338
N20940 X138.322 Y123.511
N20945 X138.651 Y123.647
N20950 X138.993 Y123.745
N20955 X139.345 Y123.805
N20960 X139.7 Y123.825
N20965 X140.055 Y123.805
N20970 X140.407 Y123.745
N20975 X140.749 Y123.647
N20980 X141.078 Y123.511
N20985 X141.389 Y123.338
N20990 X141.68 Y123.132
N20995 X141.945 Y122.895
N21000 X142.182 Y122.63
N21005 X142.388 Y122.339
N21010 X142.561 Y122.028
N21015 X142.697 Y121.699
N21020 X142.795 Y121.357
N21025 X142.855 Y121.005
N21030 X142.875 Y120.65
N21035 Y44.45
N21040 Z-6.525
N21045 G0 Z5.
N21050 X130.175
N21055 Z-6.525
N21060 G1 Z-12.165 F1500.
N21065 X130.155 Y44.095 F2032.
N21070 X130.095 Y43.743
N21075 X129.997 Y43.401
N21080 X129.861 Y43.072
N21085 X129.688 Y42.761
N21090 X129.482 Y42.47
N21095 X129.245 Y42.205
N21100 X128.98 Y41.968
N21105 X128.689 Y41.762
N21110 X128.378 Y41.589
N21115 X128.049 Y41.453
N21120 X127.707 Y41.355
N21125 X127.355 Y41.295
N21130 X127. Y41.275
N21135 X126.645 Y41.295
N21140 X126.293 Y41.355
N21145 X125.951 Y41.453
N21150 X125.622 Y41.589
N21155 X125.311 Y41.762
N21160 X125.02 Y41.968
N21165 X124.755 Y42.205
N21170 X124.518 Y42.47
N21175 X124.312 Y42.761
N21180 X124.139 Y43.072
N21185 X124.003 Y43.401
N21190 X123.905 Y43.743
N21195 X123.845 Y44.095
N21200 X123.825 Y44.45
N21205 Y120.65
N21210 X123.845 Y121.005
N21215 X123.905 Y121.357
N21220 X124.003 Y121.699
N21225 X124.139 Y122.028
N21230 X124.312 Y122.339
N21235 X124.518 Y122.63
N21240 X124.755 Y122.895
N21245 X125.02 Y123.132
N21250 X125.311 Y123.338
N21255 X125.622 Y123.511
N21260 X125.951 Y123.647
N21265 X126.293 Y123.745
N21270 X126.645 Y123.805
