%
(GROOVENSLOTCHAMFER)
(MACHINE)
(  VENDOR AUTODESK)
(  MODEL GENERIC 3-AXIS ROUTER)
(  DESCRIPTION THIS MACHINE HAS XYZ AXIS ON THE HEAD)
(T23 D=6.35 CR=0. TAPER=30DEG - ZMIN=-1.587 - CHAMFER MILL)
N10 G90 G94 G17 G91.1
N15 G21
N20 G53 G0 Z0.
(BORDERGROOVE)
N25 G53 G0 X-200 Y0
N30 T23 M6
N35 S18000 M3
N40 G4 P2.0
N45 G17 G90 G94
N50 G54
N55 G0 X165.1 Y63.5
N60 G43 Z15. H23
N65 G0 Z5.
N70 G1 Z-1.587 F333.33
N75 Y317.5 F2032.
N80 X165.08 Y317.998
N85 X165.022 Y318.493
N90 X164.925 Y318.982
N95 X164.789 Y319.462
N100 X164.617 Y319.93
N105 X164.408 Y320.383
N110 X164.164 Y320.818
N115 X163.887 Y321.232
N120 X163.579 Y321.624
N125 X163.24 Y321.99
N130 X162.874 Y322.329
N135 X162.482 Y322.637
N140 X162.068 Y322.914
N145 X161.633 Y323.158
N150 X161.18 Y323.367
N155 X160.712 Y323.539
N160 X160.232 Y323.675
N165 X159.743 Y323.772
N170 X159.248 Y323.83
N175 X158.75 Y323.85
N180 X57.15
N185 X56.652 Y323.83
N190 X56.157 Y323.772
N195 X55.668 Y323.675
N200 X55.188 Y323.539
N205 X54.72 Y323.367
N210 X54.267 Y323.158
N215 X53.832 Y322.914
N220 X53.418 Y322.637
N225 X53.026 Y322.329
N230 X52.66 Y321.99
N235 X52.321 Y321.624
N240 X52.013 Y321.232
N245 X51.736 Y320.818
N250 X51.492 Y320.383
N255 X51.283 Y319.93
N260 X51.111 Y319.462
N265 X50.975 Y318.982
N270 X50.878 Y318.493
N275 X50.82 Y317.998
N280 X50.8 Y317.5
N285 Y63.5
N290 X50.82 Y63.002
N295 X50.878 Y62.507
N300 X50.975 Y62.018
N305 X51.111 Y61.538
N310 X51.283 Y61.07
N315 X51.492 Y60.617
N320 X51.736 Y60.182
N325 X52.013 Y59.768
N330 X52.321 Y59.376
N335 X52.66 Y59.01
N340 X53.026 Y58.671
N345 X53.418 Y58.363
N350 X53.832 Y58.086
N355 X54.267 Y57.842
N360 X54.72 Y57.633
N365 X55.188 Y57.461
N370 X55.668 Y57.326
N375 X56.157 Y57.228
N380 X56.652 Y57.17
N385 X57.15 Y57.15
N390 X158.75
N395 X159.248 Y57.17
N400 X159.743 Y57.228
N405 X160.232 Y57.326
N410 X160.712 Y57.461
N415 X161.18 Y57.633
N420 X161.633 Y57.842
N425 X162.068 Y58.086
N430 X162.482 Y58.363
N435 X162.874 Y58.671
N440 X163.24 Y59.01
N445 X163.579 Y59.376
N450 X163.887 Y59.768
N455 X164.164 Y60.182
N460 X164.408 Y60.617
N465 X164.617 Y61.07
N470 X164.789 Y61.538
N475 X164.925 Y62.018
N480 X165.022 Y62.507
N485 X165.08 Y63.002
N490 X165.1 Y63.5
N495 Z5.
N500 G0 Z15.
(SLOTCLEANUP)
N505 G0 X69.85 Y79.375
N510 Z15.
N515 Z5.
N520 G1 Z-1. F333.33
N525 X146.05 F2032.
N530 X146.405 Y79.355
N535 X146.757 Y79.295
N540 X147.099 Y79.197
N545 X147.428 Y79.061
N550 X147.739 Y78.888
N555 X148.03 Y78.682
N560 X148.295 Y78.445
N565 X148.532 Y78.18
N570 X148.738 Y77.889
N575 X148.911 Y77.578
N580 X149.047 Y77.249
N585 X149.145 Y76.907
N590 X149.205 Y76.555
N595 X149.225 Y76.2
N600 X149.205 Y75.844
N605 X149.145 Y75.493
N610 X149.047 Y75.151
N615 X148.911 Y74.822
N620 X148.738 Y74.511
N625 X148.532 Y74.22
N630 X148.295 Y73.955
N635 X148.03 Y73.718
N640 X147.739 Y73.512
N645 X147.428 Y73.339
N650 X147.099 Y73.203
N655 X146.757 Y73.105
N660 X146.405 Y73.045
N665 X146.05 Y73.025
N670 X69.85
N675 X69.494 Y73.045
N680 X69.144 Y73.105
N685 X68.801 Y73.203
N690 X68.472 Y73.339
N695 X68.161 Y73.512
N700 X67.87 Y73.718
N705 X67.605 Y73.955
N710 X67.368 Y74.22
N715 X67.162 Y74.511
N720 X66.989 Y74.822
N725 X66.853 Y75.151
N730 X66.755 Y75.493
N735 X66.695 Y75.844
N740 X66.675 Y76.2
N745 X66.695 Y76.555
N750 X66.755 Y76.907
N755 X66.853 Y77.249
N760 X66.989 Y77.578
N765 X67.162 Y77.889
N770 X67.368 Y78.18
N775 X67.605 Y78.445
N780 X67.87 Y78.682
N785 X68.161 Y78.888
N790 X68.472 Y79.061
N795 X68.801 Y79.197
N800 X69.144 Y79.295
N805 X69.494 Y79.355
N810 X69.85 Y79.375
N815 Z5.
N820 G0 Y85.725
N825 G1 Z-1. F333.33
N830 X69.494 Y85.745 F2032.
N835 X69.144 Y85.805
N840 X68.801 Y85.903
N845 X68.472 Y86.039
N850 X68.161 Y86.212
N855 X67.87 Y86.418
N860 X67.605 Y86.655
N865 X67.368 Y86.92
N870 X67.162 Y87.211
N875 X66.989 Y87.522
N880 X66.853 Y87.851
N885 X66.755 Y88.193
N890 X66.695 Y88.545
N895 X66.675 Y88.9
N900 X66.695 Y89.256
N905 X66.755 Y89.606
N910 X66.853 Y89.949
N915 X66.989 Y90.278
N920 X67.162 Y90.589
N925 X67.368 Y90.88
N930 X67.605 Y91.145
N935 X67.87 Y91.382
N940 X68.161 Y91.588
N945 X68.472 Y91.761
N950 X68.801 Y91.897
N955 X69.144 Y91.995
N960 X69.494 Y92.055
N965 X69.85 Y92.075
N970 X146.05
N975 X146.405 Y92.055
N980 X146.757 Y91.995
N985 X147.099 Y91.897
N990 X147.428 Y91.761
N995 X147.739 Y91.588
N1000 X148.03 Y91.382
N1005 X148.295 Y91.145
N1010 X148.532 Y90.88
N1015 X148.738 Y90.589
N1020 X148.911 Y90.278
N1025 X149.047 Y89.949
N1030 X149.145 Y89.606
N1035 X149.205 Y89.256
N1040 X149.225 Y88.9
N1045 X149.205 Y88.545
N1050 X149.145 Y88.193
N1055 X149.047 Y87.851
N1060 X148.911 Y87.522
N1065 X148.738 Y87.211
N1070 X148.532 Y86.92
N1075 X148.295 Y86.655
N1080 X148.03 Y86.418
N1085 X147.739 Y86.212
N1090 X147.428 Y86.039
N1095 X147.099 Y85.903
N1100 X146.757 Y85.805
N1105 X146.405 Y85.745
N1110 X146.05 Y85.725
N1115 X69.85
N1120 Z5.
N1125 G0 Y98.425
N1130 G1 Z-1. F333.33
N1135 X69.494 Y98.445 F2032.
N1140 X69.144 Y98.505
N1145 X68.801 Y98.603
N1150 X68.472 Y98.739
N1155 X68.161 Y98.912
N1160 X67.87 Y99.118
N1165 X67.605 Y99.355
N1170 X67.368 Y99.62
N1175 X67.162 Y99.911
N1180 X66.989 Y100.222
N1185 X66.853 Y100.551
N1190 X66.755 Y100.893
N1195 X66.695 Y101.245
N1200 X66.675 Y101.6
N1205 X66.695 Y101.955
N1210 X66.755 Y102.307
N1215 X66.853 Y102.649
N1220 X66.989 Y102.978
N1225 X67.162 Y103.289
N1230 X67.368 Y103.58
N1235 X67.605 Y103.845
N1240 X67.87 Y104.082
N1245 X68.161 Y104.288
N1250 X68.472 Y104.461
N1255 X68.801 Y104.597
N1260 X69.144 Y104.695
N1265 X69.494 Y104.755
N1270 X69.85 Y104.775
N1275 X146.05
N1280 X146.405 Y104.755
N1285 X146.757 Y104.695
N1290 X147.099 Y104.597
N1295 X147.428 Y104.461
N1300 X147.739 Y104.288
N1305 X148.03 Y104.082
N1310 X148.295 Y103.845
N1315 X148.532 Y103.58
N1320 X148.738 Y103.289
N1325 X148.911 Y102.978
N1330 X149.047 Y102.649
N1335 X149.145 Y102.307
N1340 X149.205 Y101.955
N1345 X149.225 Y101.6
N1350 X149.205 Y101.245
N1355 X149.145 Y100.893
N1360 X149.047 Y100.551
N1365 X148.911 Y100.222
N1370 X148.738 Y99.911
N1375 X148.532 Y99.62
N1380 X148.295 Y99.355
N1385 X148.03 Y99.118
N1390 X147.739 Y98.912
N1395 X147.428 Y98.739
N1400 X147.099 Y98.603
N1405 X146.757 Y98.505
N1410 X146.405 Y98.445
N1415 X146.05 Y98.425
N1420 X69.85
N1425 Z5.
N1430 G0 Y111.125
N1435 G1 Z-1. F333.33
N1440 X69.494 Y111.145 F2032.
N1445 X69.144 Y111.205
N1450 X68.801 Y111.303
N1455 X68.472 Y111.439
N1460 X68.161 Y111.612
N1465 X67.87 Y111.818
N1470 X67.605 Y112.055
N1475 X67.368 Y112.32
N1480 X67.162 Y112.611
N1485 X66.989 Y112.922
N1490 X66.853 Y113.251
N1495 X66.755 Y113.593
N1500 X66.695 Y113.945
N1505 X66.675 Y114.3
N1510 X66.695 Y114.655
N1515 X66.755 Y115.007
N1520 X66.853 Y115.349
N1525 X66.989 Y115.678
N1530 X67.162 Y115.989
N1535 X67.368 Y116.28
N1540 X67.605 Y116.545
N1545 X67.87 Y116.782
N1550 X68.161 Y116.988
N1555 X68.472 Y117.161
N1560 X68.801 Y117.297
N1565 X69.144 Y117.395
N1570 X69.494 Y117.455
N1575 X69.85 Y117.475
N1580 X146.05
N1585 X146.405 Y117.455
N1590 X146.757 Y117.395
N1595 X147.099 Y117.297
N1600 X147.428 Y117.161
N1605 X147.739 Y116.988
N1610 X148.03 Y116.782
N1615 X148.295 Y116.545
N1620 X148.532 Y116.28
N1625 X148.738 Y115.989
N1630 X148.911 Y115.678
N1635 X149.047 Y115.349
N1640 X149.145 Y115.007
N1645 X149.205 Y114.655
N1650 X149.225 Y114.3
N1655 X149.205 Y113.945
N1660 X149.145 Y113.593
N1665 X149.047 Y113.251
N1670 X148.911 Y112.922
N1675 X148.738 Y112.611
N1680 X148.532 Y112.32
N1685 X148.295 Y112.055
N1690 X148.03 Y111.818
N1695 X147.739 Y111.612
N1700 X147.428 Y111.439
N1705 X147.099 Y111.303
N1710 X146.757 Y111.205
N1715 X146.405 Y111.145
N1720 X146.05 Y111.125
N1725 X69.85
N1730 Z5.
N1735 G0 Y123.825
N1740 G1 Z-1. F333.33
N1745 X69.494 Y123.845 F2032.
N1750 X69.144 Y123.905
N1755 X68.801 Y124.003
N1760 X68.472 Y124.139
N1765 X68.161 Y124.312
N1770 X67.87 Y124.518
N1775 X67.605 Y124.755
N1780 X67.368 Y125.02
N1785 X67.162 Y125.311
N1790 X66.989 Y125.622
N1795 X66.853 Y125.951
N1800 X66.755 Y126.293
N1805 X66.695 Y126.645
N1810 X66.675 Y127.
N1815 X66.695 Y127.355
N1820 X66.755 Y127.707
N1825 X66.853 Y128.049
N1830 X66.989 Y128.378
N1835 X67.162 Y128.689
N1840 X67.368 Y128.98
N1845 X67.605 Y129.245
N1850 X67.87 Y129.482
N1855 X68.161 Y129.688
N1860 X68.472 Y129.861
N1865 X68.801 Y129.997
N1870 X69.144 Y130.095
N1875 X69.494 Y130.155
N1880 X69.85 Y130.175
N1885 X146.05
N1890 X146.405 Y130.155
N1895 X146.757 Y130.095
N1900 X147.099 Y129.997
N1905 X147.428 Y129.861
N1910 X147.739 Y129.688
N1915 X148.03 Y129.482
N1920 X148.295 Y129.245
N1925 X148.532 Y128.98
N1930 X148.738 Y128.689
N1935 X148.911 Y128.378
N1940 X149.047 Y128.049
N1945 X149.145 Y127.707
N1950 X149.205 Y127.355
N1955 X149.225 Y127.
N1960 X149.205 Y126.645
N1965 X149.145 Y126.293
N1970 X149.047 Y125.951
N1975 X148.911 Y125.622
N1980 X148.738 Y125.311
N1985 X148.532 Y125.02
N1990 X148.295 Y124.755
N1995 X148.03 Y124.518
N2000 X147.739 Y124.312
N2005 X147.428 Y124.139
N2010 X147.099 Y124.003
N2015 X146.757 Y123.905
N2020 X146.405 Y123.845
N2025 X146.05 Y123.825
N2030 X69.85
N2035 Z5.
N2040 G0 Y136.525
N2045 G1 Z-1. F333.33
N2050 X69.494 Y136.545 F2032.
N2055 X69.144 Y136.605
N2060 X68.801 Y136.703
N2065 X68.472 Y136.839
N2070 X68.161 Y137.012
N2075 X67.87 Y137.218
N2080 X67.605 Y137.455
N2085 X67.368 Y137.72
N2090 X67.162 Y138.011
N2095 X66.989 Y138.322
N2100 X66.853 Y138.651
N2105 X66.755 Y138.993
N2110 X66.695 Y139.345
N2115 X66.675 Y139.7
N2120 X66.695 Y140.055
N2125 X66.755 Y140.407
N2130 X66.853 Y140.749
N2135 X66.989 Y141.078
N2140 X67.162 Y141.389
N2145 X67.368 Y141.68
N2150 X67.605 Y141.945
N2155 X67.87 Y142.182
N2160 X68.161 Y142.388
N2165 X68.472 Y142.561
N2170 X68.801 Y142.697
N2175 X69.144 Y142.795
N2180 X69.494 Y142.855
N2185 X69.85 Y142.875
N2190 X146.05
N2195 X146.405 Y142.855
N2200 X146.757 Y142.795
N2205 X147.099 Y142.697
N2210 X147.428 Y142.561
N2215 X147.739 Y142.388
N2220 X148.03 Y142.182
N2225 X148.295 Y141.945
N2230 X148.532 Y141.68
N2235 X148.738 Y141.389
N2240 X148.911 Y141.078
N2245 X149.047 Y140.749
N2250 X149.145 Y140.407
N2255 X149.205 Y140.055
N2260 X149.225 Y139.7
N2265 X149.205 Y139.345
N2270 X149.145 Y138.993
N2275 X149.047 Y138.651
N2280 X148.911 Y138.322
N2285 X148.738 Y138.011
N2290 X148.532 Y137.72
N2295 X148.295 Y137.455
N2300 X148.03 Y137.218
N2305 X147.739 Y137.012
N2310 X147.428 Y136.839
N2315 X147.099 Y136.703
N2320 X146.757 Y136.605
N2325 X146.405 Y136.545
N2330 X146.05 Y136.525
N2335 X69.85
N2340 Z5.
N2345 G0 Y149.225
N2350 G1 Z-1. F333.33
N2355 X69.494 Y149.245 F2032.
N2360 X69.144 Y149.305
N2365 X68.801 Y149.403
N2370 X68.472 Y149.539
N2375 X68.161 Y149.712
N2380 X67.87 Y149.918
N2385 X67.605 Y150.155
N2390 X67.368 Y150.42
N2395 X67.162 Y150.711
N2400 X66.989 Y151.022
N2405 X66.853 Y151.351
N2410 X66.755 Y151.693
N2415 X66.695 Y152.045
N2420 X66.675 Y152.4
N2425 X66.695 Y152.755
N2430 X66.755 Y153.107
N2435 X66.853 Y153.449
N2440 X66.989 Y153.778
N2445 X67.162 Y154.089
N2450 X67.368 Y154.38
N2455 X67.605 Y154.645
N2460 X67.87 Y154.882
N2465 X68.161 Y155.088
N2470 X68.472 Y155.261
N2475 X68.801 Y155.397
N2480 X69.144 Y155.495
N2485 X69.494 Y155.555
N2490 X69.85 Y155.575
N2495 X146.05
N2500 X146.405 Y155.555
N2505 X146.757 Y155.495
N2510 X147.099 Y155.397
N2515 X147.428 Y155.261
N2520 X147.739 Y155.088
N2525 X148.03 Y154.882
N2530 X148.295 Y154.645
N2535 X148.532 Y154.38
N2540 X148.738 Y154.089
N2545 X148.911 Y153.778
N2550 X149.047 Y153.449
N2555 X149.145 Y153.107
N2560 X149.205 Y152.755
N2565 X149.225 Y152.4
N2570 X149.205 Y152.045
N2575 X149.145 Y151.693
N2580 X149.047 Y151.351
N2585 X148.911 Y151.022
N2590 X148.738 Y150.711
N2595 X148.532 Y150.42
N2600 X148.295 Y150.155
N2605 X148.03 Y149.918
N2610 X147.739 Y149.712
N2615 X147.428 Y149.539
N2620 X147.099 Y149.403
N2625 X146.757 Y149.305
N2630 X146.405 Y149.245
N2635 X146.05 Y149.225
N2640 X69.85
N2645 Z5.
N2650 G0 Y161.925
N2655 G1 Z-1. F333.33
N2660 X69.494 Y161.945 F2032.
N2665 X69.144 Y162.005
N2670 X68.801 Y162.103
N2675 X68.472 Y162.239
N2680 X68.161 Y162.412
N2685 X67.87 Y162.618
N2690 X67.605 Y162.855
N2695 X67.368 Y163.12
N2700 X67.162 Y163.411
N2705 X66.989 Y163.722
N2710 X66.853 Y164.051
N2715 X66.755 Y164.393
N2720 X66.695 Y164.745
N2725 X66.675 Y165.1
N2730 X66.695 Y165.455
N2735 X66.755 Y165.807
N2740 X66.853 Y166.149
N2745 X66.989 Y166.478
N2750 X67.162 Y166.789
N2755 X67.368 Y167.08
N2760 X67.605 Y167.345
N2765 X67.87 Y167.582
N2770 X68.161 Y167.788
N2775 X68.472 Y167.961
N2780 X68.801 Y168.097
N2785 X69.144 Y168.195
N2790 X69.494 Y168.255
N2795 X69.85 Y168.275
N2800 X146.05
N2805 X146.405 Y168.255
N2810 X146.757 Y168.195
N2815 X147.099 Y168.097
N2820 X147.428 Y167.961
N2825 X147.739 Y167.788
N2830 X148.03 Y167.582
N2835 X148.295 Y167.345
N2840 X148.532 Y167.08
N2845 X148.738 Y166.789
N2850 X148.911 Y166.478
N2855 X149.047 Y166.149
N2860 X149.145 Y165.807
N2865 X149.205 Y165.455
N2870 X149.225 Y165.1
N2875 X149.205 Y164.745
N2880 X149.145 Y164.393
N2885 X149.047 Y164.051
N2890 X148.911 Y163.722
N2895 X148.738 Y163.411
N2900 X148.532 Y163.12
N2905 X148.295 Y162.855
N2910 X148.03 Y162.618
N2915 X147.739 Y162.412
N2920 X147.428 Y162.239
N2925 X147.099 Y162.103
N2930 X146.757 Y162.005
N2935 X146.405 Y161.945
N2940 X146.05 Y161.925
N2945 X69.85
N2950 Z5.
N2955 G0 Y174.625
N2960 G1 Z-1. F333.33
N2965 X69.494 Y174.645 F2032.
N2970 X69.144 Y174.705
N2975 X68.801 Y174.803
N2980 X68.472 Y174.939
N2985 X68.161 Y175.112
N2990 X67.87 Y175.318
N2995 X67.605 Y175.555
N3000 X67.368 Y175.82
N3005 X67.162 Y176.111
N3010 X66.989 Y176.422
N3015 X66.853 Y176.751
N3020 X66.755 Y177.093
N3025 X66.695 Y177.445
N3030 X66.675 Y177.8
N3035 X66.695 Y178.155
N3040 X66.755 Y178.507
N3045 X66.853 Y178.849
N3050 X66.989 Y179.178
N3055 X67.162 Y179.489
N3060 X67.368 Y179.78
N3065 X67.605 Y180.045
N3070 X67.87 Y180.282
N3075 X68.161 Y180.488
N3080 X68.472 Y180.661
N3085 X68.801 Y180.797
N3090 X69.144 Y180.895
N3095 X69.494 Y180.955
N3100 X69.85 Y180.975
N3105 X133.35
N3110 X133.705 Y180.955
N3115 X134.057 Y180.895
N3120 X134.399 Y180.797
N3125 X134.728 Y180.661
N3130 X135.039 Y180.488
N3135 X135.33 Y180.282
N3140 X135.595 Y180.045
N3145 X135.832 Y179.78
N3150 X136.038 Y179.489
N3155 X136.211 Y179.178
N3160 X136.347 Y178.849
N3165 X136.445 Y178.507
N3170 X136.505 Y178.155
N3175 X136.525 Y177.8
N3180 X136.505 Y177.445
N3185 X136.445 Y177.093
N3190 X136.347 Y176.751
N3195 X136.211 Y176.422
N3200 X136.038 Y176.111
N3205 X135.832 Y175.82
N3210 X135.595 Y175.555
N3215 X135.33 Y175.318
N3220 X135.039 Y175.112
N3225 X134.728 Y174.939
N3230 X134.399 Y174.803
N3235 X134.057 Y174.705
N3240 X133.705 Y174.645
N3245 X133.35 Y174.625
N3250 X69.85
N3255 Z5.
N3260 G0 Y187.325
N3265 G1 Z-1. F333.33
N3270 X69.494 Y187.345 F2032.
N3275 X69.144 Y187.405
N3280 X68.801 Y187.503
N3285 X68.472 Y187.639
N3290 X68.161 Y187.812
N3295 X67.87 Y188.018
N3300 X67.605 Y188.255
N3305 X67.368 Y188.52
N3310 X67.162 Y188.811
N3315 X66.989 Y189.122
N3320 X66.853 Y189.451
N3325 X66.755 Y189.793
N3330 X66.695 Y190.145
N3335 X66.675 Y190.5
N3340 X66.695 Y190.855
N3345 X66.755 Y191.207
N3350 X66.853 Y191.549
N3355 X66.989 Y191.878
N3360 X67.162 Y192.189
N3365 X67.368 Y192.48
N3370 X67.605 Y192.745
N3375 X67.87 Y192.982
N3380 X68.161 Y193.188
N3385 X68.472 Y193.361
N3390 X68.801 Y193.497
N3395 X69.144 Y193.595
N3400 X69.494 Y193.655
N3405 X69.85 Y193.675
N3410 X133.35
N3415 X133.705 Y193.655
N3420 X134.057 Y193.595
N3425 X134.399 Y193.497
N3430 X134.728 Y193.361
N3435 X135.039 Y193.188
N3440 X135.33 Y192.982
N3445 X135.595 Y192.745
N3450 X135.832 Y192.48
N3455 X136.038 Y192.189
N3460 X136.211 Y191.878
N3465 X136.347 Y191.549
N3470 X136.445 Y191.207
N3475 X136.505 Y190.855
N3480 X136.525 Y190.5
N3485 X136.505 Y190.145
N3490 X136.445 Y189.793
N3495 X136.347 Y189.451
N3500 X136.211 Y189.122
N3505 X136.038 Y188.811
N3510 X135.832 Y188.52
N3515 X135.595 Y188.255
N3520 X135.33 Y188.018
N3525 X135.039 Y187.812
N3530 X134.728 Y187.639
N3535 X134.399 Y187.503
N3540 X134.057 Y187.405
N3545 X133.705 Y187.345
N3550 X133.35 Y187.325
N3555 X69.85
N3560 Z5.
N3565 G0 Y200.025
N3570 G1 Z-1. F333.33
N3575 X69.494 Y200.045 F2032.
N3580 X69.144 Y200.105
N3585 X68.801 Y200.203
N3590 X68.472 Y200.339
N3595 X68.161 Y200.512
N3600 X67.87 Y200.718
N3605 X67.605 Y200.955
N3610 X67.368 Y201.22
N3615 X67.162 Y201.511
N3620 X66.989 Y201.822
N3625 X66.853 Y202.151
N3630 X66.755 Y202.493
N3635 X66.695 Y202.845
N3640 X66.675 Y203.2
N3645 X66.695 Y203.555
N3650 X66.755 Y203.907
N3655 X66.853 Y204.249
N3660 X66.989 Y204.578
N3665 X67.162 Y204.889
N3670 X67.368 Y205.18
N3675 X67.605 Y205.445
N3680 X67.87 Y205.682
N3685 X68.161 Y205.888
N3690 X68.472 Y206.061
N3695 X68.801 Y206.197
N3700 X69.144 Y206.295
N3705 X69.494 Y206.355
N3710 X69.85 Y206.375
N3715 X133.35
N3720 X133.705 Y206.355
N3725 X134.057 Y206.295
N3730 X134.399 Y206.197
N3735 X134.728 Y206.061
N3740 X135.039 Y205.888
N3745 X135.33 Y205.682
N3750 X135.595 Y205.445
N3755 X135.832 Y205.18
N3760 X136.038 Y204.889
N3765 X136.211 Y204.578
N3770 X136.347 Y204.249
N3775 X136.445 Y203.907
N3780 X136.505 Y203.555
N3785 X136.525 Y203.2
N3790 X136.505 Y202.845
N3795 X136.445 Y202.493
N3800 X136.347 Y202.151
N3805 X136.211 Y201.822
N3810 X136.038 Y201.511
N3815 X135.832 Y201.22
N3820 X135.595 Y200.955
N3825 X135.33 Y200.718
N3830 X135.039 Y200.512
N3835 X134.728 Y200.339
N3840 X134.399 Y200.203
N3845 X134.057 Y200.105
N3850 X133.705 Y200.045
N3855 X133.35 Y200.025
N3860 X69.85
N3865 Z5.
N3870 G0 Y212.725
N3875 G1 Z-1. F333.33
N3880 X69.494 Y212.745 F2032.
N3885 X69.144 Y212.805
N3890 X68.801 Y212.903
N3895 X68.472 Y213.039
N3900 X68.161 Y213.212
N3905 X67.87 Y213.418
N3910 X67.605 Y213.655
N3915 X67.368 Y213.92
N3920 X67.162 Y214.211
N3925 X66.989 Y214.522
N3930 X66.853 Y214.851
N3935 X66.755 Y215.193
N3940 X66.695 Y215.545
N3945 X66.675 Y215.9
N3950 X66.695 Y216.255
N3955 X66.755 Y216.607
N3960 X66.853 Y216.949
N3965 X66.989 Y217.278
N3970 X67.162 Y217.589
N3975 X67.368 Y217.88
N3980 X67.605 Y218.145
N3985 X67.87 Y218.382
N3990 X68.161 Y218.588
N3995 X68.472 Y218.761
N4000 X68.801 Y218.897
N4005 X69.144 Y218.995
N4010 X69.494 Y219.055
N4015 X69.85 Y219.075
N4020 X146.05
N4025 X146.405 Y219.055
N4030 X146.757 Y218.995
N4035 X147.099 Y218.897
N4040 X147.428 Y218.761
N4045 X147.739 Y218.588
N4050 X148.03 Y218.382
N4055 X148.295 Y218.145
N4060 X148.532 Y217.88
N4065 X148.738 Y217.589
N4070 X148.911 Y217.278
N4075 X149.047 Y216.949
N4080 X149.145 Y216.607
N4085 X149.205 Y216.255
N4090 X149.225 Y215.9
N4095 X149.205 Y215.545
N4100 X149.145 Y215.193
N4105 X149.047 Y214.851
N4110 X148.911 Y214.522
N4115 X148.738 Y214.211
N4120 X148.532 Y213.92
N4125 X148.295 Y213.655
N4130 X148.03 Y213.418
N4135 X147.739 Y213.212
N4140 X147.428 Y213.039
N4145 X147.099 Y212.903
N4150 X146.757 Y212.805
N4155 X146.405 Y212.745
N4160 X146.05 Y212.725
N4165 X69.85
N4170 Z5.
N4175 G0 Y225.425
N4180 G1 Z-1. F333.33
N4185 X69.494 Y225.445 F2032.
N4190 X69.144 Y225.505
N4195 X68.801 Y225.603
N4200 X68.472 Y225.739
N4205 X68.161 Y225.912
N4210 X67.87 Y226.118
N4215 X67.605 Y226.355
N4220 X67.368 Y226.62
N4225 X67.162 Y226.911
N4230 X66.989 Y227.222
N4235 X66.853 Y227.551
N4240 X66.755 Y227.893
N4245 X66.695 Y228.245
N4250 X66.675 Y228.6
N4255 X66.695 Y228.955
N4260 X66.755 Y229.307
N4265 X66.853 Y229.649
N4270 X66.989 Y229.978
N4275 X67.162 Y230.289
N4280 X67.368 Y230.58
N4285 X67.605 Y230.845
N4290 X67.87 Y231.082
N4295 X68.161 Y231.288
N4300 X68.472 Y231.461
N4305 X68.801 Y231.597
N4310 X69.144 Y231.695
N4315 X69.494 Y231.755
N4320 X69.85 Y231.775
N4325 X146.05
N4330 X146.405 Y231.755
N4335 X146.757 Y231.695
N4340 X147.099 Y231.597
N4345 X147.428 Y231.461
N4350 X147.739 Y231.288
N4355 X148.03 Y231.082
N4360 X148.295 Y230.845
N4365 X148.532 Y230.58
N4370 X148.738 Y230.289
N4375 X148.911 Y229.978
N4380 X149.047 Y229.649
N4385 X149.145 Y229.307
N4390 X149.205 Y228.955
N4395 X149.225 Y228.6
N4400 X149.205 Y228.245
N4405 X149.145 Y227.893
N4410 X149.047 Y227.551
N4415 X148.911 Y227.222
N4420 X148.738 Y226.911
N4425 X148.532 Y226.62
N4430 X148.295 Y226.355
N4435 X148.03 Y226.118
N4440 X147.739 Y225.912
N4445 X147.428 Y225.739
N4450 X147.099 Y225.603
N4455 X146.757 Y225.505
N4460 X146.405 Y225.445
N4465 X146.05 Y225.425
N4470 X69.85
N4475 Z5.
N4480 G0 Y238.125
N4485 G1 Z-1. F333.33
N4490 X69.494 Y238.145 F2032.
N4495 X69.144 Y238.205
N4500 X68.801 Y238.303
N4505 X68.472 Y238.439
N4510 X68.161 Y238.612
N4515 X67.87 Y238.818
N4520 X67.605 Y239.055
N4525 X67.368 Y239.32
N4530 X67.162 Y239.611
N4535 X66.989 Y239.922
N4540 X66.853 Y240.251
N4545 X66.755 Y240.593
N4550 X66.695 Y240.945
N4555 X66.675 Y241.3
N4560 X66.695 Y241.655
N4565 X66.755 Y242.007
N4570 X66.853 Y242.349
N4575 X66.989 Y242.678
N4580 X67.162 Y242.989
N4585 X67.368 Y243.28
N4590 X67.605 Y243.545
N4595 X67.87 Y243.782
N4600 X68.161 Y243.988
N4605 X68.472 Y244.161
N4610 X68.801 Y244.297
N4615 X69.144 Y244.395
N4620 X69.494 Y244.455
N4625 X69.85 Y244.475
N4630 X146.05
N4635 X146.405 Y244.455
N4640 X146.757 Y244.395
N4645 X147.099 Y244.297
N4650 X147.428 Y244.161
N4655 X147.739 Y243.988
N4660 X148.03 Y243.782
N4665 X148.295 Y243.545
N4670 X148.532 Y243.28
N4675 X148.738 Y242.989
N4680 X148.911 Y242.678
N4685 X149.047 Y242.349
N4690 X149.145 Y242.007
N4695 X149.205 Y241.655
N4700 X149.225 Y241.3
N4705 X149.205 Y240.945
N4710 X149.145 Y240.593
N4715 X149.047 Y240.251
N4720 X148.911 Y239.922
N4725 X148.738 Y239.611
N4730 X148.532 Y239.32
N4735 X148.295 Y239.055
N4740 X148.03 Y238.818
N4745 X147.739 Y238.612
N4750 X147.428 Y238.439
N4755 X147.099 Y238.303
N4760 X146.757 Y238.205
N4765 X146.405 Y238.145
N4770 X146.05 Y238.125
N4775 X69.85
N4780 Z5.
N4785 G0 Y250.825
N4790 G1 Z-1. F333.33
N4795 X69.494 Y250.845 F2032.
N4800 X69.144 Y250.905
N4805 X68.801 Y251.003
N4810 X68.472 Y251.139
N4815 X68.161 Y251.312
N4820 X67.87 Y251.518
N4825 X67.605 Y251.755
N4830 X67.368 Y252.02
N4835 X67.162 Y252.311
N4840 X66.989 Y252.622
N4845 X66.853 Y252.951
N4850 X66.755 Y253.293
N4855 X66.695 Y253.645
N4860 X66.675 Y254.
N4865 X66.695 Y254.355
N4870 X66.755 Y254.707
N4875 X66.853 Y255.049
N4880 X66.989 Y255.378
N4885 X67.162 Y255.689
N4890 X67.368 Y255.98
N4895 X67.605 Y256.245
N4900 X67.87 Y256.482
N4905 X68.161 Y256.688
N4910 X68.472 Y256.861
N4915 X68.801 Y256.997
N4920 X69.144 Y257.095
N4925 X69.494 Y257.155
N4930 X69.85 Y257.175
N4935 X146.05
N4940 X146.405 Y257.155
N4945 X146.757 Y257.095
N4950 X147.099 Y256.997
N4955 X147.428 Y256.861
N4960 X147.739 Y256.688
N4965 X148.03 Y256.482
N4970 X148.295 Y256.245
N4975 X148.532 Y255.98
N4980 X148.738 Y255.689
N4985 X148.911 Y255.378
N4990 X149.047 Y255.049
N4995 X149.145 Y254.707
N5000 X149.205 Y254.355
N5005 X149.225 Y254.
N5010 X149.205 Y253.645
N5015 X149.145 Y253.293
N5020 X149.047 Y252.951
N5025 X148.911 Y252.622
N5030 X148.738 Y252.311
N5035 X148.532 Y252.02
N5040 X148.295 Y251.755
N5045 X148.03 Y251.518
N5050 X147.739 Y251.312
N5055 X147.428 Y251.139
N5060 X147.099 Y251.003
N5065 X146.757 Y250.905
N5070 X146.405 Y250.845
N5075 X146.05 Y250.825
N5080 X69.85
N5085 Z5.
N5090 G0 Y263.525
N5095 G1 Z-1. F333.33
N5100 X69.494 Y263.545 F2032.
N5105 X69.144 Y263.605
N5110 X68.801 Y263.703
N5115 X68.472 Y263.839
N5120 X68.161 Y264.012
N5125 X67.87 Y264.218
N5130 X67.605 Y264.455
N5135 X67.368 Y264.72
N5140 X67.162 Y265.011
N5145 X66.989 Y265.322
N5150 X66.853 Y265.651
N5155 X66.755 Y265.993
N5160 X66.695 Y266.345
N5165 X66.675 Y266.7
N5170 X66.695 Y267.055
N5175 X66.755 Y267.407
N5180 X66.853 Y267.749
N5185 X66.989 Y268.078
N5190 X67.162 Y268.389
N5195 X67.368 Y268.68
N5200 X67.605 Y268.945
N5205 X67.87 Y269.182
N5210 X68.161 Y269.388
N5215 X68.472 Y269.561
N5220 X68.801 Y269.697
N5225 X69.144 Y269.795
N5230 X69.494 Y269.855
N5235 X69.85 Y269.875
N5240 X146.05
N5245 X146.405 Y269.855
N5250 X146.757 Y269.795
N5255 X147.099 Y269.697
N5260 X147.428 Y269.561
N5265 X147.739 Y269.388
N5270 X148.03 Y269.182
N5275 X148.295 Y268.945
N5280 X148.532 Y268.68
N5285 X148.738 Y268.389
N5290 X148.911 Y268.078
N5295 X149.047 Y267.749
N5300 X149.145 Y267.407
N5305 X149.205 Y267.055
N5310 X149.225 Y266.7
N5315 X149.205 Y266.345
N5320 X149.145 Y265.993
N5325 X149.047 Y265.651
N5330 X148.911 Y265.322
N5335 X148.738 Y265.011
N5340 X148.532 Y264.72
N5345 X148.295 Y264.455
N5350 X148.03 Y264.218
N5355 X147.739 Y264.012
N5360 X147.428 Y263.839
N5365 X147.099 Y263.703
N5370 X146.757 Y263.605
N5375 X146.405 Y263.545
N5380 X146.05 Y263.525
N5385 X69.85
N5390 Z5.
N5395 G0 Y276.225
N5400 G1 Z-1. F333.33
N5405 X69.494 Y276.245 F2032.
N5410 X69.144 Y276.305
N5415 X68.801 Y276.403
N5420 X68.472 Y276.539
N5425 X68.161 Y276.712
N5430 X67.87 Y276.918
N5435 X67.605 Y277.155
N5440 X67.368 Y277.42
N5445 X67.162 Y277.711
N5450 X66.989 Y278.022
N5455 X66.853 Y278.351
N5460 X66.755 Y278.693
N5465 X66.695 Y279.045
N5470 X66.675 Y279.4
N5475 X66.695 Y279.755
N5480 X66.755 Y280.107
N5485 X66.853 Y280.449
N5490 X66.989 Y280.778
N5495 X67.162 Y281.089
N5500 X67.368 Y281.38
N5505 X67.605 Y281.645
N5510 X67.87 Y281.882
N5515 X68.161 Y282.088
N5520 X68.472 Y282.261
N5525 X68.801 Y282.397
N5530 X69.144 Y282.495
N5535 X69.494 Y282.555
N5540 X69.85 Y282.575
N5545 X146.05
N5550 X146.405 Y282.555
N5555 X146.757 Y282.495
N5560 X147.099 Y282.397
N5565 X147.428 Y282.261
N5570 X147.739 Y282.088
N5575 X148.03 Y281.882
N5580 X148.295 Y281.645
N5585 X148.532 Y281.38
N5590 X148.738 Y281.089
N5595 X148.911 Y280.778
N5600 X149.047 Y280.449
N5605 X149.145 Y280.107
N5610 X149.205 Y279.755
N5615 X149.225 Y279.4
N5620 X149.205 Y279.045
N5625 X149.145 Y278.693
N5630 X149.047 Y278.351
N5635 X148.911 Y278.022
N5640 X148.738 Y277.711
N5645 X148.532 Y277.42
N5650 X148.295 Y277.155
N5655 X148.03 Y276.918
N5660 X147.739 Y276.712
N5665 X147.428 Y276.539
N5670 X147.099 Y276.403
N5675 X146.757 Y276.305
N5680 X146.405 Y276.245
N5685 X146.05 Y276.225
N5690 X69.85
N5695 Z5.
N5700 G0 Y288.925
N5705 G1 Z-1. F333.33
N5710 X69.494 Y288.945 F2032.
N5715 X69.144 Y289.005
N5720 X68.801 Y289.103
N5725 X68.472 Y289.239
N5730 X68.161 Y289.412
N5735 X67.87 Y289.618
N5740 X67.605 Y289.855
N5745 X67.368 Y290.12
N5750 X67.162 Y290.411
N5755 X66.989 Y290.722
N5760 X66.853 Y291.051
N5765 X66.755 Y291.393
N5770 X66.695 Y291.745
N5775 X66.675 Y292.1
N5780 X66.695 Y292.455
N5785 X66.755 Y292.807
N5790 X66.853 Y293.149
N5795 X66.989 Y293.478
N5800 X67.162 Y293.789
N5805 X67.368 Y294.08
N5810 X67.605 Y294.345
N5815 X67.87 Y294.582
N5820 X68.161 Y294.788
N5825 X68.472 Y294.961
N5830 X68.801 Y295.097
N5835 X69.144 Y295.195
N5840 X69.494 Y295.255
N5845 X69.85 Y295.275
N5850 X146.05
N5855 X146.405 Y295.255
N5860 X146.757 Y295.195
N5865 X147.099 Y295.097
N5870 X147.428 Y294.961
N5875 X147.739 Y294.788
N5880 X148.03 Y294.582
N5885 X148.295 Y294.345
N5890 X148.532 Y294.08
N5895 X148.738 Y293.789
N5900 X148.911 Y293.478
N5905 X149.047 Y293.149
N5910 X149.145 Y292.807
N5915 X149.205 Y292.455
N5920 X149.225 Y292.1
N5925 X149.205 Y291.745
N5930 X149.145 Y291.393
N5935 X149.047 Y291.051
N5940 X148.911 Y290.722
N5945 X148.738 Y290.411
N5950 X148.532 Y290.12
N5955 X148.295 Y289.855
N5960 X148.03 Y289.618
N5965 X147.739 Y289.412
N5970 X147.428 Y289.239
N5975 X147.099 Y289.103
N5980 X146.757 Y289.005
N5985 X146.405 Y288.945
N5990 X146.05 Y288.925
N5995 X69.85
N6000 Z5.
N6005 G0 Y301.625
N6010 G1 Z-1. F333.33
N6015 X69.494 Y301.645 F2032.
N6020 X69.144 Y301.705
N6025 X68.801 Y301.803
N6030 X68.472 Y301.939
N6035 X68.161 Y302.112
N6040 X67.87 Y302.318
N6045 X67.605 Y302.555
N6050 X67.368 Y302.82
N6055 X67.162 Y303.111
N6060 X66.989 Y303.422
N6065 X66.853 Y303.751
N6070 X66.755 Y304.093
N6075 X66.695 Y304.445
N6080 X66.675 Y304.8
N6085 X66.695 Y305.155
N6090 X66.755 Y305.507
N6095 X66.853 Y305.849
N6100 X66.989 Y306.178
N6105 X67.162 Y306.489
N6110 X67.368 Y306.78
N6115 X67.605 Y307.045
N6120 X67.87 Y307.282
N6125 X68.161 Y307.488
N6130 X68.472 Y307.661
N6135 X68.801 Y307.797
N6140 X69.144 Y307.895
N6145 X69.494 Y307.955
N6150 X69.85 Y307.975
N6155 X146.05
N6160 X146.405 Y307.955
N6165 X146.757 Y307.895
N6170 X147.099 Y307.797
N6175 X147.428 Y307.661
N6180 X147.739 Y307.488
N6185 X148.03 Y307.282
N6190 X148.295 Y307.045
N6195 X148.532 Y306.78
N6200 X148.738 Y306.489
N6205 X148.911 Y306.178
N6210 X149.047 Y305.849
N6215 X149.145 Y305.507
N6220 X149.205 Y305.155
N6225 X149.225 Y304.8
N6230 X149.205 Y304.445
N6235 X149.145 Y304.093
N6240 X149.047 Y303.751
N6245 X148.911 Y303.422
N6250 X148.738 Y303.111
N6255 X148.532 Y302.82
N6260 X148.295 Y302.555
N6265 X148.03 Y302.318
N6270 X147.739 Y302.112
N6275 X147.428 Y301.939
N6280 X147.099 Y301.803
N6285 X146.757 Y301.705
N6290 X146.405 Y301.645
N6295 X146.05 Y301.625
N6300 X69.85
N6305 Z5.
N6310 G0 X143.844 Y205.765
N6315 G1 Z-1. F333.33
N6320 X144.157 Y205.958 F2032.
N6325 X144.489 Y206.116
N6330 X144.835 Y206.238
N6335 X145.193 Y206.322
N6340 X145.558 Y206.367
N6345 X145.925 Y206.373
N6350 X146.266 Y206.368
N6355 X146.604 Y206.326
N6360 X146.936 Y206.249
N6365 X147.257 Y206.136
N6370 X147.565 Y205.99
N6375 X147.855 Y205.812
N6380 X148.125 Y205.603
N6385 X148.37 Y205.367
N6390 X148.589 Y205.106
N6395 X148.779 Y204.823
N6400 X148.937 Y204.522
N6405 X149.062 Y204.205
N6410 X149.152 Y203.876
N6415 X149.207 Y203.54
N6420 X149.225 Y203.2
N6425 Y177.8
N6430 X149.205 Y177.445
N6435 X149.145 Y177.093
N6440 X149.047 Y176.751
N6445 X148.911 Y176.422
N6450 X148.738 Y176.111
N6455 X148.532 Y175.82
N6460 X148.295 Y175.555
N6465 X148.03 Y175.318
N6470 X147.739 Y175.112
N6475 X147.428 Y174.939
N6480 X147.099 Y174.803
N6485 X146.757 Y174.705
N6490 X146.405 Y174.645
N6495 X146.05 Y174.625
N6500 X145.558 Y174.633
N6505 X145.193 Y174.678
N6510 X144.835 Y174.762
N6515 X144.489 Y174.884
N6520 X144.157 Y175.042
N6525 X143.844 Y175.235
N6530 X143.553 Y175.46
N6535 X143.289 Y175.715
N6540 X143.053 Y175.997
N6545 X142.848 Y176.302
N6550 X142.678 Y176.628
N6555 X142.543 Y176.97
N6560 X142.446 Y177.324
N6565 X142.387 Y177.687
N6570 X142.367 Y178.054
N6575 Y202.946
N6580 X142.387 Y203.313
N6585 X142.446 Y203.676
N6590 X142.543 Y204.03
N6595 X142.678 Y204.372
N6600 X142.848 Y204.698
N6605 X143.053 Y205.003
N6610 X143.289 Y205.285
N6615 X143.553 Y205.54
N6620 X143.844 Y205.765
N6625 Z5.
N6630 G0 Z15.
N6635 G53 G0 Z0.
N6640 G53 G0 X-200 Y-150
N6645 M30
%
