%
(GROOVEJIG)
(MACHINE)
(  VENDOR AUTODESK)
(  MODEL GENERIC 3-AXIS ROUTER)
(  DESCRIPTION THIS MACHINE HAS XYZ AXIS ON THE HEAD)
(T20 D=6.35 CR=0. - ZMIN=-19.05 - FLAT END MILL)
(T21 D=12.7 CR=0. - ZMIN=-19.05 - FLAT END MILL)
N10 G90 G94 G17 G91.1
N15 G21
N20 G53 G0 Z0.
(2D POCKET3)
N25 G53 G0 X-200 Y0
N30 T21 M6
N35 T20
N40 S20000 M3
N45 G4 P2.0
N50 G17 G90 G94
N55 G54
N60 G0 X109.019 Y111.299
N65 G43 Z15. H21
N70 G0 Z5.
N75 G1 Z2.5 F333.33
N80 Z-5.33
N85 X109.001 Y111.272 Z-5.613
N90 X108.946 Y111.197 Z-5.881
N95 X108.897 Y111.139 Z-6.001
N100 X108.845 Y111.084 Z-6.122
N105 X108.771 Y111.016 Z-6.222
N110 X108.692 Y110.954 Z-6.323
N115 X108.591 Y110.888 Z-6.399
N120 X108.484 Y110.833 Z-6.474
N125 G2 X108.23 Y110.746 Z-6.568 I-0.534 J1.152
N130 X107.95 Y110.715 Z-6.6 I-0.28 J1.239
N135 G1 X104.684 F3500.
N140 G2 X104.365 Y111.034 I0. J0.319
N145 G1 Y269.966
N150 G2 X104.684 Y270.285 I0.319 J0.
N155 G1 X111.216
N160 G2 X111.535 Y269.966 I0. J-0.319
N165 G1 Y111.034
N170 G2 X111.216 Y110.715 I-0.319 J0.
N175 G1 X107.95
N180 G3 X102.722 Y107.631 I0. J-5.973
N185 G2 X96.845 Y109.147 I-2.743 J1.516
N190 G1 Y277.486
N195 G2 X97.164 Y277.805 I0.319 J0.
N200 G1 X118.736
N205 G2 X119.055 Y277.486 I0. J-0.319
N210 G1 Y103.514
N215 G2 X118.736 Y103.195 I-0.319 J0.
N220 G1 X97.164
N225 G2 X96.845 Y103.514 I0. J0.319
N230 G1 Y109.147
N235 G3 X93.085 Y114.787 I-6.11 J0.
N240 G2 X89.325 Y120.427 I2.35 J5.64
N245 G1 Y285.006
N250 G2 X89.644 Y285.325 I0.319 J0.
N255 G1 X126.256
N260 G2 X126.575 Y285.006 I0. J-0.319
N265 G1 Y95.994
N270 G2 X126.256 Y95.675 I-0.319 J0.
N275 G1 X89.644
N280 G2 X89.325 Y95.994 I0. J0.319
N285 G1 Y120.427
N290 G3 X85.565 Y126.067 I-6.11 J0.
N295 G2 X81.805 Y131.707 I2.35 J5.64
N300 G1 Y292.526
N305 G2 X82.124 Y292.845 I0.319 J0.
N310 G1 X133.776
N315 G2 X134.095 Y292.526 I0. J-0.319
N320 G1 Y88.474
N325 G2 X133.776 Y88.155 I-0.319 J0.
N330 G1 X82.124
N335 G2 X81.805 Y88.474 I0. J0.319
N340 G1 Y131.707
N345 G3 X78.045 Y137.347 I-6.11 J0.
N350 G2 X74.285 Y142.987 I2.35 J5.64
N355 G1 Y300.046
N360 G2 X74.604 Y300.365 I0.319 J0.
N365 G1 X141.296
N370 G2 X141.615 Y300.046 I0. J-0.319
N375 G1 Y80.954
N380 G2 X141.296 Y80.635 I-0.319 J0.
N385 G1 X74.604
N390 G2 X74.285 Y80.954 I0. J0.319
N395 G1 Y142.987
N400 G3 X70.525 Y148.627 I-6.11 J0.
N405 G2 X66.765 Y154.267 I2.35 J5.64
N410 G1 Y307.566
N415 G2 X67.084 Y307.885 I0.319 J0.
N420 G1 X148.816
N425 G2 X149.135 Y307.566 I0. J-0.319
N430 G1 Y73.434
N435 G2 X148.816 Y73.115 I-0.319 J0.
N440 G1 X67.084
N445 G2 X66.765 Y73.434 I0. J0.319
N450 G1 Y154.267
N455 G3 X63.005 Y159.907 I-6.11 J0.
N460 G2 X59.245 Y165.547 I2.35 J5.64
N465 G1 Y315.086
N470 G2 X59.564 Y315.405 I0.319 J0.
N475 G1 X156.336
N480 G2 X156.655 Y315.086 I0. J-0.319
N485 G1 Y65.914
N490 G2 X156.336 Y65.595 I-0.319 J0.
N495 G1 X59.564
N500 G2 X59.245 Y65.914 I0. J0.319
N505 G1 Y165.547
N510 G3 X55.485 Y171.187 I-6.11 J0.
N515 G2 X51.725 Y176.827 I2.35 J5.64
N520 G1 Y322.606
N525 G2 X52.044 Y322.925 I0.319 J0.
N530 G1 X163.856
N535 G2 X164.175 Y322.606 I0. J-0.319
N540 G1 Y58.394
N545 G2 X163.856 Y58.075 I-0.319 J0.
N550 G1 X52.044
N555 G2 X51.725 Y58.394 I0. J0.319
N560 G1 Y176.827
N565 G3 X47.963 Y182.471 I-6.114 J0.
N570 G2 X44.2 Y188.115 I2.352 J5.644
N575 G1 Y330.2
N580 G2 X44.45 Y330.45 I0.25 J0.
N585 G1 X171.45
N590 G2 X171.7 Y330.2 I0. J-0.25
N595 G1 Y50.8
N600 G2 X171.45 Y50.55 I-0.25 J0.
N605 G1 X44.45
N610 G2 X44.2 Y50.8 I0. J0.25
N615 G1 Y188.115
N620 G2 X44.239 Y188.394 Z-6.568 I1.238 J-0.032
N625 X44.334 Y188.644 Z-6.474 I1.199 J-0.311
N630 G1 X44.394 Y188.749 Z-6.399
N635 X44.463 Y188.847 Z-6.323
N640 X44.529 Y188.924 Z-6.222
N645 X44.6 Y188.995 Z-6.122
N650 X44.657 Y189.044 Z-6.001
N655 X44.717 Y189.09 Z-5.881
N660 X44.796 Y189.142 Z-5.613
N665 X44.823 Y189.158 Z-5.33
N670 G0 Z15.
(2D POCKET4)
N675 G0 X100.92 Y260.785
N680 Z15.
N685 Z5.
N690 G1 Z3.769 F333.33
N695 X100.89 Y260.791 Z3.493
N700 X100.802 Y260.809 Z3.23
N705 X100.661 Y260.842 Z2.992
N710 X100.474 Y260.892 Z2.792
N715 X100.252 Y260.959 Z2.639
N720 G2 X100.007 Y261.044 Z2.54 I1.851 J5.741
N725 X99.751 Y261.145 Z2.5 I2.097 J5.656
N730 X104.456 Y272.255 Z1.838 I2.352 J5.555
N735 X99.751 Y261.145 Z1.176 I-2.352 J-5.555
N740 X104.456 Y272.255 Z0.515 I2.352 J5.555
N745 X99.751 Y261.145 Z-0.147 I-2.352 J-5.555
N750 X104.456 Y272.255 Z-0.809 I2.352 J5.555
N755 X99.751 Y261.145 Z-1.471 I-2.352 J-5.555
N760 X104.456 Y272.255 Z-2.133 I2.352 J5.555
N765 X99.751 Y261.145 Z-2.794 I-2.352 J-5.555
N770 X104.456 Y272.255 Z-3.456 I2.352 J5.555
N775 X99.751 Y261.145 Z-4.118 I-2.352 J-5.555
N780 X104.456 Y272.255 Z-4.78 I2.352 J5.555
N785 X99.751 Y261.145 Z-5.442 I-2.352 J-5.555
N790 X104.456 Y272.255 Z-6.103 I2.352 J5.555
N795 X108.136 Y266.7 Z-6.35 I-2.352 J-5.555
N800 G1 Y114.289 F3500.
N805 X108.13 Y114.244
N810 X108.112 Y114.202
N815 X108.085 Y114.165
N820 X108.048 Y114.138
N825 X108.006 Y114.12
N830 X107.961 Y114.114
N835 X107.939
N840 X107.894 Y114.12
N845 X107.852 Y114.138
N850 X107.815 Y114.165
N855 X107.788 Y114.202
N860 X107.77 Y114.244
N865 X107.764 Y114.289
N870 Y266.711
N875 X107.77 Y266.756
N880 X107.788 Y266.798
N885 X107.815 Y266.835
N890 X107.852 Y266.862
N895 X107.894 Y266.88
N900 X107.939 Y266.886
N905 X107.961
N910 X108.006 Y266.88
N915 X108.048 Y266.862
N920 X108.085 Y266.835
N925 X108.112 Y266.798
N930 X108.13 Y266.756
N935 X108.136 Y266.711
N940 Y266.7
N945 G3 X111.59 Y261.518 I5.614 J0.
N950 G2 X115.045 Y256.336 I-2.159 J-5.182
N955 G1 Y107.524
N960 G2 X114.726 Y107.205 I-0.319 J0.
N965 G1 X101.174
N970 G2 X100.855 Y107.524 I0. J0.319
N975 G1 Y273.476
N980 G2 X101.174 Y273.795 I0.319 J0.
N985 G1 X114.726
N990 G2 X115.045 Y273.476 I0. J-0.319
N995 G1 Y256.336
N1000 G3 X118.805 Y250.696 I6.11 J0.
N1005 G2 X122.565 Y245.056 I-2.35 J-5.64
N1010 G1 Y100.004
N1015 G2 X122.246 Y99.685 I-0.319 J0.
N1020 G1 X93.654
N1025 G2 X93.335 Y100.004 I0. J0.319
N1030 G1 Y280.996
N1035 G2 X93.654 Y281.315 I0.319 J0.
N1040 G1 X122.246
N1045 G2 X122.565 Y280.996 I0. J-0.319
N1050 G1 Y245.056
N1055 G3 X126.325 Y239.416 I6.11 J0.
N1060 G2 X130.085 Y233.776 I-2.35 J-5.64
N1065 G1 Y92.484
N1070 G2 X129.766 Y92.165 I-0.319 J0.
N1075 G1 X86.134
N1080 G2 X85.815 Y92.484 I0. J0.319
N1085 G1 Y288.516
N1090 G2 X86.134 Y288.835 I0.319 J0.
N1095 G1 X129.766
N1100 G2 X130.085 Y288.516 I0. J-0.319
N1105 G1 Y233.776
N1110 G3 X133.845 Y228.136 I6.11 J0.
N1115 G2 X137.605 Y222.496 I-2.35 J-5.64
N1120 G1 Y84.964
N1125 G2 X137.286 Y84.645 I-0.319 J0.
N1130 G1 X78.614
N1135 G2 X78.295 Y84.964 I0. J0.319
N1140 G1 Y296.036
N1145 G2 X78.614 Y296.355 I0.319 J0.
N1150 G1 X137.286
N1155 G2 X137.605 Y296.036 I0. J-0.319
N1160 G1 Y222.496
N1165 G3 X141.365 Y216.856 I6.11 J0.
N1170 G2 X145.125 Y211.216 I-2.35 J-5.64
N1175 G1 Y77.444
N1180 G2 X144.806 Y77.125 I-0.319 J0.
N1185 G1 X71.094
N1190 G2 X70.775 Y77.444 I0. J0.319
N1195 G1 Y303.556
N1200 G2 X71.094 Y303.875 I0.319 J0.
N1205 G1 X144.806
N1210 G2 X145.125 Y303.556 I0. J-0.319
N1215 G1 Y211.216
N1220 G3 X148.887 Y205.573 I6.114 J0.
N1225 G2 X152.65 Y199.929 I-2.352 J-5.644
N1230 G1 Y69.6
N1235 X63.25
N1240 Y311.4
N1245 X152.65
N1250 Y199.929
N1255 G2 X152.611 Y199.65 Z-6.318 I-1.238 J0.032
N1260 X152.516 Y199.399 Z-6.224 I-1.199 J0.311
N1265 G1 X152.456 Y199.295 Z-6.149
N1270 X152.387 Y199.196 Z-6.073
N1275 X152.321 Y199.12 Z-5.972
N1280 X152.25 Y199.049 Z-5.872
N1285 X152.193 Y198.999 Z-5.751
N1290 X152.133 Y198.953 Z-5.631
N1295 X152.054 Y198.902 Z-5.363
N1300 X152.027 Y198.886 Z-5.08
N1305 G0 Z5.
N1310 X100.92 Y260.785
N1315 G1 Z-2.581 F333.33
N1320 X100.89 Y260.791 Z-2.857
N1325 X100.802 Y260.809 Z-3.12
N1330 X100.661 Y260.842 Z-3.358
N1335 X100.474 Y260.892 Z-3.558
N1340 X100.252 Y260.959 Z-3.711
N1345 G2 X100.007 Y261.044 Z-3.81 I1.851 J5.741
N1350 X99.751 Y261.145 Z-3.85 I2.097 J5.656
N1355 X104.456 Y272.255 Z-4.512 I2.352 J5.555
N1360 X99.751 Y261.145 Z-5.174 I-2.352 J-5.555
N1365 X104.456 Y272.255 Z-5.835 I2.352 J5.555
N1370 X99.751 Y261.145 Z-6.497 I-2.352 J-5.555
N1375 X104.456 Y272.255 Z-7.159 I2.352 J5.555
N1380 X99.751 Y261.145 Z-7.821 I-2.352 J-5.555
N1385 X104.456 Y272.255 Z-8.483 I2.352 J5.555
N1390 X99.751 Y261.145 Z-9.144 I-2.352 J-5.555
N1395 X104.456 Y272.255 Z-9.806 I2.352 J5.555
N1400 X99.751 Y261.145 Z-10.468 I-2.352 J-5.555
N1405 X104.456 Y272.255 Z-11.13 I2.352 J5.555
N1410 X99.751 Y261.145 Z-11.792 I-2.352 J-5.555
N1415 X104.456 Y272.255 Z-12.453 I2.352 J5.555
N1420 X108.136 Y266.7 Z-12.7 I-2.352 J-5.555
N1425 G1 Y114.289 F3500.
N1430 X108.13 Y114.244
N1435 X108.112 Y114.202
N1440 X108.085 Y114.165
N1445 X108.048 Y114.138
N1450 X108.006 Y114.12
N1455 X107.961 Y114.114
N1460 X107.939
N1465 X107.894 Y114.12
N1470 X107.852 Y114.138
N1475 X107.815 Y114.165
N1480 X107.788 Y114.202
N1485 X107.77 Y114.244
N1490 X107.764 Y114.289
N1495 Y266.711
N1500 X107.77 Y266.756
N1505 X107.788 Y266.798
N1510 X107.815 Y266.835
N1515 X107.852 Y266.862
N1520 X107.894 Y266.88
N1525 X107.939 Y266.886
N1530 X107.961
N1535 X108.006 Y266.88
N1540 X108.048 Y266.862
N1545 X108.085 Y266.835
N1550 X108.112 Y266.798
N1555 X108.13 Y266.756
N1560 X108.136 Y266.711
N1565 Y266.7
N1570 G3 X111.59 Y261.518 I5.614 J0.
N1575 G2 X115.045 Y256.336 I-2.159 J-5.182
N1580 G1 Y107.524
N1585 G2 X114.726 Y107.205 I-0.319 J0.
N1590 G1 X101.174
N1595 G2 X100.855 Y107.524 I0. J0.319
N1600 G1 Y273.476
N1605 G2 X101.174 Y273.795 I0.319 J0.
N1610 G1 X114.726
N1615 G2 X115.045 Y273.476 I0. J-0.319
N1620 G1 Y256.336
N1625 G3 X118.805 Y250.696 I6.11 J0.
N1630 G2 X122.565 Y245.056 I-2.35 J-5.64
N1635 G1 Y100.004
N1640 G2 X122.246 Y99.685 I-0.319 J0.
N1645 G1 X93.654
N1650 G2 X93.335 Y100.004 I0. J0.319
N1655 G1 Y280.996
N1660 G2 X93.654 Y281.315 I0.319 J0.
N1665 G1 X122.246
N1670 G2 X122.565 Y280.996 I0. J-0.319
N1675 G1 Y245.056
N1680 G3 X126.325 Y239.416 I6.11 J0.
N1685 G2 X130.085 Y233.776 I-2.35 J-5.64
N1690 G1 Y92.484
N1695 G2 X129.766 Y92.165 I-0.319 J0.
N1700 G1 X86.134
N1705 G2 X85.815 Y92.484 I0. J0.319
N1710 G1 Y288.516
N1715 G2 X86.134 Y288.835 I0.319 J0.
N1720 G1 X129.766
N1725 G2 X130.085 Y288.516 I0. J-0.319
N1730 G1 Y233.776
N1735 G3 X133.845 Y228.136 I6.11 J0.
N1740 G2 X137.605 Y222.496 I-2.35 J-5.64
N1745 G1 Y84.964
N1750 G2 X137.286 Y84.645 I-0.319 J0.
N1755 G1 X78.614
N1760 G2 X78.295 Y84.964 I0. J0.319
N1765 G1 Y296.036
N1770 G2 X78.614 Y296.355 I0.319 J0.
N1775 G1 X137.286
N1780 G2 X137.605 Y296.036 I0. J-0.319
N1785 G1 Y222.496
N1790 G3 X141.365 Y216.856 I6.11 J0.
N1795 G2 X145.125 Y211.216 I-2.35 J-5.64
N1800 G1 Y77.444
N1805 G2 X144.806 Y77.125 I-0.319 J0.
N1810 G1 X71.094
N1815 G2 X70.775 Y77.444 I0. J0.319
N1820 G1 Y303.556
N1825 G2 X71.094 Y303.875 I0.319 J0.
N1830 G1 X144.806
N1835 G2 X145.125 Y303.556 I0. J-0.319
N1840 G1 Y211.216
N1845 G3 X148.887 Y205.573 I6.114 J0.
N1850 G2 X152.65 Y199.929 I-2.352 J-5.644
N1855 G1 Y69.6
N1860 X63.25
N1865 Y311.4
N1870 X152.65
N1875 Y199.929
N1880 G2 X152.611 Y199.65 Z-12.668 I-1.238 J0.032
N1885 X152.516 Y199.399 Z-12.574 I-1.199 J0.311
N1890 G1 X152.456 Y199.295 Z-12.499
N1895 X152.387 Y199.196 Z-12.423
N1900 X152.321 Y199.12 Z-12.322
N1905 X152.25 Y199.049 Z-12.222
N1910 X152.193 Y198.999 Z-12.101
N1915 X152.133 Y198.953 Z-11.981
N1920 X152.054 Y198.902 Z-11.713
N1925 X152.027 Y198.886 Z-11.43
N1930 G0 Z5.
N1935 X100.92 Y260.785
N1940 G1 Z-8.931 F333.33
N1945 X100.89 Y260.791 Z-9.207
N1950 X100.802 Y260.809 Z-9.47
N1955 X100.661 Y260.842 Z-9.708
N1960 X100.474 Y260.892 Z-9.908
N1965 X100.252 Y260.959 Z-10.061
N1970 G2 X100.007 Y261.044 Z-10.16 I1.851 J5.741
N1975 X99.751 Y261.145 Z-10.2 I2.097 J5.656
N1980 X104.456 Y272.255 Z-10.862 I2.352 J5.555
N1985 X99.751 Y261.145 Z-11.524 I-2.352 J-5.555
N1990 X104.456 Y272.255 Z-12.185 I2.352 J5.555
N1995 X99.751 Y261.145 Z-12.847 I-2.352 J-5.555
N2000 X104.456 Y272.255 Z-13.509 I2.352 J5.555
N2005 X99.751 Y261.145 Z-14.171 I-2.352 J-5.555
N2010 X104.456 Y272.255 Z-14.833 I2.352 J5.555
N2015 X99.751 Y261.145 Z-15.494 I-2.352 J-5.555
N2020 X104.456 Y272.255 Z-16.156 I2.352 J5.555
N2025 X99.751 Y261.145 Z-16.818 I-2.352 J-5.555
N2030 X104.456 Y272.255 Z-17.48 I2.352 J5.555
N2035 X99.751 Y261.145 Z-18.142 I-2.352 J-5.555
N2040 X104.456 Y272.255 Z-18.803 I2.352 J5.555
N2045 X108.136 Y266.7 Z-19.05 I-2.352 J-5.555
N2050 G1 Y114.289 F3500.
N2055 X108.13 Y114.244
N2060 X108.112 Y114.202
N2065 X108.085 Y114.165
N2070 X108.048 Y114.138
N2075 X108.006 Y114.12
N2080 X107.961 Y114.114
N2085 X107.939
N2090 X107.894 Y114.12
N2095 X107.852 Y114.138
N2100 X107.815 Y114.165
N2105 X107.788 Y114.202
N2110 X107.77 Y114.244
N2115 X107.764 Y114.289
N2120 Y266.711
N2125 X107.77 Y266.756
N2130 X107.788 Y266.798
N2135 X107.815 Y266.835
N2140 X107.852 Y266.862
N2145 X107.894 Y266.88
N2150 X107.939 Y266.886
N2155 X107.961
N2160 X108.006 Y266.88
N2165 X108.048 Y266.862
N2170 X108.085 Y266.835
N2175 X108.112 Y266.798
N2180 X108.13 Y266.756
N2185 X108.136 Y266.711
N2190 Y266.7
N2195 G3 X111.59 Y261.518 I5.614 J0.
N2200 G2 X115.045 Y256.336 I-2.159 J-5.182
N2205 G1 Y107.524
N2210 G2 X114.726 Y107.205 I-0.319 J0.
N2215 G1 X101.174
N2220 G2 X100.855 Y107.524 I0. J0.319
N2225 G1 Y273.476
N2230 G2 X101.174 Y273.795 I0.319 J0.
N2235 G1 X114.726
N2240 G2 X115.045 Y273.476 I0. J-0.319
N2245 G1 Y256.336
N2250 G3 X118.805 Y250.696 I6.11 J0.
N2255 G2 X122.565 Y245.056 I-2.35 J-5.64
N2260 G1 Y100.004
N2265 G2 X122.246 Y99.685 I-0.319 J0.
N2270 G1 X93.654
N2275 G2 X93.335 Y100.004 I0. J0.319
N2280 G1 Y280.996
N2285 G2 X93.654 Y281.315 I0.319 J0.
N2290 G1 X122.246
N2295 G2 X122.565 Y280.996 I0. J-0.319
N2300 G1 Y245.056
N2305 G3 X126.325 Y239.416 I6.11 J0.
N2310 G2 X130.085 Y233.776 I-2.35 J-5.64
N2315 G1 Y92.484
N2320 G2 X129.766 Y92.165 I-0.319 J0.
N2325 G1 X86.134
N2330 G2 X85.815 Y92.484 I0. J0.319
N2335 G1 Y288.516
N2340 G2 X86.134 Y288.835 I0.319 J0.
N2345 G1 X129.766
N2350 G2 X130.085 Y288.516 I0. J-0.319
N2355 G1 Y233.776
N2360 G3 X133.845 Y228.136 I6.11 J0.
N2365 G2 X137.605 Y222.496 I-2.35 J-5.64
N2370 G1 Y84.964
N2375 G2 X137.286 Y84.645 I-0.319 J0.
N2380 G1 X78.614
N2385 G2 X78.295 Y84.964 I0. J0.319
N2390 G1 Y296.036
N2395 G2 X78.614 Y296.355 I0.319 J0.
N2400 G1 X137.286
N2405 G2 X137.605 Y296.036 I0. J-0.319
N2410 G1 Y222.496
N2415 G3 X141.365 Y216.856 I6.11 J0.
N2420 G2 X145.125 Y211.216 I-2.35 J-5.64
N2425 G1 Y77.444
N2430 G2 X144.806 Y77.125 I-0.319 J0.
N2435 G1 X71.094
N2440 G2 X70.775 Y77.444 I0. J0.319
N2445 G1 Y303.556
N2450 G2 X71.094 Y303.875 I0.319 J0.
N2455 G1 X144.806
N2460 G2 X145.125 Y303.556 I0. J-0.319
N2465 G1 Y211.216
N2470 G3 X148.887 Y205.573 I6.114 J0.
N2475 G2 X152.65 Y199.929 I-2.352 J-5.644
N2480 G1 Y69.6
N2485 X63.25
N2490 Y311.4
N2495 X152.65
N2500 Y199.929
N2505 G2 X152.611 Y199.65 Z-19.018 I-1.238 J0.032
N2510 X152.516 Y199.399 Z-18.924 I-1.199 J0.311
N2515 G1 X152.456 Y199.295 Z-18.849
N2520 X152.387 Y199.196 Z-18.773
N2525 X152.321 Y199.12 Z-18.672
N2530 X152.25 Y199.049 Z-18.572
N2535 X152.193 Y198.999 Z-18.451
N2540 X152.133 Y198.953 Z-18.331
N2545 X152.054 Y198.902 Z-18.063
N2550 X152.027 Y198.886 Z-17.78
N2555 G0 Z15.
N2560 M5
N2565 G53 G0 Z0.
(2D CONTOUR3)
N2570 G53 G0 X-200 Y0
N2575 M1
N2580 T20 M6
N2585 T21
N2590 S18500 M3
N2595 G4 P2.0
N2600 G17 G90 G94
N2605 G54
N2610 G0 X153.92 Y114.935
N2615 G43 Z15. H20
N2620 G0 Z5.
N2625 G1 Z1. F333.33
N2630 Z-5.715
N2635 G18 G2 X154.555 Z-6.35 I0.635 K0. F2500.
N2640 G1 X155.19
N2645 G17 G2 X155.825 Y114.3 I0. J-0.635
N2650 G1 Y66.675 F1000.
N2655 G2 X155.575 Y66.425 I-0.25 J0.
N2660 G1 X60.325
N2665 G2 X60.075 Y66.675 I0. J0.25
N2670 G1 Y314.325
N2675 G2 X60.325 Y314.575 I0.25 J0.
N2680 G1 X155.575
N2685 G2 X155.825 Y314.325 I0. J-0.25
N2690 G1 Y114.3
N2695 G2 X155.19 Y113.665 I-0.635 J0.
N2700 G1 X154.555
N2705 G18 G3 X153.92 Z-5.715 I0. K0.635
N2710 G1 Y114.935
N2715 Z-12.065 F333.33
N2720 G2 X154.555 Z-12.7 I0.635 K0. F2500.
N2725 G1 X155.19
N2730 G17 G2 X155.825 Y114.3 I0. J-0.635
N2735 G1 Y66.675 F1000.
N2740 G2 X155.575 Y66.425 I-0.25 J0.
N2745 G1 X60.325
N2750 G2 X60.075 Y66.675 I0. J0.25
N2755 G1 Y314.325
N2760 G2 X60.325 Y314.575 I0.25 J0.
N2765 G1 X155.575
N2770 G2 X155.825 Y314.325 I0. J-0.25
N2775 G1 Y114.3
N2780 G2 X155.19 Y113.665 I-0.635 J0.
N2785 G1 X154.555
N2790 G18 G3 X153.92 Z-12.065 I0. K0.635
N2795 G1 Y114.935
N2800 Z-18.415 F333.33
N2805 G2 X154.555 Z-19.05 I0.635 K0. F2500.
N2810 G1 X155.19
N2815 G17 G2 X155.825 Y114.3 I0. J-0.635
N2820 G1 Y66.675 F1000.
N2825 G2 X155.575 Y66.425 I-0.25 J0.
N2830 G1 X60.325
N2835 G2 X60.075 Y66.675 I0. J0.25
N2840 G1 Y314.325
N2845 G2 X60.325 Y314.575 I0.25 J0.
N2850 G1 X155.575
N2855 G2 X155.825 Y314.325 I0. J-0.25
N2860 G1 Y114.3
N2865 G2 X155.19 Y113.665 I-0.635 J0.
N2870 G1 X154.555
N2875 G18 G3 X153.92 Z-18.415 I0. K0.635
N2880 G0 Z15.
N2885 G17
N2890 G53 G0 Z0.
N2895 G53 G0 X-200 Y-150
N2900 M30
%
