%
(TOPGROOVE)
(MACHINE)
(  VENDOR AUTODESK)
(  MODEL GENERIC 3-AXIS ROUTER)
(  DESCRIPTION THIS MACHINE HAS XYZ AXIS ON THE HEAD)
(T23 D=6.35 CR=0. TAPER=30DEG - ZMIN=-1.587 - CHAMFER MILL)
N10 G90 G94 G17 G91.1
N15 G21
N20 G53 G0 Z0.
(TRACE1)
N25 G53 G0 X-200 Y0
N30 T23 M6
N35 S18000 M3
N40 G4 P2.0
N45 G17 G90 G94
N50 G54
N55 G0 X165.1 Y63.5
N60 G43 Z15. H23
N65 G0 Z5.
N70 G1 Z-1.587 F333.33
N75 Y317.5 F2032.
N80 X165.08 Y317.998
N85 X165.022 Y318.493
N90 X164.925 Y318.982
N95 X164.789 Y319.462
N100 X164.617 Y319.93
N105 X164.408 Y320.383
N110 X164.164 Y320.818
N115 X163.887 Y321.232
N120 X163.579 Y321.624
N125 X163.24 Y321.99
N130 X162.874 Y322.329
N135 X162.482 Y322.637
N140 X162.068 Y322.914
N145 X161.633 Y323.158
N150 X161.18 Y323.367
N155 X160.712 Y323.539
N160 X160.232 Y323.675
N165 X159.743 Y323.772
N170 X159.248 Y323.83
N175 X158.75 Y323.85
N180 X57.15
N185 X56.652 Y323.83
N190 X56.157 Y323.772
N195 X55.668 Y323.675
N200 X55.188 Y323.539
N205 X54.72 Y323.367
N210 X54.267 Y323.158
N215 X53.832 Y322.914
N220 X53.418 Y322.637
N225 X53.026 Y322.329
N230 X52.66 Y321.99
N235 X52.321 Y321.624
N240 X52.013 Y321.232
N245 X51.736 Y320.818
N250 X51.492 Y320.383
N255 X51.283 Y319.93
N260 X51.111 Y319.462
N265 X50.975 Y318.982
N270 X50.878 Y318.493
N275 X50.82 Y317.998
N280 X50.8 Y317.5
N285 Y63.5
N290 X50.82 Y63.002
N295 X50.878 Y62.507
N300 X50.975 Y62.018
N305 X51.111 Y61.538
N310 X51.283 Y61.07
N315 X51.492 Y60.617
N320 X51.736 Y60.182
N325 X52.013 Y59.768
N330 X52.321 Y59.376
N335 X52.66 Y59.01
N340 X53.026 Y58.671
N345 X53.418 Y58.363
N350 X53.832 Y58.086
N355 X54.267 Y57.842
N360 X54.72 Y57.633
N365 X55.188 Y57.461
N370 X55.668 Y57.326
N375 X56.157 Y57.228
N380 X56.652 Y57.17
N385 X57.15 Y57.15
N390 X158.75
N395 X159.248 Y57.17
N400 X159.743 Y57.228
N405 X160.232 Y57.326
N410 X160.712 Y57.461
N415 X161.18 Y57.633
N420 X161.633 Y57.842
N425 X162.068 Y58.086
N430 X162.482 Y58.363
N435 X162.874 Y58.671
N440 X163.24 Y59.01
N445 X163.579 Y59.376
N450 X163.887 Y59.768
N455 X164.164 Y60.182
N460 X164.408 Y60.617
N465 X164.617 Y61.07
N470 X164.789 Y61.538
N475 X164.925 Y62.018
N480 X165.022 Y62.507
N485 X165.08 Y63.002
N490 X165.1 Y63.5
N495 Z5.
N500 G0 Z15.
N505 G53 G0 Z0.
N510 G53 G0 X-200 Y-150
N515 M30
%
