%
(1010)
(COVER)
(MACHINE)
(  VENDOR AUTODESK)
(  MODEL GENERIC 3-AXIS ROUTER)
(  DESCRIPTION THIS MACHINE HAS XYZ AXIS ON THE HEAD)
(T20 D=6.35 CR=0. - ZMIN=0. - FLAT END MILL)
N10 G90 G94 G17 G91.1
N20 T20 M6
N25 S18000 M3
N30 G53 G0 Z0.0
(2D ADAPTIVE2 - FACING OPERATION)
N35 G17 G90 G94
N40 G54
N45 G0 X-0.655 Y-7.276
N50 G43 Z-27. H1
N55 G0 Z-22.
N60 G0 Z-11.27
N65 G1 Z-10.635 F3000
N70 X-0.653 Y-7.268 Z-10.536
N75 X-0.647 Y-7.246 Z-10.439
N80 X-0.638 Y-7.209 Z-10.347
N85 X-0.625 Y-7.158 Z-10.262
N90 X-0.609 Y-7.096 Z-10.186
N95 X-0.59 Y-7.022 Z-10.121
N100 X-0.569 Y-6.94 Z-10.069
N105 X-0.546 Y-6.851 Z-10.031
N110 X-0.522 Y-6.757 Z-10.008
N115 X-0.497 Y-6.661 Z-10.
N120 G1 X0. Y-3.204
N125 G1 Y-3.09 F3000
N130 X-0.05 Y-2.179
N135 X-0.086 Y-1.268
N140 X-0.112 Y-0.357
N145 X-0.13 Y0.555
N150 X-0.143 Y1.467
N155 X-0.152 Y2.378
N160 X-0.159 Y3.29
N165 X-0.163 Y4.202
N170 X-0.169 Y6.026
N175 X-0.173 Y8.761
N180 X-0.175 Y14.232
N185 Y47.057
N190 Y97.207
N195 Y147.357
N200 Y197.506
N205 Y243.097
N210 X-0.161 Y243.324
N215 X-0.103 Y243.545
N220 X0.096 Y243.955
N225 X0.689 Y244.648
N230 X1.449 Y245.151
N235 X2.286 Y245.513
N240 X3.16 Y245.773
N245 X4.053 Y245.96
N250 X4.955 Y246.093
N255 X5.861 Y246.188
N260 X6.771 Y246.256
N265 X7.681 Y246.305
N270 X8.592 Y246.339
N275 X9.504 Y246.364
N280 X10.416 Y246.381
N285 X11.327 Y246.394
N290 X12.239 Y246.403
N295 X13.151 Y246.409
N300 X14.063 Y246.414
N305 X15.886 Y246.419
N310 X18.622 Y246.423
N315 X24.093 Y246.425
N320 X53.271
N325 X103.42
N330 X153.57
N335 X203.72
N340 X238.141
N345 X238.366 Y246.391
N350 X238.796 Y246.238
N355 X239.531 Y245.699
N360 X240.066 Y244.961
N365 X240.452 Y244.135
N370 X240.73 Y243.266
N375 X240.928 Y242.376
N380 X241.071 Y241.476
N385 X241.172 Y240.57
N390 X241.245 Y239.661
N395 X241.297 Y238.75
N400 X241.333 Y237.839
N405 X241.36 Y236.928
N410 X241.379 Y236.016
N415 X241.392 Y235.105
N420 X241.401 Y234.193
N425 X241.408 Y233.281
N430 X241.413 Y232.369
N435 X241.416 Y231.457
N440 X241.421 Y229.634
N445 X241.423 Y226.898
N450 X241.425 Y219.604
N455 Y181.308
N460 Y131.158
N465 Y81.008
N470 Y30.859
N475 Y3.048
N480 X241.322 Y2.604
N485 X240.842 Y1.829
N490 X240.127 Y1.263
N495 X239.312 Y0.855
N500 X238.448 Y0.561
N505 X237.561 Y0.351
N510 X236.662 Y0.2
N515 X235.756 Y0.093
N520 X234.848 Y0.016
N525 X233.938 Y-0.039
N530 X233.027 Y-0.078
N535 X232.115 Y-0.106
N540 X231.204 Y-0.126
N545 X230.292 Y-0.14
N550 X229.38 Y-0.15
N555 X228.468 Y-0.157
N560 X227.557 Y-0.162
N565 X226.645 Y-0.166
N570 X224.821 Y-0.17
N575 X222.086 Y-0.173
N580 X220.262 Y-0.174
N585 X201.114 Y-0.175
N590 X170.112
N595 X119.963
N600 X69.813
N605 X19.663
N610 X5.986
N615 X5.554 Y-0.029
N620 X4.799 Y0.483
N625 X4.247 Y1.208
N630 X3.846 Y2.027
N635 X3.558 Y2.892
N640 X3.35 Y3.78
N645 X3.201 Y4.679
N650 X3.094 Y5.585
N655 X3.017 Y6.494
N660 X2.963 Y7.404
N665 X2.923 Y8.315
N670 X2.895 Y9.226
N675 X2.875 Y10.138
N680 X2.861 Y11.049
N685 X2.851 Y11.961
N690 X2.843 Y12.873
N695 X2.838 Y13.785
N700 X2.834 Y14.696
N705 X2.83 Y16.52
N710 X2.827 Y19.256
N715 X2.825 Y26.55
N720 Y35.668
N725 Y85.818
N730 Y135.968
N735 Y186.117
N740 Y236.267
N745 Y239.458
N750 X2.897 Y239.909
N755 X3.25 Y240.749
N760 X3.868 Y241.42
N765 X4.622 Y241.933
N770 X5.447 Y242.319
N775 X6.312 Y242.609
N780 X7.198 Y242.824
N785 X8.096 Y242.983
N790 X9. Y243.1
N795 X9.908 Y243.187
N800 X10.817 Y243.251
N805 X11.728 Y243.297
N810 X12.639 Y243.332
N815 X13.551 Y243.357
N820 X14.462 Y243.375
N825 X15.374 Y243.389
N830 X16.286 Y243.398
N835 X17.198 Y243.406
N840 X18.109 Y243.411
N845 X19.021 Y243.415
N850 X20.845 Y243.42
N855 X23.58 Y243.423
N860 X29.963 Y243.425
N865 X48.199
N870 X98.349
N875 X148.499
N880 X198.648
N885 X234.209
N890 X234.665 Y243.42
N895 X235.104 Y243.297
N900 X235.911 Y242.872
N905 X236.544 Y242.216
N910 X237.028 Y241.443
N915 X237.391 Y240.607
N920 X237.662 Y239.736
N925 X237.863 Y238.847
N930 X238.012 Y237.948
N935 X238.122 Y237.042
N940 X238.203 Y236.134
N945 X238.262 Y235.224
N950 X238.306 Y234.313
N955 X238.338 Y233.402
N960 X238.361 Y232.491
N965 X238.379 Y231.579
N970 X238.391 Y230.667
N975 X238.4 Y229.756
N980 X238.407 Y228.844
N985 X238.412 Y227.932
N990 X238.418 Y226.108
N995 X238.422 Y223.373
N1000 X238.424 Y218.814
N1005 X238.425 Y180.518
N1010 Y130.368
N1015 Y80.218
N1020 Y30.069
N1025 Y6.817
N1030 X238.363 Y6.366
N1035 X238.194 Y5.942
N1040 X237.703 Y5.174
N1045 X237.013 Y4.577
N1050 X236.222 Y4.125
N1055 X235.375 Y3.786
N1060 X234.499 Y3.533
N1065 X233.607 Y3.346
N1070 X232.705 Y3.207
N1075 X231.799 Y3.106
N1080 X230.891 Y3.031
N1085 X229.98 Y2.975
N1090 X229.07 Y2.935
N1095 X228.158 Y2.905
N1100 X227.247 Y2.884
N1105 X226.335 Y2.868
N1110 X225.423 Y2.856
N1115 X224.511 Y2.848
N1120 X223.6 Y2.842
N1125 X222.688 Y2.837
N1130 X220.864 Y2.831
N1135 X218.129 Y2.827
N1140 X212.658 Y2.825
N1145 X162.508
N1150 X112.358
N1155 X62.209
N1160 X12.059
N1165 X9.779
N1170 X9.33 Y2.904
N1175 X8.492 Y3.263
N1180 X7.826 Y3.885
N1185 X7.315 Y4.64
N1190 X6.929 Y5.467
N1195 X6.641 Y6.332
N1200 X6.427 Y7.218
N1205 X6.268 Y8.116
N1210 X6.151 Y9.02
N1215 X6.064 Y9.928
N1220 X6. Y10.837
N1225 X5.953 Y11.748
N1230 X5.919 Y12.659
N1235 X5.894 Y13.571
N1240 X5.875 Y14.482
N1245 X5.862 Y15.394
N1250 X5.852 Y16.306
N1255 X5.845 Y17.218
N1260 X5.839 Y18.129
N1265 X5.835 Y19.041
N1270 X5.831 Y20.865
N1275 X5.827 Y23.6
N1280 X5.825 Y29.983
N1285 Y49.131
N1290 Y99.281
N1295 Y149.43
N1300 Y199.58
N1305 Y236.053
N1310 X5.863 Y236.507
N1315 X5.999 Y236.942
N1320 X6.425 Y237.748
N1325 X7.069 Y238.394
N1330 X7.831 Y238.895
N1335 X8.659 Y239.277
N1340 X9.523 Y239.567
N1345 X10.409 Y239.785
N1350 X11.306 Y239.948
N1355 X12.209 Y240.07
N1360 X13.116 Y240.162
N1365 X14.026 Y240.23
N1370 X14.936 Y240.28
N1375 X15.847 Y240.318
N1380 X16.759 Y240.346
N1385 X17.67 Y240.366
N1390 X18.582 Y240.382
N1395 X19.494 Y240.393
N1400 X20.405 Y240.401
N1405 X21.317 Y240.408
N1410 X22.229 Y240.412
N1415 X24.053 Y240.418
N1420 X26.788 Y240.422
N1425 X31.347 Y240.424
N1430 X67.82 Y240.425
N1435 X117.969
N1440 X168.119
N1445 X218.269
N1450 X231.034
N1455 X231.489 Y240.39
N1460 X231.925 Y240.258
N1465 X232.734 Y239.836
N1470 X233.383 Y239.197
N1475 X233.886 Y238.436
N1480 X234.271 Y237.609
N1485 X234.561 Y236.745
N1490 X234.78 Y235.86
N1495 X234.945 Y234.963
N1500 X235.068 Y234.06
N1505 X235.16 Y233.152
N1510 X235.228 Y232.243
N1515 X235.279 Y231.333
N1520 X235.317 Y230.422
N1525 X235.345 Y229.51
N1530 X235.366 Y228.599
N1535 X235.381 Y227.687
N1540 X235.393 Y226.775
N1545 X235.401 Y225.864
N1550 X235.407 Y224.952
N1555 X235.412 Y224.04
N1560 X235.418 Y222.216
N1565 X235.422 Y219.481
N1570 X235.424 Y214.922
N1575 X235.425 Y204.892
N1580 Y154.742
N1585 Y104.592
N1590 Y54.443
N1595 Y9.764
N1600 X235.29 Y9.328
N1605 X234.867 Y8.521
N1610 X234.226 Y7.873
N1615 X233.466 Y7.368
N1620 X232.639 Y6.983
N1625 X231.776 Y6.692
N1630 X230.891 Y6.472
N1635 X229.994 Y6.308
N1640 X229.09 Y6.184
N1645 X228.183 Y6.092
N1650 X227.274 Y6.023
N1655 X226.364 Y5.972
N1660 X225.453 Y5.934
N1665 X224.541 Y5.906
N1670 X223.63 Y5.885
N1675 X222.718 Y5.869
N1680 X221.806 Y5.858
N1685 X220.894 Y5.849
N1690 X219.983 Y5.843
N1695 X219.071 Y5.838
N1700 X217.247 Y5.832
N1705 X214.512 Y5.828
N1710 X209.953 Y5.826
N1715 X180.775 Y5.825
N1720 X130.625
N1725 X80.475
N1730 X30.326
N1735 X13.001
N1740 X12.553 Y5.908
N1745 X11.708 Y6.252
N1750 X11.02 Y6.85
N1755 X10.483 Y7.586
N1760 X10.071 Y8.4
N1765 X9.758 Y9.257
N1770 X9.635 Y9.718
N1775 X9.589 Y9.856
N1780 X9.529 Y9.987
N1785 X9.454 Y10.111
N1790 X9.313 Y10.318
N1795 X9.19 Y10.526
N1800 X9.072 Y10.779
N1805 X9.012 Y10.94
N1810 X8.944 Y11.147
N1815 X8.894 Y11.354
N1820 X8.865 Y11.524
N1825 X8.859 Y11.561
N1830 X8.84 Y11.769
N1835 X8.829 Y12.183
N1840 X8.825 Y12.39
N1845 Y233.86
N1850 X8.829 Y234.067
N1855 X8.84 Y234.481
N1860 X8.859 Y234.689
N1865 X8.865 Y234.726
N1870 X8.894 Y234.896
N1875 X8.944 Y235.103
N1880 X9.012 Y235.31
N1885 X9.072 Y235.471
N1890 X9.19 Y235.724
N1895 X9.313 Y235.932
N1900 X9.454 Y236.139
N1905 X9.486 Y236.181
N1910 X9.626 Y236.346
N1915 X9.901 Y236.623
N1920 X10.064 Y236.76
N1925 X10.108 Y236.794
N1930 X10.315 Y236.934
N1935 X10.522 Y237.059
N1940 X10.771 Y237.175
N1945 X10.936 Y237.237
N1950 X11.144 Y237.304
N1955 X11.351 Y237.356
N1960 X11.503 Y237.382
N1965 X11.558 Y237.39
N1970 X11.765 Y237.409
N1975 X12.179 Y237.421
N1980 X12.386 Y237.425
N1985 X228.864
N1990 X229.071 Y237.421
N1995 X229.485 Y237.409
N2000 X229.692 Y237.39
N2005 X229.747 Y237.382
N2010 X229.899 Y237.356
N2015 X230.106 Y237.304
N2020 X230.314 Y237.237
N2025 X230.479 Y237.175
N2030 X230.728 Y237.059
N2035 X230.935 Y236.934
N2040 X231.142 Y236.794
N2045 X231.186 Y236.76
N2050 X231.349 Y236.623
N2055 X231.624 Y236.346
N2060 X231.764 Y236.181
N2065 X231.796 Y236.139
N2070 X231.937 Y235.932
N2075 X232.06 Y235.724
N2080 X232.178 Y235.471
N2085 X232.238 Y235.31
N2090 X232.306 Y235.103
N2095 X232.356 Y234.896
N2100 X232.385 Y234.726
N2105 X232.391 Y234.689
N2110 X232.41 Y234.481
N2115 X232.421 Y234.067
N2120 X232.425 Y233.86
N2125 Y12.39
N2130 X232.421 Y12.183
N2135 X232.41 Y11.769
N2140 X232.391 Y11.561
N2145 X232.385 Y11.524
N2150 X232.356 Y11.354
N2155 X232.306 Y11.147
N2160 X232.238 Y10.94
N2165 X232.178 Y10.779
N2170 X232.06 Y10.526
N2175 X231.937 Y10.318
N2180 X231.796 Y10.111
N2185 X231.764 Y10.069
N2190 X231.624 Y9.904
N2195 X231.349 Y9.627
N2200 X231.186 Y9.49
N2205 X231.142 Y9.456
N2210 X230.935 Y9.316
N2215 X230.728 Y9.191
N2220 X230.479 Y9.075
N2225 X230.314 Y9.013
N2230 X230.106 Y8.946
N2235 X229.899 Y8.894
N2240 X229.747 Y8.868
N2245 X229.692 Y8.86
N2250 X229.485 Y8.841
N2255 X229.071 Y8.829
N2260 X228.864 Y8.825
N2265 X12.386
N2270 X12.179 Y8.829
N2275 G1 X11.587 Y8.392 F3000
N2280 G1 X11.556 Y8.297 Z10.008
N2285 X11.526 Y8.205 Z10.031
N2290 X11.497 Y8.118 Z10.069
N2295 X11.471 Y8.037 Z10.121
N2300 X11.447 Y7.965 Z10.186
N2305 X11.427 Y7.903 Z10.262
N2310 X11.411 Y7.854 Z10.347
N2315 X11.399 Y7.818 Z10.439
N2320 X11.391 Y7.796 Z10.536
N2325 X11.389 Y7.788 Z10.635
N2330 G0 Z32.
N2335 G53 G0 Z0.
N2340 G53 G0 X0. Y0.
N2345 M30
%
