%
(1010)
(COVER)
(MACHINE)
(  VENDOR AUTODESK)
(  MODEL GENERIC 3-AXIS ROUTER)
(  DESCRIPTION THIS MACHINE HAS XYZ AXIS ON THE HEAD)
(T20 D=6.35 CR=0. - ZMIN=0. - FLAT END MILL)
N10 G90 G94 G17 G91.1
N15 G11
N20 T20 M6
N25 G53 G0 Z0.
(2D CONTOUR2)
N30 S18000 M3
N35 G17 G90 G94
N40 G54
N45 G0 X41.625 Y251.33
N50 G43 Z27. H1
N55 G0 Z17.
N60 G1 Z15.135 F3000
N65 G1 Y250.695 Z14.5 F3000
N70 G1 Y250.06
N75 G1 X42.26 Y249.425
N80 S18000
N85 G1 X241.25 Z13.5
N90 G1 X244.425 Y246.25 Z13.475
N95 G1 Y0. Z12.237
N100 G1 X241.25 Y-3.175 Z12.212
N105 G1 X0. Z11.
N110 G1 X-3.175 Y0. Z10.975
N115 G1 Y246.25 Z9.737
N120 G1 X0. Y249.425 Z9.712
N125 G1 X241.25 Z8.5
N130 G1 X244.425 Y246.25 Z8.475
N135 G1 Y0. Z7.237
N140 G1 X241.25 Y-3.175 Z7.212
N145 G1 X0. Z6.
N150 S18000
N155 G1 X-3.175 Y0. F3000
N160 G1 Y246.25
N165 G1 X0. Y249.425
N170 G1 X241.25
N175 G1 X244.425 Y246.25
N180 G1 Y0.
N185 G1 X241.25 Y-3.175
N190 G1 X0.
N195 S18000
N200 G1 X-3.175 Y0. Z5.975 F3000
N205 G1 Y246.25 Z4.737
N210 G1 X0. Y249.425 Z4.712
N215 G1 X241.25 Z3.5
N220 G1 X244.425 Y246.25 Z3.475
N225 G1 Y0. Z2.237
N230 G1 X241.25 Y-3.175 Z2.212
N235 G1 X0. Z1.
N240 G1 X-3.175 Y0. Z0.975
N245 G1 Y194.003 Z0.
N250 S18000
N255 Y246.25 F3000
N260 G1 X0. Y249.425 
N265 G1 X241.25
N270 G1 X244.425 Y246.25
N275 G1 Y0.
N280 G1 X241.25 Y-3.175
N285 G1 X0.
N290 G1 X-3.175 Y0.
N295 G1 Y194.003
N300 G1 X-3.81 Y194.638 F3000
N305 G1 X-4.445
N310 G18 G1 X-5.08 Z0.635
N315 G1 Z17.
N320 G0 Z27.
N325 G17
(2D ADAPTIVE2)
N330 G0 Z32.
N335 X-0.655 Y-7.276
N340 Z22.
N345 Z11.27
N350 G1 Z10.635 F3000
N355 X-0.653 Y-7.268 Z10.536
N360 X-0.647 Y-7.246 Z10.439
N365 X-0.638 Y-7.209 Z10.347
N370 X-0.625 Y-7.158 Z10.262
N375 X-0.609 Y-7.096 Z10.186
N380 X-0.59 Y-7.022 Z10.121
N385 X-0.569 Y-6.94 Z10.069
N390 X-0.546 Y-6.851 Z10.031
N395 X-0.522 Y-6.757 Z10.008
N400 X-0.497 Y-6.661 Z10.
N405 G1 X0. Y-3.204
N410 G1 Y-3.09 F3000
N415 X-0.05 Y-2.179
N420 X-0.086 Y-1.268
N425 X-0.112 Y-0.357
N430 X-0.13 Y0.555
N435 X-0.143 Y1.467
N440 X-0.152 Y2.378
N445 X-0.159 Y3.29
N450 X-0.163 Y4.202
N455 X-0.169 Y6.026
N460 X-0.173 Y8.761
N465 X-0.175 Y14.232
N470 Y47.057
N475 Y97.207
N480 Y147.357
N485 Y197.506
N490 Y243.097
N495 X-0.161 Y243.324
N500 X-0.103 Y243.545
N505 X0.096 Y243.955
N510 X0.689 Y244.648
N515 X1.449 Y245.151
N520 X2.286 Y245.513
N525 X3.16 Y245.773
N530 X4.053 Y245.96
N535 X4.955 Y246.093
N540 X5.861 Y246.188
N545 X6.771 Y246.256
N550 X7.681 Y246.305
N555 X8.592 Y246.339
N560 X9.504 Y246.364
N565 X10.416 Y246.381
N570 X11.327 Y246.394
N575 X12.239 Y246.403
N580 X13.151 Y246.409
N585 X14.063 Y246.414
N590 X15.886 Y246.419
N595 X18.622 Y246.423
N600 X24.093 Y246.425
N605 X53.271
N610 X103.42
N615 X153.57
N620 X203.72
N625 X238.141
N630 X238.366 Y246.391
N635 X238.796 Y246.238
N640 X239.531 Y245.699
N645 X240.066 Y244.961
N650 X240.452 Y244.135
N655 X240.73 Y243.266
N660 X240.928 Y242.376
N665 X241.071 Y241.476
N670 X241.172 Y240.57
N675 X241.245 Y239.661
N680 X241.297 Y238.75
N685 X241.333 Y237.839
N690 X241.36 Y236.928
N695 X241.379 Y236.016
N700 X241.392 Y235.105
N705 X241.401 Y234.193
N710 X241.408 Y233.281
N715 X241.413 Y232.369
N720 X241.416 Y231.457
N725 X241.421 Y229.634
N730 X241.423 Y226.898
N735 X241.425 Y219.604
N740 Y181.308
N745 Y131.158
N750 Y81.008
N755 Y30.859
N760 Y3.048
N765 X241.322 Y2.604
N770 X240.842 Y1.829
N775 X240.127 Y1.263
N780 X239.312 Y0.855
N785 X238.448 Y0.561
N790 X237.561 Y0.351
N795 X236.662 Y0.2
N800 X235.756 Y0.093
N805 X234.848 Y0.016
N810 X233.938 Y-0.039
N815 X233.027 Y-0.078
N820 X232.115 Y-0.106
N825 X231.204 Y-0.126
N830 X230.292 Y-0.14
N835 X229.38 Y-0.15
N840 X228.468 Y-0.157
N845 X227.557 Y-0.162
N850 X226.645 Y-0.166
N855 X224.821 Y-0.17
N860 X222.086 Y-0.173
N865 X220.262 Y-0.174
N870 X201.114 Y-0.175
N875 X170.112
N880 X119.963
N885 X69.813
N890 X19.663
N895 X5.986
N900 X5.554 Y-0.029
N905 X4.799 Y0.483
N910 X4.247 Y1.208
N915 X3.846 Y2.027
N920 X3.558 Y2.892
N925 X3.35 Y3.78
N930 X3.201 Y4.679
N935 X3.094 Y5.585
N940 X3.017 Y6.494
N945 X2.963 Y7.404
N950 X2.923 Y8.315
N955 X2.895 Y9.226
N960 X2.875 Y10.138
N965 X2.861 Y11.049
N970 X2.851 Y11.961
N975 X2.843 Y12.873
N980 X2.838 Y13.785
N985 X2.834 Y14.696
N990 X2.83 Y16.52
N995 X2.827 Y19.256
N1000 X2.825 Y26.55
N1005 Y35.668
N1010 Y85.818
N1015 Y135.968
N1020 Y186.117
N1025 Y236.267
N1030 Y239.458
N1035 X2.897 Y239.909
N1040 X3.25 Y240.749
N1045 X3.868 Y241.42
N1050 X4.622 Y241.933
N1055 X5.447 Y242.319
N1060 X6.312 Y242.609
N1065 X7.198 Y242.824
N1070 X8.096 Y242.983
N1075 X9. Y243.1
N1080 X9.908 Y243.187
N1085 X10.817 Y243.251
N1090 X11.728 Y243.297
N1095 X12.639 Y243.332
N1100 X13.551 Y243.357
N1105 X14.462 Y243.375
N1110 X15.374 Y243.389
N1115 X16.286 Y243.398
N1120 X17.198 Y243.406
N1125 X18.109 Y243.411
N1130 X19.021 Y243.415
N1135 X20.845 Y243.42
N1140 X23.58 Y243.423
N1145 X29.963 Y243.425
N1150 X48.199
N1155 X98.349
N1160 X148.499
N1165 X198.648
N1170 X234.209
N1175 X234.665 Y243.42
N1180 X235.104 Y243.297
N1185 X235.911 Y242.872
N1190 X236.544 Y242.216
N1195 X237.028 Y241.443
N1200 X237.391 Y240.607
N1205 X237.662 Y239.736
N1210 X237.863 Y238.847
N1215 X238.012 Y237.948
N1220 X238.122 Y237.042
N1225 X238.203 Y236.134
N1230 X238.262 Y235.224
N1235 X238.306 Y234.313
N1240 X238.338 Y233.402
N1245 X238.361 Y232.491
N1250 X238.379 Y231.579
N1255 X238.391 Y230.667
N1260 X238.4 Y229.756
N1265 X238.407 Y228.844
N1270 X238.412 Y227.932
N1275 X238.418 Y226.108
N1280 X238.422 Y223.373
N1285 X238.424 Y218.814
N1290 X238.425 Y180.518
N1295 Y130.368
N1300 Y80.218
N1305 Y30.069
N1310 Y6.817
N1315 X238.363 Y6.366
N1320 X238.194 Y5.942
N1325 X237.703 Y5.174
N1330 X237.013 Y4.577
N1335 X236.222 Y4.125
N1340 X235.375 Y3.786
N1345 X234.499 Y3.533
N1350 X233.607 Y3.346
N1355 X232.705 Y3.207
N1360 X231.799 Y3.106
N1365 X230.891 Y3.031
N1370 X229.98 Y2.975
N1375 X229.07 Y2.935
N1380 X228.158 Y2.905
N1385 X227.247 Y2.884
N1390 X226.335 Y2.868
N1395 X225.423 Y2.856
N1400 X224.511 Y2.848
N1405 X223.6 Y2.842
N1410 X222.688 Y2.837
N1415 X220.864 Y2.831
N1420 X218.129 Y2.827
N1425 X212.658 Y2.825
N1430 X162.508
N1435 X112.358
N1440 X62.209
N1445 X12.059
N1450 X9.779
N1455 X9.33 Y2.904
N1460 X8.492 Y3.263
N1465 X7.826 Y3.885
N1470 X7.315 Y4.64
N1475 X6.929 Y5.467
N1480 X6.641 Y6.332
N1485 X6.427 Y7.218
N1490 X6.268 Y8.116
N1495 X6.151 Y9.02
N1500 X6.064 Y9.928
N1505 X6. Y10.837
N1510 X5.953 Y11.748
N1515 X5.919 Y12.659
N1520 X5.894 Y13.571
N1525 X5.875 Y14.482
N1530 X5.862 Y15.394
N1535 X5.852 Y16.306
N1540 X5.845 Y17.218
N1545 X5.839 Y18.129
N1550 X5.835 Y19.041
N1555 X5.831 Y20.865
N1560 X5.827 Y23.6
N1565 X5.825 Y29.983
N1570 Y49.131
N1575 Y99.281
N1580 Y149.43
N1585 Y199.58
N1590 Y236.053
N1595 X5.863 Y236.507
N1600 X5.999 Y236.942
N1605 X6.425 Y237.748
N1610 X7.069 Y238.394
N1615 X7.831 Y238.895
N1620 X8.659 Y239.277
N1625 X9.523 Y239.567
N1630 X10.409 Y239.785
N1635 X11.306 Y239.948
N1640 X12.209 Y240.07
N1645 X13.116 Y240.162
N1650 X14.026 Y240.23
N1655 X14.936 Y240.28
N1660 X15.847 Y240.318
N1665 X16.759 Y240.346
N1670 X17.67 Y240.366
N1675 X18.582 Y240.382
N1680 X19.494 Y240.393
N1685 X20.405 Y240.401
N1690 X21.317 Y240.408
N1695 X22.229 Y240.412
N1700 X24.053 Y240.418
N1705 X26.788 Y240.422
N1710 X31.347 Y240.424
N1715 X67.82 Y240.425
N1720 X117.969
N1725 X168.119
N1730 X218.269
N1735 X231.034
N1740 X231.489 Y240.39
N1745 X231.925 Y240.258
N1750 X232.734 Y239.836
N1755 X233.383 Y239.197
N1760 X233.886 Y238.436
N1765 X234.271 Y237.609
N1770 X234.561 Y236.745
N1775 X234.78 Y235.86
N1780 X234.945 Y234.963
N1785 X235.068 Y234.06
N1790 X235.16 Y233.152
N1795 X235.228 Y232.243
N1800 X235.279 Y231.333
N1805 X235.317 Y230.422
N1810 X235.345 Y229.51
N1815 X235.366 Y228.599
N1820 X235.381 Y227.687
N1825 X235.393 Y226.775
N1830 X235.401 Y225.864
N1835 X235.407 Y224.952
N1840 X235.412 Y224.04
N1845 X235.418 Y222.216
N1850 X235.422 Y219.481
N1855 X235.424 Y214.922
N1860 X235.425 Y204.892
N1865 Y154.742
N1870 Y104.592
N1875 Y54.443
N1880 Y9.764
N1885 X235.29 Y9.328
N1890 X234.867 Y8.521
N1895 X234.226 Y7.873
N1900 X233.466 Y7.368
N1905 X232.639 Y6.983
N1910 X231.776 Y6.692
N1915 X230.891 Y6.472
N1920 X229.994 Y6.308
N1925 X229.09 Y6.184
N1930 X228.183 Y6.092
N1935 X227.274 Y6.023
N1940 X226.364 Y5.972
N1945 X225.453 Y5.934
N1950 X224.541 Y5.906
N1955 X223.63 Y5.885
N1960 X222.718 Y5.869
N1965 X221.806 Y5.858
N1970 X220.894 Y5.849
N1975 X219.983 Y5.843
N1980 X219.071 Y5.838
N1985 X217.247 Y5.832
N1990 X214.512 Y5.828
N1995 X209.953 Y5.826
N2000 X180.775 Y5.825
N2005 X130.625
N2010 X80.475
N2015 X30.326
N2020 X13.001
N2025 X12.553 Y5.908
N2030 X11.708 Y6.252
N2035 X11.02 Y6.85
N2040 X10.483 Y7.586
N2045 X10.071 Y8.4
N2050 X9.758 Y9.257
N2055 X9.635 Y9.718
N2060 X9.589 Y9.856
N2065 X9.529 Y9.987
N2070 X9.454 Y10.111
N2075 X9.313 Y10.318
N2080 X9.19 Y10.526
N2085 X9.072 Y10.779
N2090 X9.012 Y10.94
N2095 X8.944 Y11.147
N2100 X8.894 Y11.354
N2105 X8.865 Y11.524
N2110 X8.859 Y11.561
N2115 X8.84 Y11.769
N2120 X8.829 Y12.183
N2125 X8.825 Y12.39
N2130 Y233.86
N2135 X8.829 Y234.067
N2140 X8.84 Y234.481
N2145 X8.859 Y234.689
N2150 X8.865 Y234.726
N2155 X8.894 Y234.896
N2160 X8.944 Y235.103
N2165 X9.012 Y235.31
N2170 X9.072 Y235.471
N2175 X9.19 Y235.724
N2180 X9.313 Y235.932
N2185 X9.454 Y236.139
N2190 X9.486 Y236.181
N2195 X9.626 Y236.346
N2200 X9.901 Y236.623
N2205 X10.064 Y236.76
N2210 X10.108 Y236.794
N2215 X10.315 Y236.934
N2220 X10.522 Y237.059
N2225 X10.771 Y237.175
N2230 X10.936 Y237.237
N2235 X11.144 Y237.304
N2240 X11.351 Y237.356
N2245 X11.503 Y237.382
N2250 X11.558 Y237.39
N2255 X11.765 Y237.409
N2260 X12.179 Y237.421
N2265 X12.386 Y237.425
N2270 X228.864
N2275 X229.071 Y237.421
N2280 X229.485 Y237.409
N2285 X229.692 Y237.39
N2290 X229.747 Y237.382
N2295 X229.899 Y237.356
N2300 X230.106 Y237.304
N2305 X230.314 Y237.237
N2310 X230.479 Y237.175
N2315 X230.728 Y237.059
N2320 X230.935 Y236.934
N2325 X231.142 Y236.794
N2330 X231.186 Y236.76
N2335 X231.349 Y236.623
N2340 X231.624 Y236.346
N2345 X231.764 Y236.181
N2350 X231.796 Y236.139
N2355 X231.937 Y235.932
N2360 X232.06 Y235.724
N2365 X232.178 Y235.471
N2370 X232.238 Y235.31
N2375 X232.306 Y235.103
N2380 X232.356 Y234.896
N2385 X232.385 Y234.726
N2390 X232.391 Y234.689
N2395 X232.41 Y234.481
N2400 X232.421 Y234.067
N2405 X232.425 Y233.86
N2410 Y12.39
N2415 X232.421 Y12.183
N2420 X232.41 Y11.769
N2425 X232.391 Y11.561
N2430 X232.385 Y11.524
N2435 X232.356 Y11.354
N2440 X232.306 Y11.147
N2445 X232.238 Y10.94
N2450 X232.178 Y10.779
N2455 X232.06 Y10.526
N2460 X231.937 Y10.318
N2465 X231.796 Y10.111
N2470 X231.764 Y10.069
N2475 X231.624 Y9.904
N2480 X231.349 Y9.627
N2485 X231.186 Y9.49
N2490 X231.142 Y9.456
N2495 X230.935 Y9.316
N2500 X230.728 Y9.191
N2505 X230.479 Y9.075
N2510 X230.314 Y9.013
N2515 X230.106 Y8.946
N2520 X229.899 Y8.894
N2525 X229.747 Y8.868
N2530 X229.692 Y8.86
N2535 X229.485 Y8.841
N2540 X229.071 Y8.829
N2545 X228.864 Y8.825
N2550 X12.386
N2555 X12.179 Y8.829
N2560 G1 X11.587 Y8.392 F3000
N2565 G1 X11.556 Y8.297 Z10.008
N2570 X11.526 Y8.205 Z10.031
N2575 X11.497 Y8.118 Z10.069
N2580 X11.471 Y8.037 Z10.121
N2585 X11.447 Y7.965 Z10.186
N2590 X11.427 Y7.903 Z10.262
N2595 X11.411 Y7.854 Z10.347
N2600 X11.399 Y7.818 Z10.439
N2605 X11.391 Y7.796 Z10.536
N2610 X11.389 Y7.788 Z10.635
N2615 G0 Z32.
N2620 G53 G0 Z0.
N2625 G53 G0 X0. Y0.
N2630 M30
%
