%
(COVER)
(COVER)
(MACHINE)
(  VENDOR AUTODESK)
(  MODEL GENERIC 3-AXIS ROUTER)
(  DESCRIPTION THIS MACHINE HAS XYZ AXIS ON THE HEAD)
(T1 D=6.35 CR=0. - ZMIN=0. - FLAT END MILL)
N10 G90 G94 G17 G91.1
N15 G21
N20 G53 G0 Z0.
(2D CONTOUR2)
(FLAT END MILL D=6.35 14 FLAT ENDMILL)
N30 S20000 M3
N35 G54
N40 G0 X39.825 Y255.905
N45 Z27.
N50 G0 Z17.
N55 G1 Z15.135 F1000.
N60 G19 G2 Y255.27 Z14.5 J-0.635 K0. F2500.
N65 G1 Y254.635
N70 G17 G3 X40.46 Y254. I0.635 J0.
N75 G1 X241.3 Z13.5
N80 G2 X244.475 Y250.825 Z13.475 I0. J-3.175
N85 G1 Y0. Z12.226
N90 G2 X241.3 Y-3.175 Z12.201 I-3.175 J0.
N95 G1 X0. Z11.
N100 G2 X-3.175 Y0. Z10.975 I0. J3.175
N105 G1 Y250.825 Z9.726
N110 G2 X0. Y254. Z9.701 I3.175 J0.
N115 G1 X241.3 Z8.5
N120 G2 X244.475 Y250.825 Z8.475 I0. J-3.175
N125 G1 Y0. Z7.226
N130 G2 X241.3 Y-3.175 Z7.201 I-3.175 J0.
N135 G1 X0. Z6.
N140 G2 X-3.175 Y0. I0. J3.175 F3500.
N145 G1 Y250.825
N150 G2 X0. Y254. I3.175 J0.
N155 G1 X241.3
N160 G2 X244.475 Y250.825 I0. J-3.175
N165 G1 Y0.
N170 G2 X241.3 Y-3.175 I-3.175 J0.
N175 G1 X0.
N180 G2 X-3.175 Y0. Z5.975 I0. J3.175 F2500.
N185 G1 Y250.825 Z4.726
N190 G2 X0. Y254. Z4.701 I3.175 J0.
N195 G1 X241.3 Z3.5
N200 G2 X244.475 Y250.825 Z3.475 I0. J-3.175
N205 G1 Y0. Z2.226
N210 G2 X241.3 Y-3.175 Z2.201 I-3.175 J0.
N215 G1 X117.536 Z1.585
N220 Z2.
N225 X101.186
N230 Z1.504 F1000.
N235 X3.175 Z1.016 F2500.
N240 Z2.
N245 X0.
N250 G2 X-3.175 Y0. I0. J3.175
N255 G1 Y8.175
N260 Z0.934 F1000.
N265 Y101.186 Z0.471 F2500.
N270 Z2.
N275 Y117.536
N280 Z0.39 F1000.
N285 Y195.853 Z0. F2500.
N290 Y210.547 F3500.
N295 Z2.
N300 Y226.897
N305 Z0. F1000.
N310 Y250.825 F3500.
N315 G2 X0. Y254. I3.175 J0.
N320 G1 X69.083
N325 Z2.
N330 X85.433
N335 Z0. F1000.
N340 X178.444 F3500.
N345 Z2.
N350 X194.794
N355 Z0. F1000.
N360 X241.3 F3500.
N365 G2 X244.475 Y250.825 I0. J-3.175
N370 G1 Y204.319
N375 Z2.
N380 Y187.969
N385 Z0. F1000.
N390 Y94.958 F3500.
N395 Z2.
N400 Y78.608
N405 Z0. F1000.
N410 Y0. F3500.
N415 G2 X241.3 Y-3.175 I-3.175 J0.
N420 G1 X226.897
N425 Z2.
N430 X210.547
N435 Z0. F1000.
N440 X117.536 F3500.
N445 Z2.
N450 X101.186
N455 Z0. F1000.
N460 X3.175 F3500.
N465 Z2.
N470 X0.
N475 G2 X-3.175 Y0. I0. J3.175
N480 G1 Y8.175
N485 Z0. F1000.
N490 Y101.186 F3500.
N495 Z2.
N500 Y117.536
N505 Z0. F1000.
N510 Y195.853 F3500.
N515 G3 X-3.81 Y196.488 I-0.635 J0. F2500.
N520 G1 X-4.445
N525 G18 G3 X-5.08 Z0.635 I0. K0.635
N530 G1 Z17.
N535 G0 Z27.
N540 G17
(2D ADAPTIVE2)
N545 S18000 M3
N550 G0 Z32.
N555 X-0.655 Y-7.276
N560 Z22.
N565 Z11.27
N570 G1 Z10.635 F2421.7
N575 X-0.653 Y-7.268 Z10.536
N580 X-0.647 Y-7.246 Z10.439
N585 X-0.638 Y-7.209 Z10.347
N590 X-0.625 Y-7.158 Z10.262
N595 X-0.609 Y-7.095 Z10.186
N600 X-0.59 Y-7.022 Z10.121
N605 X-0.569 Y-6.94 Z10.069
N610 X-0.546 Y-6.851 Z10.031
N615 X-0.522 Y-6.757 Z10.008
N620 X-0.497 Y-6.661 Z10.
N625 G3 X0. Y-3.204 I-15.704 J4.023
N630 G1 Y-3.09 F3500.
N635 X-0.05 Y-2.179
N640 X-0.086 Y-1.268
N645 X-0.112 Y-0.357
N650 X-0.13 Y0.555
N655 X-0.143 Y1.467
N660 X-0.152 Y2.379
N665 X-0.159 Y3.29
N670 X-0.163 Y4.202
N675 X-0.169 Y6.026
N680 X-0.173 Y8.761
N685 X-0.175 Y14.232
N690 Y47.057
N695 Y97.207
N700 Y147.357
N705 Y197.506
N710 Y247.656
N715 X-0.173 Y247.884
N720 X-0.128 Y248.107
N725 X0.048 Y248.528
N730 X0.64 Y249.221
N735 X1.401 Y249.725
N740 X2.237 Y250.087
N745 X3.111 Y250.348
N750 X4.004 Y250.534
N755 X4.906 Y250.668
N760 X5.812 Y250.763
N765 X6.722 Y250.831
N770 X7.632 Y250.88
N775 X8.543 Y250.914
N780 X9.455 Y250.939
N785 X10.367 Y250.956
N790 X11.278 Y250.969
N795 X12.19 Y250.978
N800 X13.102 Y250.984
N805 X14.014 Y250.989
N810 X15.837 Y250.994
N815 X18.573 Y250.998
N820 X24.044 Y251.
N825 X48.663
N830 X98.812
N835 X148.962
N840 X199.112
N845 X238.32
N850 X238.756 Y250.867
N855 X239.515 Y250.362
N860 X240.069 Y249.638
N865 X240.468 Y248.818
N870 X240.755 Y247.953
N875 X240.961 Y247.064
N880 X241.108 Y246.164
N885 X241.213 Y245.259
N890 X241.288 Y244.35
N895 X241.342 Y243.44
N900 X241.38 Y242.529
N905 X241.407 Y241.617
N910 X241.427 Y240.706
N915 X241.441 Y239.794
N920 X241.451 Y238.882
N925 X241.458 Y237.97
N930 X241.463 Y237.059
N935 X241.466 Y236.147
N940 X241.471 Y234.323
N945 X241.473 Y231.588
N950 X241.475 Y224.293
N955 Y190.556
N960 Y140.406
N965 Y90.257
N970 Y40.107
N975 Y2.951
N980 X241.431 Y2.727
N985 X241.258 Y2.305
N990 X240.669 Y1.61
N995 X239.909 Y1.105
N1000 X239.073 Y0.741
N1005 X238.2 Y0.479
N1010 X237.307 Y0.292
N1015 X236.405 Y0.158
N1020 X235.499 Y0.063
N1025 X234.589 Y-0.005
N1030 X233.679 Y-0.054
N1035 X232.768 Y-0.089
N1040 X231.856 Y-0.114
N1045 X230.945 Y-0.131
N1050 X230.033 Y-0.144
N1055 X229.121 Y-0.153
N1060 X228.209 Y-0.159
N1065 X227.297 Y-0.164
N1070 X225.474 Y-0.169
N1075 X222.738 Y-0.173
N1080 X217.268 Y-0.175
N1085 X178.971
N1090 X128.822
N1095 X78.672
N1100 X28.522
N1105 X6.183
N1110 X5.956 Y-0.15
N1115 X5.521 Y-0.015
N1120 X4.775 Y0.51
N1125 X4.229 Y1.24
N1130 X3.834 Y2.062
N1135 X3.548 Y2.928
N1140 X3.343 Y3.816
N1145 X3.196 Y4.716
N1150 X3.091 Y5.622
N1155 X3.015 Y6.53
N1160 X2.961 Y7.44
N1165 X2.922 Y8.351
N1170 X2.894 Y9.263
N1175 X2.875 Y10.174
N1180 X2.86 Y11.086
N1185 X2.85 Y11.998
N1190 X2.843 Y12.91
N1195 X2.838 Y13.822
N1200 X2.834 Y14.733
N1205 X2.83 Y16.557
N1210 X2.827 Y19.292
N1215 X2.825 Y26.587
N1220 Y76.737
N1225 Y126.886
N1230 Y177.036
N1235 Y227.186
N1240 Y244.054
N1245 X2.899 Y244.504
N1250 X3.256 Y245.343
N1255 X3.878 Y246.01
N1260 X4.634 Y246.52
N1265 X5.46 Y246.904
N1270 X6.326 Y247.191
N1275 X7.212 Y247.405
N1280 X8.111 Y247.562
N1285 X9.015 Y247.679
N1290 X9.923 Y247.765
N1295 X10.832 Y247.828
N1300 X11.743 Y247.874
N1305 X12.654 Y247.908
N1310 X13.566 Y247.933
N1315 X14.477 Y247.951
N1320 X15.389 Y247.964
N1325 X16.301 Y247.974
N1330 X17.212 Y247.981
N1335 X18.124 Y247.986
N1340 X19.036 Y247.99
N1345 X20.86 Y247.995
N1350 X23.595 Y247.998
N1355 X29.978 Y248.
N1360 X34.537
N1365 X84.687
N1370 X134.836
N1375 X184.986
N1380 X234.68
N1385 X235.121 Y247.887
N1390 X235.935 Y247.474
N1395 X236.575 Y246.825
N1400 X237.063 Y246.055
N1405 X237.43 Y245.22
N1410 X237.704 Y244.35
N1415 X237.907 Y243.462
N1420 X238.058 Y242.562
N1425 X238.169 Y241.657
N1430 X238.25 Y240.749
N1435 X238.311 Y239.839
N1440 X238.355 Y238.929
N1445 X238.387 Y238.017
N1450 X238.411 Y237.106
N1455 X238.428 Y236.194
N1460 X238.441 Y235.282
N1465 X238.45 Y234.371
N1470 X238.457 Y233.459
N1475 X238.462 Y232.547
N1480 X238.468 Y230.723
N1485 X238.472 Y227.988
N1490 X238.474 Y223.429
N1495 X238.475 Y198.81
N1500 Y148.66
N1505 Y98.511
N1510 Y48.361
N1515 Y6.873
N1520 X238.431 Y6.42
N1525 X238.273 Y5.992
N1530 X237.798 Y5.214
N1535 X237.117 Y4.607
N1540 X236.33 Y4.147
N1545 X235.486 Y3.802
N1550 X234.611 Y3.545
N1555 X233.719 Y3.355
N1560 X232.818 Y3.214
N1565 X231.912 Y3.111
N1570 X231.004 Y3.034
N1575 X230.093 Y2.978
N1580 X229.183 Y2.937
N1585 X228.271 Y2.907
N1590 X227.36 Y2.885
N1595 X226.448 Y2.869
N1600 X225.536 Y2.857
N1605 X224.625 Y2.848
N1610 X223.713 Y2.842
N1615 X222.801 Y2.837
N1620 X220.977 Y2.832
N1625 X218.242 Y2.828
N1630 X212.771 Y2.825
N1635 X180.858
N1640 X130.708
N1645 X80.558
N1650 X30.408
N1655 X9.893
N1660 X9.439 Y2.873
N1665 X9.012 Y3.031
N1670 X8.233 Y3.505
N1675 X7.624 Y4.184
N1680 X7.162 Y4.97
N1685 X6.814 Y5.813
N1690 X6.555 Y6.687
N1695 X6.363 Y7.579
N1700 X6.221 Y8.479
N1705 X6.116 Y9.385
N1710 X6.038 Y10.294
N1715 X5.981 Y11.204
N1720 X5.94 Y12.114
N1725 X5.909 Y13.026
N1730 X5.886 Y13.937
N1735 X5.87 Y14.849
N1740 X5.858 Y15.761
N1745 X5.849 Y16.672
N1750 X5.842 Y17.584
N1755 X5.838 Y18.496
N1760 X5.832 Y20.32
N1765 X5.828 Y23.055
N1770 X5.825 Y28.526
N1775 Y31.261
N1780 Y81.411
N1785 Y131.561
N1790 Y181.711
N1795 Y231.86
N1800 Y240.978
N1805 X5.94 Y241.42
N1810 X6.335 Y242.241
N1815 X6.96 Y242.905
N1820 X7.713 Y243.42
N1825 X8.535 Y243.814
N1830 X9.396 Y244.113
N1835 X10.28 Y244.338
N1840 X11.176 Y244.507
N1845 X12.079 Y244.633
N1850 X12.986 Y244.727
N1855 X13.895 Y244.798
N1860 X14.805 Y244.85
N1865 X15.716 Y244.889
N1870 X16.628 Y244.918
N1875 X17.539 Y244.939
N1880 X18.451 Y244.955
N1885 X19.363 Y244.967
N1890 X20.275 Y244.975
N1895 X21.186 Y244.982
N1900 X22.098 Y244.987
N1905 X23.922 Y244.993
N1910 X26.657 Y244.997
N1915 X31.216 Y244.999
N1920 X45.805 Y245.
N1925 X95.955
N1930 X146.105
N1935 X196.254
N1940 X231.359
N1945 X231.805 Y244.905
N1950 X232.642 Y244.543
N1955 X233.32 Y243.934
N1960 X233.849 Y243.191
N1965 X234.254 Y242.374
N1970 X234.561 Y241.515
N1975 X234.792 Y240.634
N1980 X234.966 Y239.738
N1985 X235.096 Y238.836
N1990 X235.193 Y237.929
N1995 X235.266 Y237.02
N2000 X235.32 Y236.11
N2005 X235.36 Y235.199
N2010 X235.39 Y234.288
N2015 X235.412 Y233.376
N2020 X235.428 Y232.465
N2025 X235.441 Y231.553
N2030 X235.45 Y230.641
N2035 X235.456 Y229.729
N2040 X235.461 Y228.818
N2045 X235.467 Y226.994
N2050 X235.472 Y224.259
N2055 X235.474 Y219.699
N2060 X235.475 Y181.403
N2065 Y131.254
N2070 Y81.104
N2075 Y30.954
N2080 Y9.982
N2085 X235.387 Y9.535
N2090 X235.036 Y8.694
N2095 X234.434 Y8.008
N2100 X233.696 Y7.473
N2105 X232.882 Y7.063
N2110 X232.025 Y6.751
N2115 X231.144 Y6.517
N2120 X230.249 Y6.341
N2125 X229.347 Y6.209
N2130 X228.44 Y6.11
N2135 X227.531 Y6.037
N2140 X226.621 Y5.982
N2145 X225.71 Y5.942
N2150 X224.799 Y5.911
N2155 X223.887 Y5.889
N2160 X222.976 Y5.872
N2165 X222.064 Y5.86
N2170 X221.152 Y5.851
N2175 X220.24 Y5.844
N2180 X219.329 Y5.839
N2185 X217.505 Y5.833
N2190 X214.77 Y5.828
N2195 X210.211 Y5.826
N2200 X207.475 Y5.825
N2205 X157.325
N2210 X107.176
N2215 X57.026
N2220 X13.259
N2225 X12.804 Y5.857
N2230 X12.366 Y5.982
N2235 X11.552 Y6.393
N2240 X10.897 Y7.027
N2245 X10.387 Y7.784
N2250 X9.998 Y8.608
N2255 X9.703 Y9.471
N2260 X9.638 Y9.73
N2265 X9.594 Y9.866
N2270 X9.532 Y9.994
N2275 X9.454 Y10.113
N2280 X9.311 Y10.32
N2285 X9.189 Y10.528
N2290 X9.078 Y10.764
N2295 X9.011 Y10.942
N2300 X8.944 Y11.149
N2305 X8.892 Y11.356
N2310 X8.871 Y11.486
N2315 X8.859 Y11.564
N2320 X8.842 Y11.771
N2325 X8.828 Y12.185
N2330 X8.825 Y12.392
N2335 Y238.433
N2340 X8.828 Y238.64
N2345 X8.842 Y239.054
N2350 X8.859 Y239.261
N2355 X8.871 Y239.339
N2360 X8.892 Y239.469
N2365 X8.944 Y239.676
N2370 X9.011 Y239.883
N2375 X9.078 Y240.061
N2380 X9.189 Y240.297
N2385 X9.311 Y240.505
N2390 X9.454 Y240.712
N2395 X9.492 Y240.763
N2400 X9.62 Y240.919
N2405 X9.907 Y241.204
N2410 X10.063 Y241.333
N2415 X10.114 Y241.371
N2420 X10.321 Y241.515
N2425 X10.528 Y241.637
N2430 X10.767 Y241.748
N2435 X10.943 Y241.814
N2440 X11.15 Y241.881
N2445 X11.357 Y241.932
N2450 X11.489 Y241.955
N2455 X11.564 Y241.966
N2460 X11.771 Y241.984
N2465 X12.186 Y241.996
N2470 X12.393 Y242.
N2475 X228.907
N2480 X229.114 Y241.996
N2485 X229.529 Y241.984
N2490 X229.736 Y241.966
N2495 X229.811 Y241.955
N2500 X229.943 Y241.932
N2505 X230.15 Y241.881
N2510 X230.357 Y241.814
N2515 X230.533 Y241.748
N2520 X230.772 Y241.637
N2525 X230.979 Y241.515
N2530 X231.186 Y241.371
N2535 X231.237 Y241.333
N2540 X231.393 Y241.204
N2545 X231.68 Y240.919
N2550 X231.808 Y240.763
N2555 X231.846 Y240.712
N2560 X231.989 Y240.505
N2565 X232.111 Y240.297
N2570 X232.222 Y240.061
N2575 X232.289 Y239.883
N2580 X232.356 Y239.676
N2585 X232.408 Y239.469
N2590 X232.429 Y239.339
N2595 X232.441 Y239.261
N2600 X232.458 Y239.054
N2605 X232.472 Y238.64
N2610 X232.475 Y238.433
N2615 Y12.392
N2620 X232.472 Y12.185
N2625 X232.458 Y11.771
N2630 X232.441 Y11.564
N2635 X232.429 Y11.486
N2640 X232.408 Y11.356
N2645 X232.356 Y11.149
N2650 X232.289 Y10.942
N2655 X232.222 Y10.764
N2660 X232.111 Y10.528
N2665 X231.989 Y10.32
N2670 X231.846 Y10.113
N2675 X231.808 Y10.062
N2680 X231.68 Y9.906
N2685 X231.393 Y9.621
N2690 X231.237 Y9.492
N2695 X231.186 Y9.454
N2700 X230.979 Y9.31
N2705 X230.772 Y9.188
N2710 X230.533 Y9.077
N2715 X230.357 Y9.011
N2720 X230.15 Y8.944
N2725 X229.943 Y8.893
N2730 X229.811 Y8.87
N2735 X229.736 Y8.859
N2740 X229.529 Y8.841
N2745 X229.114 Y8.829
N2750 X228.907 Y8.825
N2755 X12.393
N2760 X12.186 Y8.829
N2765 G3 X11.594 Y8.391 I0.011 J-0.635 F2421.7
N2770 G1 X11.563 Y8.297 Z10.008
N2775 X11.533 Y8.205 Z10.031
N2780 X11.504 Y8.117 Z10.069
N2785 X11.478 Y8.036 Z10.121
N2790 X11.454 Y7.964 Z10.186
N2795 X11.434 Y7.903 Z10.262
N2800 X11.418 Y7.853 Z10.347
N2805 X11.406 Y7.817 Z10.439
N2810 X11.399 Y7.795 Z10.536
N2815 X11.396 Y7.788 Z10.635
N2820 G0 Z32.
N2825 G53 G0 Z0.
N2830 G53 G0 X0. Y0.
N2835 M30
%
