%
(COVER)
(COVER)
(MACHINE)
(  VENDOR AUTODESK)
(  MODEL GENERIC 3-AXIS ROUTER)
(  DESCRIPTION THIS MACHINE HAS XYZ AXIS ON THE HEAD)
(T1 D=6.35 CR=0. - ZMIN=0. - FLAT END MILL)
N10 G90 G94 G17 G91.1
N15 G21
N20 G53 G0 Z0.
(2D CONTOUR2)
N25 T1 M6
N30 S20000 M3
N35 G17 G90 G94
N40 G54
N45 G0 X38.238 Y257.493
N50 G43 Z27. H1
N55 G0 Z17.
N60 G1 Z15.135 F1000.
N65 G19 G2 Y256.858 Z14.5 J-0.635 K0. F2500.
N70 G1 Y256.223
N75 G17 G3 X38.873 Y255.588 I0.635 J0.
N80 G1 X239.713 Z13.5
N85 G2 X242.888 Y252.413 Z13.475 I0. J-3.175
N90 G1 Y0. Z12.218
N95 G2 X239.713 Y-3.175 Z12.194 I-3.175 J0.
N100 G1 X0. Z11.
N105 G2 X-3.175 Y0. Z10.975 I0. J3.175
N110 G1 Y252.413 Z9.718
N115 G2 X0. Y255.588 Z9.694 I3.175 J0.
N120 G1 X239.713 Z8.5
N125 G2 X242.888 Y252.413 Z8.475 I0. J-3.175
N130 G1 Y0. Z7.218
N135 G2 X239.713 Y-3.175 Z7.194 I-3.175 J0.
N140 G1 X0. Z6.
N145 G2 X-3.175 Y0. I0. J3.175 F3500.
N150 G1 Y252.413
N155 G2 X0. Y255.588 I3.175 J0.
N160 G1 X239.713
N165 G2 X242.888 Y252.413 I0. J-3.175
N170 G1 Y0.
N175 G2 X239.713 Y-3.175 I-3.175 J0.
N180 G1 X0.
N185 G2 X-3.175 Y0. Z5.975 I0. J3.175 F2500.
N190 G1 Y252.413 Z4.718
N195 G2 X0. Y255.588 Z4.694 I3.175 J0.
N200 G1 X239.713 Z3.5
N205 G2 X242.888 Y252.413 Z3.475 I0. J-3.175
N210 G1 Y0. Z2.218
N215 G2 X239.713 Y-3.175 Z2.194 I-3.175 J0.
N220 G1 X117.536 Z1.585
N225 Z2.
N230 X101.186
N235 Z1.504 F1000.
N240 X3.175 Z1.016 F2500.
N245 Z2.
N250 X0.
N255 G2 X-3.175 Y0. I0. J3.175
N260 G1 Y8.175
N265 Z0.934 F1000.
N270 Y101.186 Z0.471 F2500.
N275 Z2.
N280 Y117.536
N285 Z0.39 F1000.
N290 Y195.853 Z0. F2500.
N295 Y210.547 F3500.
N300 Z2.
N305 Y226.897
N310 Z0. F1000.
N315 Y252.413 F3500.
N320 G2 X0. Y255.588 I3.175 J0.
N325 G1 X67.496
N330 Z2.
N335 X83.846
N340 Z0. F1000.
N345 X176.857 F3500.
N350 Z2.
N355 X193.207
N360 Z0. F1000.
N365 X239.713 F3500.
N370 G2 X242.888 Y252.413 I0. J-3.175
N375 G1 Y205.907
N380 Z2.
N385 Y189.557
N390 Z0. F1000.
N395 Y96.546 F3500.
N400 Z2.
N405 Y80.196
N410 Z0. F1000.
N415 Y0. F3500.
N420 G2 X239.713 Y-3.175 I-3.175 J0.
N425 G1 X226.897
N430 Z2.
N435 X210.547
N440 Z0. F1000.
N445 X117.536 F3500.
N450 Z2.
N455 X101.186
N460 Z0. F1000.
N465 X3.175 F3500.
N470 Z2.
N475 X0.
N480 G2 X-3.175 Y0. I0. J3.175
N485 G1 Y8.175
N490 Z0. F1000.
N495 Y101.186 F3500.
N500 Z2.
N505 Y117.536
N510 Z0. F1000.
N515 Y195.853 F3500.
N520 G3 X-3.81 Y196.488 I-0.635 J0. F2500.
N525 G1 X-4.445
N530 G18 G3 X-5.08 Z0.635 I0. K0.635
N535 G1 Z17.
N540 G0 Z27.
N545 G17
(2D ADAPTIVE2)
N550 G0 Z32.
N555 X-0.655 Y-7.277
N560 Z22.
N565 Z11.27
N570 G1 Z10.635 F2421.7
N575 X-0.653 Y-7.27 Z10.536
N580 X-0.647 Y-7.247 Z10.439
N585 X-0.638 Y-7.21 Z10.347
N590 X-0.625 Y-7.16 Z10.262
N595 X-0.609 Y-7.097 Z10.186
N600 X-0.59 Y-7.024 Z10.121
N605 X-0.569 Y-6.941 Z10.069
N610 X-0.546 Y-6.852 Z10.031
N615 X-0.522 Y-6.758 Z10.008
N620 X-0.497 Y-6.662 Z10.
N625 G3 X0. Y-3.205 I-15.704 J4.023
N630 G1 Y-3.091 F3500.
N635 X-0.05 Y-2.181
N640 X-0.086 Y-1.27
N645 X-0.112 Y-0.358
N650 X-0.13 Y0.553
N655 X-0.143 Y1.465
N660 X-0.152 Y2.377
N665 X-0.159 Y3.289
N670 X-0.163 Y4.201
N675 X-0.169 Y6.024
N680 X-0.173 Y8.76
N685 X-0.175 Y14.23
N690 Y47.056
N695 Y97.205
N700 Y147.355
N705 Y197.505
N710 Y247.655
N715 Y249.478
N720 X-0.025 Y249.909
N725 X0.495 Y250.658
N730 X1.226 Y251.203
N735 X2.049 Y251.596
N740 X2.916 Y251.879
N745 X3.805 Y252.082
N750 X4.705 Y252.227
N755 X5.611 Y252.33
N760 X6.52 Y252.404
N765 X7.43 Y252.457
N770 X8.341 Y252.495
N775 X9.252 Y252.521
N780 X10.164 Y252.541
N785 X11.076 Y252.554
N790 X11.987 Y252.564
N795 X12.899 Y252.571
N800 X13.811 Y252.576
N805 X14.723 Y252.579
N810 X16.547 Y252.584
N815 X19.282 Y252.586
N820 X26.576 Y252.588
N825 X47.548
N830 X97.698
N835 X147.848
N840 X197.997
N845 X236.749
N850 X237.183 Y252.448
N855 X237.939 Y251.938
N860 X238.489 Y251.211
N865 X238.887 Y250.39
N870 X239.172 Y249.524
N875 X239.377 Y248.636
N880 X239.523 Y247.736
N885 X239.628 Y246.83
N890 X239.702 Y245.921
N895 X239.756 Y245.011
N900 X239.794 Y244.1
N905 X239.821 Y243.189
N910 X239.84 Y242.277
N915 X239.854 Y241.365
N920 X239.864 Y240.453
N925 X239.871 Y239.542
N930 X239.876 Y238.63
N935 X239.879 Y237.718
N940 X239.884 Y235.894
N945 X239.886 Y233.159
N950 X239.888 Y225.865
N955 Y192.127
N960 Y141.978
N965 Y91.828
N970 Y41.678
N975 Y2.926
N980 X239.735 Y2.497
N985 X239.212 Y1.75
N990 X238.48 Y1.206
N995 X237.657 Y0.814
N1000 X236.79 Y0.532
N1005 X235.9 Y0.33
N1010 X235. Y0.185
N1015 X234.094 Y0.082
N1020 X233.185 Y0.008
N1025 X232.275 Y-0.044
N1030 X231.364 Y-0.082
N1035 X230.453 Y-0.109
N1040 X229.541 Y-0.128
N1045 X228.629 Y-0.141
N1050 X227.717 Y-0.151
N1055 X226.806 Y-0.158
N1060 X225.894 Y-0.163
N1065 X224.982 Y-0.166
N1070 X223.158 Y-0.171
N1075 X220.423 Y-0.173
N1080 X213.129 Y-0.175
N1085 X179.391
N1090 X129.242
N1095 X79.092
N1100 X28.942
N1105 X6.147
N1110 X5.922 Y-0.138
N1115 X5.495 Y0.021
N1120 X4.755 Y0.555
N1125 X4.215 Y1.289
N1130 X3.823 Y2.112
N1135 X3.541 Y2.979
N1140 X3.338 Y3.868
N1145 X3.192 Y4.768
N1150 X3.088 Y5.674
N1155 X3.013 Y6.583
N1160 X2.959 Y7.493
N1165 X2.921 Y8.404
N1170 X2.894 Y9.316
N1175 X2.874 Y10.227
N1180 X2.86 Y11.139
N1185 X2.85 Y12.051
N1190 X2.843 Y12.962
N1195 X2.838 Y13.874
N1200 X2.834 Y14.786
N1205 X2.83 Y16.61
N1210 X2.827 Y19.345
N1215 X2.825 Y26.64
N1220 Y76.789
N1225 Y126.939
N1230 Y177.089
N1235 Y227.239
N1240 Y245.475
N1245 X2.854 Y245.93
N1250 X3. Y246.362
N1255 X3.457 Y247.151
N1260 X4.128 Y247.768
N1265 X4.91 Y248.237
N1270 X5.751 Y248.589
N1275 X6.624 Y248.851
N1280 X7.515 Y249.046
N1285 X8.416 Y249.189
N1290 X9.321 Y249.295
N1295 X10.23 Y249.374
N1300 X11.14 Y249.431
N1305 X12.051 Y249.473
N1310 X12.962 Y249.504
N1315 X13.873 Y249.527
N1320 X14.785 Y249.543
N1325 X15.697 Y249.555
N1330 X16.609 Y249.564
N1335 X17.52 Y249.571
N1340 X18.432 Y249.575
N1345 X20.256 Y249.581
N1350 X22.991 Y249.585
N1355 X28.462 Y249.588
N1360 X33.021
N1365 X83.171
N1370 X133.321
N1375 X183.47
N1380 X232.708
N1385 X233.164 Y249.576
N1390 X233.601 Y249.445
N1395 X234.401 Y249.009
N1400 X235.03 Y248.348
N1405 X235.508 Y247.572
N1410 X235.867 Y246.734
N1415 X236.135 Y245.862
N1420 X236.333 Y244.972
N1425 X236.48 Y244.072
N1430 X236.589 Y243.167
N1435 X236.669 Y242.258
N1440 X236.727 Y241.349
N1445 X236.77 Y240.438
N1450 X236.802 Y239.526
N1455 X236.825 Y238.615
N1460 X236.842 Y237.703
N1465 X236.855 Y236.792
N1470 X236.864 Y235.88
N1475 X236.87 Y234.968
N1480 X236.875 Y234.056
N1485 X236.881 Y232.233
N1490 X236.885 Y229.497
N1495 X236.887 Y224.938
N1500 X236.888 Y200.319
N1505 Y150.169
N1510 Y100.02
N1515 Y49.87
N1520 Y7.015
N1525 X236.878 Y6.559
N1530 X236.75 Y6.122
N1535 X236.316 Y5.319
N1540 X235.657 Y4.689
N1545 X234.882 Y4.21
N1550 X234.044 Y3.849
N1555 X233.173 Y3.581
N1560 X232.283 Y3.381
N1565 X231.383 Y3.234
N1570 X230.478 Y3.125
N1575 X229.57 Y3.045
N1580 X228.66 Y2.986
N1585 X227.749 Y2.943
N1590 X226.838 Y2.911
N1595 X225.926 Y2.888
N1600 X225.015 Y2.871
N1605 X224.103 Y2.859
N1610 X223.191 Y2.849
N1615 X222.279 Y2.843
N1620 X221.367 Y2.838
N1625 X219.544 Y2.832
N1630 X216.808 Y2.828
N1635 X212.249 Y2.826
N1640 X181.248 Y2.825
N1645 X131.098
N1650 X80.948
N1655 X30.799
N1660 X9.827
N1665 X9.376 Y2.893
N1670 X8.954 Y3.066
N1675 X8.187 Y3.559
N1680 X7.589 Y4.248
N1685 X7.136 Y5.039
N1690 X6.795 Y5.884
N1695 X6.541 Y6.76
N1700 X6.353 Y7.652
N1705 X6.213 Y8.553
N1710 X6.11 Y9.459
N1715 X6.034 Y10.368
N1720 X5.978 Y11.278
N1725 X5.937 Y12.189
N1730 X5.907 Y13.1
N1735 X5.885 Y14.012
N1740 X5.869 Y14.923
N1745 X5.857 Y15.835
N1750 X5.848 Y16.747
N1755 X5.842 Y17.659
N1760 X5.837 Y18.571
N1765 X5.832 Y20.394
N1770 X5.828 Y23.13
N1775 X5.825 Y28.601
N1780 Y30.424
N1785 Y80.574
N1790 Y130.724
N1795 Y180.873
N1800 Y231.023
N1805 Y242.421
N1810 X5.911 Y242.868
N1815 X6.258 Y243.711
N1820 X6.858 Y244.398
N1825 X7.596 Y244.935
N1830 X8.409 Y245.346
N1835 X9.266 Y245.658
N1840 X10.147 Y245.894
N1845 X11.041 Y246.07
N1850 X11.944 Y246.203
N1855 X12.85 Y246.301
N1860 X13.759 Y246.375
N1865 X14.669 Y246.43
N1870 X15.58 Y246.471
N1875 X16.491 Y246.501
N1880 X17.403 Y246.524
N1885 X18.314 Y246.541
N1890 X19.226 Y246.553
N1895 X20.138 Y246.562
N1900 X21.05 Y246.569
N1905 X21.961 Y246.574
N1910 X23.785 Y246.58
N1915 X26.521 Y246.585
N1920 X31.08 Y246.587
N1925 X42.933 Y246.588
N1930 X93.083
N1935 X143.233
N1940 X193.382
N1945 X229.855
N1950 X230.297 Y246.475
N1955 X231.12 Y246.083
N1960 X231.784 Y245.459
N1965 X232.302 Y244.708
N1970 X232.697 Y243.886
N1975 X232.996 Y243.025
N1980 X233.222 Y242.142
N1985 X233.392 Y241.246
N1990 X233.519 Y240.343
N1995 X233.613 Y239.436
N2000 X233.684 Y238.527
N2005 X233.737 Y237.617
N2010 X233.776 Y236.706
N2015 X233.805 Y235.794
N2020 X233.827 Y234.883
N2025 X233.843 Y233.971
N2030 X233.854 Y233.059
N2035 X233.863 Y232.148
N2040 X233.87 Y231.236
N2045 X233.874 Y230.324
N2050 X233.881 Y228.5
N2055 X233.885 Y225.765
N2060 X233.887 Y221.206
N2065 X233.888 Y183.822
N2070 Y133.672
N2075 Y83.522
N2080 Y33.372
N2085 Y9.665
N2090 X233.579 Y8.807
N2095 X233.003 Y8.101
N2100 X232.279 Y7.546
N2105 X231.473 Y7.119
N2110 X230.621 Y6.795
N2115 X229.743 Y6.55
N2120 X228.85 Y6.366
N2125 X227.949 Y6.228
N2130 X227.043 Y6.125
N2135 X226.134 Y6.048
N2140 X225.224 Y5.99
N2145 X224.313 Y5.948
N2150 X223.402 Y5.916
N2155 X222.491 Y5.892
N2160 X221.579 Y5.875
N2165 X220.667 Y5.862
N2170 X219.755 Y5.852
N2175 X218.844 Y5.845
N2180 X217.932 Y5.84
N2185 X217.02 Y5.836
N2190 X215.196 Y5.831
N2195 X212.461 Y5.827
N2200 X208.814 Y5.826
N2205 X171.429 Y5.825
N2210 X158.664
N2215 X108.514
N2220 X58.365
N2225 X12.774
N2230 X12.338 Y5.96
N2235 X11.531 Y6.383
N2240 X10.882 Y7.024
N2245 X10.377 Y7.783
N2250 X9.991 Y8.609
N2255 X9.698 Y9.473
N2260 X9.637 Y9.717
N2265 X9.594 Y9.854
N2270 X9.534 Y9.985
N2275 X9.459 Y10.108
N2280 X9.315 Y10.312
N2285 X9.193 Y10.519
N2290 X9.061 Y10.802
N2295 X9.014 Y10.934
N2300 X8.946 Y11.141
N2305 X8.895 Y11.348
N2310 X8.86 Y11.555
N2315 X8.854 Y11.595
N2320 X8.841 Y11.762
N2325 X8.829 Y12.176
N2330 X8.825 Y12.383
N2335 Y240.029
N2340 X8.829 Y240.237
N2345 X8.841 Y240.651
N2350 X8.854 Y240.818
N2355 X8.86 Y240.858
N2360 X8.895 Y241.065
N2365 X8.946 Y241.272
N2370 X9.014 Y241.479
N2375 X9.061 Y241.611
N2380 X9.193 Y241.894
N2385 X9.315 Y242.101
N2390 X9.461 Y242.308
N2395 X9.476 Y242.328
N2400 X9.63 Y242.515
N2405 X9.89 Y242.778
N2410 X10.074 Y242.929
N2415 X10.097 Y242.947
N2420 X10.304 Y243.091
N2425 X10.511 Y243.216
N2430 X10.782 Y243.344
N2435 X10.925 Y243.396
N2440 X11.132 Y243.464
N2445 X11.339 Y243.517
N2450 X11.547 Y243.552
N2455 X11.754 Y243.57
N2460 X12.168 Y243.584
N2465 X12.375 Y243.588
N2470 X227.338
N2475 X227.545 Y243.584
N2480 X227.959 Y243.57
N2485 X228.172 Y243.551
N2490 X228.374 Y243.517
N2495 X228.581 Y243.464
N2500 X228.788 Y243.396
N2505 X228.931 Y243.344
N2510 X229.202 Y243.216
N2515 X229.409 Y243.091
N2520 X229.616 Y242.947
N2525 X229.639 Y242.929
N2530 X229.823 Y242.778
N2535 X230.083 Y242.515
N2540 X230.237 Y242.328
N2545 X230.252 Y242.308
N2550 X230.398 Y242.101
N2555 X230.52 Y241.894
N2560 X230.652 Y241.611
N2565 X230.699 Y241.479
N2570 X230.767 Y241.272
N2575 X230.818 Y241.065
N2580 X230.853 Y240.858
N2585 X230.859 Y240.818
N2590 X230.872 Y240.651
N2595 X230.884 Y240.237
N2600 X230.888 Y240.029
N2605 Y12.383
N2610 X230.884 Y12.176
N2615 X230.872 Y11.762
N2620 X230.859 Y11.595
N2625 X230.853 Y11.555
N2630 X230.818 Y11.348
N2635 X230.767 Y11.141
N2640 X230.699 Y10.934
N2645 X230.652 Y10.802
N2650 X230.52 Y10.519
N2655 X230.398 Y10.312
N2660 X230.252 Y10.105
N2665 X230.237 Y10.085
N2670 X230.083 Y9.898
N2675 X229.823 Y9.635
N2680 X229.639 Y9.484
N2685 X229.616 Y9.466
N2690 X229.409 Y9.322
N2695 X229.202 Y9.197
N2700 X228.931 Y9.069
N2705 X228.788 Y9.017
N2710 X228.581 Y8.949
N2715 X228.374 Y8.896
N2720 X228.166 Y8.861
N2725 X227.959 Y8.843
N2730 X227.545 Y8.829
N2735 X227.338 Y8.825
N2740 X12.375
N2745 X12.168 Y8.829
N2750 G3 X11.575 Y8.392 I0.011 J-0.635 F2421.7
N2755 G1 X11.544 Y8.298 Z10.008
N2760 X11.514 Y8.206 Z10.031
N2765 X11.485 Y8.118 Z10.069
N2770 X11.459 Y8.037 Z10.121
N2775 X11.435 Y7.965 Z10.186
N2780 X11.415 Y7.904 Z10.262
N2785 X11.399 Y7.854 Z10.347
N2790 X11.387 Y7.818 Z10.439
N2795 X11.379 Y7.796 Z10.536
N2800 X11.377 Y7.789 Z10.635
N2805 G0 Z32.
N2810 G53 G0 Z0.
N2815 G53 G0 X0. Y0.
N2820 M30
%
