%
(COVER_4-7-25)
(COVER)
(MACHINE)
(  VENDOR AUTODESK)
(  MODEL GENERIC 3-AXIS ROUTER)
(  DESCRIPTION THIS MACHINE HAS XYZ AXIS ON THE HEAD)
(T1 D=6.35 CR=0. - ZMIN=0. - FLAT END MILL)
N10 G90 G94 G17 G91.1
N15 G21
N20 G53 G0 Z0.
N25 T20 M6
N30 G43 Z27. H20
N35 S20000 M3
(2D ADAPTIVE2)
N40 G0 Z32.
N45 X-0.655 Y-7.277
N50 Z22.
N55 Z11.27
N60 G1 Z10.635 F2421.7
N65 X-0.653 Y-7.27 Z10.536
N70 X-0.647 Y-7.247 Z10.439
N75 X-0.638 Y-7.21 Z10.347
N80 X-0.625 Y-7.16 Z10.262
N85 X-0.609 Y-7.097 Z10.186
N90 X-0.59 Y-7.024 Z10.121
N95 X-0.569 Y-6.941 Z10.069
N100 X-0.546 Y-6.852 Z10.031
N105 X-0.522 Y-6.758 Z10.008
N110 X-0.497 Y-6.662 Z10.
N115 G3 X0. Y-3.205 I-15.704 J4.023
N120 G1 Y-3.091 F2500.
N125 X0.203 Y-2.202
N130 X0.383 Y-1.308
N135 X0.512 Y-0.406
N140 X0.604 Y0.501
N145 X0.669 Y1.411
N150 X0.715 Y2.322
N155 X0.748 Y3.233
N160 X0.771 Y4.144
N165 X0.787 Y5.056
N170 X0.798 Y5.968
N175 X0.806 Y6.88
N180 X0.812 Y7.791
N185 X0.816 Y8.703
N190 X0.82 Y10.527
N195 X0.823 Y13.262
N200 X0.825 Y20.557
N205 Y46.999
N210 Y97.149
N215 Y147.299
N220 Y197.448
N225 Y247.598
N230 Y249.422
N235 X0.85 Y249.533
N240 X0.9 Y249.636
N245 X1.184 Y249.992
N250 X1.935 Y250.51
N255 X2.782 Y250.848
N260 X3.664 Y251.076
N265 X4.563 Y251.232
N270 X5.468 Y251.339
N275 X6.377 Y251.414
N280 X7.287 Y251.466
N285 X8.198 Y251.503
N290 X9.11 Y251.528
N295 X10.021 Y251.546
N300 X10.933 Y251.559
N305 X11.845 Y251.567
N310 X12.757 Y251.573
N315 X13.669 Y251.578
N320 X15.492 Y251.583
N325 X18.228 Y251.586
N330 X24.61 Y251.588
N335 X49.229
N340 X99.379
N345 X149.529
N350 X199.678
N355 X236.721
N360 X236.832 Y251.563
N365 X236.935 Y251.513
N370 X237.291 Y251.229
N375 X237.809 Y250.479
N380 X238.148 Y249.632
N385 X238.376 Y248.749
N390 X238.532 Y247.851
N395 X238.639 Y246.945
N400 X238.714 Y246.036
N405 X238.766 Y245.126
N410 X238.803 Y244.215
N415 X238.828 Y243.304
N420 X238.846 Y242.392
N425 X238.858 Y241.48
N430 X238.867 Y240.568
N435 X238.873 Y239.657
N440 X238.878 Y238.745
N445 X238.883 Y236.921
N450 X238.886 Y234.186
N455 X238.888 Y227.803
N460 Y188.595
N465 Y138.445
N470 Y88.296
N475 Y38.146
N480 Y3.041
N485 X238.863 Y2.93
N490 X238.813 Y2.827
N495 X238.529 Y2.471
N500 X237.791 Y1.935
N505 X236.949 Y1.586
N510 X236.068 Y1.351
N515 X235.17 Y1.191
N520 X234.265 Y1.08
N525 X233.356 Y1.004
N530 X232.446 Y0.95
N535 X231.535 Y0.913
N540 X230.624 Y0.886
N545 X229.712 Y0.868
N550 X228.8 Y0.855
N555 X227.889 Y0.846
N560 X226.977 Y0.84
N565 X226.065 Y0.835
N570 X224.241 Y0.83
N575 X221.506 Y0.827
N580 X215.123 Y0.825
N585 X174.092
N590 X123.942
N595 X73.792
N600 X23.642
N605 X6.774
N610 X6.663 Y0.85
N615 X6.56 Y0.9
N620 X6.382 Y1.042
N625 X5.848 Y1.781
N630 X5.511 Y2.629
N635 X5.29 Y3.513
N640 X5.142 Y4.413
N645 X5.041 Y5.319
N650 X4.973 Y6.228
N655 X4.926 Y7.139
N660 X4.894 Y8.05
N665 X4.873 Y8.962
N670 X4.858 Y9.874
N675 X4.847 Y10.785
N680 X4.84 Y11.697
N685 X4.835 Y12.609
N690 X4.832 Y13.521
N695 X4.828 Y15.344
N700 X4.826 Y18.992
N705 X4.825 Y33.581
N710 Y83.73
N715 Y133.88
N720 Y184.03
N725 Y234.179
N730 Y244.893
N735 X4.889 Y245.112
N740 X5.12 Y245.505
N745 X5.766 Y246.148
N750 X6.571 Y246.578
N755 X7.433 Y246.874
N760 X8.321 Y247.081
N765 X9.221 Y247.227
N770 X10.127 Y247.33
N775 X11.036 Y247.404
N780 X11.946 Y247.456
N785 X12.857 Y247.494
N790 X13.769 Y247.521
N795 X14.68 Y247.54
N800 X15.592 Y247.554
N805 X16.504 Y247.563
N810 X17.415 Y247.57
N815 X18.327 Y247.575
N820 X19.239 Y247.579
N825 X21.063 Y247.583
N830 X23.798 Y247.586
N835 X31.093 Y247.588
N840 X43.858
N845 X94.008
N850 X144.157
N855 X194.307
N860 X232.147
N865 X232.371 Y247.545
N870 X232.772 Y247.327
N875 X233.427 Y246.693
N880 X233.863 Y245.892
N885 X234.164 Y245.032
N890 X234.374 Y244.144
N895 X234.522 Y243.245
N900 X234.627 Y242.339
N905 X234.701 Y241.43
N910 X234.755 Y240.52
N915 X234.793 Y239.609
N920 X234.82 Y238.697
N925 X234.839 Y237.786
N930 X234.853 Y236.874
N935 X234.863 Y235.962
N940 X234.87 Y235.051
N945 X234.875 Y234.139
N950 X234.879 Y233.227
N955 X234.883 Y231.403
N960 X234.886 Y228.668
N965 X234.888 Y221.373
N970 Y185.813
N975 Y135.663
N980 Y85.513
N985 Y35.364
N990 Y7.553
N995 X234.834 Y7.332
N1000 X234.611 Y6.934
N1005 X233.973 Y6.283
N1010 X233.172 Y5.848
N1015 X232.311 Y5.548
N1020 X231.423 Y5.339
N1025 X230.523 Y5.191
N1030 X229.618 Y5.086
N1035 X228.709 Y5.012
N1040 X227.799 Y4.958
N1045 X226.888 Y4.92
N1050 X225.976 Y4.893
N1055 X225.065 Y4.874
N1060 X224.153 Y4.86
N1065 X223.241 Y4.85
N1070 X222.329 Y4.843
N1075 X221.418 Y4.838
N1080 X220.506 Y4.834
N1085 X218.682 Y4.83
N1090 X215.947 Y4.827
N1095 X213.211 Y4.826
N1100 X163.061 Y4.825
N1105 X112.912
N1110 X62.762
N1115 X12.612
N1120 X11.473
N1125 X11.252 Y4.882
N1130 X10.86 Y5.114
N1135 X10.222 Y5.766
N1140 X9.799 Y6.574
N1145 X9.51 Y7.439
N1150 X9.309 Y8.328
N1155 X9.168 Y9.229
N1160 X9.068 Y10.135
N1165 X9.01 Y10.888
N1170 X9.004 Y10.939
N1175 X8.994 Y10.989
N1180 X8.98 Y11.038
N1185 X8.946 Y11.141
N1190 X8.895 Y11.348
N1195 X8.86 Y11.555
N1200 X8.854 Y11.595
N1205 X8.841 Y11.762
N1210 X8.829 Y12.176
N1215 X8.825 Y12.383
N1220 Y240.029
N1225 X8.829 Y240.237
N1230 X8.841 Y240.651
N1235 X8.854 Y240.818
N1240 X8.86 Y240.858
N1245 X8.895 Y241.065
N1250 X8.946 Y241.272
N1255 X9.014 Y241.479
N1260 X9.061 Y241.611
N1265 X9.193 Y241.894
N1270 X9.315 Y242.101
N1275 X9.461 Y242.308
N1280 X9.476 Y242.328
N1285 X9.63 Y242.515
N1290 X9.89 Y242.778
N1295 X10.074 Y242.929
N1300 X10.097 Y242.947
N1305 X10.304 Y243.091
N1310 X10.511 Y243.216
N1315 X10.782 Y243.344
N1320 X10.925 Y243.396
N1325 X11.132 Y243.464
N1330 X11.339 Y243.517
N1335 X11.547 Y243.552
N1340 X11.754 Y243.57
N1345 X12.168 Y243.584
N1350 X12.375 Y243.588
N1355 X227.338
N1360 X227.545 Y243.584
N1365 X227.959 Y243.57
N1370 X228.172 Y243.551
N1375 X228.374 Y243.517
N1380 X228.581 Y243.464
N1385 X228.788 Y243.396
N1390 X228.931 Y243.344
N1395 X229.202 Y243.216
N1400 X229.409 Y243.091
N1405 X229.616 Y242.947
N1410 X229.639 Y242.929
N1415 X229.823 Y242.778
N1420 X230.083 Y242.515
N1425 X230.237 Y242.328
N1430 X230.252 Y242.308
N1435 X230.398 Y242.101
N1440 X230.52 Y241.894
N1445 X230.652 Y241.611
N1450 X230.699 Y241.479
N1455 X230.767 Y241.272
N1460 X230.818 Y241.065
N1465 X230.853 Y240.858
N1470 X230.859 Y240.818
N1475 X230.872 Y240.651
N1480 X230.884 Y240.237
N1485 X230.888 Y240.029
N1490 Y12.383
N1495 X230.884 Y12.176
N1500 X230.872 Y11.762
N1505 X230.859 Y11.595
N1510 X230.853 Y11.555
N1515 X230.818 Y11.348
N1520 X230.767 Y11.141
N1525 X230.699 Y10.934
N1530 X230.652 Y10.802
N1535 X230.52 Y10.519
N1540 X230.398 Y10.312
N1545 X230.252 Y10.105
N1550 X230.237 Y10.085
N1555 X230.083 Y9.898
N1560 X229.823 Y9.635
N1565 X229.639 Y9.484
N1570 X229.616 Y9.466
N1575 X229.409 Y9.322
N1580 X229.202 Y9.197
N1585 X228.931 Y9.069
N1590 X228.788 Y9.017
N1595 X228.581 Y8.949
N1600 X228.374 Y8.896
N1605 X228.166 Y8.861
N1610 X227.959 Y8.843
N1615 X227.545 Y8.829
N1620 X227.338 Y8.825
N1625 X12.375
N1630 X12.168 Y8.829
N1635 G3 X11.575 Y8.392 I0.011 J-0.635 F2421.7
N1640 G1 X11.544 Y8.298 Z10.008
N1645 X11.514 Y8.206 Z10.031
N1650 X11.485 Y8.118 Z10.069
N1655 X11.459 Y8.037 Z10.121
N1660 X11.435 Y7.965 Z10.186
N1665 X11.415 Y7.904 Z10.262
N1670 X11.399 Y7.854 Z10.347
N1675 X11.387 Y7.818 Z10.439
N1680 X11.379 Y7.796 Z10.536
N1685 X11.377 Y7.789 Z10.635
(2D CONTOUR2)
N1690 G17 G90 G94
N1695 G54
N1700 G0 X-5.08 Y94.798
N1705 G0 Z17.
N1710 G1 Z15.135 F1000.
N1715 G18 G2 X-4.445 Z14.5 I0.635 K0. F2500.
N1720 G1 X-3.81
N1725 G17 G3 X-3.175 Y95.433 I0. J0.635
N1730 G1 Y252.413 Z13.718
N1735 G2 X0. Y255.588 Z13.694 I3.175 J0.
N1740 G1 X239.713 Z12.5
N1745 G2 X242.888 Y252.413 Z12.475 I0. J-3.175
N1750 G1 Y0. Z11.218
N1755 G2 X239.713 Y-3.175 Z11.194 I-3.175 J0.
N1760 G1 X0. Z10.
N1765 G2 X-3.175 Y0. Z9.975 I0. J3.175
N1770 G1 Y252.413 Z8.718
N1775 G2 X0. Y255.588 Z8.694 I3.175 J0.
N1780 G1 X239.713 Z7.5
N1785 G2 X242.888 Y252.413 Z7.475 I0. J-3.175
N1790 G1 Y0. Z6.218
N1795 G2 X239.713 Y-3.175 Z6.194 I-3.175 J0.
N1800 G1 X0. Z5.
N1805 G2 X-3.175 Y0. Z4.975 I0. J3.175
N1810 G1 Y252.413 Z3.718
N1815 G2 X0. Y255.588 Z3.694 I3.175 J0.
N1820 G1 X239.713 Z2.5
N1825 G2 X242.888 Y252.413 Z2.475 I0. J-3.175
N1830 G1 Y0. Z1.218
N1835 G2 X239.713 Y-3.175 Z1.194 I-3.175 J0.
N1840 G1 X0. Z0.
N1845 G2 X-3.175 Y0. I0. J3.175 F3500.
N1850 G1 Y252.413
N1855 G2 X0. Y255.588 I3.175 J0.
N1860 G1 X239.713
N1865 G2 X242.888 Y252.413 I0. J-3.175
N1870 G1 Y0.
N1875 G2 X239.713 Y-3.175 I-3.175 J0.
N1880 G1 X0.
N1885 G3 X-0.635 Y-3.81 I0. J-0.635 F2500.
N1890 G1 Y-4.445
N1895 G19 G2 Y-5.08 Z0.635 J0. K0.635
N1900 G1 Z17.
N1905 G0 Z27.
N1910 G17
N1915 G0 Z32.
N1920 G53 G0 Z0.
N1925 G53 G0 X0. Y0.
N1930 M30
%
