%
(RV_CABINET)
(MACHINE)
(  VENDOR AUTODESK)
(  MODEL GENERIC 3-AXIS ROUTER)
(  DESCRIPTION THIS MACHINE HAS XYZ AXIS ON THE HEAD)
(T1 D=6.35 CR=0. - ZMIN=-12.7 - FLAT END MILL)
N10 G90 G94 G17 G91.1
N15 G21
N20 G53 G0 Z0.
(2D ADAPTIVE1)
N25 T1 M6
N30 S18000 M3
N35 G17 G90 G94
N40 G54
N45 G0 X-339.832 Y-41.259
N50 G43 Z15. H1
N55 G0 Z5.
N60 Z2.5
N65 G3 X-336.777 Y-36.958 Z2.282 I0.108 J3.159 F2421.7
N70 X-341.926 Y-35.839 Z2.064 I-2.944 J-1.14
N75 X-340.934 Y-41.008 Z1.846 I2.202 J-2.257
N80 X-336.576 Y-38.069 Z1.628 I1.209 J2.908
N85 X-340.985 Y-35.219 Z1.41 I-3.146 J-0.03
N90 X-341.873 Y-40.387 Z1.192 I1.262 J-2.877
N95 X-336.778 Y-39.176 Z0.974 I2.148 J2.288
N100 X-339.889 Y-34.97 Z0.756 I-2.944 J1.075
N105 X-342.531 Y-39.478 Z0.538 I0.167 J-3.126
N110 X-337.354 Y-40.136 Z0.321 I2.806 J1.38
N115 X-338.781 Y-35.123 Z0.103 I-2.368 J2.036
N120 X-342.826 Y-38.4 Z-0.115 I-0.941 J-2.974
N125 X-338.229 Y-40.83 Z-0.333 I3.101 J0.302
N130 X-337.8 Y-35.655 Z-0.551 I-1.494 J2.729
N135 X-342.722 Y-37.291 Z-0.769 I-1.921 J-2.443
N140 X-339.289 Y-41.17 Z-0.987 I2.997 J-0.806
N145 X-337.073 Y-36.494 Z-1.205 I-0.436 J3.069
N150 X-342.237 Y-36.293 Z-1.423 I-2.648 J-1.604
N155 X-340.396 Y-41.115 Z-1.641 I2.512 J-1.803
N160 X-336.689 Y-37.532 Z-1.859 I0.671 J3.015
N165 X-341.433 Y-35.533 Z-2.077 I-3.032 J-0.567
N170 X-341.409 Y-40.675 Z-2.295 I1.71 J-2.563
N175 X-336.695 Y-38.635 Z-2.513 I1.683 J2.576
N180 X-340.418 Y-35.106 Z-2.731 I-3.027 J0.535
N185 X-342.199 Y-39.91 Z-2.949 I0.695 J-2.99
N190 X-337.088 Y-39.661 Z-3.167 I2.473 J1.812
N195 X-339.321 Y-35.065 Z-3.385 I-2.634 J1.561
N200 X-342.667 Y-38.919 Z-3.603 I-0.4 J-3.032
N205 X-337.814 Y-40.48 Z-3.821 I2.942 J0.822
N210 X-338.284 Y-35.411 Z-4.038 I-1.909 J2.38
N215 X-342.757 Y-37.831 Z-4.256 I-1.437 J-2.687
N220 X-338.779 Y-40.989 Z-4.474 I3.031 J-0.266
N225 X-337.438 Y-36.097 Z-4.692 I-0.945 J2.889
N230 X-342.458 Y-36.785 Z-4.91 I-2.283 J-2.001
N235 X-339.857 Y-41.125 Z-5.128 I2.733 J-1.312
N240 X-336.891 Y-37.034 Z-5.346 I0.133 J3.025
N245 X-341.812 Y-35.914 Z-5.564 I-2.83 J-1.065
N250 X-340.91 Y-40.874 Z-5.782 I2.088 J-2.182
N255 X-336.709 Y-38.1 Z-6. I1.185 J2.774
N260 X-342.742 I-3.016 J0.
N265 X-336.709 I3.016 J0.
N270 G1 X-336.705 Y-37.854 F3000.
N275 X-336.485 Y-36.898
N280 X-336.423 Y-36.761
N285 X-336.376 Y-36.619
N290 X-336.341 Y-36.462
N295 X-336.318 Y-36.288
N300 X-336.312 Y-36.098
N305 X-336.324 Y-35.892
N310 X-336.358 Y-35.673
N315 X-336.417 Y-35.443
N320 X-336.501 Y-35.205
N325 X-336.615 Y-34.961
N330 X-336.758 Y-34.716
N335 X-336.933 Y-34.472
N340 X-337.139 Y-34.235
N345 X-337.378 Y-34.008
N350 X-337.647 Y-33.795
N355 X-337.948 Y-33.601
N360 X-338.276 Y-33.43
N365 X-338.63 Y-33.286
N370 X-339.008 Y-33.172
N375 X-339.405 Y-33.092
N380 X-339.818 Y-33.048
N385 X-340.242 Y-33.043
N390 X-340.674 Y-33.079
N395 X-341.107 Y-33.156
N400 X-341.538 Y-33.275
N405 X-341.962 Y-33.436
N410 X-342.374 Y-33.638
N415 X-342.769 Y-33.88
N420 X-343.143 Y-34.161
N425 X-343.492 Y-34.478
N430 X-343.811 Y-34.829
N435 X-344.099 Y-35.21
N440 X-344.35 Y-35.619
N445 X-344.564 Y-36.051
N450 X-344.736 Y-36.503
N455 X-344.866 Y-36.971
N460 X-344.952 Y-37.45
N465 X-344.993 Y-37.937
N470 X-344.988 Y-38.426
N475 X-344.937 Y-38.913
N480 X-344.841 Y-39.395
N485 X-344.7 Y-39.865
N490 X-344.516 Y-40.321
N495 X-344.289 Y-40.758
N500 X-344.022 Y-41.173
N505 X-343.717 Y-41.561
N510 X-343.378 Y-41.919
N515 X-343.006 Y-42.243
N520 X-342.605 Y-42.532
N525 X-342.179 Y-42.782
N530 X-341.731 Y-42.991
N535 X-341.265 Y-43.157
N540 X-340.786 Y-43.279
N545 X-340.297 Y-43.356
N550 X-339.803 Y-43.387
N555 X-339.309 Y-43.371
N560 X-338.818 Y-43.309
N565 X-338.334 Y-43.202
N570 X-337.863 Y-43.049
N575 X-337.409 Y-42.854
N580 X-336.974 Y-42.616
N585 X-336.564 Y-42.339
N590 X-336.181 Y-42.025
N595 X-335.829 Y-41.677
N600 X-335.512 Y-41.297
N605 X-335.221 Y-40.873
N610 X-334.743 Y-40.016
N615 X-334.36 Y-39.186
N620 X-334.118 Y-38.5
N625 X-333.963 Y-37.881
N630 X-333.956 Y-37.834
N635 X-333.945 Y-37.737
N640 X-333.942 Y-37.639
N645 X-333.948 Y-37.542
N650 X-333.987 Y-37.138
N655 X-334.003 Y-36.991
N660 X-334.019 Y-36.915
N665 X-334.29 Y-36.023
N670 X-334.324 Y-35.912
N675 X-334.373 Y-35.8
N680 X-334.85 Y-34.908
N685 X-334.895 Y-34.837
N690 X-335.118 Y-34.564
N695 X-335.569 Y-34.016
N700 X-335.787 Y-33.823
N705 X-336.368 Y-33.347
N710 X-336.457 Y-33.275
N715 X-336.68 Y-33.147
N720 X-337.349 Y-32.789
N725 X-337.46 Y-32.73
N730 X-337.572 Y-32.688
N735 X-338.464 Y-32.417
N740 X-338.575 Y-32.386
N745 X-338.687 Y-32.37
N750 X-339.579 Y-32.282
N755 X-339.691 Y-32.272
N760 X-339.802 Y-32.275
N765 X-340.694 Y-32.363
N770 X-340.917 Y-32.397
N775 X-341.844 Y-32.677
N780 X-341.938 Y-32.708
N785 X-342.033 Y-32.752
N790 X-342.925 Y-33.229
N795 X-343.082 Y-33.347
N800 X-343.626 Y-33.793
N805 X-343.817 Y-33.951
N810 X-343.881 Y-34.016
N815 X-344.486 Y-34.752
N820 X-344.549 Y-34.83
N825 X-344.6 Y-34.908
N830 X-345.077 Y-35.8
N835 X-345.123 Y-35.903
N840 X-345.16 Y-36.023
N845 X-345.431 Y-36.915
N850 X-345.463 Y-37.138
N855 X-345.55 Y-38.031
N860 X-345.553 Y-38.142
N865 X-345.454 Y-39.146
N870 X-345.437 Y-39.257
N875 X-345.405 Y-39.369
N880 X-345.135 Y-40.261
N885 X-345.091 Y-40.373
N890 X-344.674 Y-41.153
N895 X-344.544 Y-41.376
N900 X-343.995 Y-42.046
N905 X-343.817 Y-42.249
N910 X-343.794 Y-42.269
N915 X-343.148 Y-42.8
N920 X-342.975 Y-42.938
N925 X-342.925 Y-42.97
N930 X-342.033 Y-43.448
N935 X-341.921 Y-43.498
N940 X-341.81 Y-43.533
N945 X-340.917 Y-43.804
N950 X-340.84 Y-43.821
N955 X-340.762 Y-43.83
N960 X-339.802 Y-43.925
N965 X-339.691 Y-43.928
N970 X-339.579 Y-43.918
N975 X-338.687 Y-43.83
N980 X-338.575 Y-43.814
N985 X-338.464 Y-43.783
N990 X-337.572 Y-43.512
N995 X-337.46 Y-43.47
N1000 X-337.126 Y-43.292
N1005 X-336.68 Y-43.053
N1010 X-336.474 Y-42.938
N1015 X-336.457 Y-42.925
N1020 X-335.656 Y-42.269
N1025 X-335.564 Y-42.179
N1030 X-335.088 Y-41.6
N1035 X-334.906 Y-41.376
N1040 X-334.895 Y-41.361
N1045 X-334.776 Y-41.153
N1050 X-334.359 Y-40.373
N1055 X-334.315 Y-40.261
N1060 X-334.045 Y-39.369
N1065 X-334.003 Y-39.208
N1070 X-333.996 Y-39.146
N1075 X-333.908 Y-38.254
N1080 X-333.898 Y-38.142
N1085 X-333.9 Y-38.031
N1090 X-333.948 Y-37.542
N1095 X-333.962 Y-37.468 F2000.
N1100 X-333.985 Y-37.396
N1105 X-334.025 Y-37.331 Z-5.995
N1110 X-334.063 Y-37.268 Z-5.982
N1115 X-334.101 Y-37.206 Z-5.959
N1120 X-334.165 Y-37.155 Z-5.921
N1125 X-334.223 Y-37.109 Z-5.873
N1130 X-334.276 Y-37.067 Z-5.814
N1135 X-334.337 Y-37.045 Z-5.738
N1140 X-334.386 Y-37.027 Z-5.653
N1145 X-334.421 Y-37.014 Z-5.561
N1150 X-334.443 Y-37.006 Z-5.465
N1155 X-334.45 Y-37.004 Z-5.365
N1160 G0 Z5.
N1165 X-339.832 Y-41.259
N1170 Z-3.5
N1175 G3 X-336.777 Y-36.958 Z-3.718 I0.108 J3.159 F2421.7
N1180 X-341.926 Y-35.839 Z-3.936 I-2.944 J-1.14
N1185 X-340.934 Y-41.008 Z-4.154 I2.202 J-2.257
N1190 X-336.576 Y-38.069 Z-4.372 I1.209 J2.908
N1195 X-340.985 Y-35.219 Z-4.59 I-3.146 J-0.03
N1200 X-341.873 Y-40.387 Z-4.808 I1.262 J-2.877
N1205 X-336.778 Y-39.176 Z-5.026 I2.148 J2.288
N1210 X-339.889 Y-34.97 Z-5.244 I-2.944 J1.075
N1215 X-342.531 Y-39.478 Z-5.462 I0.167 J-3.126
N1220 X-337.354 Y-40.136 Z-5.679 I2.806 J1.38
N1225 X-338.781 Y-35.123 Z-5.897 I-2.368 J2.036
N1230 X-342.826 Y-38.4 Z-6.115 I-0.941 J-2.974
N1235 X-338.229 Y-40.83 Z-6.333 I3.101 J0.302
N1240 X-337.8 Y-35.655 Z-6.551 I-1.494 J2.729
N1245 X-342.722 Y-37.291 Z-6.769 I-1.921 J-2.443
N1250 X-339.289 Y-41.17 Z-6.987 I2.997 J-0.806
N1255 X-337.073 Y-36.494 Z-7.205 I-0.436 J3.069
N1260 X-342.237 Y-36.293 Z-7.423 I-2.648 J-1.604
N1265 X-340.396 Y-41.115 Z-7.641 I2.512 J-1.803
N1270 X-336.689 Y-37.532 Z-7.859 I0.671 J3.015
N1275 X-341.433 Y-35.533 Z-8.077 I-3.032 J-0.567
N1280 X-341.409 Y-40.675 Z-8.295 I1.71 J-2.563
N1285 X-336.695 Y-38.635 Z-8.513 I1.683 J2.576
N1290 X-340.418 Y-35.106 Z-8.731 I-3.027 J0.535
N1295 X-342.199 Y-39.91 Z-8.949 I0.695 J-2.99
N1300 X-337.088 Y-39.661 Z-9.167 I2.473 J1.812
N1305 X-339.321 Y-35.065 Z-9.385 I-2.634 J1.561
N1310 X-342.667 Y-38.919 Z-9.603 I-0.4 J-3.032
N1315 X-337.814 Y-40.48 Z-9.821 I2.942 J0.822
N1320 X-338.284 Y-35.411 Z-10.038 I-1.909 J2.38
N1325 X-342.757 Y-37.831 Z-10.256 I-1.437 J-2.687
N1330 X-338.779 Y-40.989 Z-10.474 I3.031 J-0.266
N1335 X-337.438 Y-36.097 Z-10.692 I-0.945 J2.889
N1340 X-342.458 Y-36.785 Z-10.91 I-2.283 J-2.001
N1345 X-339.857 Y-41.125 Z-11.128 I2.733 J-1.312
N1350 X-336.891 Y-37.034 Z-11.346 I0.133 J3.025
N1355 X-341.812 Y-35.914 Z-11.564 I-2.83 J-1.065
N1360 X-340.91 Y-40.874 Z-11.782 I2.088 J-2.182
N1365 X-336.709 Y-38.1 Z-12. I1.185 J2.774
N1370 X-342.742 I-3.016 J0.
N1375 X-336.709 I3.016 J0.
N1380 G1 X-336.705 Y-37.854 F3000.
N1385 X-336.485 Y-36.898
N1390 X-336.423 Y-36.761
N1395 X-336.376 Y-36.619
N1400 X-336.341 Y-36.462
N1405 X-336.318 Y-36.288
N1410 X-336.312 Y-36.098
N1415 X-336.324 Y-35.892
N1420 X-336.358 Y-35.673
N1425 X-336.417 Y-35.443
N1430 X-336.501 Y-35.205
N1435 X-336.615 Y-34.961
N1440 X-336.758 Y-34.716
N1445 X-336.933 Y-34.472
N1450 X-337.139 Y-34.235
N1455 X-337.378 Y-34.008
N1460 X-337.647 Y-33.795
N1465 X-337.948 Y-33.601
N1470 X-338.276 Y-33.43
N1475 X-338.63 Y-33.286
N1480 X-339.008 Y-33.172
N1485 X-339.405 Y-33.092
N1490 X-339.818 Y-33.048
N1495 X-340.242 Y-33.043
N1500 X-340.674 Y-33.079
N1505 X-341.107 Y-33.156
N1510 X-341.538 Y-33.275
N1515 X-341.962 Y-33.436
N1520 X-342.374 Y-33.638
N1525 X-342.769 Y-33.88
N1530 X-343.143 Y-34.161
N1535 X-343.492 Y-34.478
N1540 X-343.811 Y-34.829
N1545 X-344.099 Y-35.21
N1550 X-344.35 Y-35.619
N1555 X-344.564 Y-36.051
N1560 X-344.736 Y-36.503
N1565 X-344.866 Y-36.971
N1570 X-344.952 Y-37.45
N1575 X-344.993 Y-37.937
N1580 X-344.988 Y-38.426
N1585 X-344.937 Y-38.913
N1590 X-344.841 Y-39.395
N1595 X-344.7 Y-39.865
N1600 X-344.516 Y-40.321
N1605 X-344.289 Y-40.758
N1610 X-344.022 Y-41.173
N1615 X-343.717 Y-41.561
N1620 X-343.378 Y-41.919
N1625 X-343.006 Y-42.243
N1630 X-342.605 Y-42.532
N1635 X-342.179 Y-42.782
N1640 X-341.731 Y-42.991
N1645 X-341.265 Y-43.157
N1650 X-340.786 Y-43.279
N1655 X-340.297 Y-43.356
N1660 X-339.803 Y-43.387
N1665 X-339.309 Y-43.371
N1670 X-338.818 Y-43.309
N1675 X-338.334 Y-43.202
N1680 X-337.863 Y-43.049
N1685 X-337.409 Y-42.854
N1690 X-336.974 Y-42.616
N1695 X-336.564 Y-42.339
N1700 X-336.181 Y-42.025
N1705 X-335.829 Y-41.677
N1710 X-335.512 Y-41.297
N1715 X-335.221 Y-40.873
N1720 X-334.743 Y-40.016
N1725 X-334.36 Y-39.186
N1730 X-334.118 Y-38.5
N1735 X-333.963 Y-37.881
N1740 X-333.956 Y-37.834
N1745 X-333.945 Y-37.737
N1750 X-333.942 Y-37.639
N1755 X-333.948 Y-37.542
N1760 X-333.987 Y-37.138
N1765 X-334.003 Y-36.991
N1770 X-334.019 Y-36.915
N1775 X-334.29 Y-36.023
N1780 X-334.324 Y-35.912
N1785 X-334.373 Y-35.8
N1790 X-334.85 Y-34.908
N1795 X-334.895 Y-34.837
N1800 X-335.118 Y-34.564
N1805 X-335.569 Y-34.016
N1810 X-335.787 Y-33.823
N1815 X-336.368 Y-33.347
N1820 X-336.457 Y-33.275
N1825 X-336.68 Y-33.147
N1830 X-337.349 Y-32.789
N1835 X-337.46 Y-32.73
N1840 X-337.572 Y-32.688
N1845 X-338.464 Y-32.417
N1850 X-338.575 Y-32.386
N1855 X-338.687 Y-32.37
N1860 X-339.579 Y-32.282
N1865 X-339.691 Y-32.272
N1870 X-339.802 Y-32.275
N1875 X-340.694 Y-32.363
N1880 X-340.917 Y-32.397
N1885 X-341.844 Y-32.677
N1890 X-341.938 Y-32.708
N1895 X-342.033 Y-32.752
N1900 X-342.925 Y-33.229
N1905 X-343.082 Y-33.347
N1910 X-343.626 Y-33.793
N1915 X-343.817 Y-33.951
N1920 X-343.881 Y-34.016
N1925 X-344.486 Y-34.752
N1930 X-344.549 Y-34.83
N1935 X-344.6 Y-34.908
N1940 X-345.077 Y-35.8
N1945 X-345.123 Y-35.903
N1950 X-345.16 Y-36.023
N1955 X-345.431 Y-36.915
N1960 X-345.463 Y-37.138
N1965 X-345.55 Y-38.031
N1970 X-345.553 Y-38.142
N1975 X-345.454 Y-39.146
N1980 X-345.437 Y-39.257
N1985 X-345.405 Y-39.369
N1990 X-345.135 Y-40.261
N1995 X-345.091 Y-40.373
N2000 X-344.674 Y-41.153
N2005 X-344.544 Y-41.376
N2010 X-343.995 Y-42.046
N2015 X-343.817 Y-42.249
N2020 X-343.794 Y-42.269
N2025 X-343.148 Y-42.8
N2030 X-342.975 Y-42.938
N2035 X-342.925 Y-42.97
N2040 X-342.033 Y-43.448
N2045 X-341.921 Y-43.498
N2050 X-341.81 Y-43.533
N2055 X-340.917 Y-43.804
N2060 X-340.84 Y-43.821
N2065 X-340.762 Y-43.83
N2070 X-339.802 Y-43.925
N2075 X-339.691 Y-43.928
N2080 X-339.579 Y-43.918
N2085 X-338.687 Y-43.83
N2090 X-338.575 Y-43.814
N2095 X-338.464 Y-43.783
N2100 X-337.572 Y-43.512
N2105 X-337.46 Y-43.47
N2110 X-337.126 Y-43.292
N2115 X-336.68 Y-43.053
N2120 X-336.474 Y-42.938
N2125 X-336.457 Y-42.925
N2130 X-335.656 Y-42.269
N2135 X-335.564 Y-42.179
N2140 X-335.088 Y-41.6
N2145 X-334.906 Y-41.376
N2150 X-334.895 Y-41.361
N2155 X-334.776 Y-41.153
N2160 X-334.359 Y-40.373
N2165 X-334.315 Y-40.261
N2170 X-334.045 Y-39.369
N2175 X-334.003 Y-39.208
N2180 X-333.996 Y-39.146
N2185 X-333.908 Y-38.254
N2190 X-333.898 Y-38.142
N2195 X-333.9 Y-38.031
N2200 X-333.948 Y-37.542
N2205 X-333.962 Y-37.468 F2000.
N2210 X-333.985 Y-37.396
N2215 X-334.025 Y-37.331 Z-11.995
N2220 X-334.063 Y-37.268 Z-11.982
N2225 X-334.101 Y-37.206 Z-11.959
N2230 X-334.165 Y-37.155 Z-11.921
N2235 X-334.223 Y-37.109 Z-11.873
N2240 X-334.276 Y-37.067 Z-11.814
N2245 X-334.337 Y-37.045 Z-11.738
N2250 X-334.386 Y-37.027 Z-11.653
N2255 X-334.421 Y-37.014 Z-11.561
N2260 X-334.443 Y-37.006 Z-11.465
N2265 X-334.45 Y-37.004 Z-11.365
N2270 G0 Z5.
N2275 X-336.691 Y-38.504
N2280 Z-9.5
N2285 G3 X-339.667 Y-35.04 Z-9.68 I-3.034 J0.404 F2421.7
N2290 X-342.768 Y-38.386 Z-9.86 I-0.057 J-3.057
N2295 X-339.096 Y-41.085 Z-10.04 I3.04 J0.289
N2300 X-336.833 Y-37.135 Z-10.22 I-0.631 J2.985
N2305 X-341.01 Y-35.336 Z-10.4 I-2.891 J-0.964
N2310 X-342.323 Y-39.685 Z-10.58 I1.284 J-2.76
N2315 X-337.857 Y-40.496 Z-10.76 I2.595 J1.587
N2320 X-337.558 Y-35.972 Z-10.94 I-1.869 J2.396
N2325 X-342.082 Y-36.187 Z-11.12 I-2.166 J-2.126
N2330 X-341.357 Y-40.653 Z-11.3 I2.355 J-1.909
N2335 X-337.006 Y-39.428 Z-11.48 I1.629 J2.554
N2340 X-338.714 Y-35.249 Z-11.66 I-2.719 J1.327
N2345 X-342.669 Y-37.417 Z-11.84 I-1.01 J-2.849
N2350 X-340.069 Y-41.097 Z-12.02 I2.942 J-0.68
N2355 X-336.711 Y-38.1 Z-12.2 I0.342 J2.997
N2360 X-342.744 I-3.016 J0.
N2365 X-336.711 I3.016 J0.
N2370 G1 X-336.707 Y-37.855 F3000.
N2375 X-336.487 Y-36.898
N2380 X-336.425 Y-36.762
N2385 X-336.378 Y-36.619
N2390 X-336.343 Y-36.463
N2395 X-336.321 Y-36.289
N2400 X-336.315 Y-36.098
N2405 X-336.327 Y-35.893
N2410 X-336.361 Y-35.674
N2415 X-336.419 Y-35.444
N2420 X-336.504 Y-35.205
N2425 X-336.617 Y-34.962
N2430 X-336.761 Y-34.716
N2435 X-336.935 Y-34.473
N2440 X-337.142 Y-34.235
N2445 X-337.38 Y-34.008
N2450 X-337.65 Y-33.796
N2455 X-337.95 Y-33.602
N2460 X-338.279 Y-33.431
N2465 X-338.633 Y-33.287
N2470 X-339.011 Y-33.173
N2475 X-339.408 Y-33.093
N2480 X-339.821 Y-33.049
N2485 X-340.245 Y-33.044
N2490 X-340.676 Y-33.08
N2495 X-341.11 Y-33.157
N2500 X-341.541 Y-33.276
N2505 X-341.964 Y-33.436
N2510 X-342.376 Y-33.639
N2515 X-342.771 Y-33.881
N2520 X-343.145 Y-34.162
N2525 X-343.494 Y-34.479
N2530 X-343.814 Y-34.83
N2535 X-344.101 Y-35.211
N2540 X-344.353 Y-35.62
N2545 X-344.566 Y-36.052
N2550 X-344.739 Y-36.504
N2555 X-344.868 Y-36.972
N2560 X-344.954 Y-37.451
N2565 X-344.995 Y-37.937
N2570 X-344.99 Y-38.427
N2575 X-344.94 Y-38.914
N2580 X-344.843 Y-39.395
N2585 X-344.702 Y-39.866
N2590 X-344.518 Y-40.322
N2595 X-344.291 Y-40.759
N2600 X-344.024 Y-41.173
N2605 X-343.72 Y-41.561
N2610 X-343.38 Y-41.919
N2615 X-343.008 Y-42.244
N2620 X-342.607 Y-42.532
N2625 X-342.181 Y-42.782
N2630 X-341.733 Y-42.991
N2635 X-341.267 Y-43.158
N2640 X-340.788 Y-43.28
N2645 X-340.299 Y-43.356
N2650 X-339.805 Y-43.387
N2655 X-339.311 Y-43.371
N2660 X-338.82 Y-43.309
N2665 X-338.337 Y-43.202
N2670 X-337.866 Y-43.05
N2675 X-337.411 Y-42.854
N2680 X-336.977 Y-42.616
N2685 X-336.566 Y-42.339
N2690 X-336.183 Y-42.025
N2695 X-335.832 Y-41.677
N2700 X-335.514 Y-41.297
N2705 X-335.223 Y-40.873
N2710 X-334.745 Y-40.016
N2715 X-334.362 Y-39.186
N2720 X-334.12 Y-38.5
N2725 X-333.965 Y-37.881
N2730 X-333.957 Y-37.824
N2735 X-333.946 Y-37.727
N2740 X-333.943 Y-37.629
N2745 X-333.949 Y-37.532
N2750 X-333.987 Y-37.138
N2755 X-334.003 Y-36.991
N2760 X-334.019 Y-36.915
N2765 X-334.29 Y-36.023
N2770 X-334.324 Y-35.912
N2775 X-334.373 Y-35.8
N2780 X-334.85 Y-34.908
N2785 X-334.895 Y-34.837
N2790 X-335.118 Y-34.564
N2795 X-335.569 Y-34.016
N2800 X-335.787 Y-33.823
N2805 X-336.368 Y-33.347
N2810 X-336.457 Y-33.275
N2815 X-336.68 Y-33.147
N2820 X-337.349 Y-32.789
N2825 X-337.46 Y-32.73
N2830 X-337.572 Y-32.688
N2835 X-338.464 Y-32.417
N2840 X-338.575 Y-32.386
N2845 X-338.687 Y-32.37
N2850 X-339.579 Y-32.282
N2855 X-339.691 Y-32.272
N2860 X-339.802 Y-32.275
N2865 X-340.694 Y-32.363
N2870 X-340.917 Y-32.397
N2875 X-341.844 Y-32.677
N2880 X-341.938 Y-32.708
N2885 X-342.033 Y-32.752
N2890 X-342.925 Y-33.229
N2895 X-343.082 Y-33.347
N2900 X-343.626 Y-33.793
N2905 X-343.817 Y-33.951
N2910 X-343.881 Y-34.016
N2915 X-344.486 Y-34.752
N2920 X-344.549 Y-34.83
N2925 X-344.6 Y-34.908
N2930 X-345.077 Y-35.8
N2935 X-345.123 Y-35.903
N2940 X-345.16 Y-36.023
N2945 X-345.431 Y-36.915
N2950 X-345.463 Y-37.138
N2955 X-345.55 Y-38.031
N2960 X-345.553 Y-38.142
N2965 X-345.454 Y-39.146
N2970 X-345.437 Y-39.257
N2975 X-345.405 Y-39.369
N2980 X-345.135 Y-40.261
N2985 X-345.091 Y-40.373
N2990 X-344.674 Y-41.153
N2995 X-344.544 Y-41.376
N3000 X-343.995 Y-42.046
N3005 X-343.817 Y-42.249
N3010 X-343.794 Y-42.269
N3015 X-343.148 Y-42.8
N3020 X-342.975 Y-42.938
N3025 X-342.925 Y-42.97
N3030 X-342.033 Y-43.448
N3035 X-341.921 Y-43.498
N3040 X-341.81 Y-43.533
N3045 X-340.917 Y-43.804
N3050 X-340.84 Y-43.821
N3055 X-340.762 Y-43.83
N3060 X-339.802 Y-43.925
N3065 X-339.691 Y-43.928
N3070 X-339.579 Y-43.918
N3075 X-338.687 Y-43.83
N3080 X-338.575 Y-43.814
N3085 X-338.464 Y-43.783
N3090 X-337.572 Y-43.512
N3095 X-337.46 Y-43.47
N3100 X-337.126 Y-43.292
N3105 X-336.68 Y-43.053
N3110 X-336.474 Y-42.938
N3115 X-336.457 Y-42.925
N3120 X-335.656 Y-42.269
N3125 X-335.564 Y-42.179
N3130 X-335.088 Y-41.6
N3135 X-334.906 Y-41.376
N3140 X-334.895 Y-41.361
N3145 X-334.776 Y-41.153
N3150 X-334.359 Y-40.373
N3155 X-334.315 Y-40.261
N3160 X-334.045 Y-39.369
N3165 X-334.003 Y-39.208
N3170 X-333.996 Y-39.146
N3175 X-333.908 Y-38.254
N3180 X-333.898 Y-38.142
N3185 X-333.9 Y-38.031
N3190 X-333.949 Y-37.532
N3195 G3 X-334.451 Y-36.994 I-0.629 J-0.084 F2000.
N3200 G1 X-334.549 Y-36.974 Z-12.192
N3205 X-334.644 Y-36.954 Z-12.169
N3210 X-334.734 Y-36.936 Z-12.131
N3215 X-334.817 Y-36.919 Z-12.079
N3220 X-334.891 Y-36.904 Z-12.014
N3225 X-334.955 Y-36.891 Z-11.938
N3230 X-335.006 Y-36.881 Z-11.853
N3235 X-335.043 Y-36.873 Z-11.761
N3240 X-335.066 Y-36.868 Z-11.664
N3245 X-335.074 Y-36.867 Z-11.565
N3250 G0 Z15.
(2D CONTOUR2)
N3255 G0 X-116.84 Y-461.645
N3260 Z15.
N3265 Z5.
N3270 G1 Z1. F333.33
N3275 Z-2.54
N3280 X-116.835 Y-461.639 Z-2.639 F1000.
N3285 X-116.821 Y-461.62 Z-2.736
N3290 X-116.798 Y-461.59 Z-2.828
N3295 X-116.767 Y-461.548 Z-2.913
N3300 X-116.728 Y-461.496 Z-2.989
N3305 X-116.683 Y-461.436 Z-3.054
N3310 X-116.632 Y-461.368 Z-3.106
N3315 X-116.577 Y-461.294 Z-3.144
N3320 X-116.519 Y-461.216 Z-3.167
N3325 X-116.459 Y-461.137 Z-3.175
N3330 X-116.078 Y-460.629
N3335 G3 X-116.205 Y-459.74 I-0.508 J0.381
N3340 G2 X-117.475 Y-457.2 I1.905 J2.54
N3345 G1 Y-149.225
N3350 X-123.825
N3355 Y-771.525
N3360 X-117.475
N3365 Y-469.9
N3370 G2 X-114.3 Y-466.725 I3.175 J0.
N3375 G1 X123.825
N3380 Y-460.375
N3385 X-114.3
N3390 G2 X-116.205 Y-459.74 I0. J3.175
N3395 G3 X-117.094 Y-459.867 I-0.381 J-0.508
N3400 G1 X-117.475 Y-460.375
N3405 X-117.535 Y-460.454 Z-3.167
N3410 X-117.593 Y-460.532 Z-3.144
N3415 X-117.648 Y-460.606 Z-3.106
N3420 X-117.699 Y-460.674 Z-3.054
N3425 X-117.744 Y-460.734 Z-2.989
N3430 X-117.783 Y-460.786 Z-2.913
N3435 X-117.814 Y-460.828 Z-2.828
N3440 X-117.837 Y-460.858 Z-2.736
N3445 X-117.851 Y-460.877 Z-2.639
N3450 X-117.856 Y-460.883 Z-2.54
N3455 G0 Z5.
N3460 X-116.84 Y-461.645
N3465 G1 Z-2.175 F333.33
N3470 Z-5.715
N3475 X-116.835 Y-461.639 Z-5.814 F1000.
N3480 X-116.821 Y-461.62 Z-5.911
N3485 X-116.798 Y-461.59 Z-6.003
N3490 X-116.767 Y-461.548 Z-6.088
N3495 X-116.728 Y-461.496 Z-6.164
N3500 X-116.683 Y-461.436 Z-6.229
N3505 X-116.632 Y-461.368 Z-6.281
N3510 X-116.577 Y-461.294 Z-6.319
N3515 X-116.519 Y-461.216 Z-6.342
N3520 X-116.459 Y-461.137 Z-6.35
N3525 X-116.078 Y-460.629
N3530 G3 X-116.205 Y-459.74 I-0.508 J0.381
N3535 G2 X-117.475 Y-457.2 I1.905 J2.54
N3540 G1 Y-149.225
N3545 X-123.825
N3550 Y-771.525
N3555 X-117.475
N3560 Y-469.9
N3565 G2 X-114.3 Y-466.725 I3.175 J0.
N3570 G1 X123.825
N3575 Y-460.375
N3580 X-114.3
N3585 G2 X-116.205 Y-459.74 I0. J3.175
N3590 G3 X-117.094 Y-459.867 I-0.381 J-0.508
N3595 G1 X-117.475 Y-460.375
N3600 X-117.535 Y-460.454 Z-6.342
N3605 X-117.593 Y-460.532 Z-6.319
N3610 X-117.648 Y-460.606 Z-6.281
N3615 X-117.699 Y-460.674 Z-6.229
N3620 X-117.744 Y-460.734 Z-6.164
N3625 X-117.783 Y-460.786 Z-6.088
N3630 X-117.814 Y-460.828 Z-6.003
N3635 X-117.837 Y-460.858 Z-5.911
N3640 X-117.851 Y-460.877 Z-5.814
N3645 X-117.856 Y-460.883 Z-5.715
N3650 G0 Z5.
N3655 X149.257 Y-429.491
N3660 G1 Z1. F333.33
N3665 Z-2.54
N3670 X149.262 Y-429.486 Z-2.639 F1000.
N3675 X149.279 Y-429.469 Z-2.736
N3680 X149.306 Y-429.442 Z-2.828
N3685 X149.343 Y-429.405 Z-2.913
N3690 X149.388 Y-429.36 Z-2.989
N3695 X149.442 Y-429.306 Z-3.054
N3700 X149.502 Y-429.246 Z-3.106
N3705 X149.567 Y-429.181 Z-3.144
N3710 X149.636 Y-429.112 Z-3.167
N3715 X149.706 Y-429.042 Z-3.175
N3720 X150.155 Y-428.593
N3725 G3 Y-427.695 I-0.449 J0.449
N3730 G2 X149.225 Y-425.45 I2.245 J2.245
N3735 G1 Y-327.025
N3740 X142.875
N3745 Y-434.975
N3750 X390.525
N3755 Y-428.625
N3760 X152.4
N3765 G2 X150.155 Y-427.695 I0. J3.175
N3770 G3 X149.257 I-0.449 J-0.449
N3775 G1 X148.808 Y-428.144
N3780 X148.738 Y-428.214 Z-3.167
N3785 X148.669 Y-428.283 Z-3.144
N3790 X148.604 Y-428.348 Z-3.106
N3795 X148.544 Y-428.408 Z-3.054
N3800 X148.49 Y-428.462 Z-2.989
N3805 X148.445 Y-428.507 Z-2.913
N3810 X148.408 Y-428.544 Z-2.828
N3815 X148.381 Y-428.571 Z-2.736
N3820 X148.364 Y-428.588 Z-2.639
N3825 X148.359 Y-428.593 Z-2.54
N3830 G0 Z5.
N3835 X149.257 Y-429.491
N3840 G1 Z-2.175 F333.33
N3845 Z-5.715
N3850 X149.262 Y-429.486 Z-5.814 F1000.
N3855 X149.279 Y-429.469 Z-5.911
N3860 X149.306 Y-429.442 Z-6.003
N3865 X149.343 Y-429.405 Z-6.088
N3870 X149.388 Y-429.36 Z-6.164
N3875 X149.442 Y-429.306 Z-6.229
N3880 X149.502 Y-429.246 Z-6.281
N3885 X149.567 Y-429.181 Z-6.319
N3890 X149.636 Y-429.112 Z-6.342
N3895 X149.706 Y-429.042 Z-6.35
N3900 X150.155 Y-428.593
N3905 G3 Y-427.695 I-0.449 J0.449
N3910 G2 X149.225 Y-425.45 I2.245 J2.245
N3915 G1 Y-327.025
N3920 X142.875
N3925 Y-434.975
N3930 X390.525
N3935 Y-428.625
N3940 X152.4
N3945 G2 X150.155 Y-427.695 I0. J3.175
N3950 G3 X149.257 I-0.449 J-0.449
N3955 G1 X148.808 Y-428.144
N3960 X148.738 Y-428.214 Z-6.342
N3965 X148.669 Y-428.283 Z-6.319
N3970 X148.604 Y-428.348 Z-6.281
N3975 X148.544 Y-428.408 Z-6.229
N3980 X148.49 Y-428.462 Z-6.164
N3985 X148.445 Y-428.507 Z-6.088
N3990 X148.408 Y-428.544 Z-6.003
N3995 X148.381 Y-428.571 Z-5.911
N4000 X148.364 Y-428.588 Z-5.814
N4005 X148.359 Y-428.593 Z-5.715
N4010 G0 Z5.
N4015 X-144.78 Y-146.685
N4020 G1 Z1. F333.33
N4025 Z-2.54
N4030 G18 G2 X-144.145 Z-3.175 I0.635 K0. F1000.
N4035 G1 X-143.51
N4040 G17 G3 X-142.875 Y-146.05 I0. J0.635
N4045 G1 Y-142.875
N4050 X-390.525
N4055 Y-149.225
N4060 X-142.875
N4065 Y-146.05
N4070 G3 X-143.51 Y-145.415 I-0.635 J0.
N4075 G1 X-144.145
N4080 G18 G3 X-144.78 Z-2.54 I0. K0.635
N4085 G0 Z5.
N4090 Y-146.685
N4095 G1 Z-2.175 F333.33
N4100 Z-5.715
N4105 G2 X-144.145 Z-6.35 I0.635 K0. F1000.
N4110 G1 X-143.51
N4115 G17 G3 X-142.875 Y-146.05 I0. J0.635
N4120 G1 Y-142.875
N4125 X-390.525
N4130 Y-149.225
N4135 X-142.875
N4140 Y-146.05
N4145 G3 X-143.51 Y-145.415 I-0.635 J0.
N4150 G1 X-144.145
N4155 G18 G3 X-144.78 Z-5.715 I0. K0.635
N4160 G0 Z5.
N4165 X-290.83 Y196.215
N4170 G1 Z1. F333.33
N4175 Z-2.54
N4180 G2 X-290.195 Z-3.175 I0.635 K0. F1000.
N4185 G1 X-289.56
N4190 G17 G3 X-288.925 Y196.85 I0. J0.635
N4195 G1 Y200.025
N4200 X-390.525
N4205 Y193.675
N4210 X-288.925
N4215 Y196.85
N4220 G3 X-289.56 Y197.485 I-0.635 J0.
N4225 G1 X-290.195
N4230 G18 G3 X-290.83 Z-2.54 I0. K0.635
N4235 G0 Z5.
N4240 Y196.215
N4245 G1 Z-2.175 F333.33
N4250 Z-5.715
N4255 G2 X-290.195 Z-6.35 I0.635 K0. F1000.
N4260 G1 X-289.56
N4265 G17 G3 X-288.925 Y196.85 I0. J0.635
N4270 G1 Y200.025
N4275 X-390.525
N4280 Y193.675
N4285 X-288.925
N4290 Y196.85
N4295 G3 X-289.56 Y197.485 I-0.635 J0.
N4300 G1 X-290.195
N4305 G18 G3 X-290.83 Z-5.715 I0. K0.635
N4310 G0 Z15.
N4315 X-120.661 Y-140.97
N4320 Z5.
N4325 G1 Z1. F333.33
N4330 Z-5.365
N4335 G19 G2 Y-141.605 Z-6. J-0.635 K0. F1000.
N4340 G1 Y-142.24
N4345 G17 G3 X-120.026 Y-142.875 I0.635 J0.
N4350 G1 X127.
N4355 G2 X130.175 Y-146.05 I0. J-3.175
N4360 G1 Y-774.7
N4365 G2 X127. Y-777.875 I-3.175 J0.
N4370 G1 X-127.
N4375 G2 X-130.175 Y-774.7 I0. J3.175
N4380 G1 Y-146.05
N4385 G2 X-127. Y-142.875 I3.175 J0.
N4390 G1 X-120.026
N4395 G3 X-119.391 Y-142.24 I0. J0.635
N4400 G1 Y-141.605
N4405 G19 G3 Y-140.97 Z-5.365 J0. K0.635
N4410 G0 Z5.
N4415 X-139.03 Y-134.624
N4420 G1 Z1. F333.33
N4425 Z-5.365
N4430 X-139.032 Y-134.632 Z-5.464 F1000.
N4435 X-139.038 Y-134.655 Z-5.561
N4440 X-139.048 Y-134.691 Z-5.653
N4445 X-139.061 Y-134.742 Z-5.738
N4450 X-139.077 Y-134.804 Z-5.814
N4455 X-139.096 Y-134.878 Z-5.879
N4460 X-139.118 Y-134.96 Z-5.931
N4465 X-139.141 Y-135.049 Z-5.969
N4470 X-139.165 Y-135.143 Z-5.992
N4475 X-139.191 Y-135.239 Z-6.
N4480 X-139.351 Y-135.853
N4485 G17 G3 X-138.897 Y-136.628 I0.614 J-0.161
N4490 G2 X-136.525 Y-139.7 I-0.803 J-3.072
N4495 G1 Y-774.7
N4500 G2 X-139.7 Y-777.875 I-3.175 J0.
N4505 G1 X-393.7
N4510 G2 X-396.875 Y-774.7 I0. J3.175
N4515 G1 Y-139.7
N4520 G2 X-393.7 Y-136.525 I3.175 J0.
N4525 G1 X-139.7
N4530 G2 X-138.897 Y-136.628 I0. J-3.175
N4535 G3 X-138.122 Y-136.174 I0.161 J0.614
N4540 G1 X-137.962 Y-135.56
N4545 X-137.937 Y-135.464 Z-5.992
N4550 X-137.912 Y-135.37 Z-5.969
N4555 X-137.889 Y-135.281 Z-5.931
N4560 X-137.867 Y-135.199 Z-5.879
N4565 X-137.848 Y-135.126 Z-5.814
N4570 X-137.832 Y-135.063 Z-5.738
N4575 X-137.819 Y-135.013 Z-5.653
N4580 X-137.809 Y-134.976 Z-5.561
N4585 X-137.803 Y-134.953 Z-5.464
N4590 X-137.801 Y-134.946 Z-5.365
N4595 G0 Z5.
N4600 X-139.03 Y-134.624
N4605 G1 Z-5. F333.33
N4610 Z-8.715
N4615 X-139.032 Y-134.632 Z-8.814 F1000.
N4620 X-139.038 Y-134.655 Z-8.911
N4625 X-139.048 Y-134.691 Z-9.003
N4630 X-139.061 Y-134.742 Z-9.088
N4635 X-139.077 Y-134.804 Z-9.164
N4640 X-139.096 Y-134.878 Z-9.229
N4645 X-139.118 Y-134.96 Z-9.281
N4650 X-139.141 Y-135.049 Z-9.319
N4655 X-139.165 Y-135.143 Z-9.342
N4660 X-139.191 Y-135.239 Z-9.35
N4665 X-139.351 Y-135.853
N4670 G3 X-138.897 Y-136.628 I0.614 J-0.161
N4675 G2 X-136.525 Y-139.7 I-0.803 J-3.072
N4680 G1 Y-774.7
N4685 G2 X-139.7 Y-777.875 I-3.175 J0.
N4690 G1 X-393.7
N4695 G2 X-396.875 Y-774.7 I0. J3.175
N4700 G1 Y-139.7
N4705 G2 X-393.7 Y-136.525 I3.175 J0.
N4710 G1 X-139.7
N4715 G2 X-138.897 Y-136.628 I0. J-3.175
N4720 G3 X-138.122 Y-136.174 I0.161 J0.614
N4725 G1 X-137.962 Y-135.56
N4730 X-137.937 Y-135.464 Z-9.342
N4735 X-137.912 Y-135.37 Z-9.319
N4740 X-137.889 Y-135.281 Z-9.281
N4745 X-137.867 Y-135.199 Z-9.229
N4750 X-137.848 Y-135.126 Z-9.164
N4755 X-137.832 Y-135.063 Z-9.088
N4760 X-137.819 Y-135.013 Z-9.003
N4765 X-137.809 Y-134.976 Z-8.911
N4770 X-137.803 Y-134.953 Z-8.814
N4775 X-137.801 Y-134.946 Z-8.715
N4780 G0 Z5.
N4785 X-280.676 Y515.028
N4790 G1 Z1. F333.33
N4795 Z-5.365
N4800 X-280.683 Z-5.464 F1000.
N4805 X-280.707 Z-5.561
N4810 X-280.745 Z-5.653
N4815 X-280.797 Y515.027 Z-5.738
N4820 X-280.862 Z-5.814
N4825 X-280.937 Y515.026 Z-5.879
N4830 X-281.022 Y515.025 Z-5.931
N4835 X-281.114 Z-5.969
N4840 X-281.211 Y515.024 Z-5.992
N4845 X-281.311 Y515.023 Z-6.
N4850 X-281.946 Y515.017
N4855 G3 X-282.575 Y514.377 I0.005 J-0.635
N4860 G1 Y514.35
N4865 Y-114.3
N4870 G2 X-285.75 Y-117.475 I-3.175 J0.
N4875 G1 X-393.7
N4880 G2 X-396.875 Y-114.3 I0. J3.175
N4885 G1 Y514.35
N4890 G2 X-393.7 Y517.525 I3.175 J0.
N4895 G1 X-285.75
N4900 G2 X-282.575 Y514.377 I0. J-3.175
N4905 G3 X-281.935 Y513.747 I0.635 J0.005
N4910 G1 X-281.3 Y513.753
N4915 X-281.2 Y513.754 Z-5.992
N4920 X-281.104 Y513.755 Z-5.969
N4925 X-281.011 Z-5.931
N4930 X-280.927 Y513.756 Z-5.879
N4935 X-280.851 Y513.757 Z-5.814
N4940 X-280.786 Z-5.738
N4945 X-280.734 Y513.758 Z-5.653
N4950 X-280.696 Z-5.561
N4955 X-280.673 Z-5.464
N4960 X-280.665 Z-5.365
N4965 G0 Z5.
N4970 X-280.746 Y775.781
N4975 G1 Z1. F333.33
N4980 Z-5.365
N4985 X-280.754 Y775.78 Z-5.464 F1000.
N4990 X-280.777 Y775.778 Z-5.561
N4995 X-280.815 Y775.775 Z-5.653
N5000 X-280.867 Y775.77 Z-5.738
N5005 X-280.931 Y775.764 Z-5.814
N5010 X-281.007 Y775.758 Z-5.879
N5015 X-281.091 Y775.75 Z-5.931
N5020 X-281.183 Y775.742 Z-5.969
N5025 X-281.279 Y775.733 Z-5.992
N5030 X-281.378 Y775.725 Z-6.
N5035 X-282.011 Y775.669
N5040 G3 X-282.587 Y774.98 I0.056 J-0.633
N5045 G2 X-282.575 Y774.7 I-3.163 J-0.28
N5050 G1 Y527.05
N5055 G2 X-285.75 Y523.875 I-3.175 J0.
N5060 G1 X-393.7
N5065 G2 X-396.875 Y527.05 I0. J3.175
N5070 G1 Y774.7
N5075 G2 X-393.7 Y777.875 I3.175 J0.
N5080 G1 X-285.75
N5085 G2 X-282.587 Y774.98 I0. J-3.175
N5090 G3 X-281.899 Y774.404 I0.633 J0.056
N5095 G1 X-281.266 Y774.46
N5100 X-281.167 Y774.468 Z-5.992
N5105 X-281.071 Y774.477 Z-5.969
N5110 X-280.979 Y774.485 Z-5.931
N5115 X-280.895 Y774.493 Z-5.879
N5120 X-280.819 Y774.499 Z-5.814
N5125 X-280.755 Y774.505 Z-5.738
N5130 X-280.703 Y774.51 Z-5.653
N5135 X-280.665 Y774.513 Z-5.561
N5140 X-280.642 Y774.515 Z-5.464
N5145 X-280.634 Y774.516 Z-5.365
N5150 G0 Z5.
N5155 X-280.746 Y775.781
N5160 G1 Z-5. F333.33
N5165 Z-8.715
N5170 X-280.754 Y775.78 Z-8.814 F1000.
N5175 X-280.777 Y775.778 Z-8.911
N5180 X-280.815 Y775.775 Z-9.003
N5185 X-280.867 Y775.77 Z-9.088
N5190 X-280.931 Y775.764 Z-9.164
N5195 X-281.007 Y775.758 Z-9.229
N5200 X-281.091 Y775.75 Z-9.281
N5205 X-281.183 Y775.742 Z-9.319
N5210 X-281.279 Y775.733 Z-9.342
N5215 X-281.378 Y775.725 Z-9.35
N5220 X-282.011 Y775.669
N5225 G3 X-282.587 Y774.98 I0.056 J-0.633
N5230 G2 X-282.575 Y774.7 I-3.163 J-0.28
N5235 G1 Y527.05
N5240 G2 X-285.75 Y523.875 I-3.175 J0.
N5245 G1 X-393.7
N5250 G2 X-396.875 Y527.05 I0. J3.175
N5255 G1 Y774.7
N5260 G2 X-393.7 Y777.875 I3.175 J0.
N5265 G1 X-285.75
N5270 G2 X-282.587 Y774.98 I0. J-3.175
N5275 G3 X-281.899 Y774.404 I0.633 J0.056
N5280 G1 X-281.266 Y774.46
N5285 X-281.167 Y774.468 Z-9.342
N5290 X-281.071 Y774.477 Z-9.319
N5295 X-280.979 Y774.485 Z-9.281
N5300 X-280.895 Y774.493 Z-9.229
N5305 X-280.819 Y774.499 Z-9.164
N5310 X-280.755 Y774.505 Z-9.088
N5315 X-280.703 Y774.51 Z-9.003
N5320 X-280.665 Y774.513 Z-8.911
N5325 X-280.642 Y774.515 Z-8.814
N5330 X-280.634 Y774.516 Z-8.715
N5335 G0 Z5.
N5340 X-280.676 Y515.028
N5345 G1 Z-5. F333.33
N5350 Z-8.715
N5355 X-280.683 Z-8.814 F1000.
N5360 X-280.707 Z-8.911
N5365 X-280.745 Z-9.003
N5370 X-280.797 Y515.027 Z-9.088
N5375 X-280.862 Z-9.164
N5380 X-280.937 Y515.026 Z-9.229
N5385 X-281.022 Y515.025 Z-9.281
N5390 X-281.114 Z-9.319
N5395 X-281.211 Y515.024 Z-9.342
N5400 X-281.311 Y515.023 Z-9.35
N5405 X-281.946 Y515.017
N5410 G3 X-282.575 Y514.377 I0.005 J-0.635
N5415 G1 Y514.35
N5420 Y-114.3
N5425 G2 X-285.75 Y-117.475 I-3.175 J0.
N5430 G1 X-393.7
N5435 G2 X-396.875 Y-114.3 I0. J3.175
N5440 G1 Y514.35
N5445 G2 X-393.7 Y517.525 I3.175 J0.
N5450 G1 X-285.75
N5455 G2 X-282.575 Y514.377 I0. J-3.175
N5460 G3 X-281.935 Y513.747 I0.635 J0.005
N5465 G1 X-281.3 Y513.753
N5470 X-281.2 Y513.754 Z-9.342
N5475 X-281.104 Y513.755 Z-9.319
N5480 X-281.011 Z-9.281
N5485 X-280.927 Y513.756 Z-9.229
N5490 X-280.851 Y513.757 Z-9.164
N5495 X-280.786 Z-9.088
N5500 X-280.734 Y513.758 Z-9.003
N5505 X-280.696 Z-8.911
N5510 X-280.673 Z-8.814
N5515 X-280.665 Z-8.715
N5520 G0 Z5.
N5525 X-280.676 Y515.028
N5530 G1 Z-8.35 F333.33
N5535 Z-12.065
N5540 X-280.683 Z-12.164 F1000.
N5545 X-280.707 Z-12.261
N5550 X-280.745 Z-12.353
N5555 X-280.797 Y515.027 Z-12.438
N5560 X-280.862 Z-12.514
N5565 X-280.937 Y515.026 Z-12.579
N5570 X-281.022 Y515.025 Z-12.631
N5575 X-281.114 Z-12.669
N5580 X-281.211 Y515.024 Z-12.692
N5585 X-281.311 Y515.023 Z-12.7
N5590 X-281.946 Y515.017
N5595 G3 X-282.575 Y514.377 I0.005 J-0.635
N5600 G1 Y514.35
N5605 Y-114.3
N5610 G2 X-285.75 Y-117.475 I-3.175 J0.
N5615 G1 X-393.7
N5620 G2 X-396.875 Y-114.3 I0. J3.175
N5625 G1 Y514.35
N5630 G2 X-393.7 Y517.525 I3.175 J0.
N5635 G1 X-285.75
N5640 G2 X-282.575 Y514.377 I0. J-3.175
N5645 G3 X-281.935 Y513.747 I0.635 J0.005
N5650 G1 X-281.3 Y513.753
N5655 X-281.2 Y513.754 Z-12.692
N5660 X-281.104 Y513.755 Z-12.669
N5665 X-281.011 Z-12.631
N5670 X-280.927 Y513.756 Z-12.579
N5675 X-280.851 Y513.757 Z-12.514
N5680 X-280.786 Z-12.438
N5685 X-280.734 Y513.758 Z-12.353
N5690 X-280.696 Z-12.261
N5695 X-280.673 Z-12.164
N5700 X-280.665 Z-12.065
N5705 G0 Z5.
N5710 X-280.746 Y775.781
N5715 G1 Z-8.35 F333.33
N5720 Z-12.065
N5725 X-280.754 Y775.78 Z-12.164 F1000.
N5730 X-280.777 Y775.778 Z-12.261
N5735 X-280.815 Y775.775 Z-12.353
N5740 X-280.867 Y775.77 Z-12.438
N5745 X-280.931 Y775.764 Z-12.514
N5750 X-281.007 Y775.758 Z-12.579
N5755 X-281.091 Y775.75 Z-12.631
N5760 X-281.183 Y775.742 Z-12.669
N5765 X-281.279 Y775.733 Z-12.692
N5770 X-281.378 Y775.725 Z-12.7
N5775 X-282.011 Y775.669
N5780 G3 X-282.587 Y774.98 I0.056 J-0.633
N5785 G2 X-282.575 Y774.7 I-3.163 J-0.28
N5790 G1 Y527.05
N5795 G2 X-285.75 Y523.875 I-3.175 J0.
N5800 G1 X-393.7
N5805 G2 X-396.875 Y527.05 I0. J3.175
N5810 G1 Y774.7
N5815 G2 X-393.7 Y777.875 I3.175 J0.
N5820 G1 X-285.75
N5825 G2 X-282.587 Y774.98 I0. J-3.175
N5830 G3 X-281.899 Y774.404 I0.633 J0.056
N5835 G1 X-281.266 Y774.46
N5840 X-281.167 Y774.468 Z-12.692
N5845 X-281.071 Y774.477 Z-12.669
N5850 X-280.979 Y774.485 Z-12.631
N5855 X-280.895 Y774.493 Z-12.579
N5860 X-280.819 Y774.499 Z-12.514
N5865 X-280.755 Y774.505 Z-12.438
N5870 X-280.703 Y774.51 Z-12.353
N5875 X-280.665 Y774.513 Z-12.261
N5880 X-280.642 Y774.515 Z-12.164
N5885 X-280.634 Y774.516 Z-12.065
N5890 G0 Z5.
N5895 X140.307 Y-779.783
N5900 G1 Z1. F333.33
N5905 Z-5.365
N5910 Y-779.776 Z-5.464 F1000.
N5915 Y-779.752 Z-5.561
N5920 Y-779.714 Z-5.653
N5925 Y-779.662 Z-5.738
N5930 X140.308 Y-779.597 Z-5.814
N5935 Y-779.522 Z-5.879
N5940 X140.309 Y-779.437 Z-5.931
N5945 Y-779.345 Z-5.969
N5950 X140.31 Y-779.248 Z-5.992
N5955 Y-779.148 Z-6.
N5960 X140.314 Y-778.513
N5965 G3 X139.682 Y-777.875 I-0.635 J0.004
N5970 G2 X136.525 Y-774.7 I0.018 J3.175
N5975 G1 Y-323.85
N5980 G2 X139.7 Y-320.675 I3.175 J0.
N5985 G1 X393.7
N5990 G2 X396.875 Y-323.85 I0. J-3.175
N5995 G1 Y-774.7
N6000 G2 X393.7 Y-777.875 I-3.175 J0.
N6005 G1 X139.7
N6010 X139.682
N6015 G3 X139.044 Y-778.506 I-0.004 J-0.635
N6020 G1 X139.04 Y-779.141
N6025 Y-779.241 Z-5.992
N6030 X139.039 Y-779.338 Z-5.969
N6035 Y-779.43 Z-5.931
N6040 X139.038 Y-779.515 Z-5.879
N6045 Y-779.59 Z-5.814
N6050 X139.037 Y-779.655 Z-5.738
N6055 Y-779.707 Z-5.653
N6060 Y-779.745 Z-5.561
N6065 Y-779.769 Z-5.464
N6070 Y-779.776 Z-5.365
N6075 G0 Z5.
N6080 X140.307 Y-779.783
N6085 G1 Z-5. F333.33
N6090 Z-8.715
N6095 Y-779.776 Z-8.814 F1000.
N6100 Y-779.752 Z-8.911
N6105 Y-779.714 Z-9.003
N6110 Y-779.662 Z-9.088
N6115 X140.308 Y-779.597 Z-9.164
N6120 Y-779.522 Z-9.229
N6125 X140.309 Y-779.437 Z-9.281
N6130 Y-779.345 Z-9.319
N6135 X140.31 Y-779.248 Z-9.342
N6140 Y-779.148 Z-9.35
N6145 X140.314 Y-778.513
N6150 G3 X139.682 Y-777.875 I-0.635 J0.004
N6155 G2 X136.525 Y-774.7 I0.018 J3.175
N6160 G1 Y-323.85
N6165 G2 X139.7 Y-320.675 I3.175 J0.
N6170 G1 X393.7
N6175 G2 X396.875 Y-323.85 I0. J-3.175
N6180 G1 Y-774.7
N6185 G2 X393.7 Y-777.875 I-3.175 J0.
N6190 G1 X139.7
N6195 X139.682
N6200 G3 X139.044 Y-778.506 I-0.004 J-0.635
N6205 G1 X139.04 Y-779.141
N6210 Y-779.241 Z-9.342
N6215 X139.039 Y-779.338 Z-9.319
N6220 Y-779.43 Z-9.281
N6225 X139.038 Y-779.515 Z-9.229
N6230 Y-779.59 Z-9.164
N6235 X139.037 Y-779.655 Z-9.088
N6240 Y-779.707 Z-9.003
N6245 Y-779.745 Z-8.911
N6250 Y-779.769 Z-8.814
N6255 Y-779.776 Z-8.715
N6260 G0 Z5.
N6265 X-120.661 Y-140.97
N6270 G1 Z-5. F333.33
N6275 Z-8.715
N6280 G19 G2 Y-141.605 Z-9.35 J-0.635 K0. F1000.
N6285 G1 Y-142.24
N6290 G17 G3 X-120.026 Y-142.875 I0.635 J0.
N6295 G1 X127.
N6300 G2 X130.175 Y-146.05 I0. J-3.175
N6305 G1 Y-774.7
N6310 G2 X127. Y-777.875 I-3.175 J0.
N6315 G1 X-127.
N6320 G2 X-130.175 Y-774.7 I0. J3.175
N6325 G1 Y-146.05
N6330 G2 X-127. Y-142.875 I3.175 J0.
N6335 G1 X-120.026
N6340 G3 X-119.391 Y-142.24 I0. J0.635
N6345 G1 Y-141.605
N6350 G19 G3 Y-140.97 Z-8.715 J0. K0.635
N6355 G0 Z5.
N6360 X-120.661
N6365 G1 Z-8.35 F333.33
N6370 Z-12.065
N6375 G2 Y-141.605 Z-12.7 J-0.635 K0. F1000.
N6380 G1 Y-142.24
N6385 G17 G3 X-120.026 Y-142.875 I0.635 J0.
N6390 G1 X127.
N6395 G2 X130.175 Y-146.05 I0. J-3.175
N6400 G1 Y-774.7
N6405 G2 X127. Y-777.875 I-3.175 J0.
N6410 G1 X-127.
N6415 G2 X-130.175 Y-774.7 I0. J3.175
N6420 G1 Y-146.05
N6425 G2 X-127. Y-142.875 I3.175 J0.
N6430 G1 X-120.026
N6435 G3 X-119.391 Y-142.24 I0. J0.635
N6440 G1 Y-141.605
N6445 G19 G3 Y-140.97 Z-12.065 J0. K0.635
N6450 G0 Z5.
N6455 X-139.03 Y-134.624
N6460 G1 Z-8.35 F333.33
N6465 Z-12.065
N6470 X-139.032 Y-134.632 Z-12.164 F1000.
N6475 X-139.038 Y-134.655 Z-12.261
N6480 X-139.048 Y-134.691 Z-12.353
N6485 X-139.061 Y-134.742 Z-12.438
N6490 X-139.077 Y-134.804 Z-12.514
N6495 X-139.096 Y-134.878 Z-12.579
N6500 X-139.118 Y-134.96 Z-12.631
N6505 X-139.141 Y-135.049 Z-12.669
N6510 X-139.165 Y-135.143 Z-12.692
N6515 X-139.191 Y-135.239 Z-12.7
N6520 X-139.351 Y-135.853
N6525 G17 G3 X-138.897 Y-136.628 I0.614 J-0.161
N6530 G2 X-136.525 Y-139.7 I-0.803 J-3.072
N6535 G1 Y-774.7
N6540 G2 X-139.7 Y-777.875 I-3.175 J0.
N6545 G1 X-393.7
N6550 G2 X-396.875 Y-774.7 I0. J3.175
N6555 G1 Y-139.7
N6560 G2 X-393.7 Y-136.525 I3.175 J0.
N6565 G1 X-139.7
N6570 G2 X-138.897 Y-136.628 I0. J-3.175
N6575 G3 X-138.122 Y-136.174 I0.161 J0.614
N6580 G1 X-137.962 Y-135.56
N6585 X-137.937 Y-135.464 Z-12.692
N6590 X-137.912 Y-135.37 Z-12.669
N6595 X-137.889 Y-135.281 Z-12.631
N6600 X-137.867 Y-135.199 Z-12.579
N6605 X-137.848 Y-135.126 Z-12.514
N6610 X-137.832 Y-135.063 Z-12.438
N6615 X-137.819 Y-135.013 Z-12.353
N6620 X-137.809 Y-134.976 Z-12.261
N6625 X-137.803 Y-134.953 Z-12.164
N6630 X-137.801 Y-134.946 Z-12.065
N6635 G0 Z5.
N6640 X140.307 Y-779.783
N6645 G1 Z-8.35 F333.33
N6650 Z-12.065
N6655 Y-779.776 Z-12.164 F1000.
N6660 Y-779.752 Z-12.261
N6665 Y-779.714 Z-12.353
N6670 Y-779.662 Z-12.438
N6675 X140.308 Y-779.597 Z-12.514
N6680 Y-779.522 Z-12.579
N6685 X140.309 Y-779.437 Z-12.631
N6690 Y-779.345 Z-12.669
N6695 X140.31 Y-779.248 Z-12.692
N6700 Y-779.148 Z-12.7
N6705 X140.314 Y-778.513
N6710 G3 X139.682 Y-777.875 I-0.635 J0.004
N6715 G2 X136.525 Y-774.7 I0.018 J3.175
N6720 G1 Y-323.85
N6725 G2 X139.7 Y-320.675 I3.175 J0.
N6730 G1 X393.7
N6735 G2 X396.875 Y-323.85 I0. J-3.175
N6740 G1 Y-774.7
N6745 G2 X393.7 Y-777.875 I-3.175 J0.
N6750 G1 X139.7
N6755 X139.682
N6760 G3 X139.044 Y-778.506 I-0.004 J-0.635
N6765 G1 X139.04 Y-779.141
N6770 Y-779.241 Z-12.692
N6775 X139.039 Y-779.338 Z-12.669
N6780 Y-779.43 Z-12.631
N6785 X139.038 Y-779.515 Z-12.579
N6790 Y-779.59 Z-12.514
N6795 X139.037 Y-779.655 Z-12.438
N6800 Y-779.707 Z-12.353
N6805 Y-779.745 Z-12.261
N6810 Y-779.769 Z-12.164
N6815 Y-779.776 Z-12.065
N6820 G0 Z15.
N6825 G53 G0 Z0.
N6830 G53 G0 X0. Y0.
N6835 M30
%
