%
(8F-LEFT-BTM)
(MACHINE)
(  VENDOR AUTODESK)
(  MODEL GENERIC 3-AXIS ROUTER)
(  DESCRIPTION THIS MACHINE HAS XYZ AXIS ON THE HEAD)
(T21 D=12.7 CR=0. - ZMIN=-12.7 - FLAT END MILL)
N10 G90 G94 G17 G91.1
N20 G21
(-ATTENTION- PROPERTY SAFE RETRACTS IS SET TO CLEARANCE HEIGHT.)
(ENSURE THE CLEARANCE HEIGHT WILL CLEAR THE PART AND OR FIXTURES.)
(RAISE THE Z-AXIS TO A SAFE HEIGHT BEFORE STARTING THE PROGRAM.)
(2D POCKET20)
N30 M0
(MANUAL TOOL CHANGE TO T21)
N40 S20000 M3
N50 G17 G90 G94
N60 G54
N65 G4 P3.0
N70 G0 X46.636 Y-7.568
N80 G43 Z15. H21
N90 G0 Z5.
N100 G1 Z-11.557 F500.
N110 X46.637 Y-7.561 Z-11.685 F5000.
N120 X46.64 Y-7.54 Z-11.811
N130 X46.646 Y-7.505 Z-11.935
N140 X46.653 Y-7.456 Z-12.053
N150 X46.663 Y-7.395 Z-12.165
N160 X46.675 Y-7.322 Z-12.27
N170 X46.688 Y-7.238 Z-12.365
N180 X46.703 Y-7.143 Z-12.451
N190 X46.719 Y-7.04 Z-12.525
N200 X46.737 Y-6.929 Z-12.587
N210 X46.755 Y-6.812 Z-12.636
N220 X46.775 Y-6.691 Z-12.671
N230 X46.794 Y-6.566 Z-12.693
N240 X46.814 Y-6.439 Z-12.7
N250 X46.816 Y-6.432
N260 X46.827 Y-6.333
N270 X46.831 Y-6.233
N280 Y0.
N290 Y114.3
N300 X42.069
N310 Y0.
N320 Y-6.244
N330 X42.073 Y-6.344
N340 X42.084 Y-6.443
N350 X42.092 Y-6.492
N360 X42.114 Y-6.632 Z-12.692
N370 X42.136 Y-6.771 Z-12.668
N380 X42.158 Y-6.906 Z-12.629
N390 X42.178 Y-7.036 Z-12.574
N400 X42.198 Y-7.159 Z-12.505
N410 X42.216 Y-7.274 Z-12.423
N420 X42.233 Y-7.379 Z-12.328
N430 X42.248 Y-7.472 Z-12.222
N440 X42.26 Y-7.554 Z-12.106
N450 X42.271 Y-7.622 Z-11.981
N460 X42.28 Y-7.676 Z-11.849
N470 X42.286 Y-7.714 Z-11.713
N480 X42.29 Y-7.738 Z-11.572
N490 X42.291 Y-7.746 Z-11.43
N500 G0 Z15.
N510 X-7.348 Y203.203
N520 Z5.
N530 G1 Z-11.43 F500.
N540 X-7.341 Y203.207 Z-11.572 F5000.
N550 X-7.323 Y203.222 Z-11.713
N560 X-7.292 Y203.247 Z-11.849
N570 X-7.249 Y203.281 Z-11.981
N580 X-7.195 Y203.323 Z-12.106
N590 X-7.13 Y203.374 Z-12.222
N600 X-7.056 Y203.433 Z-12.328
N610 X-6.972 Y203.499 Z-12.423
N620 X-6.881 Y203.571 Z-12.505
N630 X-6.784 Y203.648 Z-12.574
N640 X-6.68 Y203.73 Z-12.629
N650 X-6.573 Y203.815 Z-12.668
N660 X-6.463 Y203.902 Z-12.692
N670 X-6.351 Y203.99 Z-12.7
N680 X-6.246 Y204.074
N690 G2 X0.64 Y207.625 I12.534 J-15.852
N700 G3 X0.713 Y207.911 I-0.048 J0.165
N710 G1 X-6.123 Y214.685
N720 X-6.247 Y214.809
N730 G3 X-7.334 Y214.368 I-0.452 J-0.446
N740 G1 X-7.515 Y189.898
N750 G3 X-6.25 Y189.814 I0.635 J-0.005
N760 G2 X15.33 Y197.202 I12.6 J-1.592
N770 G1 X69.707 Y142.825
N780 X73.075 Y146.193
N790 X-0.77 Y220.038
N800 G2 X-6.249 Y231.546 I13.47 J13.47
N810 G1 X-6.254 Y231.596
N820 X-6.268 Y231.737 Z-12.692
N830 X-6.283 Y231.877 Z-12.668
N840 X-6.297 Y232.013 Z-12.629
N850 X-6.311 Y232.144 Z-12.574
N860 X-6.323 Y232.268 Z-12.505
N870 X-6.335 Y232.383 Z-12.423
N880 X-6.346 Y232.489 Z-12.328
N890 X-6.356 Y232.583 Z-12.222
N900 X-6.365 Y232.665 Z-12.106
N910 X-6.372 Y232.734 Z-11.981
N920 X-6.377 Y232.788 Z-11.849
N930 X-6.381 Y232.827 Z-11.713
N940 X-6.384 Y232.851 Z-11.572
N950 X-6.385 Y232.859 Z-11.43
N960 G0 Z15.
N970 X-7.348 Y332.584
N980 Z5.
N990 G1 Z-11.43 F500.
N1000 X-7.341 Y332.588 Z-11.572 F5000.
N1010 X-7.323 Y332.603 Z-11.713
N1020 X-7.292 Y332.628 Z-11.849
N1030 X-7.249 Y332.662 Z-11.981
N1040 X-7.195 Y332.704 Z-12.106
N1050 X-7.13 Y332.755 Z-12.222
N1060 X-7.056 Y332.814 Z-12.328
N1070 X-6.972 Y332.88 Z-12.423
N1080 X-6.881 Y332.952 Z-12.505
N1090 X-6.784 Y333.029 Z-12.574
N1100 X-6.68 Y333.111 Z-12.629
N1110 X-6.573 Y333.196 Z-12.668
N1120 X-6.463 Y333.283 Z-12.692
N1130 X-6.351 Y333.371 Z-12.7
N1140 X-6.246 Y333.455
N1150 G2 X0.64 Y337.006 I12.534 J-15.852
N1160 G3 X0.713 Y337.292 I-0.048 J0.165
N1170 G1 X-6.123 Y344.066
N1180 X-6.247 Y344.191
N1190 G3 X-7.334 Y343.749 I-0.452 J-0.446
N1200 G1 X-7.515 Y319.279
N1210 G3 X-6.25 Y319.195 I0.635 J-0.005
N1220 G2 X15.33 Y326.583 I12.6 J-1.592
N1230 G1 X69.707 Y272.206
N1240 X73.075 Y275.574
N1250 X-0.77 Y349.419
N1260 G2 X-6.249 Y360.927 I13.471 J13.47
N1270 G1 X-6.254 Y360.977
N1280 X-6.268 Y361.118 Z-12.692
N1290 X-6.283 Y361.258 Z-12.668
N1300 X-6.297 Y361.394 Z-12.629
N1310 X-6.311 Y361.525 Z-12.574
N1320 X-6.323 Y361.649 Z-12.505
N1330 X-6.335 Y361.764 Z-12.423
N1340 X-6.346 Y361.87 Z-12.328
N1350 X-6.356 Y361.964 Z-12.222
N1360 X-6.365 Y362.046 Z-12.106
N1370 X-6.372 Y362.115 Z-11.981
N1380 X-6.377 Y362.169 Z-11.849
N1390 X-6.381 Y362.208 Z-11.713
N1400 X-6.384 Y362.232 Z-11.572
N1410 X-6.385 Y362.24 Z-11.43
N1420 G0 Z15.
N1430 X-7.348 Y461.965
N1440 Z5.
N1450 G1 Z-11.43 F500.
N1460 X-7.341 Y461.97 Z-11.572 F5000.
N1470 X-7.323 Y461.984 Z-11.713
N1480 X-7.292 Y462.009 Z-11.849
N1490 X-7.249 Y462.043 Z-11.981
N1500 X-7.195 Y462.085 Z-12.106
N1510 X-7.13 Y462.137 Z-12.222
N1520 X-7.056 Y462.195 Z-12.328
N1530 X-6.973 Y462.261 Z-12.423
N1540 X-6.881 Y462.333 Z-12.505
N1550 X-6.784 Y462.411 Z-12.574
N1560 X-6.68 Y462.492 Z-12.629
N1570 X-6.573 Y462.577 Z-12.668
N1580 X-6.463 Y462.664 Z-12.692
N1590 X-6.351 Y462.752 Z-12.7
N1600 X-6.246 Y462.836
N1610 G2 X0.641 Y466.388 I12.535 J-15.852
N1620 G3 X0.713 Y466.674 I-0.048 J0.165
N1630 G1 X-6.123 Y473.448
N1640 X-6.247 Y473.572
N1650 G3 X-7.334 Y473.131 I-0.452 J-0.446
N1660 G1 X-7.515 Y448.66
N1670 G3 X-6.25 Y448.576 I0.635 J-0.005
N1680 G2 X15.33 Y455.966 I12.6 J-1.592
N1690 G1 X69.707 Y401.588
N1700 X73.075 Y404.956
N1710 X-0.77 Y478.801
N1720 G2 X-6.249 Y490.309 I13.47 J13.47
N1730 G1 X-6.254 Y490.359
N1740 X-6.268 Y490.5 Z-12.692
N1750 X-6.283 Y490.64 Z-12.668
N1760 X-6.297 Y490.776 Z-12.629
N1770 X-6.311 Y490.907 Z-12.574
N1780 X-6.323 Y491.031 Z-12.505
N1790 X-6.335 Y491.146 Z-12.423
N1800 X-6.346 Y491.252 Z-12.328
N1810 X-6.356 Y491.346 Z-12.222
N1820 X-6.365 Y491.428 Z-12.106
N1830 X-6.372 Y491.497 Z-11.981
N1840 X-6.377 Y491.551 Z-11.849
N1850 X-6.381 Y491.59 Z-11.713
N1860 X-6.384 Y491.614 Z-11.572
N1870 X-6.385 Y491.622 Z-11.43
N1880 G0 Z15.
N1890 X-7.348 Y591.347
N1900 Z5.
N1910 G1 Z-11.43 F500.
N1920 X-7.341 Y591.352 Z-11.572 F5000.
N1930 X-7.323 Y591.366 Z-11.713
N1940 X-7.292 Y591.391 Z-11.849
N1950 X-7.249 Y591.425 Z-11.981
N1960 X-7.195 Y591.467 Z-12.106
N1970 X-7.13 Y591.518 Z-12.222
N1980 X-7.056 Y591.577 Z-12.328
N1990 X-6.972 Y591.643 Z-12.423
N2000 X-6.881 Y591.715 Z-12.505
N2010 X-6.784 Y591.792 Z-12.574
N2020 X-6.68 Y591.874 Z-12.629
N2030 X-6.573 Y591.959 Z-12.668
N2040 X-6.463 Y592.046 Z-12.692
N2050 X-6.351 Y592.134 Z-12.7
N2060 X-6.246 Y592.218
N2070 G2 X0.64 Y595.769 I12.534 J-15.852
N2080 G3 X0.713 Y596.055 I-0.048 J0.165
N2090 G1 X-6.123 Y602.829
N2100 X-6.247 Y602.953
N2110 G3 X-7.334 Y602.512 I-0.452 J-0.446
N2120 G1 X-7.515 Y578.042
N2130 G3 X-6.25 Y577.958 I0.635 J-0.005
N2140 G2 X15.33 Y585.346 I12.6 J-1.592
N2150 G1 X69.707 Y530.969
N2160 X73.075 Y534.337
N2170 X-0.77 Y608.182
N2180 G2 X-6.249 Y619.69 I13.47 J13.47
N2190 G1 X-6.254 Y619.74
N2200 X-6.268 Y619.881 Z-12.692
N2210 X-6.283 Y620.021 Z-12.668
N2220 X-6.297 Y620.157 Z-12.629
N2230 X-6.311 Y620.288 Z-12.574
N2240 X-6.323 Y620.412 Z-12.505
N2250 X-6.335 Y620.527 Z-12.423
N2260 X-6.346 Y620.633 Z-12.328
N2270 X-6.356 Y620.727 Z-12.222
N2280 X-6.365 Y620.809 Z-12.106
N2290 X-6.372 Y620.878 Z-11.981
N2300 X-6.377 Y620.932 Z-11.849
N2310 X-6.381 Y620.971 Z-11.713
N2320 X-6.384 Y620.995 Z-11.572
N2330 X-6.385 Y621.003 Z-11.43
N2340 G0 Z15.
N2350 X-7.348 Y720.728
N2360 Z5.
N2370 G1 Z-11.43 F500.
N2380 X-7.341 Y720.732 Z-11.572 F5000.
N2390 X-7.323 Y720.747 Z-11.713
N2400 X-7.292 Y720.772 Z-11.849
N2410 X-7.249 Y720.806 Z-11.981
N2420 X-7.195 Y720.848 Z-12.106
N2430 X-7.13 Y720.899 Z-12.222
N2440 X-7.056 Y720.958 Z-12.328
N2450 X-6.972 Y721.024 Z-12.423
N2460 X-6.881 Y721.096 Z-12.505
N2470 X-6.784 Y721.173 Z-12.574
N2480 X-6.68 Y721.255 Z-12.629
N2490 X-6.573 Y721.34 Z-12.668
N2500 X-6.463 Y721.427 Z-12.692
N2510 X-6.351 Y721.515 Z-12.7
N2520 X-6.246 Y721.599
N2530 G2 X0.64 Y725.15 I12.534 J-15.852
N2540 G3 X0.713 Y725.436 I-0.048 J0.165
N2550 G1 X-6.123 Y732.21
N2560 X-6.247 Y732.334
N2570 G3 X-7.334 Y731.893 I-0.452 J-0.446
N2580 G1 X-7.515 Y707.423
N2590 G3 X-6.25 Y707.339 I0.635 J-0.005
N2600 G2 X15.33 Y714.727 I12.6 J-1.592
N2610 G1 X69.707 Y660.35
N2620 X73.075 Y663.718
N2630 X-0.77 Y737.563
N2640 G2 X-6.249 Y749.071 I13.47 J13.47
N2650 G1 X-6.254 Y749.121
N2660 X-6.268 Y749.262 Z-12.692
N2670 X-6.283 Y749.402 Z-12.668
N2680 X-6.297 Y749.538 Z-12.629
N2690 X-6.311 Y749.669 Z-12.574
N2700 X-6.323 Y749.793 Z-12.505
N2710 X-6.335 Y749.908 Z-12.423
N2720 X-6.346 Y750.014 Z-12.328
N2730 X-6.356 Y750.108 Z-12.222
N2740 X-6.365 Y750.19 Z-12.106
N2750 X-6.372 Y750.259 Z-11.981
N2760 X-6.377 Y750.313 Z-11.849
N2770 X-6.381 Y750.352 Z-11.713
N2780 X-6.384 Y750.376 Z-11.572
N2790 X-6.385 Y750.384 Z-11.43
N2800 G0 Z15.
N2810 X-7.348 Y850.109
N2820 Z5.
N2830 G1 Z-11.43 F500.
N2840 X-7.341 Y850.113 Z-11.572 F5000.
N2850 X-7.323 Y850.128 Z-11.713
N2860 X-7.292 Y850.153 Z-11.849
N2870 X-7.249 Y850.187 Z-11.981
N2880 X-7.195 Y850.229 Z-12.106
N2890 X-7.13 Y850.28 Z-12.222
N2900 X-7.056 Y850.339 Z-12.328
N2910 X-6.972 Y850.405 Z-12.423
N2920 X-6.881 Y850.477 Z-12.505
N2930 X-6.784 Y850.554 Z-12.574
N2940 X-6.68 Y850.636 Z-12.629
N2950 X-6.573 Y850.721 Z-12.668
N2960 X-6.463 Y850.808 Z-12.692
N2970 X-6.351 Y850.896 Z-12.7
N2980 X-6.246 Y850.98
N2990 G2 X0.64 Y854.531 I12.534 J-15.852
N3000 G3 X0.713 Y854.817 I-0.048 J0.165
N3010 G1 X-6.123 Y861.591
N3020 X-6.247 Y861.716
N3030 G3 X-7.334 Y861.274 I-0.452 J-0.446
N3040 G1 X-7.515 Y836.804
N3050 G3 X-6.25 Y836.72 I0.635 J-0.005
N3060 G2 X15.33 Y844.108 I12.6 J-1.592
N3070 G1 X69.707 Y789.731
N3080 X73.075 Y793.099
N3090 X-0.77 Y866.944
N3100 G2 X-6.249 Y878.452 I13.471 J13.471
N3110 G1 X-6.254 Y878.502
N3120 X-6.268 Y878.643 Z-12.692
N3130 X-6.283 Y878.783 Z-12.668
N3140 X-6.297 Y878.919 Z-12.629
N3150 X-6.311 Y879.05 Z-12.574
N3160 X-6.323 Y879.174 Z-12.505
N3170 X-6.335 Y879.289 Z-12.423
N3180 X-6.346 Y879.395 Z-12.328
N3190 X-6.356 Y879.489 Z-12.222
N3200 X-6.365 Y879.571 Z-12.106
N3210 X-6.372 Y879.64 Z-11.981
N3220 X-6.377 Y879.694 Z-11.849
N3230 X-6.381 Y879.733 Z-11.713
N3240 X-6.384 Y879.757 Z-11.572
N3250 X-6.385 Y879.765 Z-11.43
N3260 G0 Z15.
N3270 X-7.347 Y979.49
N3280 Z5.
N3290 G1 Z-11.43 F500.
N3300 X-7.341 Y979.494 Z-11.572 F5000.
N3310 X-7.322 Y979.509 Z-11.713
N3320 X-7.291 Y979.534 Z-11.849
N3330 X-7.249 Y979.568 Z-11.981
N3340 X-7.195 Y979.61 Z-12.106
N3350 X-7.13 Y979.661 Z-12.222
N3360 X-7.056 Y979.72 Z-12.328
N3370 X-6.972 Y979.786 Z-12.423
N3380 X-6.881 Y979.858 Z-12.505
N3390 X-6.783 Y979.935 Z-12.574
N3400 X-6.68 Y980.017 Z-12.629
N3410 X-6.573 Y980.102 Z-12.668
N3420 X-6.463 Y980.189 Z-12.692
N3430 X-6.351 Y980.277 Z-12.7
N3440 X-6.245 Y980.361
N3450 G2 X0.639 Y983.911 I12.533 J-15.852
N3460 G3 X0.714 Y984.203 I-0.049 J0.168
N3470 G1 X-6.123 Y990.977
N3480 X-6.247 Y991.102
N3490 G3 X-7.334 Y990.66 I-0.452 J-0.446
N3500 G1 X-7.515 Y966.185
N3510 G3 X-6.25 Y966.101 I0.635 J-0.005
N3520 G2 X15.33 Y973.491 I12.6 J-1.592
N3530 G1 X69.707 Y919.113
N3540 X73.075 Y922.481
N3550 X-0.77 Y996.33
N3560 G2 X-6.249 Y1007.838 I13.47 J13.47
N3570 G1 X-6.254 Y1007.888
N3580 X-6.268 Y1008.029 Z-12.692
N3590 X-6.283 Y1008.169 Z-12.668
N3600 X-6.297 Y1008.305 Z-12.629
N3610 X-6.311 Y1008.436 Z-12.574
N3620 X-6.323 Y1008.56 Z-12.505
N3630 X-6.335 Y1008.675 Z-12.423
N3640 X-6.346 Y1008.781 Z-12.328
N3650 X-6.356 Y1008.875 Z-12.222
N3660 X-6.365 Y1008.957 Z-12.106
N3670 X-6.372 Y1009.026 Z-11.981
N3680 X-6.377 Y1009.08 Z-11.849
N3690 X-6.381 Y1009.119 Z-11.713
N3700 X-6.384 Y1009.143 Z-11.572
N3710 X-6.385 Y1009.151 Z-11.43
N3720 G0 Z15.
N3730 X-7.347 Y1108.87
N3740 Z5.
N3750 G1 Z-11.43 F500.
N3760 X-7.341 Y1108.875 Z-11.572 F5000.
N3770 X-7.322 Y1108.89 Z-11.713
N3780 X-7.291 Y1108.915 Z-11.849
N3790 X-7.249 Y1108.948 Z-11.981
N3800 X-7.194 Y1108.991 Z-12.106
N3810 X-7.13 Y1109.042 Z-12.222
N3820 X-7.055 Y1109.101 Z-12.328
N3830 X-6.972 Y1109.167 Z-12.423
N3840 X-6.881 Y1109.239 Z-12.505
N3850 X-6.783 Y1109.316 Z-12.574
N3860 X-6.68 Y1109.398 Z-12.629
N3870 X-6.573 Y1109.483 Z-12.668
N3880 X-6.462 Y1109.57 Z-12.692
N3890 X-6.351 Y1109.658 Z-12.7
N3900 X-6.245 Y1109.742
N3910 G2 X0.639 Y1113.292 I12.533 J-15.852
N3920 G3 X0.714 Y1113.584 I-0.049 J0.168
N3930 G1 X-6.123 Y1120.357
N3940 X-6.247 Y1120.481
N3950 G3 X-7.334 Y1120.04 I-0.452 J-0.446
N3960 G1 X-7.515 Y1095.566
N3970 G3 X-6.25 Y1095.482 I0.635 J-0.005
N3980 G2 X15.33 Y1102.87 I12.6 J-1.592
N3990 G1 X69.707 Y1048.495
N4000 X73.075 Y1051.865
N4010 X-0.77 Y1125.71
N4020 G2 X-6.249 Y1137.218 I13.47 J13.47
N4030 G1 X-6.254 Y1137.268
N4040 X-6.268 Y1137.409 Z-12.692
N4050 X-6.283 Y1137.549 Z-12.668
N4060 X-6.297 Y1137.685 Z-12.629
N4070 X-6.311 Y1137.816 Z-12.574
N4080 X-6.323 Y1137.94 Z-12.505
N4090 X-6.335 Y1138.055 Z-12.423
N4100 X-6.346 Y1138.161 Z-12.328
N4110 X-6.356 Y1138.255 Z-12.222
N4120 X-6.365 Y1138.337 Z-12.106
N4130 X-6.372 Y1138.406 Z-11.981
N4140 X-6.377 Y1138.46 Z-11.849
N4150 X-6.381 Y1138.499 Z-11.713
N4160 X-6.384 Y1138.523 Z-11.572
N4170 X-6.385 Y1138.531 Z-11.43
N4180 G0 Z15.
N4190 X-7.347 Y1238.25
N4200 Z5.
N4210 G1 Z-11.43 F500.
N4220 X-7.341 Y1238.255 Z-11.572 F5000.
N4230 X-7.322 Y1238.27 Z-11.713
N4240 X-7.291 Y1238.295 Z-11.849
N4250 X-7.249 Y1238.328 Z-11.981
N4260 X-7.194 Y1238.371 Z-12.106
N4270 X-7.13 Y1238.422 Z-12.222
N4280 X-7.055 Y1238.481 Z-12.328
N4290 X-6.972 Y1238.547 Z-12.423
N4300 X-6.881 Y1238.619 Z-12.505
N4310 X-6.783 Y1238.696 Z-12.574
N4320 X-6.68 Y1238.778 Z-12.629
N4330 X-6.573 Y1238.863 Z-12.668
N4340 X-6.462 Y1238.95 Z-12.692
N4350 X-6.351 Y1239.038 Z-12.7
N4360 X-6.245 Y1239.122
N4370 G2 X0.639 Y1242.672 I12.533 J-15.852
N4380 G3 X0.714 Y1242.964 I-0.049 J0.168
N4390 G1 X-6.123 Y1249.737
N4400 X-6.247 Y1249.861
N4410 G3 X-7.334 Y1249.42 I-0.452 J-0.446
N4420 G1 X-7.515 Y1224.946
N4430 G3 X-6.25 Y1224.862 I0.635 J-0.005
N4440 G2 X15.33 Y1232.25 I12.6 J-1.592
N4450 G1 X69.707 Y1177.875
N4460 X73.075 Y1181.245
N4470 X-0.77 Y1255.09
N4480 G2 X-6.249 Y1266.598 I13.47 J13.47
N4490 G1 X-6.254 Y1266.648
N4500 X-6.268 Y1266.789 Z-12.692
N4510 X-6.283 Y1266.929 Z-12.668
N4520 X-6.297 Y1267.065 Z-12.629
N4530 X-6.311 Y1267.196 Z-12.574
N4540 X-6.323 Y1267.32 Z-12.505
N4550 X-6.335 Y1267.435 Z-12.423
N4560 X-6.346 Y1267.541 Z-12.328
N4570 X-6.356 Y1267.635 Z-12.222
N4580 X-6.365 Y1267.717 Z-12.106
N4590 X-6.372 Y1267.786 Z-11.981
N4600 X-6.377 Y1267.84 Z-11.849
N4610 X-6.381 Y1267.879 Z-11.713
N4620 X-6.384 Y1267.903 Z-11.572
N4630 X-6.385 Y1267.911 Z-11.43
N4640 G0 Z15.
N4650 X-7.347 Y1367.63
N4660 Z5.
N4670 G1 Z-11.43 F500.
N4680 X-7.341 Y1367.635 Z-11.572 F5000.
N4690 X-7.322 Y1367.65 Z-11.713
N4700 X-7.291 Y1367.675 Z-11.849
N4710 X-7.249 Y1367.708 Z-11.981
N4720 X-7.194 Y1367.751 Z-12.106
N4730 X-7.13 Y1367.802 Z-12.222
N4740 X-7.055 Y1367.861 Z-12.328
N4750 X-6.972 Y1367.927 Z-12.423
N4760 X-6.881 Y1367.999 Z-12.505
N4770 X-6.783 Y1368.076 Z-12.574
N4780 X-6.68 Y1368.158 Z-12.629
N4790 X-6.573 Y1368.243 Z-12.668
N4800 X-6.462 Y1368.33 Z-12.692
N4810 X-6.351 Y1368.418 Z-12.7
N4820 X-6.245 Y1368.502
N4830 G2 X0.639 Y1372.052 I12.533 J-15.852
N4840 G3 X0.714 Y1372.344 I-0.049 J0.168
N4850 G1 X-6.123 Y1379.117
N4860 X-6.247 Y1379.241
N4870 G3 X-7.334 Y1378.8 I-0.452 J-0.446
N4880 G1 X-7.515 Y1354.326
N4890 G3 X-6.25 Y1354.242 I0.635 J-0.005
N4900 G2 X15.33 Y1361.63 I12.6 J-1.592
N4910 G1 X69.707 Y1307.255
N4920 X73.075 Y1310.625
N4930 X-0.77 Y1384.47
N4940 G2 X-6.249 Y1395.978 I13.47 J13.47
N4950 G1 X-6.254 Y1396.028
N4960 X-6.268 Y1396.169 Z-12.692
N4970 X-6.283 Y1396.309 Z-12.668
N4980 X-6.297 Y1396.445 Z-12.629
N4990 X-6.311 Y1396.576 Z-12.574
N5000 X-6.323 Y1396.7 Z-12.505
N5010 X-6.335 Y1396.815 Z-12.423
N5020 X-6.346 Y1396.921 Z-12.328
N5030 X-6.356 Y1397.015 Z-12.222
N5040 X-6.365 Y1397.097 Z-12.106
N5050 X-6.372 Y1397.166 Z-11.981
N5060 X-6.377 Y1397.22 Z-11.849
N5070 X-6.381 Y1397.259 Z-11.713
N5080 X-6.384 Y1397.283 Z-11.572
N5090 X-6.385 Y1397.291 Z-11.43
N5100 G0 Z15.
N5105 M5
N5110 G4 P1.0
N5120 C0 X0 Y0
N5130 M30
%
