%
(8FT-BOTTOMS)
(MACHINE)
(  VENDOR AUTODESK)
(  MODEL GENERIC 3-AXIS ROUTER)
(  DESCRIPTION THIS MACHINE HAS XYZ AXIS ON THE HEAD)
(T21 D=12.7 CR=0. - ZMIN=-12.7 - FLAT END MILL)
N10 G90 G94 G17 G91.1
N20 G21
(-ATTENTION- PROPERTY SAFE RETRACTS IS SET TO CLEARANCE HEIGHT.)
(ENSURE THE CLEARANCE HEIGHT WILL CLEAR THE PART AND OR FIXTURES.)
(RAISE THE Z-AXIS TO A SAFE HEIGHT BEFORE STARTING THE PROGRAM.)
(2D POCKET25)
N30 (T21 M6)
(FLAT END MILL D=12.7 12 END MILL)
N40 S20000 M3
N50 G54
N60 G0 X46.636 Y-7.568
N70 Z15.
N80 G0 Z5.
N90 G1 Z-11.557 F500.
N100 X46.637 Y-7.561 Z-11.685 F4000.
N110 X46.64 Y-7.54 Z-11.811
N120 X46.646 Y-7.505 Z-11.935
N130 X46.653 Y-7.456 Z-12.053
N140 X46.663 Y-7.395 Z-12.165
N150 X46.675 Y-7.322 Z-12.27
N160 X46.688 Y-7.238 Z-12.365
N170 X46.703 Y-7.143 Z-12.451
N180 X46.719 Y-7.04 Z-12.525
N190 X46.737 Y-6.929 Z-12.587
N200 X46.755 Y-6.812 Z-12.636
N210 X46.775 Y-6.691 Z-12.671
N220 X46.794 Y-6.566 Z-12.693
N230 X46.814 Y-6.439 Z-12.7
N240 X46.816 Y-6.432
N250 X46.827 Y-6.333
N260 X46.831 Y-6.233
N270 Y114.3
N280 X42.069
N290 Y-6.244
N300 X42.073 Y-6.344
N310 X42.084 Y-6.443
N320 X42.092 Y-6.492
N330 X42.114 Y-6.632 Z-12.692
N340 X42.136 Y-6.771 Z-12.668
N350 X42.158 Y-6.906 Z-12.629
N360 X42.178 Y-7.036 Z-12.574
N370 X42.198 Y-7.159 Z-12.505
N380 X42.216 Y-7.274 Z-12.423
N390 X42.233 Y-7.379 Z-12.328
N400 X42.248 Y-7.472 Z-12.222
N410 X42.26 Y-7.554 Z-12.106
N420 X42.271 Y-7.622 Z-11.981
N430 X42.28 Y-7.676 Z-11.849
N440 X42.286 Y-7.714 Z-11.713
N450 X42.29 Y-7.738 Z-11.572
N460 X42.291 Y-7.746 Z-11.43
N470 G0 Z15.
N480 X-7.348 Y203.203
N490 Z5.
N500 G1 Z-11.43 F500.
N510 X-7.341 Y203.207 Z-11.572 F4000.
N520 X-7.323 Y203.222 Z-11.713
N530 X-7.292 Y203.247 Z-11.849
N540 X-7.249 Y203.281 Z-11.981
N550 X-7.195 Y203.323 Z-12.106
N560 X-7.13 Y203.374 Z-12.222
N570 X-7.056 Y203.433 Z-12.328
N580 X-6.972 Y203.499 Z-12.423
N590 X-6.881 Y203.571 Z-12.505
N600 X-6.784 Y203.648 Z-12.574
N610 X-6.68 Y203.73 Z-12.629
N620 X-6.573 Y203.815 Z-12.668
N630 X-6.463 Y203.902 Z-12.692
N640 X-6.351 Y203.99 Z-12.7
N650 X-6.246 Y204.074
N660 G2 X0.64 Y207.625 R20.209
N670 G3 X0.756 Y207.838 R0.172
N680 X0.713 Y207.911 R0.172
N690 G1 X-6.123 Y214.685
N700 X-6.185 Y214.747
N710 X-6.247 Y214.809
N720 G2 X-6.428 Y215.213 R0.635
N730 G1 X-7.514 Y231.439
N740 G2 X-6.923 Y232.114 R0.635
N750 X-6.249 Y231.546 R0.635
N760 G3 X-0.77 Y220.038 R19.05
N770 G1 X73.075 Y146.193
N780 X69.707 Y142.825
N790 X15.33 Y197.202
N800 G3 X-2.63 R12.7
N810 X-6.25 Y189.814 R12.7
N820 G1 X-6.256 Y189.765
N830 X-6.274 Y189.624 Z-12.692
N840 X-6.291 Y189.484 Z-12.668
N850 X-6.309 Y189.348 Z-12.629
N860 X-6.325 Y189.218 Z-12.574
N870 X-6.341 Y189.094 Z-12.505
N880 X-6.355 Y188.979 Z-12.423
N890 X-6.369 Y188.874 Z-12.328
N900 X-6.381 Y188.78 Z-12.222
N910 X-6.391 Y188.698 Z-12.106
N920 X-6.399 Y188.629 Z-11.981
N930 X-6.406 Y188.575 Z-11.849
N940 X-6.411 Y188.536 Z-11.713
N950 X-6.414 Y188.513 Z-11.572
N960 X-6.415 Y188.505 Z-11.43
N970 G0 Z15.
N980 X-7.348 Y332.584
N990 Z5.
N1000 G1 Z-11.43 F500.
N1010 X-7.341 Y332.588 Z-11.572 F4000.
N1020 X-7.323 Y332.603 Z-11.713
N1030 X-7.292 Y332.628 Z-11.849
N1040 X-7.249 Y332.662 Z-11.981
N1050 X-7.195 Y332.704 Z-12.106
N1060 X-7.13 Y332.755 Z-12.222
N1070 X-7.056 Y332.814 Z-12.328
N1080 X-6.972 Y332.88 Z-12.423
N1090 X-6.881 Y332.952 Z-12.505
N1100 X-6.784 Y333.029 Z-12.574
N1110 X-6.68 Y333.111 Z-12.629
N1120 X-6.573 Y333.196 Z-12.668
N1130 X-6.463 Y333.283 Z-12.692
N1140 X-6.351 Y333.371 Z-12.7
N1150 X-6.246 Y333.455
N1160 G2 X0.64 Y337.006 R20.209
N1170 G3 X0.756 Y337.219 R0.172
N1180 X0.713 Y337.292 R0.172
N1190 G1 X-6.123 Y344.066
N1200 X-6.185 Y344.128
N1210 X-6.247 Y344.191
N1220 G2 X-6.429 Y344.594 R0.635
N1230 G1 X-7.514 Y360.82
N1240 G2 X-6.923 Y361.496 R0.635
N1250 X-6.249 Y360.927 R0.635
N1260 G3 X-0.77 Y349.419 R19.05
N1270 G1 X73.075 Y275.574
N1280 X69.707 Y272.206
N1290 X15.33 Y326.583
N1300 G3 X-2.63 R12.7
N1310 X-6.25 Y319.195 R12.7
N1320 G1 X-6.256 Y319.146
N1330 X-6.274 Y319.005 Z-12.692
N1340 X-6.291 Y318.865 Z-12.668
N1350 X-6.309 Y318.729 Z-12.629
N1360 X-6.325 Y318.599 Z-12.574
N1370 X-6.341 Y318.475 Z-12.505
N1380 X-6.355 Y318.36 Z-12.423
N1390 X-6.369 Y318.255 Z-12.328
N1400 X-6.381 Y318.161 Z-12.222
N1410 X-6.391 Y318.079 Z-12.106
N1420 X-6.399 Y318.01 Z-11.981
N1430 X-6.406 Y317.956 Z-11.849
N1440 X-6.411 Y317.917 Z-11.713
N1450 X-6.414 Y317.894 Z-11.572
N1460 X-6.415 Y317.886 Z-11.43
N1470 G0 Z15.
N1480 X-7.348 Y461.965
N1490 Z5.
N1500 G1 Z-11.43 F500.
N1510 X-7.341 Y461.97 Z-11.572 F4000.
N1520 X-7.323 Y461.984 Z-11.713
N1530 X-7.292 Y462.009 Z-11.849
N1540 X-7.249 Y462.043 Z-11.981
N1550 X-7.195 Y462.085 Z-12.106
N1560 X-7.13 Y462.137 Z-12.222
N1570 X-7.056 Y462.195 Z-12.328
N1580 X-6.973 Y462.261 Z-12.423
N1590 X-6.881 Y462.333 Z-12.505
N1600 X-6.784 Y462.411 Z-12.574
N1610 X-6.68 Y462.492 Z-12.629
N1620 X-6.573 Y462.577 Z-12.668
N1630 X-6.463 Y462.664 Z-12.692
N1640 X-6.351 Y462.752 Z-12.7
N1650 X-6.246 Y462.836
N1660 G2 X0.641 Y466.388 R20.209
N1670 G3 X0.757 Y466.601 R0.172
N1680 X0.713 Y466.674 R0.172
N1690 G1 X-6.123 Y473.448
N1700 X-6.185 Y473.51
N1710 X-6.247 Y473.572
N1720 G2 X-6.428 Y473.976 R0.635
N1730 G1 X-7.514 Y490.202
N1740 G2 X-6.923 Y490.877 R0.635
N1750 X-6.249 Y490.309 R0.635
N1760 G3 X-0.77 Y478.801 R19.05
N1770 G1 X73.075 Y404.956
N1780 X69.707 Y401.588
N1790 X15.33 Y455.966
N1800 G3 X-2.631 Y455.964 R12.7
N1810 X-6.25 Y448.576 R12.7
N1820 G1 X-6.256 Y448.527
N1830 X-6.274 Y448.386 Z-12.692
N1840 X-6.292 Y448.246 Z-12.668
N1850 X-6.309 Y448.11 Z-12.629
N1860 X-6.325 Y447.98 Z-12.574
N1870 X-6.341 Y447.856 Z-12.505
N1880 X-6.355 Y447.741 Z-12.423
N1890 X-6.369 Y447.636 Z-12.328
N1900 X-6.381 Y447.541 Z-12.222
N1910 X-6.391 Y447.46 Z-12.106
N1920 X-6.399 Y447.391 Z-11.981
N1930 X-6.406 Y447.337 Z-11.849
N1940 X-6.411 Y447.298 Z-11.713
N1950 X-6.414 Y447.275 Z-11.572
N1960 X-6.415 Y447.267 Z-11.43
N1970 G0 Z15.
N1980 X-7.348 Y591.347
N1990 Z5.
N2000 G1 Z-11.43 F500.
N2010 X-7.341 Y591.352 Z-11.572 F4000.
N2020 X-7.323 Y591.366 Z-11.713
N2030 X-7.292 Y591.391 Z-11.849
N2040 X-7.249 Y591.425 Z-11.981
N2050 X-7.195 Y591.467 Z-12.106
N2060 X-7.13 Y591.518 Z-12.222
N2070 X-7.056 Y591.577 Z-12.328
N2080 X-6.972 Y591.643 Z-12.423
N2090 X-6.881 Y591.715 Z-12.505
N2100 X-6.784 Y591.792 Z-12.574
N2110 X-6.68 Y591.874 Z-12.629
N2120 X-6.573 Y591.959 Z-12.668
N2130 X-6.463 Y592.046 Z-12.692
N2140 X-6.351 Y592.134 Z-12.7
N2150 X-6.246 Y592.218
N2160 G2 X0.64 Y595.769 R20.209
N2170 G3 X0.756 Y595.982 R0.172
N2180 X0.713 Y596.055 R0.172
N2190 G1 X-6.123 Y602.829
N2200 X-6.185 Y602.891
N2210 X-6.247 Y602.953
N2220 G2 X-6.428 Y603.357 R0.635
N2230 G1 X-7.514 Y619.583
N2240 G2 X-6.923 Y620.259 R0.635
N2250 X-6.249 Y619.69 R0.635
N2260 G3 X-0.77 Y608.182 R19.05
N2270 G1 X73.075 Y534.337
N2280 X69.707 Y530.969
N2290 X15.33 Y585.346
N2300 G3 X-2.63 R12.7
N2310 X-6.25 Y577.958 R12.7
N2320 G1 X-6.256 Y577.909
N2330 X-6.274 Y577.768 Z-12.692
N2340 X-6.291 Y577.628 Z-12.668
N2350 X-6.309 Y577.492 Z-12.629
N2360 X-6.325 Y577.362 Z-12.574
N2370 X-6.341 Y577.238 Z-12.505
N2380 X-6.355 Y577.123 Z-12.423
N2390 X-6.369 Y577.018 Z-12.328
N2400 X-6.381 Y576.924 Z-12.222
N2410 X-6.391 Y576.842 Z-12.106
N2420 X-6.399 Y576.773 Z-11.981
N2430 X-6.406 Y576.719 Z-11.849
N2440 X-6.411 Y576.68 Z-11.713
N2450 X-6.414 Y576.657 Z-11.572
N2460 X-6.415 Y576.649 Z-11.43
N2470 G0 Z15.
N2480 X-7.348 Y720.728
N2490 Z5.
N2500 G1 Z-11.43 F500.
N2510 X-7.341 Y720.732 Z-11.572 F4000.
N2520 X-7.323 Y720.747 Z-11.713
N2530 X-7.292 Y720.772 Z-11.849
N2540 X-7.249 Y720.806 Z-11.981
N2550 X-7.195 Y720.848 Z-12.106
N2560 X-7.13 Y720.899 Z-12.222
N2570 X-7.056 Y720.958 Z-12.328
N2580 X-6.972 Y721.024 Z-12.423
N2590 X-6.881 Y721.096 Z-12.505
N2600 X-6.784 Y721.173 Z-12.574
N2610 X-6.68 Y721.255 Z-12.629
N2620 X-6.573 Y721.34 Z-12.668
N2630 X-6.463 Y721.427 Z-12.692
N2640 X-6.351 Y721.515 Z-12.7
N2650 X-6.246 Y721.599
N2660 G2 X0.64 Y725.15 R20.209
N2670 G3 X0.756 Y725.363 R0.172
N2680 X0.713 Y725.436 R0.172
N2690 G1 X-6.123 Y732.21
N2700 X-6.185 Y732.272
N2710 X-6.247 Y732.334
N2720 G2 X-6.428 Y732.738 R0.635
N2730 G1 X-7.514 Y748.964
N2740 G2 X-6.923 Y749.64 R0.635
N2750 X-6.249 Y749.071 R0.635
N2760 G3 X-0.77 Y737.563 R19.05
N2770 G1 X73.075 Y663.718
N2780 X69.707 Y660.35
N2790 X15.33 Y714.727
N2800 G3 X-2.63 R12.7
N2810 X-6.25 Y707.339 R12.7
N2820 G1 X-6.256 Y707.29
N2830 X-6.274 Y707.149 Z-12.692
N2840 X-6.291 Y707.009 Z-12.668
N2850 X-6.309 Y706.873 Z-12.629
N2860 X-6.325 Y706.743 Z-12.574
N2870 X-6.341 Y706.619 Z-12.505
N2880 X-6.355 Y706.504 Z-12.423
N2890 X-6.369 Y706.399 Z-12.328
N2900 X-6.381 Y706.305 Z-12.222
N2910 X-6.391 Y706.223 Z-12.106
N2920 X-6.399 Y706.154 Z-11.981
N2930 X-6.406 Y706.1 Z-11.849
N2940 X-6.411 Y706.061 Z-11.713
N2950 X-6.414 Y706.038 Z-11.572
N2960 X-6.415 Y706.03 Z-11.43
N2970 G0 Z15.
N2980 X-7.348 Y850.109
N2990 Z5.
N3000 G1 Z-11.43 F500.
N3010 X-7.341 Y850.113 Z-11.572 F4000.
N3020 X-7.323 Y850.128 Z-11.713
N3030 X-7.292 Y850.153 Z-11.849
N3040 X-7.249 Y850.187 Z-11.981
N3050 X-7.195 Y850.229 Z-12.106
N3060 X-7.13 Y850.28 Z-12.222
N3070 X-7.056 Y850.339 Z-12.328
N3080 X-6.972 Y850.405 Z-12.423
N3090 X-6.881 Y850.477 Z-12.505
N3100 X-6.784 Y850.554 Z-12.574
N3110 X-6.68 Y850.636 Z-12.629
N3120 X-6.573 Y850.721 Z-12.668
N3130 X-6.463 Y850.808 Z-12.692
N3140 X-6.351 Y850.896 Z-12.7
N3150 X-6.246 Y850.98
N3160 G2 X0.64 Y854.531 R20.209
N3170 G3 X0.756 Y854.744 R0.172
N3180 X0.713 Y854.817 R0.172
N3190 G1 X-6.123 Y861.591
N3200 X-6.185 Y861.653
N3210 X-6.247 Y861.716
N3220 G2 X-6.429 Y862.119 R0.635
N3230 G1 X-7.514 Y878.345
N3240 G2 X-6.923 Y879.02 R0.635
N3250 X-6.249 Y878.452 R0.635
N3260 G3 X-0.77 Y866.944 R19.05
N3270 G1 X73.075 Y793.099
N3280 X69.707 Y789.731
N3290 X15.33 Y844.108
N3300 G3 X-2.63 R12.7
N3310 X-6.25 Y836.72 R12.7
N3320 G1 X-6.256 Y836.671
N3330 X-6.274 Y836.53 Z-12.692
N3340 X-6.291 Y836.39 Z-12.668
N3350 X-6.309 Y836.255 Z-12.629
N3360 X-6.325 Y836.124 Z-12.574
N3370 X-6.341 Y836. Z-12.505
N3380 X-6.355 Y835.885 Z-12.423
N3390 X-6.369 Y835.78 Z-12.328
N3400 X-6.381 Y835.686 Z-12.222
N3410 X-6.391 Y835.604 Z-12.106
N3420 X-6.399 Y835.535 Z-11.981
N3430 X-6.406 Y835.481 Z-11.849
N3440 X-6.411 Y835.442 Z-11.713
N3450 X-6.414 Y835.419 Z-11.572
N3460 X-6.415 Y835.411 Z-11.43
N3470 G0 Z15.
N3480 X-7.347 Y979.49
N3490 Z5.
N3500 G1 Z-11.43 F500.
N3510 X-7.341 Y979.494 Z-11.572 F4000.
N3520 X-7.322 Y979.509 Z-11.713
N3530 X-7.291 Y979.534 Z-11.849
N3540 X-7.249 Y979.568 Z-11.981
N3550 X-7.195 Y979.61 Z-12.106
N3560 X-7.13 Y979.661 Z-12.222
N3570 X-7.056 Y979.72 Z-12.328
N3580 X-6.972 Y979.786 Z-12.423
N3590 X-6.881 Y979.858 Z-12.505
N3600 X-6.783 Y979.935 Z-12.574
N3610 X-6.68 Y980.017 Z-12.629
N3620 X-6.573 Y980.102 Z-12.668
N3630 X-6.463 Y980.189 Z-12.692
N3640 X-6.351 Y980.277 Z-12.7
N3650 X-6.245 Y980.361
N3660 G2 X0.639 Y983.911 R20.208
N3670 G3 X0.758 Y984.129 R0.175
N3680 X0.714 Y984.203 R0.175
N3690 G1 X-6.123 Y990.977
N3700 X-6.185 Y991.039
N3710 X-6.247 Y991.102
N3720 G2 X-6.429 Y991.505 R0.635
N3730 G1 X-7.514 Y1007.731
N3740 G2 X-6.923 Y1008.407 R0.635
N3750 X-6.249 Y1007.838 R0.635
N3760 G3 X-0.77 Y996.33 R19.05
N3770 G1 X73.075 Y922.481
N3780 X69.707 Y919.113
N3790 X15.33 Y973.491
N3800 G3 X-2.631 Y973.488 R12.7
N3810 X-6.25 Y966.101 R12.7
N3820 G1 X-6.256 Y966.052
N3830 X-6.274 Y965.911 Z-12.692
N3840 X-6.292 Y965.771 Z-12.668
N3850 X-6.309 Y965.635 Z-12.629
N3860 X-6.325 Y965.505 Z-12.574
N3870 X-6.341 Y965.381 Z-12.505
N3880 X-6.355 Y965.266 Z-12.423
N3890 X-6.369 Y965.161 Z-12.328
N3900 X-6.381 Y965.066 Z-12.222
N3910 X-6.391 Y964.985 Z-12.106
N3920 X-6.399 Y964.916 Z-11.981
N3930 X-6.406 Y964.862 Z-11.849
N3940 X-6.411 Y964.823 Z-11.713
N3950 X-6.414 Y964.8 Z-11.572
N3960 X-6.415 Y964.792 Z-11.43
N3970 G0 Z15.
N3980 X-7.347 Y1108.87
N3990 Z5.
N4000 G1 Z-11.43 F500.
N4010 X-7.341 Y1108.875 Z-11.572 F4000.
N4020 X-7.322 Y1108.89 Z-11.713
N4030 X-7.291 Y1108.915 Z-11.849
N4040 X-7.249 Y1108.948 Z-11.981
N4050 X-7.194 Y1108.991 Z-12.106
N4060 X-7.13 Y1109.042 Z-12.222
N4070 X-7.055 Y1109.101 Z-12.328
N4080 X-6.972 Y1109.167 Z-12.423
N4090 X-6.881 Y1109.239 Z-12.505
N4100 X-6.783 Y1109.316 Z-12.574
N4110 X-6.68 Y1109.398 Z-12.629
N4120 X-6.573 Y1109.483 Z-12.668
N4130 X-6.462 Y1109.57 Z-12.692
N4140 X-6.351 Y1109.658 Z-12.7
N4150 X-6.245 Y1109.742
N4160 G2 X0.639 Y1113.292 R20.207
N4170 G3 X0.758 Y1113.509 R0.175
N4180 X0.714 Y1113.584 R0.175
N4190 G1 X-6.123 Y1120.357
N4200 X-6.185 Y1120.419
N4210 X-6.247 Y1120.481
N4220 G2 X-6.428 Y1120.885 R0.635
N4230 G1 X-7.514 Y1137.11
N4240 G2 X-6.923 Y1137.787 R0.635
N4250 X-6.249 Y1137.218 R0.635
N4260 G3 X-0.77 Y1125.71 R19.05
N4270 G1 X73.075 Y1051.865
N4280 X69.707 Y1048.495
N4290 X15.33 Y1102.87
N4300 G3 X-2.63 R12.7
N4310 X-6.25 Y1095.482 R12.7
N4320 G1 X-6.256 Y1095.433
N4330 X-6.274 Y1095.292 Z-12.692
N4340 X-6.291 Y1095.152 Z-12.668
N4350 X-6.309 Y1095.016 Z-12.629
N4360 X-6.325 Y1094.886 Z-12.574
N4370 X-6.341 Y1094.762 Z-12.505
N4380 X-6.355 Y1094.647 Z-12.423
N4390 X-6.369 Y1094.542 Z-12.328
N4400 X-6.381 Y1094.448 Z-12.222
N4410 X-6.391 Y1094.366 Z-12.106
N4420 X-6.399 Y1094.297 Z-11.981
N4430 X-6.406 Y1094.243 Z-11.849
N4440 X-6.411 Y1094.204 Z-11.713
N4450 X-6.414 Y1094.181 Z-11.572
N4460 X-6.415 Y1094.173 Z-11.43
N4470 G0 Z15.
N4480 X-7.347 Y1238.25
N4490 Z5.
N4500 G1 Z-11.43 F500.
N4510 X-7.341 Y1238.255 Z-11.572 F4000.
N4520 X-7.322 Y1238.27 Z-11.713
N4530 X-7.291 Y1238.295 Z-11.849
N4540 X-7.249 Y1238.328 Z-11.981
N4550 X-7.194 Y1238.371 Z-12.106
N4560 X-7.13 Y1238.422 Z-12.222
N4570 X-7.055 Y1238.481 Z-12.328
N4580 X-6.972 Y1238.547 Z-12.423
N4590 X-6.881 Y1238.619 Z-12.505
N4600 X-6.783 Y1238.696 Z-12.574
N4610 X-6.68 Y1238.778 Z-12.629
N4620 X-6.573 Y1238.863 Z-12.668
N4630 X-6.462 Y1238.95 Z-12.692
N4640 X-6.351 Y1239.038 Z-12.7
N4650 X-6.245 Y1239.122
N4660 G2 X0.639 Y1242.672 R20.207
N4670 G3 X0.758 Y1242.889 R0.175
N4680 X0.714 Y1242.964 R0.175
N4690 G1 X-6.123 Y1249.737
N4700 X-6.185 Y1249.799
N4710 X-6.247 Y1249.861
N4720 G2 X-6.428 Y1250.265 R0.635
N4730 G1 X-7.514 Y1266.49
N4740 G2 X-6.923 Y1267.167 R0.635
N4750 X-6.249 Y1266.598 R0.635
N4760 G3 X-0.77 Y1255.09 R19.05
N4770 G1 X73.075 Y1181.245
N4780 X69.707 Y1177.875
N4790 X15.33 Y1232.25
N4800 G3 X-2.63 R12.7
N4810 X-6.25 Y1224.862 R12.7
N4820 G1 X-6.256 Y1224.813
N4830 X-6.274 Y1224.672 Z-12.692
N4840 X-6.291 Y1224.532 Z-12.668
N4850 X-6.309 Y1224.396 Z-12.629
N4860 X-6.325 Y1224.266 Z-12.574
N4870 X-6.341 Y1224.142 Z-12.505
N4880 X-6.355 Y1224.027 Z-12.423
N4890 X-6.369 Y1223.922 Z-12.328
N4900 X-6.381 Y1223.828 Z-12.222
N4910 X-6.391 Y1223.746 Z-12.106
N4920 X-6.399 Y1223.677 Z-11.981
N4930 X-6.406 Y1223.623 Z-11.849
N4940 X-6.411 Y1223.584 Z-11.713
N4950 X-6.414 Y1223.561 Z-11.572
N4960 X-6.415 Y1223.553 Z-11.43
N4970 G0 Z15.
N4980 X-7.347 Y1367.63
N4990 Z5.
N5000 G1 Z-11.43 F500.
N5010 X-7.341 Y1367.635 Z-11.572 F4000.
N5020 X-7.322 Y1367.65 Z-11.713
N5030 X-7.291 Y1367.675 Z-11.849
N5040 X-7.249 Y1367.708 Z-11.981
N5050 X-7.194 Y1367.751 Z-12.106
N5060 X-7.13 Y1367.802 Z-12.222
N5070 X-7.055 Y1367.861 Z-12.328
N5080 X-6.972 Y1367.927 Z-12.423
N5090 X-6.881 Y1367.999 Z-12.505
N5100 X-6.783 Y1368.076 Z-12.574
N5110 X-6.68 Y1368.158 Z-12.629
N5120 X-6.573 Y1368.243 Z-12.668
N5130 X-6.462 Y1368.33 Z-12.692
N5140 X-6.351 Y1368.418 Z-12.7
N5150 X-6.245 Y1368.502
N5160 G2 X0.639 Y1372.052 R20.207
N5170 G3 X0.758 Y1372.269 R0.175
N5180 X0.714 Y1372.344 R0.175
N5190 G1 X-6.123 Y1379.117
N5200 X-6.185 Y1379.179
N5210 X-6.247 Y1379.241
N5220 G2 X-6.428 Y1379.645 R0.635
N5230 G1 X-7.514 Y1395.87
N5240 G2 X-6.923 Y1396.547 R0.635
N5250 X-6.249 Y1395.978 R0.635
N5260 G3 X-0.77 Y1384.47 R19.05
N5270 G1 X73.075 Y1310.625
N5280 X69.707 Y1307.255
N5290 X15.33 Y1361.63
N5300 G3 X-2.63 R12.7
N5310 X-6.25 Y1354.242 R12.7
N5320 G1 X-6.256 Y1354.193
N5330 X-6.274 Y1354.052 Z-12.692
N5340 X-6.291 Y1353.912 Z-12.668
N5350 X-6.309 Y1353.776 Z-12.629
N5360 X-6.325 Y1353.646 Z-12.574
N5370 X-6.341 Y1353.522 Z-12.505
N5380 X-6.355 Y1353.407 Z-12.423
N5390 X-6.369 Y1353.302 Z-12.328
N5400 X-6.381 Y1353.208 Z-12.222
N5410 X-6.391 Y1353.126 Z-12.106
N5420 X-6.399 Y1353.057 Z-11.981
N5430 X-6.406 Y1353.003 Z-11.849
N5440 X-6.411 Y1352.964 Z-11.713
N5450 X-6.414 Y1352.941 Z-11.572
N5460 X-6.415 Y1352.933 Z-11.43
N5470 G0 Z15.
N5480 X145.053 Y1367.63
N5490 Z5.
N5500 G1 Z-11.43 F500.
N5510 X145.059 Y1367.635 Z-11.572 F4000.
N5520 X145.078 Y1367.65 Z-11.713
N5530 X145.109 Y1367.674 Z-11.849
N5540 X145.152 Y1367.708 Z-11.981
N5550 X145.206 Y1367.751 Z-12.106
N5560 X145.27 Y1367.802 Z-12.222
N5570 X145.345 Y1367.861 Z-12.328
N5580 X145.428 Y1367.927 Z-12.423
N5590 X145.519 Y1367.999 Z-12.505
N5600 X145.617 Y1368.076 Z-12.574
N5610 X145.72 Y1368.158 Z-12.629
N5620 X145.827 Y1368.243 Z-12.668
N5630 X145.938 Y1368.33 Z-12.692
N5640 X146.049 Y1368.418 Z-12.7
N5650 X146.055 Y1368.423
N5660 X146.155 Y1368.502
N5670 G2 X153.039 Y1372.052 R20.207
N5680 G3 X153.158 Y1372.27 R0.175
N5690 X153.114 Y1372.344 R0.175
N5700 G1 X146.277 Y1379.117
N5710 X146.215 Y1379.179
N5720 X146.154 Y1379.241
N5730 G2 X145.972 Y1379.645 R0.635
N5740 G1 X144.886 Y1395.87
N5750 G2 X145.477 Y1396.546 R0.635
N5760 X146.151 Y1395.978 R0.635
N5770 G3 X151.63 Y1384.47 R19.05
N5780 G1 X225.475 Y1310.625
N5790 X222.107 Y1307.255
N5800 X167.73 Y1361.63
N5810 G3 X149.77 R12.7
N5820 X146.15 Y1354.242 R12.7
N5830 G1 X146.144 Y1354.193
N5840 X146.126 Y1354.052 Z-12.692
N5850 X146.109 Y1353.912 Z-12.668
N5860 X146.091 Y1353.776 Z-12.629
N5870 X146.075 Y1353.646 Z-12.574
N5880 X146.059 Y1353.522 Z-12.505
N5890 X146.045 Y1353.407 Z-12.423
N5900 X146.031 Y1353.302 Z-12.328
N5910 X146.019 Y1353.208 Z-12.222
N5920 X146.009 Y1353.126 Z-12.106
N5930 X146.001 Y1353.057 Z-11.981
N5940 X145.994 Y1353.003 Z-11.849
N5950 X145.989 Y1352.964 Z-11.713
N5960 X145.986 Y1352.941 Z-11.572
N5970 X145.985 Y1352.933 Z-11.43
N5980 G0 Z15.
N5990 X145.053 Y1238.25
N6000 Z5.
N6010 G1 Z-11.43 F500.
N6020 X145.059 Y1238.255 Z-11.572 F4000.
N6030 X145.078 Y1238.27 Z-11.713
N6040 X145.109 Y1238.294 Z-11.849
N6050 X145.152 Y1238.328 Z-11.981
N6060 X145.206 Y1238.371 Z-12.106
N6070 X145.27 Y1238.422 Z-12.222
N6080 X145.345 Y1238.481 Z-12.328
N6090 X145.428 Y1238.547 Z-12.423
N6100 X145.519 Y1238.619 Z-12.505
N6110 X145.617 Y1238.696 Z-12.574
N6120 X145.72 Y1238.778 Z-12.629
N6130 X145.827 Y1238.863 Z-12.668
N6140 X145.938 Y1238.95 Z-12.692
N6150 X146.049 Y1239.038 Z-12.7
N6160 X146.055 Y1239.043
N6170 X146.155 Y1239.122
N6180 G2 X153.039 Y1242.672 R20.207
N6190 G3 X153.158 Y1242.89 R0.175
N6200 X153.114 Y1242.964 R0.175
N6210 G1 X146.277 Y1249.737
N6220 X146.215 Y1249.799
N6230 X146.154 Y1249.861
N6240 G2 X145.972 Y1250.265 R0.635
N6250 G1 X144.886 Y1266.49
N6260 G2 X145.477 Y1267.166 R0.635
N6270 X146.151 Y1266.598 R0.635
N6280 G3 X151.63 Y1255.09 R19.05
N6290 G1 X225.475 Y1181.245
N6300 X222.107 Y1177.875
N6310 X167.73 Y1232.25
N6320 G3 X149.77 R12.7
N6330 X146.15 Y1224.862 R12.7
N6340 G1 X146.144 Y1224.813
N6350 X146.126 Y1224.672 Z-12.692
N6360 X146.109 Y1224.532 Z-12.668
N6370 X146.091 Y1224.396 Z-12.629
N6380 X146.075 Y1224.266 Z-12.574
N6390 X146.059 Y1224.142 Z-12.505
N6400 X146.045 Y1224.027 Z-12.423
N6410 X146.031 Y1223.922 Z-12.328
N6420 X146.019 Y1223.828 Z-12.222
N6430 X146.009 Y1223.746 Z-12.106
N6440 X146.001 Y1223.677 Z-11.981
N6450 X145.994 Y1223.623 Z-11.849
N6460 X145.989 Y1223.584 Z-11.713
N6470 X145.986 Y1223.561 Z-11.572
N6480 X145.985 Y1223.553 Z-11.43
N6490 G0 Z15.
N6500 X145.053 Y1108.87
N6510 Z5.
N6520 G1 Z-11.43 F500.
N6530 X145.059 Y1108.875 Z-11.572 F4000.
N6540 X145.078 Y1108.89 Z-11.713
N6550 X145.109 Y1108.915 Z-11.849
N6560 X145.151 Y1108.948 Z-11.981
N6570 X145.206 Y1108.991 Z-12.106
N6580 X145.27 Y1109.042 Z-12.222
N6590 X145.345 Y1109.101 Z-12.328
N6600 X145.428 Y1109.167 Z-12.423
N6610 X145.519 Y1109.239 Z-12.505
N6620 X145.617 Y1109.316 Z-12.574
N6630 X145.72 Y1109.398 Z-12.629
N6640 X145.827 Y1109.483 Z-12.668
N6650 X145.938 Y1109.57 Z-12.692
N6660 X146.049 Y1109.658 Z-12.7
N6670 X146.055 Y1109.663
N6680 X146.155 Y1109.742
N6690 G2 X153.039 Y1113.292 R20.207
N6700 G3 X153.158 Y1113.51 R0.175
N6710 X153.114 Y1113.584 R0.175
N6720 G1 X146.277 Y1120.357
N6730 X146.215 Y1120.419
N6740 X146.154 Y1120.481
N6750 G2 X145.972 Y1120.885 R0.635
N6760 G1 X144.886 Y1137.11
N6770 G2 X145.477 Y1137.786 R0.635
N6780 X146.151 Y1137.218 R0.635
N6790 G3 X151.63 Y1125.71 R19.05
N6800 G1 X225.475 Y1051.865
N6810 X222.107 Y1048.495
N6820 X167.73 Y1102.87
N6830 G3 X149.77 R12.7
N6840 X146.15 Y1095.482 R12.7
N6850 G1 X146.144 Y1095.433
N6860 X146.126 Y1095.292 Z-12.692
N6870 X146.109 Y1095.152 Z-12.668
N6880 X146.091 Y1095.016 Z-12.629
N6890 X146.075 Y1094.886 Z-12.574
N6900 X146.059 Y1094.762 Z-12.505
N6910 X146.045 Y1094.647 Z-12.423
N6920 X146.031 Y1094.542 Z-12.328
N6930 X146.019 Y1094.448 Z-12.222
N6940 X146.009 Y1094.366 Z-12.106
N6950 X146.001 Y1094.297 Z-11.981
N6960 X145.994 Y1094.243 Z-11.849
N6970 X145.989 Y1094.204 Z-11.713
N6980 X145.986 Y1094.181 Z-11.572
N6990 X145.985 Y1094.173 Z-11.43
N7000 G0 Z15.
N7010 X145.053 Y979.49
N7020 Z5.
N7030 G1 Z-11.43 F500.
N7040 X145.059 Y979.494 Z-11.572 F4000.
N7050 X145.078 Y979.509 Z-11.713
N7060 X145.109 Y979.534 Z-11.849
N7070 X145.151 Y979.568 Z-11.981
N7080 X145.205 Y979.61 Z-12.106
N7090 X145.27 Y979.661 Z-12.222
N7100 X145.345 Y979.72 Z-12.328
N7110 X145.428 Y979.786 Z-12.423
N7120 X145.519 Y979.858 Z-12.505
N7130 X145.617 Y979.935 Z-12.574
N7140 X145.72 Y980.017 Z-12.629
N7150 X145.827 Y980.102 Z-12.668
N7160 X145.937 Y980.189 Z-12.692
N7170 X146.049 Y980.277 Z-12.7
N7180 X146.155 Y980.361
N7190 G2 X153.04 Y983.911 R20.208
N7200 G3 X153.158 Y984.129 R0.175
N7210 X153.114 Y984.203 R0.175
N7220 G1 X146.277 Y990.977
N7230 X146.215 Y991.039
N7240 X146.153 Y991.102
N7250 G2 X145.972 Y991.505 R0.635
N7260 G1 X144.886 Y1007.73
N7270 G2 X145.477 Y1008.406 R0.635
N7280 X146.151 Y1007.838 R0.635
N7290 G3 X151.63 Y996.33 R19.05
N7300 G1 X225.475 Y922.481
N7310 X222.107 Y919.113
N7320 X167.73 Y973.491
N7330 G3 X149.769 Y973.488 R12.7
N7340 X146.15 Y966.101 R12.7
N7350 G1 X146.144 Y966.052
N7360 X146.126 Y965.911 Z-12.692
N7370 X146.109 Y965.771 Z-12.668
N7380 X146.091 Y965.635 Z-12.629
N7390 X146.075 Y965.505 Z-12.574
N7400 X146.059 Y965.381 Z-12.505
N7410 X146.045 Y965.266 Z-12.423
N7420 X146.031 Y965.161 Z-12.328
N7430 X146.019 Y965.066 Z-12.222
N7440 X146.009 Y964.985 Z-12.106
N7450 X146.001 Y964.916 Z-11.981
N7460 X145.994 Y964.862 Z-11.849
N7470 X145.989 Y964.823 Z-11.713
N7480 X145.986 Y964.8 Z-11.572
N7490 X145.985 Y964.792 Z-11.43
N7500 G0 Z15.
N7510 X145.052 Y850.109
N7520 Z5.
N7530 G1 Z-11.43 F500.
N7540 X145.059 Y850.113 Z-11.572 F4000.
N7550 X145.077 Y850.128 Z-11.713
N7560 X145.108 Y850.153 Z-11.849
N7570 X145.151 Y850.187 Z-11.981
N7580 X145.205 Y850.229 Z-12.106
N7590 X145.27 Y850.28 Z-12.222
N7600 X145.344 Y850.339 Z-12.328
N7610 X145.428 Y850.405 Z-12.423
N7620 X145.519 Y850.477 Z-12.505
N7630 X145.616 Y850.554 Z-12.574
N7640 X145.72 Y850.636 Z-12.629
N7650 X145.827 Y850.721 Z-12.668
N7660 X145.937 Y850.808 Z-12.692
N7670 X146.049 Y850.896 Z-12.7
N7680 X146.154 Y850.98
N7690 G2 X153.04 Y854.531 R20.209
N7700 G3 X153.157 Y854.744 R0.172
N7710 X153.113 Y854.817 R0.172
N7720 G1 X146.277 Y861.591
N7730 X146.215 Y861.653
N7740 X146.154 Y861.715
N7750 G2 X145.972 Y862.119 R0.635
N7760 G1 X144.886 Y878.344
N7770 G2 X145.477 Y879.02 R0.635
N7780 X146.151 Y878.452 R0.635
N7790 G3 X151.63 Y866.944 R19.05
N7800 G1 X225.475 Y793.099
N7810 X222.107 Y789.731
N7820 X167.73 Y844.108
N7830 G3 X149.77 R12.7
N7840 X146.15 Y836.72 R12.7
N7850 G1 X146.144 Y836.671
N7860 X146.126 Y836.53 Z-12.692
N7870 X146.109 Y836.39 Z-12.668
N7880 X146.091 Y836.255 Z-12.629
N7890 X146.075 Y836.124 Z-12.574
N7900 X146.059 Y836. Z-12.505
N7910 X146.045 Y835.885 Z-12.423
N7920 X146.031 Y835.78 Z-12.328
N7930 X146.019 Y835.686 Z-12.222
N7940 X146.009 Y835.604 Z-12.106
N7950 X146.001 Y835.535 Z-11.981
N7960 X145.994 Y835.481 Z-11.849
N7970 X145.989 Y835.442 Z-11.713
N7980 X145.986 Y835.419 Z-11.572
N7990 X145.985 Y835.411 Z-11.43
N8000 G0 Z15.
N8010 X145.052 Y720.728
N8020 Z5.
N8030 G1 Z-11.43 F500.
N8040 X145.059 Y720.732 Z-11.572 F4000.
N8050 X145.077 Y720.747 Z-11.713
N8060 X145.108 Y720.772 Z-11.849
N8070 X145.151 Y720.806 Z-11.981
N8080 X145.205 Y720.848 Z-12.106
N8090 X145.27 Y720.899 Z-12.222
N8100 X145.344 Y720.958 Z-12.328
N8110 X145.428 Y721.024 Z-12.423
N8120 X145.519 Y721.096 Z-12.505
N8130 X145.616 Y721.173 Z-12.574
N8140 X145.72 Y721.255 Z-12.629
N8150 X145.827 Y721.34 Z-12.668
N8160 X145.937 Y721.427 Z-12.692
N8170 X146.049 Y721.515 Z-12.7
N8180 X146.154 Y721.599
N8190 G2 X153.04 Y725.15 R20.209
N8200 G3 X153.157 Y725.363 R0.172
N8210 X153.113 Y725.436 R0.172
N8220 G1 X146.277 Y732.21
N8230 X146.215 Y732.272
N8240 X146.154 Y732.334
N8250 G2 X145.972 Y732.738 R0.635
N8260 G1 X144.886 Y748.963
N8270 G2 X145.477 Y749.639 R0.635
N8280 X146.151 Y749.071 R0.635
N8290 G3 X151.63 Y737.563 R19.05
N8300 G1 X225.475 Y663.718
N8310 X222.107 Y660.35
N8320 X167.73 Y714.727
N8330 G3 X149.77 R12.7
N8340 X146.15 Y707.339 R12.7
N8350 G1 X146.144 Y707.29
N8360 X146.126 Y707.149 Z-12.692
N8370 X146.109 Y707.009 Z-12.668
N8380 X146.091 Y706.873 Z-12.629
N8390 X146.075 Y706.743 Z-12.574
N8400 X146.059 Y706.619 Z-12.505
N8410 X146.045 Y706.504 Z-12.423
N8420 X146.031 Y706.399 Z-12.328
N8430 X146.019 Y706.305 Z-12.222
N8440 X146.009 Y706.223 Z-12.106
N8450 X146.001 Y706.154 Z-11.981
N8460 X145.994 Y706.1 Z-11.849
N8470 X145.989 Y706.061 Z-11.713
N8480 X145.986 Y706.038 Z-11.572
N8490 X145.985 Y706.03 Z-11.43
N8500 G0 Z15.
N8510 X145.052 Y591.346
N8520 Z5.
N8530 G1 Z-11.43 F500.
N8540 X145.059 Y591.351 Z-11.572 F4000.
N8550 X145.077 Y591.366 Z-11.713
N8560 X145.108 Y591.391 Z-11.849
N8570 X145.151 Y591.425 Z-11.981
N8580 X145.205 Y591.467 Z-12.106
N8590 X145.27 Y591.518 Z-12.222
N8600 X145.344 Y591.577 Z-12.328
N8610 X145.428 Y591.643 Z-12.423
N8620 X145.519 Y591.715 Z-12.505
N8630 X145.616 Y591.792 Z-12.574
N8640 X145.72 Y591.874 Z-12.629
N8650 X145.827 Y591.959 Z-12.668
N8660 X145.937 Y592.046 Z-12.692
N8670 X146.049 Y592.134 Z-12.7
N8680 X146.154 Y592.218
N8690 G2 X153.04 Y595.769 R20.209
N8700 G3 X153.157 Y595.982 R0.172
N8710 X153.113 Y596.055 R0.172
N8720 G1 X146.277 Y602.829
N8730 X146.215 Y602.891
N8740 X146.154 Y602.953
N8750 G2 X145.972 Y603.357 R0.635
N8760 G1 X144.886 Y619.582
N8770 G2 X145.477 Y620.258 R0.635
N8780 X146.151 Y619.69 R0.635
N8790 G3 X151.63 Y608.182 R19.05
N8800 G1 X225.475 Y534.337
N8810 X222.107 Y530.969
N8820 X167.73 Y585.346
N8830 G3 X149.77 R12.7
N8840 X146.15 Y577.958 R12.7
N8850 G1 X146.144 Y577.909
N8860 X146.126 Y577.768 Z-12.692
N8870 X146.109 Y577.628 Z-12.668
N8880 X146.091 Y577.492 Z-12.629
N8890 X146.075 Y577.362 Z-12.574
N8900 X146.059 Y577.238 Z-12.505
N8910 X146.045 Y577.123 Z-12.423
N8920 X146.031 Y577.018 Z-12.328
N8930 X146.019 Y576.924 Z-12.222
N8940 X146.009 Y576.842 Z-12.106
N8950 X146.001 Y576.773 Z-11.981
N8960 X145.994 Y576.719 Z-11.849
N8970 X145.989 Y576.68 Z-11.713
N8980 X145.986 Y576.657 Z-11.572
N8990 X145.985 Y576.649 Z-11.43
N9000 G0 Z15.
N9010 X145.052 Y461.965
N9020 Z5.
N9030 G1 Z-11.43 F500.
N9040 X145.059 Y461.97 Z-11.572 F4000.
N9050 X145.077 Y461.984 Z-11.713
N9060 X145.108 Y462.009 Z-11.849
N9070 X145.151 Y462.043 Z-11.981
N9080 X145.205 Y462.085 Z-12.106
N9090 X145.27 Y462.137 Z-12.222
N9100 X145.344 Y462.195 Z-12.328
N9110 X145.427 Y462.261 Z-12.423
N9120 X145.519 Y462.333 Z-12.505
N9130 X145.616 Y462.411 Z-12.574
N9140 X145.72 Y462.492 Z-12.629
N9150 X145.827 Y462.577 Z-12.668
N9160 X145.937 Y462.664 Z-12.692
N9170 X146.049 Y462.752 Z-12.7
N9180 X146.154 Y462.836
N9190 G2 X153.041 Y466.388 R20.209
N9200 G3 X153.157 Y466.601 R0.172
N9210 X153.114 Y466.674 R0.172
N9220 G1 X146.277 Y473.448
N9230 X146.215 Y473.51
N9240 X146.154 Y473.572
N9250 G2 X145.972 Y473.976 R0.635
N9260 G1 X144.886 Y490.201
N9270 G2 X145.477 Y490.877 R0.635
N9280 X146.151 Y490.309 R0.635
N9290 G3 X151.63 Y478.801 R19.05
N9300 G1 X225.475 Y404.956
N9310 X222.107 Y401.588
N9320 X167.73 Y455.966
N9330 G3 X149.769 Y455.963 R12.7
N9340 X146.15 Y448.576 R12.7
N9350 G1 X146.144 Y448.527
N9360 X146.126 Y448.386 Z-12.692
N9370 X146.109 Y448.246 Z-12.668
N9380 X146.091 Y448.11 Z-12.629
N9390 X146.075 Y447.98 Z-12.574
N9400 X146.059 Y447.856 Z-12.505
N9410 X146.045 Y447.741 Z-12.423
N9420 X146.031 Y447.636 Z-12.328
N9430 X146.019 Y447.541 Z-12.222
N9440 X146.009 Y447.46 Z-12.106
N9450 X146.001 Y447.391 Z-11.981
N9460 X145.994 Y447.337 Z-11.849
N9470 X145.989 Y447.298 Z-11.713
N9480 X145.986 Y447.275 Z-11.572
N9490 X145.985 Y447.267 Z-11.43
N9500 G0 Z15.
N9510 X145.052 Y332.584
N9520 Z5.
N9530 G1 Z-11.43 F500.
N9540 X145.059 Y332.588 Z-11.572 F4000.
N9550 X145.077 Y332.603 Z-11.713
N9560 X145.108 Y332.628 Z-11.849
N9570 X145.151 Y332.662 Z-11.981
N9580 X145.205 Y332.704 Z-12.106
N9590 X145.27 Y332.755 Z-12.222
N9600 X145.344 Y332.814 Z-12.328
N9610 X145.428 Y332.88 Z-12.423
N9620 X145.519 Y332.952 Z-12.505
N9630 X145.616 Y333.029 Z-12.574
N9640 X145.72 Y333.111 Z-12.629
N9650 X145.827 Y333.196 Z-12.668
N9660 X145.937 Y333.283 Z-12.692
N9670 X146.049 Y333.371 Z-12.7
N9680 X146.154 Y333.455
N9690 G2 X153.04 Y337.006 R20.209
N9700 G3 X153.157 Y337.219 R0.172
N9710 X153.113 Y337.292 R0.172
N9720 G1 X146.277 Y344.066
N9730 X146.215 Y344.128
N9740 X146.154 Y344.19
N9750 G2 X145.972 Y344.594 R0.635
N9760 G1 X144.886 Y360.819
N9770 G2 X145.477 Y361.495 R0.635
N9780 X146.151 Y360.927 R0.635
N9790 G3 X151.63 Y349.419 R19.05
N9800 G1 X225.475 Y275.574
N9810 X222.107 Y272.206
N9820 X167.73 Y326.583
N9830 G3 X149.77 R12.7
N9840 X146.15 Y319.195 R12.7
N9850 G1 X146.144 Y319.146
N9860 X146.126 Y319.005 Z-12.692
N9870 X146.109 Y318.865 Z-12.668
N9880 X146.091 Y318.729 Z-12.629
N9890 X146.075 Y318.599 Z-12.574
N9900 X146.059 Y318.475 Z-12.505
N9910 X146.045 Y318.36 Z-12.423
N9920 X146.031 Y318.255 Z-12.328
N9930 X146.019 Y318.161 Z-12.222
N9940 X146.009 Y318.079 Z-12.106
N9950 X146.001 Y318.01 Z-11.981
N9960 X145.994 Y317.956 Z-11.849
N9970 X145.989 Y317.917 Z-11.713
N9980 X145.986 Y317.894 Z-11.572
N9990 X145.985 Y317.886 Z-11.43
N10000 G0 Z15.
N10010 X145.052 Y203.203
N10020 Z5.
N10030 G1 Z-11.43 F500.
N10040 X145.059 Y203.207 Z-11.572 F4000.
N10050 X145.077 Y203.222 Z-11.713
N10060 X145.108 Y203.247 Z-11.849
N10070 X145.151 Y203.281 Z-11.981
N10080 X145.205 Y203.323 Z-12.106
N10090 X145.27 Y203.374 Z-12.222
N10100 X145.344 Y203.433 Z-12.328
N10110 X145.428 Y203.499 Z-12.423
N10120 X145.519 Y203.571 Z-12.505
N10130 X145.616 Y203.648 Z-12.574
N10140 X145.72 Y203.73 Z-12.629
N10150 X145.827 Y203.815 Z-12.668
N10160 X145.937 Y203.902 Z-12.692
N10170 X146.049 Y203.99 Z-12.7
N10180 X146.154 Y204.074
N10190 G2 X153.04 Y207.625 R20.209
N10200 G3 X153.157 Y207.838 R0.172
N10210 X153.113 Y207.911 R0.172
N10220 G1 X146.277 Y214.685
N10230 X146.215 Y214.747
N10240 X146.154 Y214.809
N10250 G2 X145.972 Y215.213 R0.635
N10260 G1 X144.886 Y231.438
N10270 G2 X145.477 Y232.114 R0.635
N10280 X146.151 Y231.546 R0.635
N10290 G3 X151.63 Y220.038 R19.05
N10300 G1 X225.475 Y146.193
N10310 X222.107 Y142.825
N10320 X167.73 Y197.202
N10330 G3 X149.77 R12.7
N10340 X146.15 Y189.814 R12.7
N10350 G1 X146.144 Y189.765
N10360 X146.126 Y189.624 Z-12.692
N10370 X146.109 Y189.484 Z-12.668
N10380 X146.091 Y189.348 Z-12.629
N10390 X146.075 Y189.218 Z-12.574
N10400 X146.059 Y189.094 Z-12.505
N10410 X146.045 Y188.979 Z-12.423
N10420 X146.031 Y188.874 Z-12.328
N10430 X146.019 Y188.78 Z-12.222
N10440 X146.009 Y188.698 Z-12.106
N10450 X146.001 Y188.629 Z-11.981
N10460 X145.994 Y188.575 Z-11.849
N10470 X145.989 Y188.536 Z-11.713
N10480 X145.986 Y188.513 Z-11.572
N10490 X145.985 Y188.505 Z-11.43
N10500 G0 Z15.
N10510 X199.035 Y-7.568
N10520 Z5.
N10530 G1 Z-11.557 F500.
N10540 X199.036 Y-7.561 Z-11.685 F4000.
N10550 X199.04 Y-7.54 Z-11.811
N10560 X199.045 Y-7.505 Z-11.935
N10570 X199.053 Y-7.456 Z-12.053
N10580 X199.063 Y-7.395 Z-12.165
N10590 X199.074 Y-7.322 Z-12.27
N10600 X199.088 Y-7.238 Z-12.365
N10610 X199.103 Y-7.143 Z-12.451
N10620 X199.119 Y-7.04 Z-12.525
N10630 X199.137 Y-6.929 Z-12.587
N10640 X199.155 Y-6.812 Z-12.636
N10650 X199.174 Y-6.691 Z-12.671
N10660 X199.194 Y-6.566 Z-12.693
N10670 X199.214 Y-6.439 Z-12.7
N10680 X199.215 Y-6.432
N10690 X199.227 Y-6.333
N10700 X199.231 Y-6.233
N10710 Y114.3
N10720 X194.469
N10730 Y-6.244
N10740 X194.473 Y-6.344
N10750 X194.485 Y-6.443
N10760 X194.492 Y-6.492
N10770 X194.515 Y-6.632 Z-12.692
N10780 X194.537 Y-6.771 Z-12.668
N10790 X194.558 Y-6.906 Z-12.629
N10800 X194.579 Y-7.036 Z-12.574
N10810 X194.598 Y-7.159 Z-12.505
N10820 X194.616 Y-7.274 Z-12.423
N10830 X194.633 Y-7.379 Z-12.328
N10840 X194.648 Y-7.472 Z-12.222
N10850 X194.661 Y-7.554 Z-12.106
N10860 X194.671 Y-7.622 Z-11.981
N10870 X194.68 Y-7.676 Z-11.849
N10880 X194.686 Y-7.714 Z-11.713
N10890 X194.69 Y-7.738 Z-11.572
N10900 X194.691 Y-7.746 Z-11.43
N10910 G0 Z15.
N10920 X414.935 Y-7.568
N10930 Z5.
N10940 G1 Z-11.557 F500.
N10950 X414.936 Y-7.561 Z-11.685 F4000.
N10960 X414.94 Y-7.54 Z-11.811
N10970 X414.945 Y-7.505 Z-11.935
N10980 X414.953 Y-7.456 Z-12.053
N10990 X414.963 Y-7.395 Z-12.165
N11000 X414.974 Y-7.322 Z-12.27
N11010 X414.988 Y-7.238 Z-12.365
N11020 X415.003 Y-7.143 Z-12.451
N11030 X415.019 Y-7.04 Z-12.525
N11040 X415.037 Y-6.929 Z-12.587
N11050 X415.055 Y-6.812 Z-12.636
N11060 X415.074 Y-6.691 Z-12.671
N11070 X415.094 Y-6.566 Z-12.693
N11080 X415.114 Y-6.439 Z-12.7
N11090 X415.115 Y-6.432
N11100 X415.127 Y-6.333
N11110 X415.131 Y-6.233
N11120 Y114.3
N11130 X410.369
N11140 Y-6.244
N11150 X410.373 Y-6.344
N11160 X410.385 Y-6.443
N11170 X410.392 Y-6.492
N11180 X410.415 Y-6.632 Z-12.692
N11190 X410.437 Y-6.771 Z-12.668
N11200 X410.458 Y-6.906 Z-12.629
N11210 X410.479 Y-7.036 Z-12.574
N11220 X410.498 Y-7.159 Z-12.505
N11230 X410.516 Y-7.274 Z-12.423
N11240 X410.533 Y-7.379 Z-12.328
N11250 X410.548 Y-7.472 Z-12.222
N11260 X410.561 Y-7.554 Z-12.106
N11270 X410.571 Y-7.622 Z-11.981
N11280 X410.58 Y-7.676 Z-11.849
N11290 X410.586 Y-7.714 Z-11.713
N11300 X410.59 Y-7.738 Z-11.572
N11310 X410.591 Y-7.746 Z-11.43
N11320 G0 Z15.
N11330 X464.546 Y203.18
N11340 Z5.
N11350 G1 Z-11.43 F500.
N11360 X464.539 Y203.185 Z-11.572 F4000.
N11370 X464.521 Y203.2 Z-11.713
N11380 X464.49 Y203.224 Z-11.849
N11390 X464.447 Y203.258 Z-11.981
N11400 X464.393 Y203.301 Z-12.106
N11410 X464.329 Y203.352 Z-12.222
N11420 X464.254 Y203.411 Z-12.328
N11430 X464.171 Y203.477 Z-12.423
N11440 X464.08 Y203.549 Z-12.505
N11450 X463.982 Y203.627 Z-12.574
N11460 X463.879 Y203.709 Z-12.629
N11470 X463.772 Y203.794 Z-12.668
N11480 X463.662 Y203.881 Z-12.692
N11490 X463.551 Y203.969 Z-12.7
N11500 X463.445 Y204.053
N11510 G3 X456.56 Y207.625 R20.287
N11520 G2 X456.443 Y207.838 R0.172
N11530 X456.487 Y207.911 R0.172
N11540 G1 X463.323 Y214.685
N11550 X463.385 Y214.747
N11560 X463.446 Y214.809
N11570 G3 X463.628 Y215.213 R0.635
N11580 G1 X464.714 Y231.439
N11590 G3 X464.123 Y232.115 R0.635
N11600 X463.449 Y231.547 R0.635
N11610 G2 X457.97 Y220.038 R19.05
N11620 G1 X384.125 Y146.193
N11630 X387.493 Y142.825
N11640 X441.87 Y197.202
N11650 G2 X459.83 R12.7
N11660 X463.45 Y189.816 R12.7
N11670 G1 X463.456 Y189.767
N11680 X463.474 Y189.625 Z-12.692
N11690 X463.491 Y189.486 Z-12.668
N11700 X463.508 Y189.35 Z-12.629
N11710 X463.525 Y189.22 Z-12.574
N11720 X463.541 Y189.096 Z-12.505
N11730 X463.555 Y188.981 Z-12.423
N11740 X463.569 Y188.876 Z-12.328
N11750 X463.58 Y188.781 Z-12.222
N11760 X463.591 Y188.7 Z-12.106
N11770 X463.599 Y188.631 Z-11.981
N11780 X463.606 Y188.577 Z-11.849
N11790 X463.611 Y188.538 Z-11.713
N11800 X463.614 Y188.514 Z-11.572
N11810 X463.615 Y188.507 Z-11.43
N11820 G0 Z15.
N11830 X464.546 Y332.561
N11840 Z5.
N11850 G1 Z-11.43 F500.
N11860 X464.539 Y332.566 Z-11.572 F4000.
N11870 X464.521 Y332.581 Z-11.713
N11880 X464.49 Y332.605 Z-11.849
N11890 X464.447 Y332.639 Z-11.981
N11900 X464.393 Y332.682 Z-12.106
N11910 X464.329 Y332.733 Z-12.222
N11920 X464.254 Y332.792 Z-12.328
N11930 X464.171 Y332.858 Z-12.423
N11940 X464.08 Y332.93 Z-12.505
N11950 X463.982 Y333.008 Z-12.574
N11960 X463.879 Y333.09 Z-12.629
N11970 X463.772 Y333.175 Z-12.668
N11980 X463.662 Y333.262 Z-12.692
N11990 X463.551 Y333.35 Z-12.7
N12000 X463.445 Y333.434
N12010 G3 X456.56 Y337.006 R20.287
N12020 G2 X456.443 Y337.219 R0.172
N12030 X456.487 Y337.292 R0.172
N12040 G1 X463.323 Y344.066
N12050 X463.385 Y344.128
N12060 X463.447 Y344.191
N12070 G3 X463.628 Y344.594 R0.635
N12080 G1 X464.714 Y360.821
N12090 G3 X464.123 Y361.497 R0.635
N12100 X463.449 Y360.929 R0.635
N12110 G2 X457.97 Y349.419 R19.05
N12120 G1 X384.125 Y275.574
N12130 X387.493 Y272.206
N12140 X441.87 Y326.583
N12150 G2 X459.83 R12.7
N12160 X463.45 Y319.197 R12.7
N12170 G1 X463.456 Y319.148
N12180 X463.474 Y319.006 Z-12.692
N12190 X463.491 Y318.867 Z-12.668
N12200 X463.508 Y318.731 Z-12.629
N12210 X463.525 Y318.601 Z-12.574
N12220 X463.541 Y318.477 Z-12.505
N12230 X463.555 Y318.362 Z-12.423
N12240 X463.569 Y318.257 Z-12.328
N12250 X463.58 Y318.162 Z-12.222
N12260 X463.591 Y318.081 Z-12.106
N12270 X463.599 Y318.012 Z-11.981
N12280 X463.606 Y317.958 Z-11.849
N12290 X463.611 Y317.919 Z-11.713
N12300 X463.614 Y317.895 Z-11.572
N12310 X463.615 Y317.888 Z-11.43
N12320 G0 Z15.
N12330 X464.545 Y461.943
N12340 Z5.
N12350 G1 Z-11.43 F500.
N12360 X464.539 Y461.948 Z-11.572 F4000.
N12370 X464.52 Y461.962 Z-11.713
N12380 X464.489 Y461.987 Z-11.849
N12390 X464.447 Y462.021 Z-11.981
N12400 X464.393 Y462.064 Z-12.106
N12410 X464.328 Y462.115 Z-12.222
N12420 X464.254 Y462.174 Z-12.328
N12430 X464.171 Y462.24 Z-12.423
N12440 X464.08 Y462.312 Z-12.505
N12450 X463.982 Y462.39 Z-12.574
N12460 X463.879 Y462.471 Z-12.629
N12470 X463.772 Y462.556 Z-12.668
N12480 X463.662 Y462.644 Z-12.692
N12490 X463.55 Y462.732 Z-12.7
N12500 X463.445 Y462.816
N12510 G3 X456.559 Y466.388 R20.288
N12520 G2 X456.443 Y466.601 R0.172
N12530 X456.486 Y466.674 R0.172
N12540 G1 X463.323 Y473.448
N12550 X463.385 Y473.51
N12560 X463.446 Y473.572
N12570 G3 X463.628 Y473.976 R0.635
N12580 G1 X464.714 Y490.202
N12590 G3 X464.123 Y490.878 R0.635
N12600 X463.449 Y490.31 R0.635
N12610 G2 X457.97 Y478.801 R19.05
N12620 G1 X384.125 Y404.956
N12630 X387.493 Y401.588
N12640 X441.87 Y455.965
N12650 G2 X459.831 Y455.964 R12.7
N12660 X463.45 Y448.577 R12.7
N12670 G1 X463.456 Y448.528
N12680 X463.474 Y448.387 Z-12.692
N12690 X463.491 Y448.247 Z-12.668
N12700 X463.509 Y448.112 Z-12.629
N12710 X463.525 Y447.981 Z-12.574
N12720 X463.541 Y447.857 Z-12.505
N12730 X463.555 Y447.742 Z-12.423
N12740 X463.569 Y447.637 Z-12.328
N12750 X463.58 Y447.543 Z-12.222
N12760 X463.591 Y447.461 Z-12.106
N12770 X463.599 Y447.393 Z-11.981
N12780 X463.606 Y447.339 Z-11.849
N12790 X463.611 Y447.299 Z-11.713
N12800 X463.614 Y447.276 Z-11.572
N12810 X463.615 Y447.268 Z-11.43
N12820 G0 Z15.
N12830 X464.546 Y591.324
N12840 Z5.
N12850 G1 Z-11.43 F500.
N12860 X464.539 Y591.329 Z-11.572 F4000.
N12870 X464.521 Y591.344 Z-11.713
N12880 X464.49 Y591.368 Z-11.849
N12890 X464.447 Y591.402 Z-11.981
N12900 X464.393 Y591.445 Z-12.106
N12910 X464.329 Y591.496 Z-12.222
N12920 X464.254 Y591.555 Z-12.328
N12930 X464.171 Y591.621 Z-12.423
N12940 X464.08 Y591.693 Z-12.505
N12950 X463.982 Y591.771 Z-12.574
N12960 X463.879 Y591.853 Z-12.629
N12970 X463.772 Y591.938 Z-12.668
N12980 X463.662 Y592.025 Z-12.692
N12990 X463.551 Y592.113 Z-12.7
N13000 X463.445 Y592.197
N13010 G3 X456.56 Y595.769 R20.287
N13020 G2 X456.443 Y595.982 R0.172
N13030 X456.487 Y596.055 R0.172
N13040 G1 X463.323 Y602.829
N13050 X463.385 Y602.891
N13060 X463.446 Y602.953
N13070 G3 X463.628 Y603.357 R0.635
N13080 G1 X464.714 Y619.583
N13090 G3 X464.123 Y620.259 R0.635
N13100 X463.449 Y619.691 R0.635
N13110 G2 X457.97 Y608.182 R19.05
N13120 G1 X384.125 Y534.337
N13130 X387.493 Y530.969
N13140 X441.87 Y585.346
N13150 G2 X459.83 R12.7
N13160 X463.45 Y577.96 R12.7
N13170 G1 X463.456 Y577.911
N13180 X463.474 Y577.769 Z-12.692
N13190 X463.491 Y577.63 Z-12.668
N13200 X463.508 Y577.494 Z-12.629
N13210 X463.525 Y577.364 Z-12.574
N13220 X463.541 Y577.24 Z-12.505
N13230 X463.555 Y577.125 Z-12.423
N13240 X463.569 Y577.02 Z-12.328
N13250 X463.58 Y576.925 Z-12.222
N13260 X463.591 Y576.844 Z-12.106
N13270 X463.599 Y576.775 Z-11.981
N13280 X463.606 Y576.721 Z-11.849
N13290 X463.611 Y576.682 Z-11.713
N13300 X463.614 Y576.658 Z-11.572
N13310 X463.615 Y576.651 Z-11.43
N13320 G0 Z15.
N13330 X464.546 Y720.705
N13340 Z5.
N13350 G1 Z-11.43 F500.
N13360 X464.539 Y720.71 Z-11.572 F4000.
N13370 X464.521 Y720.725 Z-11.713
N13380 X464.49 Y720.749 Z-11.849
N13390 X464.447 Y720.783 Z-11.981
N13400 X464.393 Y720.826 Z-12.106
N13410 X464.329 Y720.877 Z-12.222
N13420 X464.254 Y720.936 Z-12.328
N13430 X464.171 Y721.002 Z-12.423
N13440 X464.08 Y721.074 Z-12.505
N13450 X463.982 Y721.152 Z-12.574
N13460 X463.879 Y721.234 Z-12.629
N13470 X463.772 Y721.319 Z-12.668
N13480 X463.662 Y721.406 Z-12.692
N13490 X463.551 Y721.494 Z-12.7
N13500 X463.445 Y721.578
N13510 G3 X456.56 Y725.15 R20.287
N13520 G2 X456.443 Y725.363 R0.172
N13530 X456.487 Y725.436 R0.172
N13540 G1 X463.323 Y732.21
N13550 X463.385 Y732.272
N13560 X463.446 Y732.334
N13570 G3 X463.628 Y732.738 R0.635
N13580 G1 X464.714 Y748.964
N13590 G3 X464.123 Y749.64 R0.635
N13600 X463.449 Y749.072 R0.635
N13610 G2 X457.97 Y737.563 R19.05
N13620 G1 X384.125 Y663.718
N13630 X387.493 Y660.35
N13640 X441.87 Y714.727
N13650 G2 X459.83 R12.7
N13660 X463.45 Y707.341 R12.7
N13670 G1 X463.456 Y707.292
N13680 X463.474 Y707.15 Z-12.692
N13690 X463.491 Y707.011 Z-12.668
N13700 X463.508 Y706.875 Z-12.629
N13710 X463.525 Y706.745 Z-12.574
N13720 X463.541 Y706.621 Z-12.505
N13730 X463.555 Y706.506 Z-12.423
N13740 X463.569 Y706.401 Z-12.328
N13750 X463.58 Y706.306 Z-12.222
N13760 X463.591 Y706.225 Z-12.106
N13770 X463.599 Y706.156 Z-11.981
N13780 X463.606 Y706.102 Z-11.849
N13790 X463.611 Y706.063 Z-11.713
N13800 X463.614 Y706.039 Z-11.572
N13810 X463.615 Y706.032 Z-11.43
N13820 G0 Z15.
N13830 X464.546 Y850.086
N13840 Z5.
N13850 G1 Z-11.43 F500.
N13860 X464.539 Y850.091 Z-11.572 F4000.
N13870 X464.521 Y850.106 Z-11.713
N13880 X464.49 Y850.13 Z-11.849
N13890 X464.447 Y850.164 Z-11.981
N13900 X464.393 Y850.207 Z-12.106
N13910 X464.329 Y850.258 Z-12.222
N13920 X464.254 Y850.317 Z-12.328
N13930 X464.171 Y850.383 Z-12.423
N13940 X464.08 Y850.455 Z-12.505
N13950 X463.982 Y850.533 Z-12.574
N13960 X463.879 Y850.615 Z-12.629
N13970 X463.772 Y850.7 Z-12.668
N13980 X463.662 Y850.787 Z-12.692
N13990 X463.551 Y850.875 Z-12.7
N14000 X463.445 Y850.959
N14010 G3 X456.56 Y854.531 R20.287
N14020 G2 X456.443 Y854.744 R0.172
N14030 X456.487 Y854.817 R0.172
N14040 G1 X463.323 Y861.591
N14050 X463.385 Y861.653
N14060 X463.447 Y861.716
N14070 G3 X463.628 Y862.119 R0.635
N14080 G1 X464.714 Y878.346
N14090 G3 X464.123 Y879.022 R0.635
N14100 X463.449 Y878.454 R0.635
N14110 G2 X457.97 Y866.944 R19.05
N14120 G1 X384.125 Y793.099
N14130 X387.493 Y789.731
N14140 X441.87 Y844.108
N14150 G2 X459.83 R12.7
N14160 X463.45 Y836.722 R12.7
N14170 G1 X463.456 Y836.673
N14180 X463.474 Y836.531 Z-12.692
N14190 X463.491 Y836.392 Z-12.668
N14200 X463.508 Y836.256 Z-12.629
N14210 X463.525 Y836.126 Z-12.574
N14220 X463.541 Y836.002 Z-12.505
N14230 X463.555 Y835.887 Z-12.423
N14240 X463.569 Y835.782 Z-12.328
N14250 X463.58 Y835.687 Z-12.222
N14260 X463.591 Y835.606 Z-12.106
N14270 X463.599 Y835.537 Z-11.981
N14280 X463.606 Y835.483 Z-11.849
N14290 X463.611 Y835.444 Z-11.713
N14300 X463.614 Y835.42 Z-11.572
N14310 X463.615 Y835.413 Z-11.43
N14320 G0 Z15.
N14330 X464.546 Y979.466
N14340 Z5.
N14350 G1 Z-11.43 F500.
N14360 X464.54 Y979.471 Z-11.572 F4000.
N14370 X464.521 Y979.486 Z-11.713
N14380 X464.49 Y979.51 Z-11.849
N14390 X464.447 Y979.544 Z-11.981
N14400 X464.393 Y979.587 Z-12.106
N14410 X464.329 Y979.638 Z-12.222
N14420 X464.255 Y979.697 Z-12.328
N14430 X464.171 Y979.763 Z-12.423
N14440 X464.08 Y979.835 Z-12.505
N14450 X463.983 Y979.913 Z-12.574
N14460 X463.88 Y979.995 Z-12.629
N14470 X463.773 Y980.08 Z-12.668
N14480 X463.663 Y980.167 Z-12.692
N14490 X463.551 Y980.255 Z-12.7
N14500 X463.446 Y980.339
N14510 G3 X456.56 Y983.911 R20.288
N14520 G2 X456.442 Y984.129 R0.175
N14530 X456.486 Y984.203 R0.175
N14540 G1 X463.323 Y990.977
N14550 X463.385 Y991.039
N14560 X463.447 Y991.102
N14570 G3 X463.628 Y991.505 R0.635
N14580 G1 X464.714 Y1007.731
N14590 G3 X464.123 Y1008.407 R0.635
N14600 X463.449 Y1007.839 R0.635
N14610 G2 X457.97 Y996.33 R19.05
N14620 G1 X384.125 Y922.481
N14630 X387.493 Y919.113
N14640 X441.87 Y973.49
N14650 G2 X459.831 Y973.489 R12.7
N14660 X463.45 Y966.102 R12.7
N14670 G1 X463.456 Y966.053
N14680 X463.474 Y965.912 Z-12.692
N14690 X463.491 Y965.772 Z-12.668
N14700 X463.509 Y965.637 Z-12.629
N14710 X463.525 Y965.506 Z-12.574
N14720 X463.541 Y965.383 Z-12.505
N14730 X463.555 Y965.267 Z-12.423
N14740 X463.569 Y965.162 Z-12.328
N14750 X463.58 Y965.068 Z-12.222
N14760 X463.591 Y964.986 Z-12.106
N14770 X463.599 Y964.918 Z-11.981
N14780 X463.606 Y964.864 Z-11.849
N14790 X463.611 Y964.824 Z-11.713
N14800 X463.614 Y964.801 Z-11.572
N14810 X463.615 Y964.793 Z-11.43
N14820 G0 Z15.
N14830 X464.546 Y1108.846
N14840 Z5.
N14850 G1 Z-11.43 F500.
N14860 X464.54 Y1108.851 Z-11.572 F4000.
N14870 X464.521 Y1108.866 Z-11.713
N14880 X464.49 Y1108.891 Z-11.849
N14890 X464.448 Y1108.924 Z-11.981
N14900 X464.394 Y1108.967 Z-12.106
N14910 X464.329 Y1109.019 Z-12.222
N14920 X464.255 Y1109.078 Z-12.328
N14930 X464.172 Y1109.144 Z-12.423
N14940 X464.081 Y1109.216 Z-12.505
N14950 X463.983 Y1109.293 Z-12.574
N14960 X463.88 Y1109.375 Z-12.629
N14970 X463.773 Y1109.46 Z-12.668
N14980 X463.663 Y1109.547 Z-12.692
N14990 X463.551 Y1109.636 Z-12.7
N15000 X463.545 Y1109.641
N15010 X463.446 Y1109.72
N15020 G3 X456.561 Y1113.292 R20.288
N15030 G2 X456.442 Y1113.51 R0.175
N15040 X456.486 Y1113.584 R0.175
N15050 G1 X463.323 Y1120.357
N15060 X463.385 Y1120.419
N15070 X463.446 Y1120.481
N15080 G3 X463.628 Y1120.885 R0.635
N15090 G1 X464.714 Y1137.111
N15100 G3 X464.123 Y1137.787 R0.635
N15110 X463.449 Y1137.219 R0.635
N15120 G2 X457.97 Y1125.71 R19.05
N15130 G1 X384.125 Y1051.865
N15140 X387.493 Y1048.495
N15150 X441.87 Y1102.87
N15160 G2 X459.83 R12.7
N15170 X463.45 Y1095.484 R12.7
N15180 G1 X463.456 Y1095.434
N15190 X463.474 Y1095.293 Z-12.692
N15200 X463.491 Y1095.154 Z-12.668
N15210 X463.508 Y1095.018 Z-12.629
N15220 X463.525 Y1094.888 Z-12.574
N15230 X463.541 Y1094.764 Z-12.505
N15240 X463.555 Y1094.649 Z-12.423
N15250 X463.569 Y1094.544 Z-12.328
N15260 X463.58 Y1094.449 Z-12.222
N15270 X463.591 Y1094.368 Z-12.106
N15280 X463.599 Y1094.299 Z-11.981
N15290 X463.606 Y1094.245 Z-11.849
N15300 X463.611 Y1094.206 Z-11.713
N15310 X463.614 Y1094.182 Z-11.572
N15320 X463.615 Y1094.175 Z-11.43
N15330 G0 Z15.
N15340 X464.546 Y1238.226
N15350 Z5.
N15360 G1 Z-11.43 F500.
N15370 X464.54 Y1238.231 Z-11.572 F4000.
N15380 X464.521 Y1238.246 Z-11.713
N15390 X464.49 Y1238.271 Z-11.849
N15400 X464.448 Y1238.304 Z-11.981
N15410 X464.394 Y1238.347 Z-12.106
N15420 X464.329 Y1238.399 Z-12.222
N15430 X464.255 Y1238.458 Z-12.328
N15440 X464.172 Y1238.524 Z-12.423
N15450 X464.081 Y1238.596 Z-12.505
N15460 X463.983 Y1238.673 Z-12.574
N15470 X463.88 Y1238.755 Z-12.629
N15480 X463.773 Y1238.84 Z-12.668
N15490 X463.663 Y1238.927 Z-12.692
N15500 X463.551 Y1239.016 Z-12.7
N15510 X463.446 Y1239.1
N15520 G3 X456.561 Y1242.672 R20.288
N15530 G2 X456.442 Y1242.89 R0.175
N15540 X456.486 Y1242.964 R0.175
N15550 G1 X463.323 Y1249.737
N15560 X463.385 Y1249.799
N15570 X463.446 Y1249.861
N15580 G3 X463.628 Y1250.265 R0.635
N15590 G1 X464.714 Y1266.491
N15600 G3 X464.123 Y1267.167 R0.635
N15610 X463.449 Y1266.599 R0.635
N15620 G2 X457.97 Y1255.09 R19.05
N15630 G1 X384.125 Y1181.245
N15640 X387.493 Y1177.875
N15650 X441.87 Y1232.25
N15660 G2 X459.83 R12.7
N15670 X463.45 Y1224.864 R12.7
N15680 G1 X463.456 Y1224.814
N15690 X463.474 Y1224.673 Z-12.692
N15700 X463.491 Y1224.534 Z-12.668
N15710 X463.508 Y1224.398 Z-12.629
N15720 X463.525 Y1224.268 Z-12.574
N15730 X463.541 Y1224.144 Z-12.505
N15740 X463.555 Y1224.029 Z-12.423
N15750 X463.569 Y1223.924 Z-12.328
N15760 X463.58 Y1223.829 Z-12.222
N15770 X463.591 Y1223.748 Z-12.106
N15780 X463.599 Y1223.679 Z-11.981
N15790 X463.606 Y1223.625 Z-11.849
N15800 X463.611 Y1223.586 Z-11.713
N15810 X463.614 Y1223.562 Z-11.572
N15820 X463.615 Y1223.554 Z-11.43
N15830 G0 Z15.
N15840 X464.546 Y1367.606
N15850 Z5.
N15860 G1 Z-11.43 F500.
N15870 X464.54 Y1367.611 Z-11.572 F4000.
N15880 X464.521 Y1367.626 Z-11.713
N15890 X464.49 Y1367.651 Z-11.849
N15900 X464.448 Y1367.685 Z-11.981
N15910 X464.394 Y1367.727 Z-12.106
N15920 X464.329 Y1367.779 Z-12.222
N15930 X464.255 Y1367.838 Z-12.328
N15940 X464.172 Y1367.904 Z-12.423
N15950 X464.081 Y1367.976 Z-12.505
N15960 X463.983 Y1368.053 Z-12.574
N15970 X463.88 Y1368.135 Z-12.629
N15980 X463.773 Y1368.22 Z-12.668
N15990 X463.663 Y1368.307 Z-12.692
N16000 X463.551 Y1368.396 Z-12.7
N16010 X463.446 Y1368.48
N16020 G3 X456.561 Y1372.052 R20.288
N16030 G2 X456.442 Y1372.27 R0.175
N16040 X456.486 Y1372.344 R0.175
N16050 G1 X463.323 Y1379.117
N16060 X463.385 Y1379.179
N16070 X463.446 Y1379.241
N16080 G3 X463.628 Y1379.645 R0.635
N16090 G1 X464.714 Y1395.871
N16100 G3 X464.123 Y1396.547 R0.635
N16110 X463.449 Y1395.979 R0.635
N16120 G2 X457.97 Y1384.47 R19.05
N16130 G1 X384.125 Y1310.625
N16140 X387.493 Y1307.255
N16150 X441.87 Y1361.63
N16160 G2 X459.83 R12.7
N16170 X463.45 Y1354.244 R12.7
N16180 G1 X463.456 Y1354.194
N16190 X463.474 Y1354.053 Z-12.692
N16200 X463.491 Y1353.914 Z-12.668
N16210 X463.508 Y1353.778 Z-12.629
N16220 X463.525 Y1353.648 Z-12.574
N16230 X463.541 Y1353.524 Z-12.505
N16240 X463.555 Y1353.409 Z-12.423
N16250 X463.569 Y1353.304 Z-12.328
N16260 X463.58 Y1353.209 Z-12.222
N16270 X463.591 Y1353.128 Z-12.106
N16280 X463.599 Y1353.059 Z-11.981
N16290 X463.606 Y1353.005 Z-11.849
N16300 X463.611 Y1352.966 Z-11.713
N16310 X463.614 Y1352.942 Z-11.572
N16320 X463.615 Y1352.934 Z-11.43
N16330 G0 Z15.
N16340 X616.946 Y1367.606
N16350 Z5.
N16360 G1 Z-11.43 F500.
N16370 X616.94 Y1367.611 Z-11.572 F4000.
N16380 X616.921 Y1367.626 Z-11.713
N16390 X616.89 Y1367.651 Z-11.849
N16400 X616.848 Y1367.685 Z-11.981
N16410 X616.794 Y1367.727 Z-12.106
N16420 X616.729 Y1367.779 Z-12.222
N16430 X616.655 Y1367.838 Z-12.328
N16440 X616.572 Y1367.904 Z-12.423
N16450 X616.481 Y1367.976 Z-12.505
N16460 X616.383 Y1368.053 Z-12.574
N16470 X616.28 Y1368.135 Z-12.629
N16480 X616.173 Y1368.22 Z-12.668
N16490 X616.063 Y1368.307 Z-12.692
N16500 X615.951 Y1368.396 Z-12.7
N16510 X615.846 Y1368.48
N16520 G3 X608.961 Y1372.052 R20.288
N16530 G2 X608.842 Y1372.27 R0.175
N16540 X608.886 Y1372.344 R0.175
N16550 G1 X615.723 Y1379.117
N16560 X615.785 Y1379.179
N16570 X615.846 Y1379.241
N16580 G3 X616.028 Y1379.645 R0.635
N16590 G1 X617.114 Y1395.871
N16600 G3 X616.523 Y1396.547 R0.635
N16610 X615.849 Y1395.979 R0.635
N16620 G2 X610.37 Y1384.47 R19.05
N16630 G1 X536.525 Y1310.625
N16640 X539.893 Y1307.255
N16650 X594.27 Y1361.63
N16660 G2 X612.23 R12.7
N16670 X615.85 Y1354.244 R12.7
N16680 G1 X615.856 Y1354.194
N16690 X615.874 Y1354.053 Z-12.692
N16700 X615.891 Y1353.914 Z-12.668
N16710 X615.908 Y1353.778 Z-12.629
N16720 X615.925 Y1353.648 Z-12.574
N16730 X615.941 Y1353.524 Z-12.505
N16740 X615.955 Y1353.409 Z-12.423
N16750 X615.969 Y1353.304 Z-12.328
N16760 X615.98 Y1353.209 Z-12.222
N16770 X615.991 Y1353.128 Z-12.106
N16780 X615.999 Y1353.059 Z-11.981
N16790 X616.006 Y1353.005 Z-11.849
N16800 X616.011 Y1352.966 Z-11.713
N16810 X616.014 Y1352.942 Z-11.572
N16820 X616.015 Y1352.934 Z-11.43
N16830 G0 Z15.
N16840 X616.946 Y1238.226
N16850 Z5.
N16860 G1 Z-11.43 F500.
N16870 X616.94 Y1238.231 Z-11.572 F4000.
N16880 X616.921 Y1238.246 Z-11.713
N16890 X616.89 Y1238.271 Z-11.849
N16900 X616.848 Y1238.305 Z-11.981
N16910 X616.794 Y1238.347 Z-12.106
N16920 X616.729 Y1238.399 Z-12.222
N16930 X616.655 Y1238.458 Z-12.328
N16940 X616.572 Y1238.524 Z-12.423
N16950 X616.481 Y1238.596 Z-12.505
N16960 X616.383 Y1238.673 Z-12.574
N16970 X616.28 Y1238.755 Z-12.629
N16980 X616.173 Y1238.84 Z-12.668
N16990 X616.063 Y1238.927 Z-12.692
N17000 X615.951 Y1239.016 Z-12.7
N17010 X615.846 Y1239.1
N17020 G3 X608.961 Y1242.672 R20.288
N17030 G2 X608.842 Y1242.89 R0.175
N17040 X608.886 Y1242.964 R0.175
N17050 G1 X615.723 Y1249.737
N17060 X615.785 Y1249.799
N17070 X615.846 Y1249.861
N17080 G3 X616.028 Y1250.265 R0.635
N17090 G1 X617.114 Y1266.491
N17100 G3 X616.523 Y1267.167 R0.635
N17110 X615.849 Y1266.599 R0.635
N17120 G2 X610.37 Y1255.09 R19.05
N17130 G1 X536.525 Y1181.245
N17140 X539.893 Y1177.875
N17150 X594.27 Y1232.25
N17160 G2 X612.23 R12.7
N17170 X615.85 Y1224.864 R12.7
N17180 G1 X615.856 Y1224.814
N17190 X615.874 Y1224.673 Z-12.692
N17200 X615.891 Y1224.534 Z-12.668
N17210 X615.908 Y1224.398 Z-12.629
N17220 X615.925 Y1224.268 Z-12.574
N17230 X615.941 Y1224.144 Z-12.505
N17240 X615.955 Y1224.029 Z-12.423
N17250 X615.969 Y1223.924 Z-12.328
N17260 X615.98 Y1223.829 Z-12.222
N17270 X615.991 Y1223.748 Z-12.106
N17280 X615.999 Y1223.679 Z-11.981
N17290 X616.006 Y1223.625 Z-11.849
N17300 X616.011 Y1223.586 Z-11.713
N17310 X616.014 Y1223.562 Z-11.572
N17320 X616.015 Y1223.554 Z-11.43
N17330 G0 Z15.
N17340 X616.946 Y1108.846
N17350 Z5.
N17360 G1 Z-11.43 F500.
N17370 X616.94 Y1108.851 Z-11.572 F4000.
N17380 X616.921 Y1108.866 Z-11.713
N17390 X616.89 Y1108.891 Z-11.849
N17400 X616.848 Y1108.924 Z-11.981
N17410 X616.794 Y1108.967 Z-12.106
N17420 X616.729 Y1109.019 Z-12.222
N17430 X616.655 Y1109.078 Z-12.328
N17440 X616.572 Y1109.144 Z-12.423
N17450 X616.481 Y1109.216 Z-12.505
N17460 X616.383 Y1109.293 Z-12.574
N17470 X616.28 Y1109.375 Z-12.629
N17480 X616.173 Y1109.46 Z-12.668
N17490 X616.063 Y1109.547 Z-12.692
N17500 X615.951 Y1109.636 Z-12.7
N17510 X615.846 Y1109.72
N17520 G3 X608.961 Y1113.292 R20.288
N17530 G2 X608.842 Y1113.51 R0.175
N17540 X608.886 Y1113.584 R0.175
N17550 G1 X615.723 Y1120.357
N17560 X615.785 Y1120.419
N17570 X615.846 Y1120.481
N17580 G3 X616.028 Y1120.885 R0.635
N17590 G1 X617.114 Y1137.111
N17600 G3 X616.523 Y1137.787 R0.635
N17610 X615.849 Y1137.219 R0.635
N17620 G2 X610.37 Y1125.71 R19.05
N17630 G1 X536.525 Y1051.865
N17640 X539.893 Y1048.495
N17650 X594.27 Y1102.87
N17660 G2 X612.23 R12.7
N17670 X615.85 Y1095.484 R12.7
N17680 G1 X615.856 Y1095.434
N17690 X615.874 Y1095.293 Z-12.692
N17700 X615.891 Y1095.154 Z-12.668
N17710 X615.908 Y1095.018 Z-12.629
N17720 X615.925 Y1094.888 Z-12.574
N17730 X615.941 Y1094.764 Z-12.505
N17740 X615.955 Y1094.649 Z-12.423
N17750 X615.969 Y1094.544 Z-12.328
N17760 X615.98 Y1094.449 Z-12.222
N17770 X615.991 Y1094.368 Z-12.106
N17780 X615.999 Y1094.299 Z-11.981
N17790 X616.006 Y1094.245 Z-11.849
N17800 X616.011 Y1094.206 Z-11.713
N17810 X616.014 Y1094.182 Z-11.572
N17820 X616.015 Y1094.175 Z-11.43
N17830 G0 Z15.
N17840 X616.946 Y979.466
N17850 Z5.
N17860 G1 Z-11.43 F500.
N17870 X616.94 Y979.471 Z-11.572 F4000.
N17880 X616.921 Y979.486 Z-11.713
N17890 X616.89 Y979.51 Z-11.849
N17900 X616.847 Y979.544 Z-11.981
N17910 X616.794 Y979.587 Z-12.106
N17920 X616.729 Y979.638 Z-12.222
N17930 X616.655 Y979.697 Z-12.328
N17940 X616.571 Y979.763 Z-12.423
N17950 X616.48 Y979.835 Z-12.505
N17960 X616.383 Y979.913 Z-12.574
N17970 X616.28 Y979.995 Z-12.629
N17980 X616.173 Y980.08 Z-12.668
N17990 X616.063 Y980.167 Z-12.692
N18000 X615.951 Y980.255 Z-12.7
N18010 X615.846 Y980.339
N18020 G3 X608.96 Y983.911 R20.288
N18030 G2 X608.842 Y984.129 R0.175
N18040 X608.886 Y984.203 R0.175
N18050 G1 X615.723 Y990.977
N18060 X615.785 Y991.039
N18070 X615.847 Y991.102
N18080 G3 X616.028 Y991.505 R0.635
N18090 G1 X617.114 Y1007.731
N18100 G3 X616.523 Y1008.407 R0.635
N18110 X615.849 Y1007.839 R0.635
N18120 G2 X610.37 Y996.33 R19.05
N18130 G1 X536.525 Y922.481
N18140 X539.893 Y919.113
N18150 X594.27 Y973.49
N18160 G2 X612.231 Y973.489 R12.7
N18170 X615.85 Y966.102 R12.7
N18180 G1 X615.856 Y966.053
N18190 X615.874 Y965.912 Z-12.692
N18200 X615.891 Y965.772 Z-12.668
N18210 X615.909 Y965.637 Z-12.629
N18220 X615.925 Y965.506 Z-12.574
N18230 X615.941 Y965.382 Z-12.505
N18240 X615.955 Y965.267 Z-12.423
N18250 X615.969 Y965.162 Z-12.328
N18260 X615.98 Y965.068 Z-12.222
N18270 X615.991 Y964.986 Z-12.106
N18280 X615.999 Y964.918 Z-11.981
N18290 X616.006 Y964.864 Z-11.849
N18300 X616.011 Y964.824 Z-11.713
N18310 X616.014 Y964.801 Z-11.572
N18320 X616.015 Y964.793 Z-11.43
N18330 G0 Z15.
N18340 X616.945 Y850.086
N18350 Z5.
N18360 G1 Z-11.43 F500.
N18370 X616.939 Y850.091 Z-11.572 F4000.
N18380 X616.921 Y850.106 Z-11.713
N18390 X616.89 Y850.13 Z-11.849
N18400 X616.847 Y850.164 Z-11.981
N18410 X616.793 Y850.207 Z-12.106
N18420 X616.728 Y850.258 Z-12.222
N18430 X616.654 Y850.317 Z-12.328
N18440 X616.571 Y850.383 Z-12.423
N18450 X616.48 Y850.455 Z-12.505
N18460 X616.382 Y850.533 Z-12.574
N18470 X616.279 Y850.615 Z-12.629
N18480 X616.172 Y850.7 Z-12.668
N18490 X616.062 Y850.787 Z-12.692
N18500 X615.951 Y850.875 Z-12.7
N18510 X615.845 Y850.959
N18520 G3 X608.96 Y854.531 R20.287
N18530 G2 X608.843 Y854.744 R0.172
N18540 X608.887 Y854.817 R0.172
N18550 G1 X615.723 Y861.591
N18560 X615.785 Y861.653
N18570 X615.847 Y861.716
N18580 G3 X616.028 Y862.119 R0.635
N18590 G1 X617.114 Y878.346
N18600 G3 X616.523 Y879.022 R0.635
N18610 X615.849 Y878.454 R0.635
N18620 G2 X610.37 Y866.944 R19.05
N18630 G1 X536.525 Y793.099
N18640 X539.893 Y789.731
N18650 X594.27 Y844.108
N18660 G2 X612.23 R12.7
N18670 X615.85 Y836.722 R12.7
N18680 G1 X615.856 Y836.673
N18690 X615.874 Y836.531 Z-12.692
N18700 X615.891 Y836.392 Z-12.668
N18710 X615.908 Y836.256 Z-12.629
N18720 X615.925 Y836.126 Z-12.574
N18730 X615.941 Y836.002 Z-12.505
N18740 X615.955 Y835.887 Z-12.423
N18750 X615.969 Y835.782 Z-12.328
N18760 X615.98 Y835.687 Z-12.222
N18770 X615.991 Y835.606 Z-12.106
N18780 X615.999 Y835.537 Z-11.981
N18790 X616.006 Y835.483 Z-11.849
N18800 X616.011 Y835.444 Z-11.713
N18810 X616.014 Y835.42 Z-11.572
N18820 X616.015 Y835.413 Z-11.43
N18830 G0 Z15.
N18840 X616.945 Y720.705
N18850 Z5.
N18860 G1 Z-11.43 F500.
N18870 X616.939 Y720.71 Z-11.572 F4000.
N18880 X616.921 Y720.725 Z-11.713
N18890 X616.89 Y720.749 Z-11.849
N18900 X616.847 Y720.783 Z-11.981
N18910 X616.793 Y720.826 Z-12.106
N18920 X616.728 Y720.877 Z-12.222
N18930 X616.654 Y720.936 Z-12.328
N18940 X616.571 Y721.002 Z-12.423
N18950 X616.48 Y721.074 Z-12.505
N18960 X616.382 Y721.152 Z-12.574
N18970 X616.279 Y721.234 Z-12.629
N18980 X616.172 Y721.319 Z-12.668
N18990 X616.062 Y721.406 Z-12.692
N19000 X615.951 Y721.494 Z-12.7
N19010 X615.845 Y721.578
N19020 G3 X608.96 Y725.15 R20.287
N19030 G2 X608.843 Y725.363 R0.172
N19040 X608.887 Y725.436 R0.172
N19050 G1 X615.723 Y732.21
N19060 X615.785 Y732.272
N19070 X615.846 Y732.334
N19080 G3 X616.028 Y732.738 R0.635
N19090 G1 X617.114 Y748.964
N19100 G3 X616.523 Y749.64 R0.635
N19110 X615.849 Y749.072 R0.635
N19120 G2 X610.37 Y737.563 R19.05
N19130 G1 X536.525 Y663.718
N19140 X539.893 Y660.35
N19150 X594.27 Y714.727
N19160 G2 X612.23 R12.7
N19170 X615.85 Y707.341 R12.7
N19180 G1 X615.856 Y707.292
N19190 X615.874 Y707.15 Z-12.692
N19200 X615.891 Y707.011 Z-12.668
N19210 X615.908 Y706.875 Z-12.629
N19220 X615.925 Y706.745 Z-12.574
N19230 X615.941 Y706.621 Z-12.505
N19240 X615.955 Y706.506 Z-12.423
N19250 X615.969 Y706.401 Z-12.328
N19260 X615.98 Y706.306 Z-12.222
N19270 X615.991 Y706.225 Z-12.106
N19280 X615.999 Y706.156 Z-11.981
N19290 X616.006 Y706.102 Z-11.849
N19300 X616.011 Y706.063 Z-11.713
N19310 X616.014 Y706.039 Z-11.572
N19320 X616.015 Y706.032 Z-11.43
N19330 G0 Z15.
N19340 X616.945 Y591.324
N19350 Z5.
N19360 G1 Z-11.43 F500.
N19370 X616.939 Y591.329 Z-11.572 F4000.
N19380 X616.921 Y591.344 Z-11.713
N19390 X616.89 Y591.368 Z-11.849
N19400 X616.847 Y591.402 Z-11.981
N19410 X616.793 Y591.445 Z-12.106
N19420 X616.728 Y591.496 Z-12.222
N19430 X616.654 Y591.555 Z-12.328
N19440 X616.571 Y591.621 Z-12.423
N19450 X616.48 Y591.693 Z-12.505
N19460 X616.382 Y591.771 Z-12.574
N19470 X616.279 Y591.853 Z-12.629
N19480 X616.172 Y591.938 Z-12.668
N19490 X616.062 Y592.025 Z-12.692
N19500 X615.951 Y592.113 Z-12.7
N19510 X615.845 Y592.197
N19520 G3 X608.96 Y595.769 R20.287
N19530 G2 X608.843 Y595.982 R0.172
N19540 X608.887 Y596.055 R0.172
N19550 G1 X615.723 Y602.829
N19560 X615.785 Y602.891
N19570 X615.846 Y602.953
N19580 G3 X616.028 Y603.357 R0.635
N19590 G1 X617.114 Y619.583
N19600 G3 X616.523 Y620.259 R0.635
N19610 X615.849 Y619.691 R0.635
N19620 G2 X610.37 Y608.182 R19.05
N19630 G1 X536.525 Y534.337
N19640 X539.893 Y530.969
N19650 X594.27 Y585.346
N19660 G2 X612.23 R12.7
N19670 X615.85 Y577.96 R12.7
N19680 G1 X615.856 Y577.911
N19690 X615.874 Y577.769 Z-12.692
N19700 X615.891 Y577.63 Z-12.668
N19710 X615.908 Y577.494 Z-12.629
N19720 X615.925 Y577.364 Z-12.574
N19730 X615.941 Y577.24 Z-12.505
N19740 X615.955 Y577.125 Z-12.423
N19750 X615.969 Y577.02 Z-12.328
N19760 X615.98 Y576.925 Z-12.222
N19770 X615.991 Y576.844 Z-12.106
N19780 X615.999 Y576.775 Z-11.981
N19790 X616.006 Y576.721 Z-11.849
N19800 X616.011 Y576.682 Z-11.713
N19810 X616.014 Y576.658 Z-11.572
N19820 X616.015 Y576.651 Z-11.43
N19830 G0 Z15.
N19840 X616.945 Y461.943
N19850 Z5.
N19860 G1 Z-11.43 F500.
N19870 X616.939 Y461.948 Z-11.572 F4000.
N19880 X616.92 Y461.962 Z-11.713
N19890 X616.889 Y461.987 Z-11.849
N19900 X616.847 Y462.021 Z-11.981
N19910 X616.793 Y462.064 Z-12.106
N19920 X616.728 Y462.115 Z-12.222
N19930 X616.654 Y462.174 Z-12.328
N19940 X616.571 Y462.24 Z-12.423
N19950 X616.48 Y462.312 Z-12.505
N19960 X616.382 Y462.39 Z-12.574
N19970 X616.279 Y462.471 Z-12.629
N19980 X616.172 Y462.556 Z-12.668
N19990 X616.062 Y462.644 Z-12.692
N20000 X615.95 Y462.732 Z-12.7
N20010 X615.845 Y462.816
N20020 G3 X608.959 Y466.388 R20.288
N20030 G2 X608.843 Y466.601 R0.172
N20040 X608.886 Y466.674 R0.172
N20050 G1 X615.723 Y473.448
N20060 X615.785 Y473.51
N20070 X615.846 Y473.572
N20080 G3 X616.028 Y473.976 R0.635
N20090 G1 X617.114 Y490.202
N20100 G3 X616.523 Y490.878 R0.635
N20110 X615.849 Y490.31 R0.635
N20120 G2 X610.37 Y478.801 R19.05
N20130 G1 X536.525 Y404.956
N20140 X539.893 Y401.588
N20150 X594.27 Y455.965
N20160 G2 X612.231 Y455.964 R12.7
N20170 X615.85 Y448.577 R12.7
N20180 G1 X615.856 Y448.528
N20190 X615.874 Y448.387 Z-12.692
N20200 X615.891 Y448.247 Z-12.668
N20210 X615.909 Y448.112 Z-12.629
N20220 X615.925 Y447.981 Z-12.574
N20230 X615.941 Y447.857 Z-12.505
N20240 X615.955 Y447.742 Z-12.423
N20250 X615.969 Y447.637 Z-12.328
N20260 X615.98 Y447.543 Z-12.222
N20270 X615.991 Y447.461 Z-12.106
N20280 X615.999 Y447.393 Z-11.981
N20290 X616.006 Y447.339 Z-11.849
N20300 X616.011 Y447.299 Z-11.713
N20310 X616.014 Y447.276 Z-11.572
N20320 X616.015 Y447.268 Z-11.43
N20330 G0 Z15.
N20340 X616.945 Y332.561
N20350 Z5.
N20360 G1 Z-11.43 F500.
N20370 X616.939 Y332.566 Z-11.572 F4000.
N20380 X616.921 Y332.581 Z-11.713
N20390 X616.89 Y332.605 Z-11.849
N20400 X616.847 Y332.639 Z-11.981
N20410 X616.793 Y332.682 Z-12.106
N20420 X616.728 Y332.733 Z-12.222
N20430 X616.654 Y332.792 Z-12.328
N20440 X616.571 Y332.858 Z-12.423
N20450 X616.48 Y332.93 Z-12.505
N20460 X616.382 Y333.008 Z-12.574
N20470 X616.279 Y333.09 Z-12.629
N20480 X616.172 Y333.175 Z-12.668
N20490 X616.062 Y333.262 Z-12.692
N20500 X615.951 Y333.35 Z-12.7
N20510 X615.845 Y333.434
N20520 G3 X608.96 Y337.006 R20.287
N20530 G2 X608.843 Y337.219 R0.172
N20540 X608.887 Y337.292 R0.172
N20550 G1 X615.723 Y344.066
N20560 X615.785 Y344.128
N20570 X615.847 Y344.191
N20580 G3 X616.028 Y344.594 R0.635
N20590 G1 X617.114 Y360.821
N20600 G3 X616.523 Y361.497 R0.635
N20610 X615.849 Y360.929 R0.635
N20620 G2 X610.37 Y349.419 R19.05
N20630 G1 X536.525 Y275.574
N20640 X539.893 Y272.206
N20650 X594.27 Y326.583
N20660 G2 X612.23 R12.7
N20670 X615.85 Y319.197 R12.7
N20680 G1 X615.856 Y319.148
N20690 X615.874 Y319.006 Z-12.692
N20700 X615.891 Y318.867 Z-12.668
N20710 X615.908 Y318.731 Z-12.629
N20720 X615.925 Y318.601 Z-12.574
N20730 X615.941 Y318.477 Z-12.505
N20740 X615.955 Y318.362 Z-12.423
N20750 X615.969 Y318.257 Z-12.328
N20760 X615.98 Y318.162 Z-12.222
N20770 X615.991 Y318.081 Z-12.106
N20780 X615.999 Y318.012 Z-11.981
N20790 X616.006 Y317.958 Z-11.849
N20800 X616.011 Y317.919 Z-11.713
N20810 X616.014 Y317.895 Z-11.572
N20820 X616.015 Y317.888 Z-11.43
N20830 G0 Z15.
N20840 X616.945 Y203.18
N20850 Z5.
N20860 G1 Z-11.43 F500.
N20870 X616.939 Y203.185 Z-11.572 F4000.
N20880 X616.921 Y203.2 Z-11.713
N20890 X616.89 Y203.224 Z-11.849
N20900 X616.847 Y203.258 Z-11.981
N20910 X616.793 Y203.301 Z-12.106
N20920 X616.728 Y203.352 Z-12.222
N20930 X616.654 Y203.411 Z-12.328
N20940 X616.571 Y203.477 Z-12.423
N20950 X616.48 Y203.549 Z-12.505
N20960 X616.382 Y203.627 Z-12.574
N20970 X616.279 Y203.709 Z-12.629
N20980 X616.172 Y203.794 Z-12.668
N20990 X616.062 Y203.881 Z-12.692
N21000 X615.951 Y203.969 Z-12.7
N21010 X615.845 Y204.053
N21020 G3 X608.96 Y207.625 R20.287
N21030 G2 X608.843 Y207.838 R0.172
N21040 X608.887 Y207.911 R0.172
N21050 G1 X615.723 Y214.685
N21060 X615.785 Y214.747
N21070 X615.846 Y214.809
N21080 G3 X616.028 Y215.213 R0.635
N21090 G1 X617.114 Y231.439
N21100 G3 X616.523 Y232.115 R0.635
N21110 X615.849 Y231.547 R0.635
N21120 G2 X610.37 Y220.038 R19.05
N21130 G1 X536.525 Y146.193
N21140 X539.893 Y142.825
N21150 X594.27 Y197.202
N21160 G2 X612.23 R12.7
N21170 X615.85 Y189.816 R12.7
N21180 G1 X615.856 Y189.767
N21190 X615.874 Y189.625 Z-12.692
N21200 X615.891 Y189.486 Z-12.668
N21210 X615.908 Y189.35 Z-12.629
N21220 X615.925 Y189.22 Z-12.574
N21230 X615.941 Y189.096 Z-12.505
N21240 X615.955 Y188.981 Z-12.423
N21250 X615.969 Y188.876 Z-12.328
N21260 X615.98 Y188.781 Z-12.222
N21270 X615.991 Y188.7 Z-12.106
N21280 X615.999 Y188.631 Z-11.981
N21290 X616.006 Y188.577 Z-11.849
N21300 X616.011 Y188.538 Z-11.713
N21310 X616.014 Y188.514 Z-11.572
N21320 X616.015 Y188.507 Z-11.43
N21330 G0 Z15.
N21340 X567.335 Y-7.568
N21350 Z5.
N21360 G1 Z-11.557 F500.
N21370 X567.336 Y-7.561 Z-11.685 F4000.
N21380 X567.34 Y-7.54 Z-11.811
N21390 X567.345 Y-7.505 Z-11.935
N21400 X567.353 Y-7.456 Z-12.053
N21410 X567.363 Y-7.395 Z-12.165
N21420 X567.374 Y-7.322 Z-12.27
N21430 X567.388 Y-7.238 Z-12.365
N21440 X567.403 Y-7.143 Z-12.451
N21450 X567.419 Y-7.04 Z-12.525
N21460 X567.437 Y-6.929 Z-12.587
N21470 X567.455 Y-6.812 Z-12.636
N21480 X567.474 Y-6.691 Z-12.671
N21490 X567.494 Y-6.566 Z-12.693
N21500 X567.514 Y-6.439 Z-12.7
N21510 X567.515 Y-6.432
N21520 X567.527 Y-6.333
N21530 X567.531 Y-6.233
N21540 Y114.3
N21550 X562.769
N21560 Y-6.244
N21570 X562.773 Y-6.344
N21580 X562.785 Y-6.443
N21590 X562.792 Y-6.492
N21600 X562.815 Y-6.632 Z-12.692
N21610 X562.837 Y-6.771 Z-12.668
N21620 X562.858 Y-6.906 Z-12.629
N21630 X562.879 Y-7.036 Z-12.574
N21640 X562.898 Y-7.159 Z-12.505
N21650 X562.916 Y-7.274 Z-12.423
N21660 X562.933 Y-7.379 Z-12.328
N21670 X562.948 Y-7.472 Z-12.222
N21680 X562.961 Y-7.554 Z-12.106
N21690 X562.971 Y-7.622 Z-11.981
N21700 X562.98 Y-7.676 Z-11.849
N21710 X562.986 Y-7.714 Z-11.713
N21720 X562.99 Y-7.738 Z-11.572
N21730 X562.991 Y-7.746 Z-11.43
N21740 G0 Z15.
N21750 M30
%
