%
(8FT-TOPS)
(MACHINE)
(  VENDOR AUTODESK)
(  MODEL GENERIC 3-AXIS ROUTER)
(  DESCRIPTION THIS MACHINE HAS XYZ AXIS ON THE HEAD)
(T21 D=12.7 CR=0. - ZMIN=-12.7 - FLAT END MILL)
N10 G90 G94 G17 G91.1
N20 G21
(-ATTENTION- PROPERTY SAFE RETRACTS IS SET TO CLEARANCE HEIGHT.)
(ENSURE THE CLEARANCE HEIGHT WILL CLEAR THE PART AND OR FIXTURES.)
(RAISE THE Z-AXIS TO A SAFE HEIGHT BEFORE STARTING THE PROGRAM.)
(2D POCKET26)
N30 (T21 M6)
(FLAT END MILL D=12.7 12 END MILL)
N40 S20000 M3
N50 G54
N55 P5.0
N60 G0 X42.264 Y-7.568
N70 Z15.
N80 G0 Z5.
N90 G1 Z-11.24 F500.
N100 Z-11.557 F5000.
N110 X42.263 Y-7.561 Z-11.685
N120 X42.26 Y-7.54 Z-11.811
N130 X42.254 Y-7.505 Z-11.935
N140 X42.247 Y-7.456 Z-12.053
N150 X42.237 Y-7.395 Z-12.165
N160 X42.225 Y-7.322 Z-12.27
N170 X42.212 Y-7.238 Z-12.365
N180 X42.197 Y-7.143 Z-12.451
N190 X42.181 Y-7.04 Z-12.525
N200 X42.163 Y-6.929 Z-12.587
N210 X42.145 Y-6.812 Z-12.636
N220 X42.125 Y-6.691 Z-12.671
N230 X42.106 Y-6.566 Z-12.693
N240 X42.086 Y-6.439 Z-12.7
N250 X42.084 Y-6.432
N260 X42.073 Y-6.333
N270 X42.069 Y-6.233
N280 Y0.
N290 Y114.3
N300 X46.831
N310 Y0.
N320 Y-6.244
N330 X46.827 Y-6.344
N340 X46.816 Y-6.443
N350 X46.808 Y-6.492
N360 X46.786 Y-6.632 Z-12.692
N370 X46.764 Y-6.771 Z-12.668
N380 X46.742 Y-6.906 Z-12.629
N390 X46.722 Y-7.036 Z-12.574
N400 X46.702 Y-7.159 Z-12.505
N410 X46.684 Y-7.274 Z-12.423
N420 X46.667 Y-7.379 Z-12.328
N430 X46.653 Y-7.472 Z-12.222
N440 X46.64 Y-7.554 Z-12.106
N450 X46.629 Y-7.622 Z-11.981
N460 X46.62 Y-7.676 Z-11.849
N470 X46.614 Y-7.714 Z-11.713
N480 X46.61 Y-7.738 Z-11.572
N490 X46.609 Y-7.746 Z-11.43
N500 G0 Z15.
N510 X-7.348 Y165.097
N520 Z5.
N530 G1 Z-11.43 F500.
N540 X-7.341 Y165.093 Z-11.572 F5000.
N550 X-7.323 Y165.078 Z-11.713
N560 X-7.292 Y165.053 Z-11.849
N570 X-7.249 Y165.019 Z-11.981
N580 X-7.195 Y164.977 Z-12.106
N590 X-7.13 Y164.926 Z-12.222
N600 X-7.056 Y164.867 Z-12.328
N610 X-6.972 Y164.801 Z-12.423
N620 X-6.881 Y164.729 Z-12.505
N630 X-6.784 Y164.652 Z-12.574
N640 X-6.68 Y164.57 Z-12.629
N650 X-6.573 Y164.485 Z-12.668
N660 X-6.463 Y164.398 Z-12.692
N670 X-6.351 Y164.31 Z-12.7
N680 X-6.246 Y164.226
N690 G3 X0.64 Y160.675 R20.209
N700 G2 X0.756 Y160.462 R0.172
N710 X0.713 Y160.389 R0.172
N720 G1 X-6.123 Y153.615
N730 X-6.247 Y153.491
N740 G3 X-6.428 Y153.087 R0.635
N750 G1 X-7.514 Y136.861
N760 G3 X-6.923 Y136.186 R0.635
N770 X-6.249 Y136.754 R0.635
N780 G2 X-0.77 Y148.262 R19.05
N790 G1 X73.075 Y222.107
N800 X69.707 Y225.475
N810 X15.33 Y171.098
N820 G2 X-2.63 R12.7
N830 X-6.25 Y178.486 R12.7
N840 G1 X-6.256 Y178.535
N850 X-6.274 Y178.676 Z-12.692
N860 X-6.291 Y178.816 Z-12.668
N870 X-6.309 Y178.952 Z-12.629
N880 X-6.325 Y179.082 Z-12.574
N890 X-6.341 Y179.206 Z-12.505
N900 X-6.355 Y179.321 Z-12.423
N910 X-6.369 Y179.426 Z-12.328
N920 X-6.381 Y179.52 Z-12.222
N930 X-6.391 Y179.602 Z-12.106
N940 X-6.399 Y179.671 Z-11.981
N950 X-6.406 Y179.725 Z-11.849
N960 X-6.411 Y179.764 Z-11.713
N970 X-6.414 Y179.787 Z-11.572
N980 X-6.415 Y179.795 Z-11.43
N990 G0 Z15.
N1000 X-7.348 Y294.478
N1010 Z5.
N1020 G1 Z-11.43 F500.
N1030 X-7.341 Y294.474 Z-11.572 F5000.
N1040 X-7.323 Y294.459 Z-11.713
N1050 X-7.292 Y294.434 Z-11.849
N1060 X-7.249 Y294.4 Z-11.981
N1070 X-7.195 Y294.358 Z-12.106
N1080 X-7.13 Y294.307 Z-12.222
N1090 X-7.056 Y294.248 Z-12.328
N1100 X-6.972 Y294.182 Z-12.423
N1110 X-6.881 Y294.11 Z-12.505
N1120 X-6.784 Y294.033 Z-12.574
N1130 X-6.68 Y293.951 Z-12.629
N1140 X-6.573 Y293.866 Z-12.668
N1150 X-6.463 Y293.779 Z-12.692
N1160 X-6.351 Y293.691 Z-12.7
N1170 X-6.246 Y293.607
N1180 G3 X0.64 Y290.056 R20.209
N1190 G2 X0.756 Y289.843 R0.172
N1200 X0.713 Y289.77 R0.172
N1210 G1 X-6.123 Y282.996
N1220 X-6.247 Y282.872
N1230 G3 X-6.428 Y282.468 R0.635
N1240 G1 X-7.514 Y266.242
N1250 G3 X-6.923 Y265.567 R0.635
N1260 X-6.249 Y266.135 R0.635
N1270 G2 X-0.77 Y277.643 R19.05
N1280 G1 X73.075 Y351.488
N1290 X69.707 Y354.856
N1300 X15.33 Y300.479
N1310 G2 X-2.63 R12.7
N1320 X-6.25 Y307.867 R12.7
N1330 G1 X-6.256 Y307.916
N1340 X-6.274 Y308.057 Z-12.692
N1350 X-6.291 Y308.197 Z-12.668
N1360 X-6.309 Y308.332 Z-12.629
N1370 X-6.325 Y308.463 Z-12.574
N1380 X-6.341 Y308.587 Z-12.505
N1390 X-6.355 Y308.702 Z-12.423
N1400 X-6.369 Y308.807 Z-12.328
N1410 X-6.381 Y308.901 Z-12.222
N1420 X-6.391 Y308.983 Z-12.106
N1430 X-6.399 Y309.052 Z-11.981
N1440 X-6.406 Y309.106 Z-11.849
N1450 X-6.411 Y309.145 Z-11.713
N1460 X-6.414 Y309.168 Z-11.572
N1470 X-6.415 Y309.176 Z-11.43
N1480 G0 Z15.
N1490 X-7.348 Y423.86
N1500 Z5.
N1510 G1 Z-11.43 F500.
N1520 X-7.341 Y423.855 Z-11.572 F5000.
N1530 X-7.323 Y423.841 Z-11.713
N1540 X-7.292 Y423.816 Z-11.849
N1550 X-7.249 Y423.782 Z-11.981
N1560 X-7.195 Y423.74 Z-12.106
N1570 X-7.13 Y423.688 Z-12.222
N1580 X-7.056 Y423.63 Z-12.328
N1590 X-6.973 Y423.564 Z-12.423
N1600 X-6.881 Y423.492 Z-12.505
N1610 X-6.784 Y423.414 Z-12.574
N1620 X-6.68 Y423.333 Z-12.629
N1630 X-6.573 Y423.248 Z-12.668
N1640 X-6.463 Y423.161 Z-12.692
N1650 X-6.351 Y423.073 Z-12.7
N1660 X-6.246 Y422.989
N1670 G3 X0.641 Y419.437 R20.209
N1680 G2 X0.757 Y419.224 R0.172
N1690 X0.713 Y419.151 R0.172
N1700 G1 X-6.123 Y412.377
N1710 X-6.247 Y412.253
N1720 G3 X-6.428 Y411.849 R0.635
N1730 G1 X-7.514 Y395.623
N1740 G3 X-6.923 Y394.948 R0.635
N1750 X-6.249 Y395.516 R0.635
N1760 G2 X-0.77 Y407.024 R19.05
N1770 G1 X73.075 Y480.869
N1780 X69.707 Y484.237
N1790 X15.33 Y429.859
N1800 G2 X-2.631 Y429.861 R12.7
N1810 X-6.25 Y437.249 R12.7
N1820 G1 X-6.256 Y437.298
N1830 X-6.274 Y437.439 Z-12.692
N1840 X-6.292 Y437.579 Z-12.668
N1850 X-6.309 Y437.715 Z-12.629
N1860 X-6.325 Y437.845 Z-12.574
N1870 X-6.341 Y437.969 Z-12.505
N1880 X-6.355 Y438.084 Z-12.423
N1890 X-6.369 Y438.189 Z-12.328
N1900 X-6.381 Y438.284 Z-12.222
N1910 X-6.391 Y438.365 Z-12.106
N1920 X-6.399 Y438.434 Z-11.981
N1930 X-6.406 Y438.488 Z-11.849
N1940 X-6.411 Y438.527 Z-11.713
N1950 X-6.414 Y438.55 Z-11.572
N1960 X-6.415 Y438.558 Z-11.43
N1970 G0 Z15.
N1980 X-7.348 Y553.241
N1990 Z5.
N2000 G1 Z-11.43 F500.
N2010 X-7.341 Y553.237 Z-11.572 F5000.
N2020 X-7.323 Y553.222 Z-11.713
N2030 X-7.292 Y553.197 Z-11.849
N2040 X-7.249 Y553.163 Z-11.981
N2050 X-7.195 Y553.121 Z-12.106
N2060 X-7.13 Y553.07 Z-12.222
N2070 X-7.056 Y553.011 Z-12.328
N2080 X-6.972 Y552.945 Z-12.423
N2090 X-6.881 Y552.873 Z-12.505
N2100 X-6.784 Y552.796 Z-12.574
N2110 X-6.68 Y552.714 Z-12.629
N2120 X-6.573 Y552.629 Z-12.668
N2130 X-6.463 Y552.542 Z-12.692
N2140 X-6.351 Y552.454 Z-12.7
N2150 X-6.246 Y552.37
N2160 G3 X0.64 Y548.819 R20.209
N2170 G2 X0.756 Y548.606 R0.172
N2180 X0.713 Y548.533 R0.172
N2190 G1 X-6.123 Y541.759
N2200 X-6.247 Y541.634
N2210 G3 X-6.429 Y541.231 R0.635
N2220 G1 X-7.514 Y525.005
N2230 G3 X-6.923 Y524.329 R0.635
N2240 X-6.249 Y524.898 R0.635
N2250 G2 X-0.77 Y536.406 R19.05
N2260 G1 X73.075 Y610.251
N2270 X69.707 Y613.619
N2280 X15.33 Y559.242
N2290 G2 X-2.63 R12.7
N2300 X-6.25 Y566.63 R12.7
N2310 G1 X-6.256 Y566.679
N2320 X-6.274 Y566.82 Z-12.692
N2330 X-6.291 Y566.96 Z-12.668
N2340 X-6.309 Y567.096 Z-12.629
N2350 X-6.325 Y567.226 Z-12.574
N2360 X-6.341 Y567.35 Z-12.505
N2370 X-6.355 Y567.465 Z-12.423
N2380 X-6.369 Y567.57 Z-12.328
N2390 X-6.381 Y567.664 Z-12.222
N2400 X-6.391 Y567.746 Z-12.106
N2410 X-6.399 Y567.815 Z-11.981
N2420 X-6.406 Y567.869 Z-11.849
N2430 X-6.411 Y567.908 Z-11.713
N2440 X-6.414 Y567.931 Z-11.572
N2450 X-6.415 Y567.939 Z-11.43
N2460 G0 Z15.
N2470 X-7.348 Y682.622
N2480 Z5.
N2490 G1 Z-11.43 F500.
N2500 X-7.341 Y682.617 Z-11.572 F5000.
N2510 X-7.323 Y682.603 Z-11.713
N2520 X-7.292 Y682.578 Z-11.849
N2530 X-7.249 Y682.544 Z-11.981
N2540 X-7.195 Y682.502 Z-12.106
N2550 X-7.13 Y682.451 Z-12.222
N2560 X-7.056 Y682.392 Z-12.328
N2570 X-6.972 Y682.326 Z-12.423
N2580 X-6.881 Y682.254 Z-12.505
N2590 X-6.784 Y682.177 Z-12.574
N2600 X-6.68 Y682.095 Z-12.629
N2610 X-6.573 Y682.01 Z-12.668
N2620 X-6.463 Y681.923 Z-12.692
N2630 X-6.351 Y681.835 Z-12.7
N2640 X-6.246 Y681.751
N2650 G3 X0.64 Y678.2 R20.209
N2660 G2 X0.756 Y677.987 R0.172
N2670 X0.713 Y677.914 R0.172
N2680 G1 X-6.123 Y671.14
N2690 X-6.247 Y671.016
N2700 G3 X-6.428 Y670.612 R0.635
N2710 G1 X-7.514 Y654.386
N2720 G3 X-6.923 Y653.711 R0.635
N2730 X-6.249 Y654.279 R0.635
N2740 G2 X-0.77 Y665.787 R19.05
N2750 G1 X73.075 Y739.632
N2760 X69.707 Y743.
N2770 X15.33 Y688.623
N2780 G2 X-2.63 R12.7
N2790 X-6.25 Y696.011 R12.7
N2800 G1 X-6.256 Y696.06
N2810 X-6.274 Y696.201 Z-12.692
N2820 X-6.291 Y696.341 Z-12.668
N2830 X-6.309 Y696.477 Z-12.629
N2840 X-6.325 Y696.607 Z-12.574
N2850 X-6.341 Y696.731 Z-12.505
N2860 X-6.355 Y696.846 Z-12.423
N2870 X-6.369 Y696.951 Z-12.328
N2880 X-6.381 Y697.045 Z-12.222
N2890 X-6.391 Y697.127 Z-12.106
N2900 X-6.399 Y697.196 Z-11.981
N2910 X-6.406 Y697.25 Z-11.849
N2920 X-6.411 Y697.289 Z-11.713
N2930 X-6.414 Y697.312 Z-11.572
N2940 X-6.415 Y697.32 Z-11.43
N2950 G0 Z15.
N2960 X-7.348 Y812.003
N2970 Z5.
N2980 G1 Z-11.43 F500.
N2990 X-7.341 Y811.999 Z-11.572 F5000.
N3000 X-7.323 Y811.984 Z-11.713
N3010 X-7.292 Y811.959 Z-11.849
N3020 X-7.249 Y811.925 Z-11.981
N3030 X-7.195 Y811.883 Z-12.106
N3040 X-7.13 Y811.832 Z-12.222
N3050 X-7.056 Y811.773 Z-12.328
N3060 X-6.972 Y811.707 Z-12.423
N3070 X-6.881 Y811.635 Z-12.505
N3080 X-6.784 Y811.558 Z-12.574
N3090 X-6.68 Y811.476 Z-12.629
N3100 X-6.573 Y811.391 Z-12.668
N3110 X-6.463 Y811.304 Z-12.692
N3120 X-6.351 Y811.216 Z-12.7
N3130 X-6.246 Y811.132
N3140 G3 X0.64 Y807.581 R20.209
N3150 G2 X0.756 Y807.368 R0.172
N3160 X0.713 Y807.295 R0.172
N3170 G1 X-6.123 Y800.521
N3180 X-6.247 Y800.396
N3190 G3 X-6.428 Y799.993 R0.635
N3200 G1 X-7.514 Y783.767
N3210 G3 X-6.923 Y783.092 R0.635
N3220 X-6.249 Y783.66 R0.635
N3230 G2 X-0.77 Y795.168 R19.05
N3240 G1 X73.075 Y869.013
N3250 X69.707 Y872.381
N3260 X15.33 Y818.004
N3270 G2 X-2.63 R12.7
N3280 X-6.25 Y825.392 R12.7
N3290 G1 X-6.256 Y825.441
N3300 X-6.274 Y825.582 Z-12.692
N3310 X-6.291 Y825.722 Z-12.668
N3320 X-6.309 Y825.857 Z-12.629
N3330 X-6.325 Y825.988 Z-12.574
N3340 X-6.341 Y826.112 Z-12.505
N3350 X-6.355 Y826.227 Z-12.423
N3360 X-6.369 Y826.332 Z-12.328
N3370 X-6.381 Y826.426 Z-12.222
N3380 X-6.391 Y826.508 Z-12.106
N3390 X-6.399 Y826.577 Z-11.981
N3400 X-6.406 Y826.631 Z-11.849
N3410 X-6.411 Y826.67 Z-11.713
N3420 X-6.414 Y826.693 Z-11.572
N3430 X-6.415 Y826.701 Z-11.43
N3440 G0 Z15.
N3450 X-7.348 Y941.385
N3460 Z5.
N3470 G1 Z-11.43 F500.
N3480 X-7.341 Y941.38 Z-11.572 F5000.
N3490 X-7.323 Y941.366 Z-11.713
N3500 X-7.292 Y941.341 Z-11.849
N3510 X-7.249 Y941.307 Z-11.981
N3520 X-7.195 Y941.265 Z-12.106
N3530 X-7.13 Y941.213 Z-12.222
N3540 X-7.056 Y941.155 Z-12.328
N3550 X-6.973 Y941.089 Z-12.423
N3560 X-6.881 Y941.017 Z-12.505
N3570 X-6.784 Y940.939 Z-12.574
N3580 X-6.68 Y940.858 Z-12.629
N3590 X-6.573 Y940.773 Z-12.668
N3600 X-6.463 Y940.686 Z-12.692
N3610 X-6.351 Y940.598 Z-12.7
N3620 X-6.246 Y940.514
N3630 G3 X0.641 Y936.962 R20.209
N3640 G2 X0.757 Y936.749 R0.172
N3650 X0.713 Y936.676 R0.172
N3660 G1 X-6.123 Y929.902
N3670 X-6.247 Y929.778
N3680 G3 X-6.428 Y929.374 R0.635
N3690 G1 X-7.514 Y913.148
N3700 G3 X-6.923 Y912.472 R0.635
N3710 X-6.249 Y913.041 R0.635
N3720 G2 X-0.77 Y924.549 R19.05
N3730 G1 X73.075 Y998.395
N3740 X69.707 Y1001.764
N3750 X15.33 Y947.384
N3760 G2 X-2.631 Y947.387 R12.7
N3770 X-6.25 Y954.774 R12.7
N3780 G1 X-6.256 Y954.823
N3790 X-6.274 Y954.964 Z-12.692
N3800 X-6.292 Y955.104 Z-12.668
N3810 X-6.309 Y955.24 Z-12.629
N3820 X-6.325 Y955.37 Z-12.574
N3830 X-6.341 Y955.494 Z-12.505
N3840 X-6.355 Y955.609 Z-12.423
N3850 X-6.369 Y955.714 Z-12.328
N3860 X-6.381 Y955.809 Z-12.222
N3870 X-6.391 Y955.89 Z-12.106
N3880 X-6.399 Y955.959 Z-11.981
N3890 X-6.406 Y956.013 Z-11.849
N3900 X-6.411 Y956.052 Z-11.713
N3910 X-6.414 Y956.075 Z-11.572
N3920 X-6.415 Y956.083 Z-11.43
N3930 G0 Z15.
N3940 X145.052 Y941.385
N3950 Z5.
N3960 G1 Z-11.43 F500.
N3970 X145.059 Y941.38 Z-11.572 F5000.
N3980 X145.077 Y941.366 Z-11.713
N3990 X145.108 Y941.341 Z-11.849
N4000 X145.151 Y941.307 Z-11.981
N4010 X145.205 Y941.265 Z-12.106
N4020 X145.27 Y941.213 Z-12.222
N4030 X145.344 Y941.155 Z-12.328
N4040 X145.427 Y941.089 Z-12.423
N4050 X145.519 Y941.017 Z-12.505
N4060 X145.616 Y940.939 Z-12.574
N4070 X145.72 Y940.858 Z-12.629
N4080 X145.827 Y940.773 Z-12.668
N4090 X145.937 Y940.686 Z-12.692
N4100 X146.049 Y940.598 Z-12.7
N4110 X146.154 Y940.514
N4120 G3 X153.041 Y936.962 R20.209
N4130 G2 X153.157 Y936.749 R0.172
N4140 X153.114 Y936.676 R0.172
N4150 G1 X146.277 Y929.902
N4160 X146.154 Y929.778
N4170 G3 X145.972 Y929.374 R0.635
N4180 G1 X144.886 Y913.149
N4190 G3 X145.477 Y912.473 R0.635
N4200 X146.151 Y913.041 R0.635
N4210 G2 X151.63 Y924.549 R19.05
N4220 G1 X225.476 Y998.395
N4230 X222.107 Y1001.764
N4240 X167.73 Y947.384
N4250 G2 X149.769 Y947.387 R12.7
N4260 X146.15 Y954.774 R12.7
N4270 G1 X146.144 Y954.823
N4280 X146.126 Y954.964 Z-12.692
N4290 X146.109 Y955.104 Z-12.668
N4300 X146.091 Y955.24 Z-12.629
N4310 X146.075 Y955.37 Z-12.574
N4320 X146.059 Y955.494 Z-12.505
N4330 X146.045 Y955.609 Z-12.423
N4340 X146.031 Y955.714 Z-12.328
N4350 X146.019 Y955.809 Z-12.222
N4360 X146.009 Y955.89 Z-12.106
N4370 X146.001 Y955.959 Z-11.981
N4380 X145.994 Y956.013 Z-11.849
N4390 X145.989 Y956.052 Z-11.713
N4400 X145.986 Y956.075 Z-11.572
N4410 X145.985 Y956.083 Z-11.43
N4420 G0 Z15.
N4430 X145.052 Y812.003
N4440 Z5.
N4450 G1 Z-11.43 F500.
N4460 X145.059 Y811.999 Z-11.572 F5000.
N4470 X145.077 Y811.984 Z-11.713
N4480 X145.108 Y811.959 Z-11.849
N4490 X145.151 Y811.925 Z-11.981
N4500 X145.205 Y811.883 Z-12.106
N4510 X145.27 Y811.832 Z-12.222
N4520 X145.344 Y811.773 Z-12.328
N4530 X145.428 Y811.707 Z-12.423
N4540 X145.519 Y811.635 Z-12.505
N4550 X145.616 Y811.558 Z-12.574
N4560 X145.72 Y811.476 Z-12.629
N4570 X145.827 Y811.391 Z-12.668
N4580 X145.937 Y811.304 Z-12.692
N4590 X146.049 Y811.216 Z-12.7
N4600 X146.154 Y811.132
N4610 G3 X153.04 Y807.581 R20.209
N4620 G2 X153.157 Y807.368 R0.172
N4630 X153.113 Y807.295 R0.172
N4640 G1 X146.277 Y800.521
N4650 X146.154 Y800.397
N4660 G3 X145.972 Y799.993 R0.635
N4670 G1 X144.886 Y783.768
N4680 G3 X145.477 Y783.092 R0.635
N4690 X146.151 Y783.66 R0.635
N4700 G2 X151.63 Y795.168 R19.05
N4710 G1 X225.475 Y869.013
N4720 X222.107 Y872.381
N4730 X167.73 Y818.004
N4740 G2 X149.77 R12.7
N4750 X146.15 Y825.392 R12.7
N4760 G1 X146.144 Y825.441
N4770 X146.126 Y825.582 Z-12.692
N4780 X146.109 Y825.722 Z-12.668
N4790 X146.091 Y825.857 Z-12.629
N4800 X146.075 Y825.988 Z-12.574
N4810 X146.059 Y826.112 Z-12.505
N4820 X146.045 Y826.227 Z-12.423
N4830 X146.031 Y826.332 Z-12.328
N4840 X146.019 Y826.426 Z-12.222
N4850 X146.009 Y826.508 Z-12.106
N4860 X146.001 Y826.577 Z-11.981
N4870 X145.994 Y826.631 Z-11.849
N4880 X145.989 Y826.67 Z-11.713
N4890 X145.986 Y826.693 Z-11.572
N4900 X145.985 Y826.701 Z-11.43
N4910 G0 Z15.
N4920 X145.052 Y682.622
N4930 Z5.
N4940 G1 Z-11.43 F500.
N4950 X145.059 Y682.618 Z-11.572 F5000.
N4960 X145.077 Y682.603 Z-11.713
N4970 X145.108 Y682.578 Z-11.849
N4980 X145.151 Y682.544 Z-11.981
N4990 X145.205 Y682.502 Z-12.106
N5000 X145.27 Y682.451 Z-12.222
N5010 X145.344 Y682.392 Z-12.328
N5020 X145.428 Y682.326 Z-12.423
N5030 X145.519 Y682.254 Z-12.505
N5040 X145.616 Y682.177 Z-12.574
N5050 X145.72 Y682.095 Z-12.629
N5060 X145.827 Y682.01 Z-12.668
N5070 X145.937 Y681.923 Z-12.692
N5080 X146.049 Y681.835 Z-12.7
N5090 X146.154 Y681.751
N5100 G3 X153.04 Y678.2 R20.209
N5110 G2 X153.157 Y677.987 R0.172
N5120 X153.113 Y677.914 R0.172
N5130 G1 X146.277 Y671.14
N5140 X146.154 Y671.016
N5150 G3 X145.972 Y670.612 R0.635
N5160 G1 X144.886 Y654.387
N5170 G3 X145.477 Y653.711 R0.635
N5180 X146.151 Y654.279 R0.635
N5190 G2 X151.63 Y665.787 R19.05
N5200 G1 X225.475 Y739.632
N5210 X222.107 Y743.
N5220 X167.73 Y688.623
N5230 G2 X149.77 R12.7
N5240 X146.15 Y696.011 R12.7
N5250 G1 X146.144 Y696.06
N5260 X146.126 Y696.201 Z-12.692
N5270 X146.109 Y696.341 Z-12.668
N5280 X146.091 Y696.477 Z-12.629
N5290 X146.075 Y696.607 Z-12.574
N5300 X146.059 Y696.731 Z-12.505
N5310 X146.045 Y696.846 Z-12.423
N5320 X146.031 Y696.951 Z-12.328
N5330 X146.019 Y697.045 Z-12.222
N5340 X146.009 Y697.127 Z-12.106
N5350 X146.001 Y697.196 Z-11.981
N5360 X145.994 Y697.25 Z-11.849
N5370 X145.989 Y697.289 Z-11.713
N5380 X145.986 Y697.312 Z-11.572
N5390 X145.985 Y697.32 Z-11.43
N5400 G0 Z15.
N5410 X145.052 Y553.241
N5420 Z5.
N5430 G1 Z-11.43 F500.
N5440 X145.059 Y553.237 Z-11.572 F5000.
N5450 X145.077 Y553.222 Z-11.713
N5460 X145.108 Y553.197 Z-11.849
N5470 X145.151 Y553.163 Z-11.981
N5480 X145.205 Y553.121 Z-12.106
N5490 X145.27 Y553.07 Z-12.222
N5500 X145.344 Y553.011 Z-12.328
N5510 X145.428 Y552.945 Z-12.423
N5520 X145.519 Y552.873 Z-12.505
N5530 X145.616 Y552.796 Z-12.574
N5540 X145.72 Y552.714 Z-12.629
N5550 X145.827 Y552.629 Z-12.668
N5560 X145.937 Y552.542 Z-12.692
N5570 X146.049 Y552.454 Z-12.7
N5580 X146.154 Y552.37
N5590 G3 X153.04 Y548.819 R20.209
N5600 G2 X153.157 Y548.606 R0.172
N5610 X153.113 Y548.533 R0.172
N5620 G1 X146.277 Y541.759
N5630 X146.154 Y541.635
N5640 G3 X145.972 Y541.231 R0.635
N5650 G1 X144.886 Y525.006
N5660 G3 X145.477 Y524.33 R0.635
N5670 X146.151 Y524.898 R0.635
N5680 G2 X151.63 Y536.406 R19.05
N5690 G1 X225.475 Y610.251
N5700 X222.107 Y613.619
N5710 X167.73 Y559.242
N5720 G2 X149.77 R12.7
N5730 X146.15 Y566.63 R12.7
N5740 G1 X146.144 Y566.679
N5750 X146.126 Y566.82 Z-12.692
N5760 X146.109 Y566.96 Z-12.668
N5770 X146.091 Y567.096 Z-12.629
N5780 X146.075 Y567.226 Z-12.574
N5790 X146.059 Y567.35 Z-12.505
N5800 X146.045 Y567.465 Z-12.423
N5810 X146.031 Y567.57 Z-12.328
N5820 X146.019 Y567.664 Z-12.222
N5830 X146.009 Y567.746 Z-12.106
N5840 X146.001 Y567.815 Z-11.981
N5850 X145.994 Y567.869 Z-11.849
N5860 X145.989 Y567.908 Z-11.713
N5870 X145.986 Y567.931 Z-11.572
N5880 X145.985 Y567.939 Z-11.43
N5890 G0 Z15.
N5900 X145.053 Y423.861
N5910 Z5.
N5920 G1 Z-11.43 F500.
N5930 X145.059 Y423.856 Z-11.572 F5000.
N5940 X145.078 Y423.841 Z-11.713
N5950 X145.109 Y423.816 Z-11.849
N5960 X145.151 Y423.783 Z-11.981
N5970 X145.205 Y423.74 Z-12.106
N5980 X145.27 Y423.689 Z-12.222
N5990 X145.345 Y423.63 Z-12.328
N6000 X145.428 Y423.564 Z-12.423
N6010 X145.519 Y423.492 Z-12.505
N6020 X145.617 Y423.415 Z-12.574
N6030 X145.72 Y423.333 Z-12.629
N6040 X145.827 Y423.248 Z-12.668
N6050 X145.937 Y423.161 Z-12.692
N6060 X146.049 Y423.073 Z-12.7
N6070 X146.155 Y422.989
N6080 G3 X153.037 Y419.439 R20.208
N6090 G2 X153.155 Y419.222 R0.175
N6100 X153.111 Y419.147 R0.175
N6110 G1 X146.277 Y412.377
N6120 X146.154 Y412.253
N6130 G3 X145.972 Y411.849 R0.635
N6140 G1 X144.886 Y395.624
N6150 G3 X145.477 Y394.948 R0.635
N6160 X146.151 Y395.516 R0.635
N6170 G2 X151.63 Y407.024 R19.05
N6180 G1 X225.475 Y480.869
N6190 X222.107 Y484.237
N6200 X167.73 Y429.859
N6210 G2 X149.769 Y429.862 R12.7
N6220 X146.15 Y437.249 R12.7
N6230 G1 X146.144 Y437.298
N6240 X146.126 Y437.439 Z-12.692
N6250 X146.109 Y437.579 Z-12.668
N6260 X146.091 Y437.715 Z-12.629
N6270 X146.075 Y437.845 Z-12.574
N6280 X146.059 Y437.969 Z-12.505
N6290 X146.045 Y438.084 Z-12.423
N6300 X146.031 Y438.189 Z-12.328
N6310 X146.019 Y438.284 Z-12.222
N6320 X146.009 Y438.365 Z-12.106
N6330 X146.001 Y438.434 Z-11.981
N6340 X145.994 Y438.488 Z-11.849
N6350 X145.989 Y438.527 Z-11.713
N6360 X145.986 Y438.55 Z-11.572
N6370 X145.985 Y438.558 Z-11.43
N6380 G0 Z15.
N6390 X145.052 Y294.478
N6400 Z5.
N6410 G1 Z-11.43 F500.
N6420 X145.059 Y294.474 Z-11.572 F5000.
N6430 X145.077 Y294.459 Z-11.713
N6440 X145.108 Y294.434 Z-11.849
N6450 X145.151 Y294.4 Z-11.981
N6460 X145.205 Y294.358 Z-12.106
N6470 X145.27 Y294.307 Z-12.222
N6480 X145.344 Y294.248 Z-12.328
N6490 X145.428 Y294.182 Z-12.423
N6500 X145.519 Y294.11 Z-12.505
N6510 X145.616 Y294.033 Z-12.574
N6520 X145.72 Y293.951 Z-12.629
N6530 X145.827 Y293.866 Z-12.668
N6540 X145.937 Y293.779 Z-12.692
N6550 X146.049 Y293.691 Z-12.7
N6560 X146.154 Y293.607
N6570 G3 X153.04 Y290.056 R20.209
N6580 G2 X153.157 Y289.843 R0.172
N6590 X153.113 Y289.77 R0.172
N6600 G1 X146.277 Y282.996
N6610 X146.154 Y282.872
N6620 G3 X145.972 Y282.468 R0.635
N6630 G1 X144.886 Y266.243
N6640 G3 X145.477 Y265.567 R0.635
N6650 X146.151 Y266.135 R0.635
N6660 G2 X151.63 Y277.643 R19.05
N6670 G1 X225.475 Y351.488
N6680 X222.107 Y354.856
N6690 X167.73 Y300.479
N6700 G2 X149.77 R12.7
N6710 X146.15 Y307.867 R12.7
N6720 G1 X146.144 Y307.916
N6730 X146.126 Y308.057 Z-12.692
N6740 X146.109 Y308.197 Z-12.668
N6750 X146.091 Y308.332 Z-12.629
N6760 X146.075 Y308.463 Z-12.574
N6770 X146.059 Y308.587 Z-12.505
N6780 X146.045 Y308.702 Z-12.423
N6790 X146.031 Y308.807 Z-12.328
N6800 X146.019 Y308.901 Z-12.222
N6810 X146.009 Y308.983 Z-12.106
N6820 X146.001 Y309.052 Z-11.981
N6830 X145.994 Y309.106 Z-11.849
N6840 X145.989 Y309.145 Z-11.713
N6850 X145.986 Y309.168 Z-11.572
N6860 X145.985 Y309.176 Z-11.43
N6870 G0 Z15.
N6880 X145.052 Y165.097
N6890 Z5.
N6900 G1 Z-11.43 F500.
N6910 X145.059 Y165.093 Z-11.572 F5000.
N6920 X145.077 Y165.078 Z-11.713
N6930 X145.108 Y165.053 Z-11.849
N6940 X145.151 Y165.019 Z-11.981
N6950 X145.205 Y164.977 Z-12.106
N6960 X145.27 Y164.926 Z-12.222
N6970 X145.344 Y164.867 Z-12.328
N6980 X145.428 Y164.801 Z-12.423
N6990 X145.519 Y164.729 Z-12.505
N7000 X145.616 Y164.652 Z-12.574
N7010 X145.72 Y164.57 Z-12.629
N7020 X145.827 Y164.485 Z-12.668
N7030 X145.937 Y164.398 Z-12.692
N7040 X146.049 Y164.31 Z-12.7
N7050 X146.154 Y164.226
N7060 G3 X153.04 Y160.675 R20.209
N7070 G2 X153.157 Y160.462 R0.172
N7080 X153.113 Y160.389 R0.172
N7090 G1 X146.277 Y153.615
N7100 X146.154 Y153.491
N7110 G3 X145.972 Y153.087 R0.635
N7120 G1 X144.886 Y136.862
N7130 G3 X145.477 Y136.186 R0.635
N7140 X146.151 Y136.754 R0.635
N7150 G2 X151.63 Y148.262 R19.05
N7160 G1 X225.475 Y222.107
N7170 X222.107 Y225.475
N7180 X167.73 Y171.098
N7190 G2 X149.77 R12.7
N7200 X146.15 Y178.486 R12.7
N7210 G1 X146.144 Y178.535
N7220 X146.126 Y178.676 Z-12.692
N7230 X146.109 Y178.816 Z-12.668
N7240 X146.091 Y178.952 Z-12.629
N7250 X146.075 Y179.082 Z-12.574
N7260 X146.059 Y179.206 Z-12.505
N7270 X146.045 Y179.321 Z-12.423
N7280 X146.031 Y179.426 Z-12.328
N7290 X146.019 Y179.52 Z-12.222
N7300 X146.009 Y179.602 Z-12.106
N7310 X146.001 Y179.671 Z-11.981
N7320 X145.994 Y179.725 Z-11.849
N7330 X145.989 Y179.764 Z-11.713
N7340 X145.986 Y179.787 Z-11.572
N7350 X145.985 Y179.795 Z-11.43
N7360 G0 Z15.
N7370 X194.665 Y-7.568
N7380 Z5.
N7390 G1 Z-11.24 F500.
N7400 Z-11.557 F5000.
N7410 X194.664 Y-7.561 Z-11.685
N7420 X194.66 Y-7.54 Z-11.811
N7430 X194.655 Y-7.505 Z-11.935
N7440 X194.647 Y-7.456 Z-12.053
N7450 X194.637 Y-7.395 Z-12.165
N7460 X194.626 Y-7.322 Z-12.27
N7470 X194.612 Y-7.238 Z-12.365
N7480 X194.597 Y-7.143 Z-12.451
N7490 X194.581 Y-7.04 Z-12.525
N7500 X194.563 Y-6.929 Z-12.587
N7510 X194.545 Y-6.812 Z-12.636
N7520 X194.526 Y-6.691 Z-12.671
N7530 X194.506 Y-6.566 Z-12.693
N7540 X194.486 Y-6.439 Z-12.7
N7550 X194.485 Y-6.432
N7560 X194.473 Y-6.333
N7570 X194.469 Y-6.233
N7580 Y114.3
N7590 X199.231
N7600 Y0.
N7610 Y-6.244
N7620 X199.227 Y-6.344
N7630 X199.215 Y-6.443
N7640 X199.208 Y-6.492
N7650 X199.185 Y-6.632 Z-12.692
N7660 X199.163 Y-6.771 Z-12.668
N7670 X199.142 Y-6.906 Z-12.629
N7680 X199.121 Y-7.036 Z-12.574
N7690 X199.102 Y-7.159 Z-12.505
N7700 X199.084 Y-7.274 Z-12.423
N7710 X199.067 Y-7.379 Z-12.328
N7720 X199.052 Y-7.472 Z-12.222
N7730 X199.039 Y-7.554 Z-12.106
N7740 X199.029 Y-7.622 Z-11.981
N7750 X199.02 Y-7.676 Z-11.849
N7760 X199.014 Y-7.714 Z-11.713
N7770 X199.01 Y-7.738 Z-11.572
N7780 X199.009 Y-7.746 Z-11.43
N7790 G0 Z15.
N7800 X410.565 Y-7.568
N7810 Z5.
N7820 G1 Z-11.24 F500.
N7830 Z-11.557 F5000.
N7840 X410.564 Y-7.561 Z-11.685
N7850 X410.56 Y-7.54 Z-11.811
N7860 X410.555 Y-7.505 Z-11.935
N7870 X410.547 Y-7.456 Z-12.053
N7880 X410.537 Y-7.395 Z-12.165
N7890 X410.526 Y-7.322 Z-12.27
N7900 X410.512 Y-7.238 Z-12.365
N7910 X410.497 Y-7.143 Z-12.451
N7920 X410.481 Y-7.04 Z-12.525
N7930 X410.463 Y-6.929 Z-12.587
N7940 X410.445 Y-6.812 Z-12.636
N7950 X410.426 Y-6.691 Z-12.671
N7960 X410.406 Y-6.566 Z-12.693
N7970 X410.386 Y-6.439 Z-12.7
N7980 X410.385 Y-6.432
N7990 X410.373 Y-6.333
N8000 X410.369 Y-6.233
N8010 Y114.3
N8020 X415.131
N8030 Y0.
N8040 Y-6.244
N8050 X415.127 Y-6.344
N8060 X415.115 Y-6.443
N8070 X415.108 Y-6.492
N8080 X415.085 Y-6.632 Z-12.692
N8090 X415.063 Y-6.771 Z-12.668
N8100 X415.042 Y-6.906 Z-12.629
N8110 X415.021 Y-7.036 Z-12.574
N8120 X415.002 Y-7.159 Z-12.505
N8130 X414.984 Y-7.274 Z-12.423
N8140 X414.967 Y-7.379 Z-12.328
N8150 X414.952 Y-7.472 Z-12.222
N8160 X414.939 Y-7.554 Z-12.106
N8170 X414.929 Y-7.622 Z-11.981
N8180 X414.92 Y-7.676 Z-11.849
N8190 X414.914 Y-7.714 Z-11.713
N8200 X414.91 Y-7.738 Z-11.572
N8210 X414.909 Y-7.746 Z-11.43
N8220 G0 Z15.
N8230 X464.546 Y165.12
N8240 Z5.
N8250 G1 Z-11.43 F500.
N8260 X464.539 Y165.115 Z-11.572 F5000.
N8270 X464.521 Y165.1 Z-11.713
N8280 X464.49 Y165.076 Z-11.849
N8290 X464.447 Y165.042 Z-11.981
N8300 X464.393 Y164.999 Z-12.106
N8310 X464.329 Y164.948 Z-12.222
N8320 X464.254 Y164.889 Z-12.328
N8330 X464.171 Y164.823 Z-12.423
N8340 X464.08 Y164.751 Z-12.505
N8350 X463.982 Y164.673 Z-12.574
N8360 X463.879 Y164.591 Z-12.629
N8370 X463.772 Y164.506 Z-12.668
N8380 X463.662 Y164.419 Z-12.692
N8390 X463.551 Y164.331 Z-12.7
N8400 X463.445 Y164.247
N8410 G2 X456.56 Y160.675 R20.287
N8420 G3 X456.443 Y160.462 R0.172
N8430 X456.487 Y160.389 R0.172
N8440 G1 X463.323 Y153.615
N8450 X463.446 Y153.491
N8460 G2 X463.628 Y153.087 R0.635
N8470 G1 X464.714 Y136.861
N8480 G2 X464.123 Y136.185 R0.635
N8490 X463.449 Y136.753 R0.635
N8500 G3 X457.97 Y148.262 R19.05
N8510 G1 X384.125 Y222.107
N8520 X387.493 Y225.475
N8530 X441.87 Y171.098
N8540 G3 X459.83 R12.7
N8550 X463.45 Y178.484 R12.7
N8560 G1 X463.456 Y178.533
N8570 X463.474 Y178.675 Z-12.692
N8580 X463.491 Y178.814 Z-12.668
N8590 X463.508 Y178.95 Z-12.629
N8600 X463.525 Y179.08 Z-12.574
N8610 X463.541 Y179.204 Z-12.505
N8620 X463.555 Y179.319 Z-12.423
N8630 X463.569 Y179.424 Z-12.328
N8640 X463.58 Y179.519 Z-12.222
N8650 X463.591 Y179.6 Z-12.106
N8660 X463.599 Y179.669 Z-11.981
N8670 X463.606 Y179.723 Z-11.849
N8680 X463.611 Y179.762 Z-11.713
N8690 X463.614 Y179.786 Z-11.572
N8700 X463.615 Y179.793 Z-11.43
N8710 G0 Z15.
N8720 X464.546 Y294.501
N8730 Z5.
N8740 G1 Z-11.43 F500.
N8750 X464.539 Y294.496 Z-11.572 F5000.
N8760 X464.521 Y294.481 Z-11.713
N8770 X464.49 Y294.457 Z-11.849
N8780 X464.447 Y294.423 Z-11.981
N8790 X464.393 Y294.38 Z-12.106
N8800 X464.329 Y294.329 Z-12.222
N8810 X464.254 Y294.27 Z-12.328
N8820 X464.171 Y294.204 Z-12.423
N8830 X464.08 Y294.132 Z-12.505
N8840 X463.982 Y294.054 Z-12.574
N8850 X463.879 Y293.972 Z-12.629
N8860 X463.772 Y293.887 Z-12.668
N8870 X463.662 Y293.8 Z-12.692
N8880 X463.551 Y293.712 Z-12.7
N8890 X463.445 Y293.628
N8900 G2 X456.56 Y290.056 R20.287
N8910 G3 X456.443 Y289.843 R0.172
N8920 X456.487 Y289.77 R0.172
N8930 G1 X463.323 Y282.996
N8940 X463.446 Y282.872
N8950 G2 X463.628 Y282.468 R0.635
N8960 G1 X464.714 Y266.242
N8970 G2 X464.123 Y265.566 R0.635
N8980 X463.449 Y266.134 R0.635
N8990 G3 X457.97 Y277.643 R19.05
N9000 G1 X384.125 Y351.488
N9010 X387.493 Y354.856
N9020 X441.87 Y300.479
N9030 G3 X459.83 R12.7
N9040 X463.45 Y307.865 R12.7
N9050 G1 X463.456 Y307.914
N9060 X463.474 Y308.056 Z-12.692
N9070 X463.491 Y308.195 Z-12.668
N9080 X463.508 Y308.331 Z-12.629
N9090 X463.525 Y308.461 Z-12.574
N9100 X463.541 Y308.585 Z-12.505
N9110 X463.555 Y308.7 Z-12.423
N9120 X463.569 Y308.805 Z-12.328
N9130 X463.58 Y308.9 Z-12.222
N9140 X463.591 Y308.981 Z-12.106
N9150 X463.599 Y309.05 Z-11.981
N9160 X463.606 Y309.104 Z-11.849
N9170 X463.611 Y309.143 Z-11.713
N9180 X463.614 Y309.167 Z-11.572
N9190 X463.615 Y309.174 Z-11.43
N9200 G0 Z15.
N9210 X464.548 Y423.886
N9220 Z5.
N9230 G1 Z-11.43 F500.
N9240 X464.542 Y423.881 Z-11.572 F5000.
N9250 X464.523 Y423.866 Z-11.713
N9260 X464.492 Y423.842 Z-11.849
N9270 X464.45 Y423.808 Z-11.981
N9280 X464.396 Y423.765 Z-12.106
N9290 X464.331 Y423.714 Z-12.222
N9300 X464.257 Y423.655 Z-12.328
N9310 X464.174 Y423.589 Z-12.423
N9320 X464.083 Y423.517 Z-12.505
N9330 X463.985 Y423.439 Z-12.574
N9340 X463.882 Y423.357 Z-12.629
N9350 X463.775 Y423.272 Z-12.668
N9360 X463.665 Y423.185 Z-12.692
N9370 X463.554 Y423.096 Z-12.7
N9380 X463.448 Y423.013
N9390 G2 X456.563 Y419.439 R20.288
N9400 G3 X456.445 Y419.222 R0.175
N9410 X456.489 Y419.147 R0.175
N9420 G1 X463.323 Y412.377
N9430 X463.446 Y412.253
N9440 G2 X463.628 Y411.849 R0.635
N9450 G1 X464.714 Y395.623
N9460 G2 X464.123 Y394.947 R0.635
N9470 X463.449 Y395.515 R0.635
N9480 G3 X457.97 Y407.024 R19.05
N9490 G1 X384.125 Y480.869
N9500 X387.493 Y484.237
N9510 X441.87 Y429.86
N9520 G3 X459.831 Y429.861 R12.7
N9530 X463.45 Y437.248 R12.7
N9540 G1 X463.456 Y437.297
N9550 X463.474 Y437.438 Z-12.692
N9560 X463.491 Y437.578 Z-12.668
N9570 X463.509 Y437.713 Z-12.629
N9580 X463.525 Y437.844 Z-12.574
N9590 X463.541 Y437.968 Z-12.505
N9600 X463.555 Y438.083 Z-12.423
N9610 X463.569 Y438.188 Z-12.328
N9620 X463.58 Y438.282 Z-12.222
N9630 X463.591 Y438.364 Z-12.106
N9640 X463.599 Y438.432 Z-11.981
N9650 X463.606 Y438.486 Z-11.849
N9660 X463.611 Y438.526 Z-11.713
N9670 X463.614 Y438.549 Z-11.572
N9680 X463.615 Y438.557 Z-11.43
N9690 G0 Z15.
N9700 X464.546 Y553.264
N9710 Z5.
N9720 G1 Z-11.43 F500.
N9730 X464.539 Y553.259 Z-11.572 F5000.
N9740 X464.521 Y553.244 Z-11.713
N9750 X464.49 Y553.22 Z-11.849
N9760 X464.447 Y553.186 Z-11.981
N9770 X464.393 Y553.143 Z-12.106
N9780 X464.329 Y553.092 Z-12.222
N9790 X464.254 Y553.033 Z-12.328
N9800 X464.171 Y552.967 Z-12.423
N9810 X464.08 Y552.895 Z-12.505
N9820 X463.982 Y552.817 Z-12.574
N9830 X463.879 Y552.735 Z-12.629
N9840 X463.772 Y552.65 Z-12.668
N9850 X463.662 Y552.563 Z-12.692
N9860 X463.551 Y552.475 Z-12.7
N9870 X463.445 Y552.391
N9880 G2 X456.56 Y548.819 R20.287
N9890 G3 X456.443 Y548.606 R0.172
N9900 X456.487 Y548.533 R0.172
N9910 G1 X463.323 Y541.759
N9920 X463.447 Y541.634
N9930 G2 X463.628 Y541.231 R0.635
N9940 G1 X464.714 Y525.004
N9950 G2 X464.123 Y524.328 R0.635
N9960 X463.449 Y524.896 R0.635
N9970 G3 X457.97 Y536.406 R19.05
N9980 G1 X384.125 Y610.251
N9990 X387.493 Y613.619
N10000 X441.87 Y559.242
N10010 G3 X459.83 R12.7
N10020 X463.45 Y566.628 R12.7
N10030 G1 X463.456 Y566.677
N10040 X463.474 Y566.819 Z-12.692
N10050 X463.491 Y566.958 Z-12.668
N10060 X463.508 Y567.094 Z-12.629
N10070 X463.525 Y567.224 Z-12.574
N10080 X463.541 Y567.348 Z-12.505
N10090 X463.555 Y567.463 Z-12.423
N10100 X463.569 Y567.568 Z-12.328
N10110 X463.58 Y567.663 Z-12.222
N10120 X463.591 Y567.744 Z-12.106
N10130 X463.599 Y567.813 Z-11.981
N10140 X463.606 Y567.867 Z-11.849
N10150 X463.611 Y567.906 Z-11.713
N10160 X463.614 Y567.93 Z-11.572
N10170 X463.615 Y567.937 Z-11.43
N10180 G0 Z15.
N10190 X464.546 Y682.645
N10200 Z5.
N10210 G1 Z-11.43 F500.
N10220 X464.539 Y682.64 Z-11.572 F5000.
N10230 X464.521 Y682.625 Z-11.713
N10240 X464.49 Y682.601 Z-11.849
N10250 X464.447 Y682.567 Z-11.981
N10260 X464.393 Y682.524 Z-12.106
N10270 X464.329 Y682.473 Z-12.222
N10280 X464.254 Y682.414 Z-12.328
N10290 X464.171 Y682.348 Z-12.423
N10300 X464.08 Y682.276 Z-12.505
N10310 X463.982 Y682.198 Z-12.574
N10320 X463.879 Y682.116 Z-12.629
N10330 X463.772 Y682.031 Z-12.668
N10340 X463.662 Y681.944 Z-12.692
N10350 X463.551 Y681.856 Z-12.7
N10360 X463.445 Y681.772
N10370 G2 X456.56 Y678.2 R20.287
N10380 G3 X456.443 Y677.987 R0.172
N10390 X456.487 Y677.914 R0.172
N10400 G1 X463.323 Y671.14
N10410 X463.446 Y671.016
N10420 G2 X463.628 Y670.612 R0.635
N10430 G1 X464.714 Y654.386
N10440 G2 X464.123 Y653.71 R0.635
N10450 X463.449 Y654.278 R0.635
N10460 G3 X457.97 Y665.787 R19.05
N10470 G1 X384.125 Y739.632
N10480 X387.493 Y743.
N10490 X441.87 Y688.623
N10500 G3 X459.83 R12.7
N10510 X463.45 Y696.009 R12.7
N10520 G1 X463.456 Y696.058
N10530 X463.474 Y696.2 Z-12.692
N10540 X463.491 Y696.339 Z-12.668
N10550 X463.508 Y696.475 Z-12.629
N10560 X463.525 Y696.605 Z-12.574
N10570 X463.541 Y696.729 Z-12.505
N10580 X463.555 Y696.844 Z-12.423
N10590 X463.569 Y696.949 Z-12.328
N10600 X463.58 Y697.044 Z-12.222
N10610 X463.591 Y697.125 Z-12.106
N10620 X463.599 Y697.194 Z-11.981
N10630 X463.606 Y697.248 Z-11.849
N10640 X463.611 Y697.287 Z-11.713
N10650 X463.614 Y697.31 Z-11.572
N10660 X463.615 Y697.318 Z-11.43
N10670 G0 Z15.
N10680 X464.546 Y812.026
N10690 Z5.
N10700 G1 Z-11.43 F500.
N10710 X464.539 Y812.021 Z-11.572 F5000.
N10720 X464.521 Y812.006 Z-11.713
N10730 X464.49 Y811.982 Z-11.849
N10740 X464.447 Y811.948 Z-11.981
N10750 X464.393 Y811.905 Z-12.106
N10760 X464.329 Y811.854 Z-12.222
N10770 X464.254 Y811.795 Z-12.328
N10780 X464.171 Y811.729 Z-12.423
N10790 X464.08 Y811.657 Z-12.505
N10800 X463.982 Y811.579 Z-12.574
N10810 X463.879 Y811.497 Z-12.629
N10820 X463.772 Y811.412 Z-12.668
N10830 X463.662 Y811.325 Z-12.692
N10840 X463.551 Y811.237 Z-12.7
N10850 X463.445 Y811.153
N10860 G2 X456.56 Y807.581 R20.287
N10870 G3 X456.443 Y807.368 R0.172
N10880 X456.487 Y807.295 R0.172
N10890 G1 X463.323 Y800.521
N10900 X463.446 Y800.397
N10910 G2 X463.628 Y799.993 R0.635
N10920 G1 X464.714 Y783.767
N10930 G2 X464.123 Y783.091 R0.635
N10940 X463.449 Y783.659 R0.635
N10950 G3 X457.97 Y795.168 R19.05
N10960 G1 X384.125 Y869.013
N10970 X387.493 Y872.381
N10980 X441.87 Y818.004
N10990 G3 X459.83 R12.7
N11000 X463.45 Y825.39 R12.7
N11010 G1 X463.456 Y825.439
N11020 X463.474 Y825.581 Z-12.692
N11030 X463.491 Y825.72 Z-12.668
N11040 X463.508 Y825.856 Z-12.629
N11050 X463.525 Y825.986 Z-12.574
N11060 X463.541 Y826.11 Z-12.505
N11070 X463.555 Y826.225 Z-12.423
N11080 X463.569 Y826.33 Z-12.328
N11090 X463.58 Y826.425 Z-12.222
N11100 X463.591 Y826.506 Z-12.106
N11110 X463.599 Y826.575 Z-11.981
N11120 X463.606 Y826.629 Z-11.849
N11130 X463.611 Y826.668 Z-11.713
N11140 X463.614 Y826.692 Z-11.572
N11150 X463.615 Y826.699 Z-11.43
N11160 G0 Z15.
N11170 X464.545 Y941.407
N11180 Z5.
N11190 G1 Z-11.43 F500.
N11200 X464.539 Y941.403 Z-11.572 F5000.
N11210 X464.52 Y941.388 Z-11.713
N11220 X464.489 Y941.363 Z-11.849
N11230 X464.447 Y941.329 Z-11.981
N11240 X464.393 Y941.286 Z-12.106
N11250 X464.328 Y941.235 Z-12.222
N11260 X464.254 Y941.176 Z-12.328
N11270 X464.171 Y941.11 Z-12.423
N11280 X464.08 Y941.038 Z-12.505
N11290 X463.982 Y940.96 Z-12.574
N11300 X463.879 Y940.879 Z-12.629
N11310 X463.772 Y940.794 Z-12.668
N11320 X463.662 Y940.706 Z-12.692
N11330 X463.55 Y940.618 Z-12.7
N11340 X463.445 Y940.534
N11350 G2 X456.559 Y936.962 R20.288
N11360 G3 X456.443 Y936.749 R0.172
N11370 X456.486 Y936.676 R0.172
N11380 G1 X463.323 Y929.902
N11390 X463.446 Y929.778
N11400 G2 X463.628 Y929.374 R0.635
N11410 G1 X464.714 Y913.148
N11420 G2 X464.123 Y912.472 R0.635
N11430 X463.449 Y913.04 R0.635
N11440 G3 X457.97 Y924.549 R19.05
N11450 G1 X384.124 Y998.395
N11460 X387.493 Y1001.764
N11470 X441.87 Y947.385
N11480 G3 X459.831 Y947.386 R12.7
N11490 X463.45 Y954.773 R12.7
N11500 G1 X463.456 Y954.822
N11510 X463.474 Y954.963 Z-12.692
N11520 X463.491 Y955.103 Z-12.668
N11530 X463.509 Y955.238 Z-12.629
N11540 X463.525 Y955.369 Z-12.574
N11550 X463.541 Y955.492 Z-12.505
N11560 X463.555 Y955.608 Z-12.423
N11570 X463.569 Y955.713 Z-12.328
N11580 X463.58 Y955.807 Z-12.222
N11590 X463.591 Y955.889 Z-12.106
N11600 X463.599 Y955.957 Z-11.981
N11610 X463.606 Y956.011 Z-11.849
N11620 X463.611 Y956.051 Z-11.713
N11630 X463.614 Y956.074 Z-11.572
N11640 X463.615 Y956.082 Z-11.43
N11650 G0 Z15.
N11660 X616.945 Y941.407
N11670 Z5.
N11680 G1 Z-11.43 F500.
N11690 X616.939 Y941.403 Z-11.572 F5000.
N11700 X616.92 Y941.388 Z-11.713
N11710 X616.889 Y941.363 Z-11.849
N11720 X616.847 Y941.329 Z-11.981
N11730 X616.793 Y941.286 Z-12.106
N11740 X616.728 Y941.235 Z-12.222
N11750 X616.654 Y941.176 Z-12.328
N11760 X616.571 Y941.11 Z-12.423
N11770 X616.48 Y941.038 Z-12.505
N11780 X616.382 Y940.96 Z-12.574
N11790 X616.279 Y940.879 Z-12.629
N11800 X616.172 Y940.794 Z-12.668
N11810 X616.062 Y940.706 Z-12.692
N11820 X615.95 Y940.618 Z-12.7
N11830 X615.845 Y940.534
N11840 G2 X608.959 Y936.962 R20.288
N11850 G3 X608.843 Y936.749 R0.172
N11860 X608.886 Y936.676 R0.172
N11870 G1 X615.723 Y929.902
N11880 X615.846 Y929.778
N11890 G2 X616.028 Y929.374 R0.635
N11900 G1 X617.114 Y913.148
N11910 G2 X616.523 Y912.472 R0.635
N11920 X615.849 Y913.04 R0.635
N11930 G3 X610.37 Y924.549 R19.05
N11940 G1 X536.524 Y998.395
N11950 X539.893 Y1001.764
N11960 X594.27 Y947.385
N11970 G3 X612.231 Y947.386 R12.7
N11980 X615.85 Y954.773 R12.7
N11990 G1 X615.856 Y954.822
N12000 X615.874 Y954.963 Z-12.692
N12010 X615.891 Y955.103 Z-12.668
N12020 X615.909 Y955.238 Z-12.629
N12030 X615.925 Y955.369 Z-12.574
N12040 X615.941 Y955.493 Z-12.505
N12050 X615.955 Y955.608 Z-12.423
N12060 X615.969 Y955.713 Z-12.328
N12070 X615.98 Y955.807 Z-12.222
N12080 X615.991 Y955.889 Z-12.106
N12090 X615.999 Y955.957 Z-11.981
N12100 X616.006 Y956.011 Z-11.849
N12110 X616.011 Y956.051 Z-11.713
N12120 X616.014 Y956.074 Z-11.572
N12130 X616.015 Y956.082 Z-11.43
N12140 G0 Z15.
N12150 X616.945 Y812.026
N12160 Z5.
N12170 G1 Z-11.43 F500.
N12180 X616.939 Y812.021 Z-11.572 F5000.
N12190 X616.921 Y812.006 Z-11.713
N12200 X616.89 Y811.982 Z-11.849
N12210 X616.847 Y811.948 Z-11.981
N12220 X616.793 Y811.905 Z-12.106
N12230 X616.728 Y811.854 Z-12.222
N12240 X616.654 Y811.795 Z-12.328
N12250 X616.571 Y811.729 Z-12.423
N12260 X616.48 Y811.657 Z-12.505
N12270 X616.382 Y811.579 Z-12.574
N12280 X616.279 Y811.497 Z-12.629
N12290 X616.172 Y811.412 Z-12.668
N12300 X616.062 Y811.325 Z-12.692
N12310 X615.951 Y811.237 Z-12.7
N12320 X615.845 Y811.153
N12330 G2 X608.96 Y807.581 R20.287
N12340 G3 X608.843 Y807.368 R0.172
N12350 X608.887 Y807.295 R0.172
N12360 G1 X615.723 Y800.521
N12370 X615.846 Y800.397
N12380 G2 X616.028 Y799.993 R0.635
N12390 G1 X617.114 Y783.767
N12400 G2 X616.523 Y783.091 R0.635
N12410 X615.849 Y783.659 R0.635
N12420 G3 X610.37 Y795.168 R19.05
N12430 G1 X536.525 Y869.013
N12440 X539.893 Y872.381
N12450 X594.27 Y818.004
N12460 G3 X612.23 R12.7
N12470 X615.85 Y825.39 R12.7
N12480 G1 X615.856 Y825.439
N12490 X615.874 Y825.581 Z-12.692
N12500 X615.891 Y825.72 Z-12.668
N12510 X615.908 Y825.856 Z-12.629
N12520 X615.925 Y825.986 Z-12.574
N12530 X615.941 Y826.11 Z-12.505
N12540 X615.955 Y826.225 Z-12.423
N12550 X615.969 Y826.33 Z-12.328
N12560 X615.98 Y826.425 Z-12.222
N12570 X615.991 Y826.506 Z-12.106
N12580 X615.999 Y826.575 Z-11.981
N12590 X616.006 Y826.629 Z-11.849
N12600 X616.011 Y826.668 Z-11.713
N12610 X616.014 Y826.692 Z-11.572
N12620 X616.015 Y826.699 Z-11.43
N12630 G0 Z15.
N12640 X616.945 Y682.645
N12650 Z5.
N12660 G1 Z-11.43 F500.
N12670 X616.939 Y682.64 Z-11.572 F5000.
N12680 X616.921 Y682.625 Z-11.713
N12690 X616.89 Y682.601 Z-11.849
N12700 X616.847 Y682.567 Z-11.981
N12710 X616.793 Y682.524 Z-12.106
N12720 X616.728 Y682.473 Z-12.222
N12730 X616.654 Y682.414 Z-12.328
N12740 X616.571 Y682.348 Z-12.423
N12750 X616.48 Y682.276 Z-12.505
N12760 X616.382 Y682.198 Z-12.574
N12770 X616.279 Y682.116 Z-12.629
N12780 X616.172 Y682.031 Z-12.668
N12790 X616.062 Y681.944 Z-12.692
N12800 X615.951 Y681.856 Z-12.7
N12810 X615.845 Y681.772
N12820 G2 X608.96 Y678.2 R20.287
N12830 G3 X608.843 Y677.987 R0.172
N12840 X608.887 Y677.914 R0.172
N12850 G1 X615.723 Y671.14
N12860 X615.846 Y671.016
N12870 G2 X616.028 Y670.612 R0.635
N12880 G1 X617.114 Y654.386
N12890 G2 X616.523 Y653.71 R0.635
N12900 X615.849 Y654.278 R0.635
N12910 G3 X610.37 Y665.787 R19.05
N12920 G1 X536.525 Y739.632
N12930 X539.893 Y743.
N12940 X594.27 Y688.623
N12950 G3 X612.23 R12.7
N12960 X615.85 Y696.009 R12.7
N12970 G1 X615.856 Y696.058
N12980 X615.874 Y696.2 Z-12.692
N12990 X615.891 Y696.339 Z-12.668
N13000 X615.908 Y696.475 Z-12.629
N13010 X615.925 Y696.605 Z-12.574
N13020 X615.941 Y696.729 Z-12.505
N13030 X615.955 Y696.844 Z-12.423
N13040 X615.969 Y696.949 Z-12.328
N13050 X615.98 Y697.044 Z-12.222
N13060 X615.991 Y697.125 Z-12.106
N13070 X615.999 Y697.194 Z-11.981
N13080 X616.006 Y697.248 Z-11.849
N13090 X616.011 Y697.287 Z-11.713
N13100 X616.014 Y697.31 Z-11.572
N13110 X616.015 Y697.318 Z-11.43
N13120 G0 Z15.
N13130 X616.945 Y553.264
N13140 Z5.
N13150 G1 Z-11.43 F500.
N13160 X616.939 Y553.259 Z-11.572 F5000.
N13170 X616.921 Y553.244 Z-11.713
N13180 X616.89 Y553.22 Z-11.849
N13190 X616.847 Y553.186 Z-11.981
N13200 X616.793 Y553.143 Z-12.106
N13210 X616.728 Y553.092 Z-12.222
N13220 X616.654 Y553.033 Z-12.328
N13230 X616.571 Y552.967 Z-12.423
N13240 X616.48 Y552.895 Z-12.505
N13250 X616.382 Y552.817 Z-12.574
N13260 X616.279 Y552.735 Z-12.629
N13270 X616.172 Y552.65 Z-12.668
N13280 X616.062 Y552.563 Z-12.692
N13290 X615.951 Y552.475 Z-12.7
N13300 X615.845 Y552.391
N13310 G2 X608.96 Y548.819 R20.287
N13320 G3 X608.843 Y548.606 R0.172
N13330 X608.887 Y548.533 R0.172
N13340 G1 X615.723 Y541.759
N13350 X615.847 Y541.634
N13360 G2 X616.028 Y541.231 R0.635
N13370 G1 X617.114 Y525.004
N13380 G2 X616.523 Y524.328 R0.635
N13390 X615.849 Y524.896 R0.635
N13400 G3 X610.37 Y536.406 R19.05
N13410 G1 X536.525 Y610.251
N13420 X539.893 Y613.619
N13430 X594.27 Y559.242
N13440 G3 X612.23 R12.7
N13450 X615.85 Y566.628 R12.7
N13460 G1 X615.856 Y566.677
N13470 X615.874 Y566.819 Z-12.692
N13480 X615.891 Y566.958 Z-12.668
N13490 X615.908 Y567.094 Z-12.629
N13500 X615.925 Y567.224 Z-12.574
N13510 X615.941 Y567.348 Z-12.505
N13520 X615.955 Y567.463 Z-12.423
N13530 X615.969 Y567.568 Z-12.328
N13540 X615.98 Y567.663 Z-12.222
N13550 X615.991 Y567.744 Z-12.106
N13560 X615.999 Y567.813 Z-11.981
N13570 X616.006 Y567.867 Z-11.849
N13580 X616.011 Y567.906 Z-11.713
N13590 X616.014 Y567.93 Z-11.572
N13600 X616.015 Y567.937 Z-11.43
N13610 G0 Z15.
N13620 X616.948 Y423.886
N13630 Z5.
N13640 G1 Z-11.43 F500.
N13650 X616.942 Y423.881 Z-11.572 F5000.
N13660 X616.923 Y423.866 Z-11.713
N13670 X616.892 Y423.842 Z-11.849
N13680 X616.85 Y423.808 Z-11.981
N13690 X616.796 Y423.765 Z-12.106
N13700 X616.731 Y423.714 Z-12.222
N13710 X616.657 Y423.655 Z-12.328
N13720 X616.574 Y423.589 Z-12.423
N13730 X616.483 Y423.517 Z-12.505
N13740 X616.385 Y423.439 Z-12.574
N13750 X616.282 Y423.357 Z-12.629
N13760 X616.175 Y423.272 Z-12.668
N13770 X616.065 Y423.185 Z-12.692
N13780 X615.953 Y423.096 Z-12.7
N13790 X615.848 Y423.013
N13800 G2 X608.963 Y419.439 R20.288
N13810 G3 X608.845 Y419.222 R0.175
N13820 X608.889 Y419.147 R0.175
N13830 G1 X615.723 Y412.377
N13840 X615.846 Y412.253
N13850 G2 X616.028 Y411.849 R0.635
N13860 G1 X617.114 Y395.623
N13870 G2 X616.523 Y394.947 R0.635
N13880 X615.849 Y395.515 R0.635
N13890 G3 X610.37 Y407.024 R19.05
N13900 G1 X536.525 Y480.869
N13910 X539.893 Y484.237
N13920 X594.27 Y429.86
N13930 G3 X612.231 Y429.861 R12.7
N13940 X615.85 Y437.248 R12.7
N13950 G1 X615.856 Y437.297
N13960 X615.874 Y437.438 Z-12.692
N13970 X615.891 Y437.578 Z-12.668
N13980 X615.909 Y437.713 Z-12.629
N13990 X615.925 Y437.844 Z-12.574
N14000 X615.941 Y437.968 Z-12.505
N14010 X615.955 Y438.083 Z-12.423
N14020 X615.969 Y438.188 Z-12.328
N14030 X615.98 Y438.282 Z-12.222
N14040 X615.991 Y438.364 Z-12.106
N14050 X615.999 Y438.432 Z-11.981
N14060 X616.006 Y438.486 Z-11.849
N14070 X616.011 Y438.526 Z-11.713
N14080 X616.014 Y438.549 Z-11.572
N14090 X616.015 Y438.557 Z-11.43
N14100 G0 Z15.
N14110 X616.945 Y294.501
N14120 Z5.
N14130 G1 Z-11.43 F500.
N14140 X616.939 Y294.496 Z-11.572 F5000.
N14150 X616.921 Y294.481 Z-11.713
N14160 X616.89 Y294.457 Z-11.849
N14170 X616.847 Y294.423 Z-11.981
N14180 X616.793 Y294.38 Z-12.106
N14190 X616.728 Y294.329 Z-12.222
N14200 X616.654 Y294.27 Z-12.328
N14210 X616.571 Y294.204 Z-12.423
N14220 X616.48 Y294.132 Z-12.505
N14230 X616.382 Y294.054 Z-12.574
N14240 X616.279 Y293.972 Z-12.629
N14250 X616.172 Y293.887 Z-12.668
N14260 X616.062 Y293.8 Z-12.692
N14270 X615.951 Y293.712 Z-12.7
N14280 X615.845 Y293.628
N14290 G2 X608.96 Y290.056 R20.287
N14300 G3 X608.843 Y289.843 R0.172
N14310 X608.887 Y289.77 R0.172
N14320 G1 X615.723 Y282.996
N14330 X615.846 Y282.872
N14340 G2 X616.028 Y282.468 R0.635
N14350 G1 X617.114 Y266.242
N14360 G2 X616.523 Y265.566 R0.635
N14370 X615.849 Y266.134 R0.635
N14380 G3 X610.37 Y277.643 R19.05
N14390 G1 X536.525 Y351.488
N14400 X539.893 Y354.856
N14410 X594.27 Y300.479
N14420 G3 X612.23 R12.7
N14430 X615.85 Y307.865 R12.7
N14440 G1 X615.856 Y307.914
N14450 X615.874 Y308.056 Z-12.692
N14460 X615.891 Y308.195 Z-12.668
N14470 X615.908 Y308.331 Z-12.629
N14480 X615.925 Y308.461 Z-12.574
N14490 X615.941 Y308.585 Z-12.505
N14500 X615.955 Y308.7 Z-12.423
N14510 X615.969 Y308.805 Z-12.328
N14520 X615.98 Y308.9 Z-12.222
N14530 X615.991 Y308.981 Z-12.106
N14540 X615.999 Y309.05 Z-11.981
N14550 X616.006 Y309.104 Z-11.849
N14560 X616.011 Y309.143 Z-11.713
N14570 X616.014 Y309.167 Z-11.572
N14580 X616.015 Y309.174 Z-11.43
N14590 G0 Z15.
N14600 X616.945 Y165.12
N14610 Z5.
N14620 G1 Z-11.43 F500.
N14630 X616.939 Y165.115 Z-11.572 F5000.
N14640 X616.921 Y165.1 Z-11.713
N14650 X616.89 Y165.076 Z-11.849
N14660 X616.847 Y165.042 Z-11.981
N14670 X616.793 Y164.999 Z-12.106
N14680 X616.728 Y164.948 Z-12.222
N14690 X616.654 Y164.889 Z-12.328
N14700 X616.571 Y164.823 Z-12.423
N14710 X616.48 Y164.751 Z-12.505
N14720 X616.382 Y164.673 Z-12.574
N14730 X616.279 Y164.591 Z-12.629
N14740 X616.172 Y164.506 Z-12.668
N14750 X616.062 Y164.419 Z-12.692
N14760 X615.951 Y164.331 Z-12.7
N14770 X615.845 Y164.247
N14780 G2 X608.96 Y160.675 R20.287
N14790 G3 X608.843 Y160.462 R0.172
N14800 X608.887 Y160.389 R0.172
N14810 G1 X615.723 Y153.615
N14820 X615.846 Y153.491
N14830 G2 X616.028 Y153.087 R0.635
N14840 G1 X617.114 Y136.861
N14850 G2 X616.523 Y136.185 R0.635
N14860 X615.849 Y136.753 R0.635
N14870 G3 X610.37 Y148.262 R19.05
N14880 G1 X536.525 Y222.107
N14890 X539.893 Y225.475
N14900 X594.27 Y171.098
N14910 G3 X612.23 R12.7
N14920 X615.85 Y178.484 R12.7
N14930 G1 X615.856 Y178.533
N14940 X615.874 Y178.675 Z-12.692
N14950 X615.891 Y178.814 Z-12.668
N14960 X615.908 Y178.95 Z-12.629
N14970 X615.925 Y179.08 Z-12.574
N14980 X615.941 Y179.204 Z-12.505
N14990 X615.955 Y179.319 Z-12.423
N15000 X615.969 Y179.424 Z-12.328
N15010 X615.98 Y179.519 Z-12.222
N15020 X615.991 Y179.6 Z-12.106
N15030 X615.999 Y179.669 Z-11.981
N15040 X616.006 Y179.723 Z-11.849
N15050 X616.011 Y179.762 Z-11.713
N15060 X616.014 Y179.786 Z-11.572
N15070 X616.015 Y179.793 Z-11.43
N15080 G0 Z15.
N15090 X562.965 Y-7.568
N15100 Z5.
N15110 G1 Z-11.24 F500.
N15120 Z-11.557 F5000.
N15130 X562.964 Y-7.561 Z-11.685
N15140 X562.96 Y-7.54 Z-11.811
N15150 X562.955 Y-7.505 Z-11.935
N15160 X562.947 Y-7.456 Z-12.053
N15170 X562.937 Y-7.395 Z-12.165
N15180 X562.926 Y-7.322 Z-12.27
N15190 X562.912 Y-7.238 Z-12.365
N15200 X562.897 Y-7.143 Z-12.451
N15210 X562.881 Y-7.04 Z-12.525
N15220 X562.863 Y-6.929 Z-12.587
N15230 X562.845 Y-6.812 Z-12.636
N15240 X562.826 Y-6.691 Z-12.671
N15250 X562.806 Y-6.566 Z-12.693
N15260 X562.786 Y-6.439 Z-12.7
N15270 X562.785 Y-6.432
N15280 X562.773 Y-6.333
N15290 X562.769 Y-6.233
N15300 Y114.3
N15310 X567.531
N15320 Y0.
N15330 Y-6.244
N15340 X567.527 Y-6.344
N15350 X567.515 Y-6.443
N15360 X567.508 Y-6.492
N15370 X567.485 Y-6.632 Z-12.692
N15380 X567.463 Y-6.771 Z-12.668
N15390 X567.442 Y-6.906 Z-12.629
N15400 X567.421 Y-7.036 Z-12.574
N15410 X567.402 Y-7.159 Z-12.505
N15420 X567.384 Y-7.274 Z-12.423
N15430 X567.367 Y-7.379 Z-12.328
N15440 X567.352 Y-7.472 Z-12.222
N15450 X567.339 Y-7.554 Z-12.106
N15460 X567.329 Y-7.622 Z-11.981
N15470 X567.32 Y-7.676 Z-11.849
N15480 X567.314 Y-7.714 Z-11.713
N15490 X567.31 Y-7.738 Z-11.572
N15500 X567.309 Y-7.746 Z-11.43
N15510 G0 Z15.
N11520 G4 P1.0
N15530 G0 X0 Y0
N15540 M30
%
