%
(8FT-BOTTOM)
(MACHINE)
(  VENDOR AUTODESK)
(  MODEL GENERIC 3-AXIS ROUTER)
(  DESCRIPTION THIS MACHINE HAS XYZ AXIS ON THE HEAD)
(T21 D=12.7 CR=0. - ZMIN=-12.7 - FLAT END MILL)
N10 G90 G94 G17 G91.1
N20 G21
(-ATTENTION- PROPERTY SAFE RETRACTS IS SET TO CLEARANCE HEIGHT.)
(ENSURE THE CLEARANCE HEIGHT WILL CLEAR THE PART AND OR FIXTURES.)
(RAISE THE Z-AXIS TO A SAFE HEIGHT BEFORE STARTING THE PROGRAM.)
(2D POCKET25)
N30 M0
(T20 M6)
N40 S20000 M3
N45 G4 P5.0
N50 G54
N60 G0 X42.264 Y-7.568
N70 Z15.
N80 G0 Z5.
N100 G1 Z-11.24 F500.
N110 Z-11.557 F5000.
N120 X42.263 Y-7.561 Z-11.685
N130 X42.26 Y-7.54 Z-11.811
N140 X42.254 Y-7.505 Z-11.935
N150 X42.247 Y-7.456 Z-12.053
N160 X42.237 Y-7.395 Z-12.165
N170 X42.225 Y-7.322 Z-12.27
N180 X42.212 Y-7.238 Z-12.365
N190 X42.197 Y-7.143 Z-12.451
N200 X42.181 Y-7.04 Z-12.525
N210 X42.163 Y-6.929 Z-12.587
N220 X42.145 Y-6.812 Z-12.636
N230 X42.125 Y-6.691 Z-12.671
N240 X42.106 Y-6.566 Z-12.693
N250 X42.086 Y-6.439 Z-12.7
N260 X42.084 Y-6.432
N270 X42.073 Y-6.333
N280 X42.069 Y-6.233
N290 Y114.3
N300 X46.831
N310 Y-6.244
N320 X46.827 Y-6.344
N330 X46.816 Y-6.443
N340 X46.808 Y-6.492
N350 X46.786 Y-6.632 Z-12.692
N360 X46.764 Y-6.771 Z-12.668
N370 X46.742 Y-6.906 Z-12.629
N380 X46.722 Y-7.036 Z-12.574
N390 X46.702 Y-7.159 Z-12.505
N400 X46.684 Y-7.274 Z-12.423
N410 X46.667 Y-7.379 Z-12.328
N420 X46.653 Y-7.472 Z-12.222
N430 X46.64 Y-7.554 Z-12.106
N440 X46.629 Y-7.622 Z-11.981
N450 X46.62 Y-7.676 Z-11.849
N460 X46.614 Y-7.714 Z-11.713
N470 X46.61 Y-7.738 Z-11.572
N480 X46.609 Y-7.746 Z-11.43
N490 G0 Z15.
N500 X-7.346 Y203.18
N510 Z5.
N520 G1 Z-11.43 F500.
N530 X-7.339 Y203.185 Z-11.572 F5000.
N540 X-7.321 Y203.2 Z-11.713
N550 X-7.29 Y203.224 Z-11.849
N560 X-7.247 Y203.258 Z-11.981
N570 X-7.193 Y203.301 Z-12.106
N580 X-7.129 Y203.352 Z-12.222
N590 X-7.054 Y203.411 Z-12.328
N600 X-6.971 Y203.477 Z-12.423
N610 X-6.88 Y203.549 Z-12.505
N620 X-6.783 Y203.627 Z-12.574
N630 X-6.679 Y203.709 Z-12.629
N640 X-6.572 Y203.794 Z-12.668
N650 X-6.462 Y203.881 Z-12.692
N660 X-6.351 Y203.969 Z-12.7
N670 X-6.245 Y204.053
N680 G2 X0.64 Y207.625 R20.287
N690 G3 X0.756 Y207.838 R0.172
N700 X0.713 Y207.911 R0.172
N710 G1 X-6.123 Y214.685
N720 X-6.185 Y214.747
N730 X-6.247 Y214.81
N740 G2 X-6.428 Y215.213 R0.635
N750 G1 X-7.514 Y231.439
N760 G2 X-6.923 Y232.115 R0.635
N770 X-6.249 Y231.547 R0.635
N780 G3 X-0.77 Y220.038 R19.05
N790 G1 X73.075 Y146.193
N800 X69.707 Y142.825
N810 X15.33 Y197.202
N820 G3 X-2.63 R12.7
N830 X-6.25 Y189.816 R12.7
N840 G1 X-6.256 Y189.767
N850 X-6.274 Y189.626 Z-12.692
N860 X-6.291 Y189.486 Z-12.668
N870 X-6.308 Y189.351 Z-12.629
N880 X-6.325 Y189.22 Z-12.574
N890 X-6.341 Y189.096 Z-12.505
N900 X-6.355 Y188.981 Z-12.423
N910 X-6.369 Y188.876 Z-12.328
N920 X-6.38 Y188.782 Z-12.222
N930 X-6.391 Y188.7 Z-12.106
N940 X-6.399 Y188.632 Z-11.981
N950 X-6.406 Y188.577 Z-11.849
N960 X-6.411 Y188.538 Z-11.713
N970 X-6.414 Y188.515 Z-11.572
N980 X-6.415 Y188.507 Z-11.43
N990 G0 Z15.
N1000 X-7.346 Y332.561
N1010 Z5.
N1020 G1 Z-11.43 F500.
N1030 X-7.339 Y332.566 Z-11.572 F5000.
N1040 X-7.321 Y332.581 Z-11.713
N1050 X-7.29 Y332.605 Z-11.849
N1060 X-7.247 Y332.639 Z-11.981
N1070 X-7.193 Y332.682 Z-12.106
N1080 X-7.129 Y332.733 Z-12.222
N1090 X-7.054 Y332.792 Z-12.328
N1100 X-6.971 Y332.858 Z-12.423
N1110 X-6.88 Y332.93 Z-12.505
N1120 X-6.783 Y333.008 Z-12.574
N1130 X-6.679 Y333.09 Z-12.629
N1140 X-6.572 Y333.175 Z-12.668
N1150 X-6.462 Y333.262 Z-12.692
N1160 X-6.351 Y333.35 Z-12.7
N1170 X-6.245 Y333.434
N1180 G2 X0.64 Y337.006 R20.287
N1190 G3 X0.756 Y337.219 R0.172
N1200 X0.713 Y337.292 R0.172
N1210 G1 X-6.123 Y344.066
N1220 X-6.185 Y344.128
N1230 X-6.247 Y344.191
N1240 G2 X-6.429 Y344.594 R0.635
N1250 G1 X-7.514 Y360.822
N1260 G2 X-6.923 Y361.498 R0.635
N1270 X-6.249 Y360.929 R0.635
N1280 G3 X-0.77 Y349.419 R19.05
N1290 G1 X73.075 Y275.574
N1300 X69.707 Y272.206
N1310 X15.33 Y326.583
N1320 G3 X-2.63 R12.7
N1330 X-6.25 Y319.197 R12.7
N1340 G1 X-6.256 Y319.148
N1350 X-6.274 Y319.007 Z-12.692
N1360 X-6.291 Y318.867 Z-12.668
N1370 X-6.308 Y318.732 Z-12.629
N1380 X-6.325 Y318.601 Z-12.574
N1390 X-6.341 Y318.477 Z-12.505
N1400 X-6.355 Y318.362 Z-12.423
N1410 X-6.369 Y318.257 Z-12.328
N1420 X-6.38 Y318.163 Z-12.222
N1430 X-6.391 Y318.081 Z-12.106
N1440 X-6.399 Y318.013 Z-11.981
N1450 X-6.406 Y317.958 Z-11.849
N1460 X-6.411 Y317.919 Z-11.713
N1470 X-6.414 Y317.896 Z-11.572
N1480 X-6.415 Y317.888 Z-11.43
N1490 G0 Z15.
N1500 X-7.345 Y461.942
N1510 Z5.
N1520 G1 Z-11.43 F500.
N1530 X-7.339 Y461.947 Z-11.572 F5000.
N1540 X-7.32 Y461.962 Z-11.713
N1550 X-7.289 Y461.987 Z-11.849
N1560 X-7.247 Y462.021 Z-11.981
N1570 X-7.193 Y462.063 Z-12.106
N1580 X-7.128 Y462.115 Z-12.222
N1590 X-7.054 Y462.174 Z-12.328
N1600 X-6.971 Y462.24 Z-12.423
N1610 X-6.88 Y462.312 Z-12.505
N1620 X-6.782 Y462.389 Z-12.574
N1630 X-6.679 Y462.471 Z-12.629
N1640 X-6.572 Y462.556 Z-12.668
N1650 X-6.462 Y462.644 Z-12.692
N1660 X-6.351 Y462.732 Z-12.7
N1670 X-6.245 Y462.816
N1680 G2 X0.641 Y466.388 R20.288
N1690 G3 X0.757 Y466.601 R0.172
N1700 X0.713 Y466.674 R0.172
N1710 G1 X-6.123 Y473.448
N1720 X-6.185 Y473.51
N1730 X-6.247 Y473.573
N1740 G2 X-6.428 Y473.976 R0.635
N1750 G1 X-7.514 Y490.202
N1760 G2 X-6.923 Y490.878 R0.635
N1770 X-6.249 Y490.31 R0.635
N1780 G3 X-0.77 Y478.801 R19.05
N1790 G1 X73.075 Y404.956
N1800 X69.707 Y401.588
N1810 X15.33 Y455.965
N1820 G3 X-2.631 Y455.964 R12.7
N1830 X-6.25 Y448.577 R12.7
N1840 G1 X-6.256 Y448.528
N1850 X-6.274 Y448.387 Z-12.692
N1860 X-6.291 Y448.248 Z-12.668
N1870 X-6.309 Y448.112 Z-12.629
N1880 X-6.325 Y447.981 Z-12.574
N1890 X-6.341 Y447.858 Z-12.505
N1900 X-6.355 Y447.742 Z-12.423
N1910 X-6.369 Y447.637 Z-12.328
N1920 X-6.38 Y447.543 Z-12.222
N1930 X-6.391 Y447.461 Z-12.106
N1940 X-6.399 Y447.393 Z-11.981
N1950 X-6.406 Y447.339 Z-11.849
N1960 X-6.411 Y447.3 Z-11.713
N1970 X-6.414 Y447.276 Z-11.572
N1980 X-6.415 Y447.268 Z-11.43
N1990 G0 Z15.
N2000 X-7.346 Y591.324
N2010 Z5.
N2020 G1 Z-11.43 F500.
N2030 X-7.339 Y591.329 Z-11.572 F5000.
N2040 X-7.321 Y591.344 Z-11.713
N2050 X-7.29 Y591.368 Z-11.849
N2060 X-7.247 Y591.402 Z-11.981
N2070 X-7.193 Y591.445 Z-12.106
N2080 X-7.129 Y591.496 Z-12.222
N2090 X-7.054 Y591.555 Z-12.328
N2100 X-6.971 Y591.621 Z-12.423
N2110 X-6.88 Y591.693 Z-12.505
N2120 X-6.783 Y591.771 Z-12.574
N2130 X-6.679 Y591.853 Z-12.629
N2140 X-6.572 Y591.938 Z-12.668
N2150 X-6.462 Y592.025 Z-12.692
N2160 X-6.351 Y592.113 Z-12.7
N2170 X-6.245 Y592.197
N2180 G2 X0.64 Y595.769 R20.287
N2190 G3 X0.756 Y595.982 R0.172
N2200 X0.713 Y596.055 R0.172
N2210 G1 X-6.123 Y602.829
N2220 X-6.185 Y602.891
N2230 X-6.247 Y602.954
N2240 G2 X-6.428 Y603.357 R0.635
N2250 G1 X-7.514 Y619.583
N2260 G2 X-6.923 Y620.259 R0.635
N2270 X-6.249 Y619.691 R0.635
N2280 G3 X-0.77 Y608.182 R19.05
N2290 G1 X73.075 Y534.337
N2300 X69.707 Y530.969
N2310 X15.33 Y585.346
N2320 G3 X-2.63 R12.7
N2330 X-6.25 Y577.96 R12.7
N2340 G1 X-6.256 Y577.911
N2350 X-6.274 Y577.77 Z-12.692
N2360 X-6.291 Y577.63 Z-12.668
N2370 X-6.308 Y577.495 Z-12.629
N2380 X-6.325 Y577.364 Z-12.574
N2390 X-6.341 Y577.24 Z-12.505
N2400 X-6.355 Y577.125 Z-12.423
N2410 X-6.369 Y577.02 Z-12.328
N2420 X-6.38 Y576.926 Z-12.222
N2430 X-6.391 Y576.844 Z-12.106
N2440 X-6.399 Y576.776 Z-11.981
N2450 X-6.406 Y576.721 Z-11.849
N2460 X-6.411 Y576.682 Z-11.713
N2470 X-6.414 Y576.659 Z-11.572
N2480 X-6.415 Y576.651 Z-11.43
N2490 G0 Z15.
N2500 X-7.346 Y720.705
N2510 Z5.
N2520 G1 Z-11.43 F500.
N2530 X-7.339 Y720.71 Z-11.572 F5000.
N2540 X-7.321 Y720.725 Z-11.713
N2550 X-7.29 Y720.749 Z-11.849
N2560 X-7.247 Y720.783 Z-11.981
N2570 X-7.193 Y720.826 Z-12.106
N2580 X-7.129 Y720.877 Z-12.222
N2590 X-7.054 Y720.936 Z-12.328
N2600 X-6.971 Y721.002 Z-12.423
N2610 X-6.88 Y721.074 Z-12.505
N2620 X-6.783 Y721.152 Z-12.574
N2630 X-6.679 Y721.234 Z-12.629
N2640 X-6.572 Y721.319 Z-12.668
N2650 X-6.462 Y721.406 Z-12.692
N2660 X-6.351 Y721.494 Z-12.7
N2670 X-6.245 Y721.578
N2680 G2 X0.64 Y725.15 R20.287
N2690 G3 X0.756 Y725.363 R0.172
N2700 X0.713 Y725.436 R0.172
N2710 G1 X-6.123 Y732.21
N2720 X-6.185 Y732.272
N2730 X-6.247 Y732.335
N2740 G2 X-6.428 Y732.738 R0.635
N2750 G1 X-7.514 Y748.964
N2760 G2 X-6.923 Y749.64 R0.635
N2770 X-6.249 Y749.072 R0.635
N2780 G3 X-0.77 Y737.563 R19.05
N2790 G1 X73.075 Y663.718
N2800 X69.707 Y660.35
N2810 X15.33 Y714.727
N2820 G3 X-2.63 R12.7
N2830 X-6.25 Y707.341 R12.7
N2840 G1 X-6.256 Y707.292
N2850 X-6.274 Y707.151 Z-12.692
N2860 X-6.291 Y707.011 Z-12.668
N2870 X-6.308 Y706.876 Z-12.629
N2880 X-6.325 Y706.745 Z-12.574
N2890 X-6.341 Y706.621 Z-12.505
N2900 X-6.355 Y706.506 Z-12.423
N2910 X-6.369 Y706.401 Z-12.328
N2920 X-6.38 Y706.307 Z-12.222
N2930 X-6.391 Y706.225 Z-12.106
N2940 X-6.399 Y706.157 Z-11.981
N2950 X-6.406 Y706.102 Z-11.849
N2960 X-6.411 Y706.063 Z-11.713
N2970 X-6.414 Y706.04 Z-11.572
N2980 X-6.415 Y706.032 Z-11.43
N2990 G0 Z15.
N3000 X-7.346 Y850.086
N3010 Z5.
N3020 G1 Z-11.43 F500.
N3030 X-7.339 Y850.091 Z-11.572 F5000.
N3040 X-7.321 Y850.106 Z-11.713
N3050 X-7.29 Y850.13 Z-11.849
N3060 X-7.247 Y850.164 Z-11.981
N3070 X-7.193 Y850.207 Z-12.106
N3080 X-7.129 Y850.258 Z-12.222
N3090 X-7.054 Y850.317 Z-12.328
N3100 X-6.971 Y850.383 Z-12.423
N3110 X-6.88 Y850.455 Z-12.505
N3120 X-6.783 Y850.533 Z-12.574
N3130 X-6.679 Y850.615 Z-12.629
N3140 X-6.572 Y850.7 Z-12.668
N3150 X-6.462 Y850.787 Z-12.692
N3160 X-6.351 Y850.875 Z-12.7
N3170 X-6.245 Y850.959
N3180 G2 X0.64 Y854.531 R20.287
N3190 G3 X0.756 Y854.744 R0.172
N3200 X0.713 Y854.817 R0.172
N3210 G1 X-6.123 Y861.591
N3220 X-6.185 Y861.653
N3230 X-6.247 Y861.716
N3240 G2 X-6.429 Y862.119 R0.635
N3250 G1 X-7.514 Y878.347
N3260 G2 X-6.923 Y879.022 R0.635
N3270 X-6.249 Y878.454 R0.635
N3280 G3 X-0.77 Y866.944 R19.05
N3290 G1 X73.075 Y793.099
N3300 X69.707 Y789.731
N3310 X15.33 Y844.108
N3320 G3 X-2.63 R12.7
N3330 X-6.25 Y836.722 R12.7
N3340 G1 X-6.256 Y836.673
N3350 X-6.274 Y836.532 Z-12.692
N3360 X-6.291 Y836.392 Z-12.668
N3370 X-6.308 Y836.257 Z-12.629
N3380 X-6.325 Y836.126 Z-12.574
N3390 X-6.341 Y836.002 Z-12.505
N3400 X-6.355 Y835.887 Z-12.423
N3410 X-6.369 Y835.782 Z-12.328
N3420 X-6.38 Y835.688 Z-12.222
N3430 X-6.391 Y835.606 Z-12.106
N3440 X-6.399 Y835.538 Z-11.981
N3450 X-6.406 Y835.483 Z-11.849
N3460 X-6.411 Y835.444 Z-11.713
N3470 X-6.414 Y835.421 Z-11.572
N3480 X-6.415 Y835.413 Z-11.43
N3490 G0 Z15.
N3500 X-7.346 Y979.466
N3510 Z5.
N3520 G1 Z-11.43 F500.
N3530 X-7.34 Y979.471 Z-11.572 F5000.
N3540 X-7.321 Y979.485 Z-11.713
N3550 X-7.29 Y979.51 Z-11.849
N3560 X-7.248 Y979.544 Z-11.981
N3570 X-7.194 Y979.587 Z-12.106
N3580 X-7.129 Y979.638 Z-12.222
N3590 X-7.055 Y979.697 Z-12.328
N3600 X-6.972 Y979.763 Z-12.423
N3610 X-6.881 Y979.835 Z-12.505
N3620 X-6.783 Y979.913 Z-12.574
N3630 X-6.68 Y979.994 Z-12.629
N3640 X-6.573 Y980.08 Z-12.668
N3650 X-6.463 Y980.167 Z-12.692
N3660 X-6.351 Y980.255 Z-12.7
N3670 X-6.246 Y980.339
N3680 G2 X0.639 Y983.911 R20.288
N3690 G3 X0.758 Y984.129 R0.175
N3700 X0.714 Y984.203 R0.175
N3710 G1 X-6.123 Y990.977
N3720 X-6.185 Y991.039
N3730 X-6.247 Y991.102
N3740 G2 X-6.429 Y991.505 R0.635
N3750 G1 X-7.514 Y1007.731
N3760 G2 X-6.923 Y1008.407 R0.635
N3770 X-6.249 Y1007.839 R0.635
N3780 G3 X-0.77 Y996.33 R19.05
N3790 G1 X73.075 Y922.481
N3800 X69.707 Y919.113
N3810 X15.33 Y973.49
N3820 G3 X-2.631 Y973.489 R12.7
N3830 X-6.25 Y966.102 R12.7
N3840 G1 X-6.256 Y966.053
N3850 X-6.274 Y965.912 Z-12.692
N3860 X-6.291 Y965.773 Z-12.668
N3870 X-6.309 Y965.637 Z-12.629
N3880 X-6.325 Y965.506 Z-12.574
N3890 X-6.341 Y965.383 Z-12.505
N3900 X-6.355 Y965.267 Z-12.423
N3910 X-6.369 Y965.162 Z-12.328
N3920 X-6.38 Y965.068 Z-12.222
N3930 X-6.391 Y964.986 Z-12.106
N3940 X-6.399 Y964.918 Z-11.981
N3950 X-6.406 Y964.864 Z-11.849
N3960 X-6.411 Y964.825 Z-11.713
N3970 X-6.414 Y964.801 Z-11.572
N3980 X-6.415 Y964.793 Z-11.43
N3990 G0 Z15.
N4000 X-7.346 Y1108.846
N4010 Z5.
N4020 G1 Z-11.43 F500.
N4030 X-7.34 Y1108.851 Z-11.572 F5000.
N4040 X-7.321 Y1108.866 Z-11.713
N4050 X-7.29 Y1108.89 Z-11.849
N4060 X-7.248 Y1108.924 Z-11.981
N4070 X-7.194 Y1108.967 Z-12.106
N4080 X-7.129 Y1109.018 Z-12.222
N4090 X-7.055 Y1109.077 Z-12.328
N4100 X-6.972 Y1109.143 Z-12.423
N4110 X-6.881 Y1109.216 Z-12.505
N4120 X-6.783 Y1109.293 Z-12.574
N4130 X-6.68 Y1109.375 Z-12.629
N4140 X-6.573 Y1109.46 Z-12.668
N4150 X-6.463 Y1109.547 Z-12.692
N4160 X-6.352 Y1109.636 Z-12.7
N4170 X-6.246 Y1109.72
N4180 G2 X0.639 Y1113.292 R20.288
N4190 G3 X0.758 Y1113.509 R0.175
N4200 X0.714 Y1113.584 R0.175
N4210 G1 X-6.123 Y1120.357
N4220 X-6.185 Y1120.419
N4230 X-6.247 Y1120.482
N4240 G2 X-6.428 Y1120.885 R0.635
N4250 G1 X-7.514 Y1137.111
N4260 G2 X-6.923 Y1137.787 R0.635
N4270 X-6.249 Y1137.219 R0.635
N4280 G3 X-0.77 Y1125.71 R19.05
N4290 G1 X73.075 Y1051.865
N4300 X69.707 Y1048.495
N4310 X15.33 Y1102.87
N4320 G3 X-2.63 R12.7
N4330 X-6.25 Y1095.484 R12.7
N4340 G1 X-6.256 Y1095.435
N4350 X-6.274 Y1095.294 Z-12.692
N4360 X-6.291 Y1095.154 Z-12.668
N4370 X-6.308 Y1095.019 Z-12.629
N4380 X-6.325 Y1094.888 Z-12.574
N4390 X-6.341 Y1094.764 Z-12.505
N4400 X-6.355 Y1094.649 Z-12.423
N4410 X-6.369 Y1094.544 Z-12.328
N4420 X-6.38 Y1094.45 Z-12.222
N4430 X-6.391 Y1094.368 Z-12.106
N4440 X-6.399 Y1094.299 Z-11.981
N4450 X-6.406 Y1094.245 Z-11.849
N4460 X-6.411 Y1094.206 Z-11.713
N4470 X-6.414 Y1094.183 Z-11.572
N4480 X-6.415 Y1094.175 Z-11.43
N4490 G0 Z15.
N4500 X-7.346 Y1238.226
N4510 Z5.
N4520 G1 Z-11.43 F500.
N4530 X-7.34 Y1238.231 Z-11.572 F5000.
N4540 X-7.321 Y1238.246 Z-11.713
N4550 X-7.29 Y1238.27 Z-11.849
N4560 X-7.248 Y1238.304 Z-11.981
N4570 X-7.194 Y1238.347 Z-12.106
N4580 X-7.129 Y1238.398 Z-12.222
N4590 X-7.055 Y1238.457 Z-12.328
N4600 X-6.972 Y1238.523 Z-12.423
N4610 X-6.881 Y1238.596 Z-12.505
N4620 X-6.783 Y1238.673 Z-12.574
N4630 X-6.68 Y1238.755 Z-12.629
N4640 X-6.573 Y1238.84 Z-12.668
N4650 X-6.463 Y1238.927 Z-12.692
N4660 X-6.352 Y1239.016 Z-12.7
N4670 X-6.345 Y1239.021
N4680 X-6.246 Y1239.1
N4690 G2 X0.639 Y1242.672 R20.288
N4700 G3 X0.758 Y1242.889 R0.175
N4710 X0.714 Y1242.964 R0.175
N4720 G1 X-6.123 Y1249.737
N4730 X-6.185 Y1249.799
N4740 X-6.247 Y1249.862
N4750 G2 X-6.428 Y1250.265 R0.635
N4760 G1 X-7.514 Y1266.491
N4770 G2 X-6.923 Y1267.167 R0.635
N4780 X-6.249 Y1266.599 R0.635
N4790 G3 X-0.77 Y1255.09 R19.05
N4800 G1 X73.075 Y1181.245
N4810 X69.707 Y1177.875
N4820 X15.33 Y1232.25
N4830 G3 X-2.63 R12.7
N4840 X-6.25 Y1224.864 R12.7
N4850 G1 X-6.256 Y1224.815
N4860 X-6.274 Y1224.674 Z-12.692
N4870 X-6.291 Y1224.534 Z-12.668
N4880 X-6.308 Y1224.399 Z-12.629
N4890 X-6.325 Y1224.268 Z-12.574
N4900 X-6.341 Y1224.144 Z-12.505
N4910 X-6.355 Y1224.029 Z-12.423
N4920 X-6.369 Y1223.924 Z-12.328
N4930 X-6.38 Y1223.83 Z-12.222
N4940 X-6.391 Y1223.748 Z-12.106
N4950 X-6.399 Y1223.679 Z-11.981
N4960 X-6.406 Y1223.625 Z-11.849
N4970 X-6.411 Y1223.586 Z-11.713
N4980 X-6.414 Y1223.563 Z-11.572
N4990 X-6.415 Y1223.555 Z-11.43
N5000 G0 Z15.
N5010 X-7.346 Y1367.606
N5020 Z5.
N5030 G1 Z-11.43 F500.
N5040 X-7.34 Y1367.611 Z-11.572 F5000.
N5050 X-7.321 Y1367.626 Z-11.713
N5060 X-7.29 Y1367.65 Z-11.849
N5070 X-7.248 Y1367.684 Z-11.981
N5080 X-7.194 Y1367.727 Z-12.106
N5090 X-7.129 Y1367.778 Z-12.222
N5100 X-7.055 Y1367.837 Z-12.328
N5110 X-6.972 Y1367.903 Z-12.423
N5120 X-6.881 Y1367.976 Z-12.505
N5130 X-6.783 Y1368.053 Z-12.574
N5140 X-6.68 Y1368.135 Z-12.629
N5150 X-6.573 Y1368.22 Z-12.668
N5160 X-6.463 Y1368.307 Z-12.692
N5170 X-6.352 Y1368.396 Z-12.7
N5180 X-6.345 Y1368.401
N5190 X-6.246 Y1368.48
N5200 G2 X0.639 Y1372.052 R20.288
N5210 G3 X0.758 Y1372.269 R0.175
N5220 X0.714 Y1372.344 R0.175
N5230 G1 X-6.123 Y1379.117
N5240 X-6.185 Y1379.179
N5250 X-6.247 Y1379.242
N5260 G2 X-6.428 Y1379.645 R0.635
N5270 G1 X-7.514 Y1395.871
N5280 G2 X-6.923 Y1396.547 R0.635
N5290 X-6.249 Y1395.979 R0.635
N5300 G3 X-0.77 Y1384.47 R19.05
N5310 G1 X73.075 Y1310.625
N5320 X69.707 Y1307.255
N5330 X15.33 Y1361.63
N5340 G3 X-2.63 R12.7
N5350 X-6.25 Y1354.244 R12.7
N5360 G1 X-6.256 Y1354.195
N5370 X-6.274 Y1354.054 Z-12.692
N5380 X-6.291 Y1353.914 Z-12.668
N5390 X-6.308 Y1353.779 Z-12.629
N5400 X-6.325 Y1353.648 Z-12.574
N5410 X-6.341 Y1353.524 Z-12.505
N5420 X-6.355 Y1353.409 Z-12.423
N5430 X-6.369 Y1353.304 Z-12.328
N5440 X-6.38 Y1353.21 Z-12.222
N5450 X-6.391 Y1353.128 Z-12.106
N5460 X-6.399 Y1353.059 Z-11.981
N5470 X-6.406 Y1353.005 Z-11.849
N5480 X-6.411 Y1352.966 Z-11.713
N5490 X-6.414 Y1352.943 Z-11.572
N5500 X-6.415 Y1352.935 Z-11.43
N5510 G0 Z15.
N5520 X145.054 Y1367.606
N5530 Z5.
N5540 G1 Z-11.43 F500.
N5550 X145.06 Y1367.611 Z-11.572 F5000.
N5560 X145.079 Y1367.626 Z-11.713
N5570 X145.11 Y1367.651 Z-11.849
N5580 X145.152 Y1367.685 Z-11.981
N5590 X145.206 Y1367.727 Z-12.106
N5600 X145.271 Y1367.779 Z-12.222
N5610 X145.345 Y1367.838 Z-12.328
N5620 X145.428 Y1367.904 Z-12.423
N5630 X145.519 Y1367.976 Z-12.505
N5640 X145.617 Y1368.053 Z-12.574
N5650 X145.72 Y1368.135 Z-12.629
N5660 X145.827 Y1368.22 Z-12.668
N5670 X145.937 Y1368.307 Z-12.692
N5680 X146.049 Y1368.396 Z-12.7
N5690 X146.154 Y1368.48
N5700 G2 X153.039 Y1372.052 R20.288
N5710 G3 X153.158 Y1372.27 R0.175
N5720 X153.114 Y1372.344 R0.175
N5730 G1 X146.277 Y1379.117
N5740 X146.215 Y1379.179
N5750 X146.154 Y1379.241
N5760 G2 X145.972 Y1379.645 R0.635
N5770 G1 X144.886 Y1395.871
N5780 G2 X145.477 Y1396.547 R0.635
N5790 X146.151 Y1395.979 R0.635
N5800 G3 X151.63 Y1384.47 R19.05
N5810 G1 X225.475 Y1310.625
N5820 X222.107 Y1307.255
N5830 X167.73 Y1361.63
N5840 G3 X149.77 R12.7
N5850 X146.15 Y1354.244 R12.7
N5860 G1 X146.144 Y1354.194
N5870 X146.126 Y1354.053 Z-12.692
N5880 X146.109 Y1353.914 Z-12.668
N5890 X146.092 Y1353.778 Z-12.629
N5900 X146.075 Y1353.648 Z-12.574
N5910 X146.059 Y1353.524 Z-12.505
N5920 X146.045 Y1353.409 Z-12.423
N5930 X146.031 Y1353.304 Z-12.328
N5940 X146.02 Y1353.209 Z-12.222
N5950 X146.009 Y1353.128 Z-12.106
N5960 X146.001 Y1353.059 Z-11.981
N5970 X145.994 Y1353.005 Z-11.849
N5980 X145.989 Y1352.966 Z-11.713
N5990 X145.986 Y1352.942 Z-11.572
N6000 X145.985 Y1352.934 Z-11.43
N6010 G0 Z15.
N6020 X145.054 Y1238.226
N6030 Z5.
N6040 G1 Z-11.43 F500.
N6050 X145.06 Y1238.231 Z-11.572 F5000.
N6060 X145.079 Y1238.246 Z-11.713
N6070 X145.11 Y1238.271 Z-11.849
N6080 X145.152 Y1238.304 Z-11.981
N6090 X145.206 Y1238.347 Z-12.106
N6100 X145.271 Y1238.399 Z-12.222
N6110 X145.345 Y1238.458 Z-12.328
N6120 X145.428 Y1238.524 Z-12.423
N6130 X145.519 Y1238.596 Z-12.505
N6140 X145.617 Y1238.673 Z-12.574
N6150 X145.72 Y1238.755 Z-12.629
N6160 X145.827 Y1238.84 Z-12.668
N6170 X145.937 Y1238.927 Z-12.692
N6180 X146.049 Y1239.016 Z-12.7
N6190 X146.154 Y1239.1
N6200 G2 X153.039 Y1242.672 R20.288
N6210 G3 X153.158 Y1242.89 R0.175
N6220 X153.114 Y1242.964 R0.175
N6230 G1 X146.277 Y1249.737
N6240 X146.215 Y1249.799
N6250 X146.154 Y1249.861
N6260 G2 X145.972 Y1250.265 R0.635
N6270 G1 X144.886 Y1266.491
N6280 G2 X145.477 Y1267.167 R0.635
N6290 X146.151 Y1266.599 R0.635
N6300 G3 X151.63 Y1255.09 R19.05
N6310 G1 X225.475 Y1181.245
N6320 X222.107 Y1177.875
N6330 X167.73 Y1232.25
N6340 G3 X149.77 R12.7
N6350 X146.15 Y1224.864 R12.7
N6360 G1 X146.144 Y1224.814
N6370 X146.126 Y1224.673 Z-12.692
N6380 X146.109 Y1224.534 Z-12.668
N6390 X146.092 Y1224.398 Z-12.629
N6400 X146.075 Y1224.268 Z-12.574
N6410 X146.059 Y1224.144 Z-12.505
N6420 X146.045 Y1224.029 Z-12.423
N6430 X146.031 Y1223.924 Z-12.328
N6440 X146.02 Y1223.829 Z-12.222
N6450 X146.009 Y1223.748 Z-12.106
N6460 X146.001 Y1223.679 Z-11.981
N6470 X145.994 Y1223.625 Z-11.849
N6480 X145.989 Y1223.586 Z-11.713
N6490 X145.986 Y1223.562 Z-11.572
N6500 X145.985 Y1223.554 Z-11.43
N6510 G0 Z15.
N6520 X145.054 Y1108.846
N6530 Z5.
N6540 G1 Z-11.43 F500.
N6550 X145.06 Y1108.851 Z-11.572 F5000.
N6560 X145.079 Y1108.866 Z-11.713
N6570 X145.11 Y1108.891 Z-11.849
N6580 X145.152 Y1108.924 Z-11.981
N6590 X145.206 Y1108.967 Z-12.106
N6600 X145.271 Y1109.019 Z-12.222
N6610 X145.345 Y1109.078 Z-12.328
N6620 X145.428 Y1109.144 Z-12.423
N6630 X145.519 Y1109.216 Z-12.505
N6640 X145.617 Y1109.293 Z-12.574
N6650 X145.72 Y1109.375 Z-12.629
N6660 X145.827 Y1109.46 Z-12.668
N6670 X145.937 Y1109.547 Z-12.692
N6680 X146.049 Y1109.636 Z-12.7
N6690 X146.154 Y1109.72
N6700 G2 X153.039 Y1113.292 R20.288
N6710 G3 X153.158 Y1113.51 R0.175
N6720 X153.114 Y1113.584 R0.175
N6730 G1 X146.277 Y1120.357
N6740 X146.215 Y1120.419
N6750 X146.154 Y1120.481
N6760 G2 X145.972 Y1120.885 R0.635
N6770 G1 X144.886 Y1137.111
N6780 G2 X145.477 Y1137.787 R0.635
N6790 X146.151 Y1137.219 R0.635
N6800 G3 X151.63 Y1125.71 R19.05
N6810 G1 X225.475 Y1051.865
N6820 X222.107 Y1048.495
N6830 X167.73 Y1102.87
N6840 G3 X149.77 R12.7
N6850 X146.15 Y1095.484 R12.7
N6860 G1 X146.144 Y1095.434
N6870 X146.126 Y1095.293 Z-12.692
N6880 X146.109 Y1095.154 Z-12.668
N6890 X146.092 Y1095.018 Z-12.629
N6900 X146.075 Y1094.888 Z-12.574
N6910 X146.059 Y1094.764 Z-12.505
N6920 X146.045 Y1094.649 Z-12.423
N6930 X146.031 Y1094.544 Z-12.328
N6940 X146.02 Y1094.449 Z-12.222
N6950 X146.009 Y1094.368 Z-12.106
N6960 X146.001 Y1094.299 Z-11.981
N6970 X145.994 Y1094.245 Z-11.849
N6980 X145.989 Y1094.206 Z-11.713
N6990 X145.986 Y1094.182 Z-11.572
N7000 X145.985 Y1094.175 Z-11.43
N7010 G0 Z15.
N7020 X145.054 Y979.466
N7030 Z5.
N7040 G1 Z-11.43 F500.
N7050 X145.06 Y979.471 Z-11.572 F5000.
N7060 X145.079 Y979.486 Z-11.713
N7070 X145.11 Y979.51 Z-11.849
N7080 X145.153 Y979.544 Z-11.981
N7090 X145.207 Y979.587 Z-12.106
N7100 X145.271 Y979.638 Z-12.222
N7110 X145.345 Y979.697 Z-12.328
N7120 X145.429 Y979.763 Z-12.423
N7130 X145.52 Y979.835 Z-12.505
N7140 X145.617 Y979.913 Z-12.574
N7150 X145.72 Y979.995 Z-12.629
N7160 X145.827 Y980.08 Z-12.668
N7170 X145.937 Y980.167 Z-12.692
N7180 X146.049 Y980.255 Z-12.7
N7190 X146.154 Y980.339
N7200 G2 X153.04 Y983.911 R20.288
N7210 G3 X153.158 Y984.129 R0.175
N7220 X153.114 Y984.203 R0.175
N7230 G1 X146.277 Y990.977
N7240 X146.215 Y991.039
N7250 X146.153 Y991.102
N7260 G2 X145.972 Y991.505 R0.635
N7270 G1 X144.886 Y1007.731
N7280 G2 X145.477 Y1008.407 R0.635
N7290 X146.151 Y1007.839 R0.635
N7300 G3 X151.63 Y996.33 R19.05
N7310 G1 X225.475 Y922.481
N7320 X222.107 Y919.113
N7330 X167.73 Y973.49
N7340 G3 X149.769 Y973.489 R12.7
N7350 X146.15 Y966.102 R12.7
N7360 G1 X146.144 Y966.053
N7370 X146.126 Y965.912 Z-12.692
N7380 X146.109 Y965.772 Z-12.668
N7390 X146.091 Y965.637 Z-12.629
N7400 X146.075 Y965.506 Z-12.574
N7410 X146.059 Y965.383 Z-12.505
N7420 X146.045 Y965.267 Z-12.423
N7430 X146.031 Y965.162 Z-12.328
N7440 X146.02 Y965.068 Z-12.222
N7450 X146.009 Y964.986 Z-12.106
N7460 X146.001 Y964.918 Z-11.981
N7470 X145.994 Y964.864 Z-11.849
N7480 X145.989 Y964.824 Z-11.713
N7490 X145.986 Y964.801 Z-11.572
N7500 X145.985 Y964.793 Z-11.43
N7510 G0 Z15.
N7520 X145.054 Y850.086
N7530 Z5.
N7540 G1 Z-11.43 F500.
N7550 X145.061 Y850.091 Z-11.572 F5000.
N7560 X145.079 Y850.106 Z-11.713
N7570 X145.11 Y850.13 Z-11.849
N7580 X145.153 Y850.164 Z-11.981
N7590 X145.207 Y850.207 Z-12.106
N7600 X145.272 Y850.258 Z-12.222
N7610 X145.346 Y850.317 Z-12.328
N7620 X145.429 Y850.383 Z-12.423
N7630 X145.52 Y850.455 Z-12.505
N7640 X145.618 Y850.533 Z-12.574
N7650 X145.721 Y850.615 Z-12.629
N7660 X145.828 Y850.7 Z-12.668
N7670 X145.938 Y850.787 Z-12.692
N7680 X146.049 Y850.875 Z-12.7
N7690 X146.155 Y850.959
N7700 G2 X153.04 Y854.531 R20.287
N7710 G3 X153.157 Y854.744 R0.172
N7720 X153.113 Y854.817 R0.172
N7730 G1 X146.277 Y861.591
N7740 X146.215 Y861.653
N7750 X146.153 Y861.716
N7760 G2 X145.972 Y862.119 R0.635
N7770 G1 X144.886 Y878.346
N7780 G2 X145.477 Y879.022 R0.635
N7790 X146.151 Y878.454 R0.635
N7800 G3 X151.63 Y866.944 R19.05
N7810 G1 X225.475 Y793.099
N7820 X222.107 Y789.731
N7830 X167.73 Y844.108
N7840 G3 X149.77 R12.7
N7850 X146.15 Y836.722 R12.7
N7860 G1 X146.144 Y836.673
N7870 X146.126 Y836.531 Z-12.692
N7880 X146.109 Y836.392 Z-12.668
N7890 X146.092 Y836.256 Z-12.629
N7900 X146.075 Y836.126 Z-12.574
N7910 X146.059 Y836.002 Z-12.505
N7920 X146.045 Y835.887 Z-12.423
N7930 X146.031 Y835.782 Z-12.328
N7940 X146.02 Y835.687 Z-12.222
N7950 X146.009 Y835.606 Z-12.106
N7960 X146.001 Y835.537 Z-11.981
N7970 X145.994 Y835.483 Z-11.849
N7980 X145.989 Y835.444 Z-11.713
N7990 X145.986 Y835.42 Z-11.572
N8000 X145.985 Y835.413 Z-11.43
N8010 G0 Z15.
N8020 X145.054 Y720.705
N8030 Z5.
N8040 G1 Z-11.43 F500.
N8050 X145.061 Y720.71 Z-11.572 F5000.
N8060 X145.079 Y720.725 Z-11.713
N8070 X145.11 Y720.749 Z-11.849
N8080 X145.153 Y720.783 Z-11.981
N8090 X145.207 Y720.826 Z-12.106
N8100 X145.272 Y720.877 Z-12.222
N8110 X145.346 Y720.936 Z-12.328
N8120 X145.429 Y721.002 Z-12.423
N8130 X145.52 Y721.074 Z-12.505
N8140 X145.618 Y721.152 Z-12.574
N8150 X145.721 Y721.234 Z-12.629
N8160 X145.828 Y721.319 Z-12.668
N8170 X145.938 Y721.406 Z-12.692
N8180 X146.049 Y721.494 Z-12.7
N8190 X146.155 Y721.578
N8200 G2 X153.04 Y725.15 R20.287
N8210 G3 X153.157 Y725.363 R0.172
N8220 X153.113 Y725.436 R0.172
N8230 G1 X146.277 Y732.21
N8240 X146.215 Y732.272
N8250 X146.154 Y732.334
N8260 G2 X145.972 Y732.738 R0.635
N8270 G1 X144.886 Y748.964
N8280 G2 X145.477 Y749.64 R0.635
N8290 X146.151 Y749.072 R0.635
N8300 G3 X151.63 Y737.563 R19.05
N8310 G1 X225.475 Y663.718
N8320 X222.107 Y660.35
N8330 X167.73 Y714.727
N8340 G3 X149.77 R12.7
N8350 X146.15 Y707.341 R12.7
N8360 G1 X146.144 Y707.292
N8370 X146.126 Y707.15 Z-12.692
N8380 X146.109 Y707.011 Z-12.668
N8390 X146.092 Y706.875 Z-12.629
N8400 X146.075 Y706.745 Z-12.574
N8410 X146.059 Y706.621 Z-12.505
N8420 X146.045 Y706.506 Z-12.423
N8430 X146.031 Y706.401 Z-12.328
N8440 X146.02 Y706.306 Z-12.222
N8450 X146.009 Y706.225 Z-12.106
N8460 X146.001 Y706.156 Z-11.981
N8470 X145.994 Y706.102 Z-11.849
N8480 X145.989 Y706.063 Z-11.713
N8490 X145.986 Y706.039 Z-11.572
N8500 X145.985 Y706.032 Z-11.43
N8510 G0 Z15.
N8520 X145.054 Y591.324
N8530 Z5.
N8540 G1 Z-11.43 F500.
N8550 X145.061 Y591.329 Z-11.572 F5000.
N8560 X145.079 Y591.344 Z-11.713
N8570 X145.11 Y591.368 Z-11.849
N8580 X145.153 Y591.402 Z-11.981
N8590 X145.207 Y591.445 Z-12.106
N8600 X145.272 Y591.496 Z-12.222
N8610 X145.346 Y591.555 Z-12.328
N8620 X145.429 Y591.621 Z-12.423
N8630 X145.52 Y591.693 Z-12.505
N8640 X145.618 Y591.771 Z-12.574
N8650 X145.721 Y591.853 Z-12.629
N8660 X145.828 Y591.938 Z-12.668
N8670 X145.938 Y592.025 Z-12.692
N8680 X146.049 Y592.113 Z-12.7
N8690 X146.155 Y592.197
N8700 G2 X153.04 Y595.769 R20.287
N8710 G3 X153.157 Y595.982 R0.172
N8720 X153.113 Y596.055 R0.172
N8730 G1 X146.277 Y602.829
N8740 X146.215 Y602.891
N8750 X146.154 Y602.953
N8760 G2 X145.972 Y603.357 R0.635
N8770 G1 X144.886 Y619.583
N8780 G2 X145.477 Y620.259 R0.635
N8790 X146.151 Y619.691 R0.635
N8800 G3 X151.63 Y608.182 R19.05
N8810 G1 X225.475 Y534.337
N8820 X222.107 Y530.969
N8830 X167.73 Y585.346
N8840 G3 X149.77 R12.7
N8850 X146.15 Y577.96 R12.7
N8860 G1 X146.144 Y577.911
N8870 X146.126 Y577.769 Z-12.692
N8880 X146.109 Y577.63 Z-12.668
N8890 X146.092 Y577.494 Z-12.629
N8900 X146.075 Y577.364 Z-12.574
N8910 X146.059 Y577.24 Z-12.505
N8920 X146.045 Y577.125 Z-12.423
N8930 X146.031 Y577.02 Z-12.328
N8940 X146.02 Y576.925 Z-12.222
N8950 X146.009 Y576.844 Z-12.106
N8960 X146.001 Y576.775 Z-11.981
N8970 X145.994 Y576.721 Z-11.849
N8980 X145.989 Y576.682 Z-11.713
N8990 X145.986 Y576.658 Z-11.572
N9000 X145.985 Y576.651 Z-11.43
N9010 G0 Z15.
N9020 X145.055 Y461.943
N9030 Z5.
N9040 G1 Z-11.43 F500.
N9050 X145.061 Y461.948 Z-11.572 F5000.
N9060 X145.08 Y461.962 Z-11.713
N9070 X145.111 Y461.987 Z-11.849
N9080 X145.153 Y462.021 Z-11.981
N9090 X145.207 Y462.064 Z-12.106
N9100 X145.272 Y462.115 Z-12.222
N9110 X145.346 Y462.174 Z-12.328
N9120 X145.429 Y462.24 Z-12.423
N9130 X145.52 Y462.312 Z-12.505
N9140 X145.618 Y462.39 Z-12.574
N9150 X145.721 Y462.471 Z-12.629
N9160 X145.828 Y462.556 Z-12.668
N9170 X145.938 Y462.644 Z-12.692
N9180 X146.05 Y462.732 Z-12.7
N9190 X146.155 Y462.816
N9200 G2 X153.041 Y466.388 R20.288
N9210 G3 X153.157 Y466.601 R0.172
N9220 X153.114 Y466.674 R0.172
N9230 G1 X146.277 Y473.448
N9240 X146.215 Y473.51
N9250 X146.154 Y473.572
N9260 G2 X145.972 Y473.976 R0.635
N9270 G1 X144.886 Y490.202
N9280 G2 X145.477 Y490.878 R0.635
N9290 X146.151 Y490.31 R0.635
N9300 G3 X151.63 Y478.801 R19.05
N9310 G1 X225.475 Y404.956
N9320 X222.107 Y401.588
N9330 X167.73 Y455.965
N9340 G3 X149.769 Y455.964 R12.7
N9350 X146.15 Y448.577 R12.7
N9360 G1 X146.144 Y448.528
N9370 X146.126 Y448.387 Z-12.692
N9380 X146.109 Y448.247 Z-12.668
N9390 X146.091 Y448.112 Z-12.629
N9400 X146.075 Y447.981 Z-12.574
N9410 X146.059 Y447.857 Z-12.505
N9420 X146.045 Y447.742 Z-12.423
N9430 X146.031 Y447.637 Z-12.328
N9440 X146.02 Y447.543 Z-12.222
N9450 X146.009 Y447.461 Z-12.106
N9460 X146.001 Y447.393 Z-11.981
N9470 X145.994 Y447.339 Z-11.849
N9480 X145.989 Y447.299 Z-11.713
N9490 X145.986 Y447.276 Z-11.572
N9500 X145.985 Y447.268 Z-11.43
N9510 G0 Z15.
N9520 X145.054 Y332.561
N9530 Z5.
N9540 G1 Z-11.43 F500.
N9550 X145.061 Y332.566 Z-11.572 F5000.
N9560 X145.079 Y332.581 Z-11.713
N9570 X145.11 Y332.605 Z-11.849
N9580 X145.153 Y332.639 Z-11.981
N9590 X145.207 Y332.682 Z-12.106
N9600 X145.272 Y332.733 Z-12.222
N9610 X145.346 Y332.792 Z-12.328
N9620 X145.429 Y332.858 Z-12.423
N9630 X145.52 Y332.93 Z-12.505
N9640 X145.618 Y333.008 Z-12.574
N9650 X145.721 Y333.09 Z-12.629
N9660 X145.828 Y333.175 Z-12.668
N9670 X145.938 Y333.262 Z-12.692
N9680 X146.049 Y333.35 Z-12.7
N9690 X146.155 Y333.434
N9700 G2 X153.04 Y337.006 R20.287
N9710 G3 X153.157 Y337.219 R0.172
N9720 X153.113 Y337.292 R0.172
N9730 G1 X146.277 Y344.066
N9740 X146.215 Y344.128
N9750 X146.153 Y344.191
N9760 G2 X145.972 Y344.594 R0.635
N9770 G1 X144.886 Y360.821
N9780 G2 X145.477 Y361.497 R0.635
N9790 X146.151 Y360.929 R0.635
N9800 G3 X151.63 Y349.419 R19.05
N9810 G1 X225.475 Y275.574
N9820 X222.107 Y272.206
N9830 X167.73 Y326.583
N9840 G3 X149.77 R12.7
N9850 X146.15 Y319.197 R12.7
N9860 G1 X146.144 Y319.148
N9870 X146.126 Y319.006 Z-12.692
N9880 X146.109 Y318.867 Z-12.668
N9890 X146.092 Y318.731 Z-12.629
N9900 X146.075 Y318.601 Z-12.574
N9910 X146.059 Y318.477 Z-12.505
N9920 X146.045 Y318.362 Z-12.423
N9930 X146.031 Y318.257 Z-12.328
N9940 X146.02 Y318.162 Z-12.222
N9950 X146.009 Y318.081 Z-12.106
N9960 X146.001 Y318.012 Z-11.981
N9970 X145.994 Y317.958 Z-11.849
N9980 X145.989 Y317.919 Z-11.713
N9990 X145.986 Y317.895 Z-11.572
N10000 X145.985 Y317.888 Z-11.43
N10010 G0 Z15.
N10020 X145.054 Y203.18
N10030 Z5.
N10040 G1 Z-11.43 F500.
N10050 X145.061 Y203.185 Z-11.572 F5000.
N10060 X145.079 Y203.2 Z-11.713
N10070 X145.11 Y203.224 Z-11.849
N10080 X145.153 Y203.258 Z-11.981
N10090 X145.207 Y203.301 Z-12.106
N10100 X145.272 Y203.352 Z-12.222
N10110 X145.346 Y203.411 Z-12.328
N10120 X145.429 Y203.477 Z-12.423
N10130 X145.52 Y203.549 Z-12.505
N10140 X145.618 Y203.627 Z-12.574
N10150 X145.721 Y203.709 Z-12.629
N10160 X145.828 Y203.794 Z-12.668
N10170 X145.938 Y203.881 Z-12.692
N10180 X146.049 Y203.969 Z-12.7
N10190 X146.155 Y204.053
N10200 G2 X153.04 Y207.625 R20.287
N10210 G3 X153.157 Y207.838 R0.172
N10220 X153.113 Y207.911 R0.172
N10230 G1 X146.277 Y214.685
N10240 X146.215 Y214.747
N10250 X146.154 Y214.809
N10260 G2 X145.972 Y215.213 R0.635
N10270 G1 X144.886 Y231.439
N10280 G2 X145.477 Y232.115 R0.635
N10290 X146.151 Y231.547 R0.635
N10300 G3 X151.63 Y220.038 R19.05
N10310 G1 X225.475 Y146.193
N10320 X222.107 Y142.825
N10330 X167.73 Y197.202
N10340 G3 X149.77 R12.7
N10350 X146.15 Y189.816 R12.7
N10360 G1 X146.144 Y189.767
N10370 X146.126 Y189.625 Z-12.692
N10380 X146.109 Y189.486 Z-12.668
N10390 X146.092 Y189.35 Z-12.629
N10400 X146.075 Y189.22 Z-12.574
N10410 X146.059 Y189.096 Z-12.505
N10420 X146.045 Y188.981 Z-12.423
N10430 X146.031 Y188.876 Z-12.328
N10440 X146.02 Y188.781 Z-12.222
N10450 X146.009 Y188.7 Z-12.106
N10460 X146.001 Y188.631 Z-11.981
N10470 X145.994 Y188.577 Z-11.849
N10480 X145.989 Y188.538 Z-11.713
N10490 X145.986 Y188.514 Z-11.572
N10500 X145.985 Y188.507 Z-11.43
N10510 G0 Z15.
N10520 X194.665 Y-7.568
N10530 Z5.
N10540 G1 Z-11.24 F500.
N10550 Z-11.557 F5000.
N10560 X194.664 Y-7.561 Z-11.685
N10570 X194.66 Y-7.54 Z-11.811
N10580 X194.655 Y-7.505 Z-11.935
N10590 X194.647 Y-7.456 Z-12.053
N10600 X194.637 Y-7.395 Z-12.165
N10610 X194.626 Y-7.322 Z-12.27
N10620 X194.612 Y-7.238 Z-12.365
N10630 X194.597 Y-7.143 Z-12.451
N10640 X194.581 Y-7.04 Z-12.525
N10650 X194.563 Y-6.929 Z-12.587
N10660 X194.545 Y-6.812 Z-12.636
N10670 X194.526 Y-6.691 Z-12.671
N10680 X194.506 Y-6.566 Z-12.693
N10690 X194.486 Y-6.439 Z-12.7
N10700 X194.485 Y-6.432
N10710 X194.473 Y-6.333
N10720 X194.469 Y-6.233
N10730 Y114.3
N10740 X199.231
N10750 Y-6.244
N10760 X199.227 Y-6.344
N10770 X199.215 Y-6.443
N10780 X199.208 Y-6.492
N10790 X199.185 Y-6.632 Z-12.692
N10800 X199.163 Y-6.771 Z-12.668
N10810 X199.142 Y-6.906 Z-12.629
N10820 X199.121 Y-7.036 Z-12.574
N10830 X199.102 Y-7.159 Z-12.505
N10840 X199.084 Y-7.274 Z-12.423
N10850 X199.067 Y-7.379 Z-12.328
N10860 X199.052 Y-7.472 Z-12.222
N10870 X199.039 Y-7.554 Z-12.106
N10880 X199.029 Y-7.622 Z-11.981
N10890 X199.02 Y-7.676 Z-11.849
N10900 X199.014 Y-7.714 Z-11.713
N10910 X199.01 Y-7.738 Z-11.572
N10920 X199.009 Y-7.746 Z-11.43
N10930 G0 Z15.
N10940 X410.565 Y-7.568
N10950 Z5.
N10960 G1 Z-11.24 F500.
N10970 Z-11.557 F5000.
N10980 X410.564 Y-7.561 Z-11.685
N10990 X410.56 Y-7.54 Z-11.811
N11000 X410.555 Y-7.505 Z-11.935
N11010 X410.547 Y-7.456 Z-12.053
N11020 X410.537 Y-7.395 Z-12.165
N11030 X410.526 Y-7.322 Z-12.27
N11040 X410.512 Y-7.238 Z-12.365
N11050 X410.497 Y-7.143 Z-12.451
N11060 X410.481 Y-7.04 Z-12.525
N11070 X410.463 Y-6.929 Z-12.587
N11080 X410.445 Y-6.812 Z-12.636
N11090 X410.426 Y-6.691 Z-12.671
N11100 X410.406 Y-6.566 Z-12.693
N11110 X410.386 Y-6.439 Z-12.7
N11120 X410.385 Y-6.432
N11130 X410.373 Y-6.333
N11140 X410.369 Y-6.233
N11150 Y114.3
N11160 X415.131
N11170 Y-6.244
N11180 X415.127 Y-6.344
N11190 X415.115 Y-6.443
N11200 X415.108 Y-6.492
N11210 X415.085 Y-6.632 Z-12.692
N11220 X415.063 Y-6.771 Z-12.668
N11230 X415.042 Y-6.906 Z-12.629
N11240 X415.021 Y-7.036 Z-12.574
N11250 X415.002 Y-7.159 Z-12.505
N11260 X414.984 Y-7.274 Z-12.423
N11270 X414.967 Y-7.379 Z-12.328
N11280 X414.952 Y-7.472 Z-12.222
N11290 X414.939 Y-7.554 Z-12.106
N11300 X414.929 Y-7.622 Z-11.981
N11310 X414.92 Y-7.676 Z-11.849
N11320 X414.914 Y-7.714 Z-11.713
N11330 X414.91 Y-7.738 Z-11.572
N11340 X414.909 Y-7.746 Z-11.43
N11350 G0 Z15.
N11360 X464.548 Y203.203
N11370 Z5.
N11380 G1 Z-11.43 F500.
N11390 X464.541 Y203.207 Z-11.572 F5000.
N11400 X464.523 Y203.222 Z-11.713
N11410 X464.492 Y203.247 Z-11.849
N11420 X464.449 Y203.281 Z-11.981
N11430 X464.395 Y203.323 Z-12.106
N11440 X464.33 Y203.374 Z-12.222
N11450 X464.256 Y203.433 Z-12.328
N11460 X464.172 Y203.499 Z-12.423
N11470 X464.081 Y203.571 Z-12.505
N11480 X463.984 Y203.648 Z-12.574
N11490 X463.88 Y203.73 Z-12.629
N11500 X463.773 Y203.815 Z-12.668
N11510 X463.663 Y203.902 Z-12.692
N11520 X463.551 Y203.99 Z-12.7
N11530 X463.446 Y204.074
N11540 G3 X456.56 Y207.625 R20.209
N11550 G2 X456.443 Y207.838 R0.172
N11560 X456.487 Y207.911 R0.172
N11570 G1 X463.323 Y214.685
N11580 X463.385 Y214.747
N11590 X463.446 Y214.809
N11600 G3 X463.628 Y215.213 R0.635
N11610 G1 X464.714 Y231.438
N11620 G3 X464.123 Y232.114 R0.635
N11630 X463.449 Y231.546 R0.635
N11640 G2 X457.97 Y220.038 R19.05
N11650 G1 X384.125 Y146.193
N11660 X387.493 Y142.825
N11670 X441.87 Y197.202
N11680 G2 X459.83 R12.7
N11690 X463.45 Y189.814 R12.7
N11700 G1 X463.456 Y189.765
N11710 X463.474 Y189.624 Z-12.692
N11720 X463.491 Y189.484 Z-12.668
N11730 X463.509 Y189.348 Z-12.629
N11740 X463.525 Y189.218 Z-12.574
N11750 X463.541 Y189.094 Z-12.505
N11760 X463.555 Y188.979 Z-12.423
N11770 X463.569 Y188.874 Z-12.328
N11780 X463.581 Y188.78 Z-12.222
N11790 X463.591 Y188.698 Z-12.106
N11800 X463.599 Y188.629 Z-11.981
N11810 X463.606 Y188.575 Z-11.849
N11820 X463.611 Y188.536 Z-11.713
N11830 X463.614 Y188.513 Z-11.572
N11840 X463.615 Y188.505 Z-11.43
N11850 G0 Z15.
N11860 X464.548 Y332.584
N11870 Z5.
N11880 G1 Z-11.43 F500.
N11890 X464.541 Y332.588 Z-11.572 F5000.
N11900 X464.523 Y332.603 Z-11.713
N11910 X464.492 Y332.628 Z-11.849
N11920 X464.449 Y332.662 Z-11.981
N11930 X464.395 Y332.704 Z-12.106
N11940 X464.33 Y332.755 Z-12.222
N11950 X464.256 Y332.814 Z-12.328
N11960 X464.172 Y332.88 Z-12.423
N11970 X464.081 Y332.952 Z-12.505
N11980 X463.984 Y333.029 Z-12.574
N11990 X463.88 Y333.111 Z-12.629
N12000 X463.773 Y333.196 Z-12.668
N12010 X463.663 Y333.283 Z-12.692
N12020 X463.551 Y333.371 Z-12.7
N12030 X463.446 Y333.455
N12040 G3 X456.56 Y337.006 R20.209
N12050 G2 X456.443 Y337.219 R0.172
N12060 X456.487 Y337.292 R0.172
N12070 G1 X463.323 Y344.066
N12080 X463.385 Y344.128
N12090 X463.446 Y344.19
N12100 G3 X463.628 Y344.594 R0.635
N12110 G1 X464.714 Y360.819
N12120 G3 X464.123 Y361.495 R0.635
N12130 X463.449 Y360.927 R0.635
N12140 G2 X457.97 Y349.419 R19.05
N12150 G1 X384.125 Y275.574
N12160 X387.493 Y272.206
N12170 X441.87 Y326.583
N12180 G2 X459.83 R12.7
N12190 X463.45 Y319.195 R12.7
N12200 G1 X463.456 Y319.146
N12210 X463.474 Y319.005 Z-12.692
N12220 X463.491 Y318.865 Z-12.668
N12230 X463.509 Y318.729 Z-12.629
N12240 X463.525 Y318.599 Z-12.574
N12250 X463.541 Y318.475 Z-12.505
N12260 X463.555 Y318.36 Z-12.423
N12270 X463.569 Y318.255 Z-12.328
N12280 X463.581 Y318.161 Z-12.222
N12290 X463.591 Y318.079 Z-12.106
N12300 X463.599 Y318.01 Z-11.981
N12310 X463.606 Y317.956 Z-11.849
N12320 X463.611 Y317.917 Z-11.713
N12330 X463.614 Y317.894 Z-11.572
N12340 X463.615 Y317.886 Z-11.43
N12350 G0 Z15.
N12360 X464.548 Y461.965
N12370 Z5.
N12380 G1 Z-11.43 F500.
N12390 X464.541 Y461.97 Z-11.572 F5000.
N12400 X464.523 Y461.984 Z-11.713
N12410 X464.492 Y462.009 Z-11.849
N12420 X464.449 Y462.043 Z-11.981
N12430 X464.395 Y462.085 Z-12.106
N12440 X464.33 Y462.137 Z-12.222
N12450 X464.256 Y462.195 Z-12.328
N12460 X464.173 Y462.261 Z-12.423
N12470 X464.081 Y462.333 Z-12.505
N12480 X463.984 Y462.411 Z-12.574
N12490 X463.88 Y462.492 Z-12.629
N12500 X463.773 Y462.577 Z-12.668
N12510 X463.663 Y462.664 Z-12.692
N12520 X463.551 Y462.752 Z-12.7
N12530 X463.446 Y462.836
N12540 G3 X456.559 Y466.388 R20.209
N12550 G2 X456.443 Y466.601 R0.172
N12560 X456.486 Y466.674 R0.172
N12570 G1 X463.323 Y473.448
N12580 X463.385 Y473.51
N12590 X463.446 Y473.572
N12600 G3 X463.628 Y473.976 R0.635
N12610 G1 X464.714 Y490.201
N12620 G3 X464.123 Y490.877 R0.635
N12630 X463.449 Y490.309 R0.635
N12640 G2 X457.97 Y478.801 R19.05
N12650 G1 X384.125 Y404.956
N12660 X387.493 Y401.588
N12670 X441.87 Y455.966
N12680 G2 X459.831 Y455.963 R12.7
N12690 X463.45 Y448.576 R12.7
N12700 G1 X463.456 Y448.527
N12710 X463.474 Y448.386 Z-12.692
N12720 X463.492 Y448.246 Z-12.668
N12730 X463.509 Y448.11 Z-12.629
N12740 X463.525 Y447.98 Z-12.574
N12750 X463.541 Y447.856 Z-12.505
N12760 X463.555 Y447.741 Z-12.423
N12770 X463.569 Y447.636 Z-12.328
N12780 X463.581 Y447.541 Z-12.222
N12790 X463.591 Y447.46 Z-12.106
N12800 X463.599 Y447.391 Z-11.981
N12810 X463.606 Y447.337 Z-11.849
N12820 X463.611 Y447.298 Z-11.713
N12830 X463.614 Y447.275 Z-11.572
N12840 X463.615 Y447.267 Z-11.43
N12850 G0 Z15.
N12860 X464.548 Y591.346
N12870 Z5.
N12880 G1 Z-11.43 F500.
N12890 X464.541 Y591.351 Z-11.572 F5000.
N12900 X464.523 Y591.366 Z-11.713
N12910 X464.492 Y591.391 Z-11.849
N12920 X464.449 Y591.425 Z-11.981
N12930 X464.395 Y591.467 Z-12.106
N12940 X464.33 Y591.518 Z-12.222
N12950 X464.256 Y591.577 Z-12.328
N12960 X464.172 Y591.643 Z-12.423
N12970 X464.081 Y591.715 Z-12.505
N12980 X463.984 Y591.792 Z-12.574
N12990 X463.88 Y591.874 Z-12.629
N13000 X463.773 Y591.959 Z-12.668
N13010 X463.663 Y592.046 Z-12.692
N13020 X463.551 Y592.134 Z-12.7
N13030 X463.446 Y592.218
N13040 G3 X456.56 Y595.769 R20.209
N13050 G2 X456.443 Y595.982 R0.172
N13060 X456.487 Y596.055 R0.172
N13070 G1 X463.323 Y602.829
N13080 X463.385 Y602.891
N13090 X463.446 Y602.953
N13100 G3 X463.628 Y603.357 R0.635
N13110 G1 X464.714 Y619.582
N13120 G3 X464.123 Y620.258 R0.635
N13130 X463.449 Y619.69 R0.635
N13140 G2 X457.97 Y608.182 R19.05
N13150 G1 X384.125 Y534.337
N13160 X387.493 Y530.969
N13170 X441.87 Y585.346
N13180 G2 X459.83 R12.7
N13190 X463.45 Y577.958 R12.7
N13200 G1 X463.456 Y577.909
N13210 X463.474 Y577.768 Z-12.692
N13220 X463.491 Y577.628 Z-12.668
N13230 X463.509 Y577.492 Z-12.629
N13240 X463.525 Y577.362 Z-12.574
N13250 X463.541 Y577.238 Z-12.505
N13260 X463.555 Y577.123 Z-12.423
N13270 X463.569 Y577.018 Z-12.328
N13280 X463.581 Y576.924 Z-12.222
N13290 X463.591 Y576.842 Z-12.106
N13300 X463.599 Y576.773 Z-11.981
N13310 X463.606 Y576.719 Z-11.849
N13320 X463.611 Y576.68 Z-11.713
N13330 X463.614 Y576.657 Z-11.572
N13340 X463.615 Y576.649 Z-11.43
N13350 G0 Z15.
N13360 X464.548 Y720.728
N13370 Z5.
N13380 G1 Z-11.43 F500.
N13390 X464.541 Y720.732 Z-11.572 F5000.
N13400 X464.523 Y720.747 Z-11.713
N13410 X464.492 Y720.772 Z-11.849
N13420 X464.449 Y720.806 Z-11.981
N13430 X464.395 Y720.848 Z-12.106
N13440 X464.33 Y720.899 Z-12.222
N13450 X464.256 Y720.958 Z-12.328
N13460 X464.172 Y721.024 Z-12.423
N13470 X464.081 Y721.096 Z-12.505
N13480 X463.984 Y721.173 Z-12.574
N13490 X463.88 Y721.255 Z-12.629
N13500 X463.773 Y721.34 Z-12.668
N13510 X463.663 Y721.427 Z-12.692
N13520 X463.551 Y721.515 Z-12.7
N13530 X463.446 Y721.599
N13540 G3 X456.56 Y725.15 R20.209
N13550 G2 X456.443 Y725.363 R0.172
N13560 X456.487 Y725.436 R0.172
N13570 G1 X463.323 Y732.21
N13580 X463.385 Y732.272
N13590 X463.446 Y732.334
N13600 G3 X463.628 Y732.738 R0.635
N13610 G1 X464.714 Y748.963
N13620 G3 X464.123 Y749.639 R0.635
N13630 X463.449 Y749.071 R0.635
N13640 G2 X457.97 Y737.563 R19.05
N13650 G1 X384.125 Y663.718
N13660 X387.493 Y660.35
N13670 X441.87 Y714.727
N13680 G2 X459.83 R12.7
N13690 X463.45 Y707.339 R12.7
N13700 G1 X463.456 Y707.29
N13710 X463.474 Y707.149 Z-12.692
N13720 X463.491 Y707.009 Z-12.668
N13730 X463.509 Y706.873 Z-12.629
N13740 X463.525 Y706.743 Z-12.574
N13750 X463.541 Y706.619 Z-12.505
N13760 X463.555 Y706.504 Z-12.423
N13770 X463.569 Y706.399 Z-12.328
N13780 X463.581 Y706.305 Z-12.222
N13790 X463.591 Y706.223 Z-12.106
N13800 X463.599 Y706.154 Z-11.981
N13810 X463.606 Y706.1 Z-11.849
N13820 X463.611 Y706.061 Z-11.713
N13830 X463.614 Y706.038 Z-11.572
N13840 X463.615 Y706.03 Z-11.43
N13850 G0 Z15.
N13860 X464.548 Y850.109
N13870 Z5.
N13880 G1 Z-11.43 F500.
N13890 X464.541 Y850.113 Z-11.572 F5000.
N13900 X464.523 Y850.128 Z-11.713
N13910 X464.492 Y850.153 Z-11.849
N13920 X464.449 Y850.187 Z-11.981
N13930 X464.395 Y850.229 Z-12.106
N13940 X464.33 Y850.28 Z-12.222
N13950 X464.256 Y850.339 Z-12.328
N13960 X464.172 Y850.405 Z-12.423
N13970 X464.081 Y850.477 Z-12.505
N13980 X463.984 Y850.554 Z-12.574
N13990 X463.88 Y850.636 Z-12.629
N14000 X463.773 Y850.721 Z-12.668
N14010 X463.663 Y850.808 Z-12.692
N14020 X463.551 Y850.896 Z-12.7
N14030 X463.446 Y850.98
N14040 G3 X456.56 Y854.531 R20.209
N14050 G2 X456.443 Y854.744 R0.172
N14060 X456.487 Y854.817 R0.172
N14070 G1 X463.323 Y861.591
N14080 X463.385 Y861.653
N14090 X463.446 Y861.715
N14100 G3 X463.628 Y862.119 R0.635
N14110 G1 X464.714 Y878.344
N14120 G3 X464.123 Y879.02 R0.635
N14130 X463.449 Y878.452 R0.635
N14140 G2 X457.97 Y866.944 R19.05
N14150 G1 X384.125 Y793.099
N14160 X387.493 Y789.731
N14170 X441.87 Y844.108
N14180 G2 X459.83 R12.7
N14190 X463.45 Y836.72 R12.7
N14200 G1 X463.456 Y836.671
N14210 X463.474 Y836.53 Z-12.692
N14220 X463.491 Y836.39 Z-12.668
N14230 X463.509 Y836.255 Z-12.629
N14240 X463.525 Y836.124 Z-12.574
N14250 X463.541 Y836. Z-12.505
N14260 X463.555 Y835.885 Z-12.423
N14270 X463.569 Y835.78 Z-12.328
N14280 X463.581 Y835.686 Z-12.222
N14290 X463.591 Y835.604 Z-12.106
N14300 X463.599 Y835.535 Z-11.981
N14310 X463.606 Y835.481 Z-11.849
N14320 X463.611 Y835.442 Z-11.713
N14330 X463.614 Y835.419 Z-11.572
N14340 X463.615 Y835.411 Z-11.43
N14350 G0 Z15.
N14360 X464.547 Y979.49
N14370 Z5.
N14380 G1 Z-11.43 F500.
N14390 X464.541 Y979.494 Z-11.572 F5000.
N14400 X464.522 Y979.509 Z-11.713
N14410 X464.491 Y979.534 Z-11.849
N14420 X464.449 Y979.568 Z-11.981
N14430 X464.395 Y979.61 Z-12.106
N14440 X464.33 Y979.661 Z-12.222
N14450 X464.255 Y979.72 Z-12.328
N14460 X464.172 Y979.786 Z-12.423
N14470 X464.081 Y979.858 Z-12.505
N14480 X463.983 Y979.935 Z-12.574
N14490 X463.88 Y980.017 Z-12.629
N14500 X463.773 Y980.102 Z-12.668
N14510 X463.663 Y980.189 Z-12.692
N14520 X463.551 Y980.277 Z-12.7
N14530 X463.445 Y980.361
N14540 G3 X456.56 Y983.911 R20.208
N14550 G2 X456.442 Y984.129 R0.175
N14560 X456.486 Y984.203 R0.175
N14570 G1 X463.323 Y990.977
N14580 X463.385 Y991.039
N14590 X463.447 Y991.102
N14600 G3 X463.628 Y991.505 R0.635
N14610 G1 X464.714 Y1007.73
N14620 G3 X464.123 Y1008.406 R0.635
N14630 X463.449 Y1007.838 R0.635
N14640 G2 X457.97 Y996.33 R19.05
N14650 G1 X384.125 Y922.481
N14660 X387.493 Y919.113
N14670 X441.87 Y973.491
N14680 G2 X459.831 Y973.488 R12.7
N14690 X463.45 Y966.101 R12.7
N14700 G1 X463.456 Y966.052
N14710 X463.474 Y965.911 Z-12.692
N14720 X463.492 Y965.771 Z-12.668
N14730 X463.509 Y965.635 Z-12.629
N14740 X463.525 Y965.505 Z-12.574
N14750 X463.541 Y965.381 Z-12.505
N14760 X463.555 Y965.266 Z-12.423
N14770 X463.569 Y965.161 Z-12.328
N14780 X463.581 Y965.066 Z-12.222
N14790 X463.591 Y964.985 Z-12.106
N14800 X463.599 Y964.916 Z-11.981
N14810 X463.606 Y964.862 Z-11.849
N14820 X463.611 Y964.823 Z-11.713
N14830 X463.614 Y964.8 Z-11.572
N14840 X463.615 Y964.792 Z-11.43
N14850 G0 Z15.
N14860 X464.547 Y1108.87
N14870 Z5.
N14880 G1 Z-11.43 F500.
N14890 X464.541 Y1108.875 Z-11.572 F5000.
N14900 X464.522 Y1108.89 Z-11.713
N14910 X464.491 Y1108.915 Z-11.849
N14920 X464.449 Y1108.948 Z-11.981
N14930 X464.394 Y1108.991 Z-12.106
N14940 X464.33 Y1109.042 Z-12.222
N14950 X464.255 Y1109.101 Z-12.328
N14960 X464.172 Y1109.167 Z-12.423
N14970 X464.081 Y1109.239 Z-12.505
N14980 X463.983 Y1109.316 Z-12.574
N14990 X463.88 Y1109.398 Z-12.629
N15000 X463.773 Y1109.483 Z-12.668
N15010 X463.662 Y1109.57 Z-12.692
N15020 X463.551 Y1109.658 Z-12.7
N15030 X463.545 Y1109.663
N15040 X463.445 Y1109.742
N15050 G3 X456.561 Y1113.292 R20.207
N15060 G2 X456.442 Y1113.51 R0.175
N15070 X456.486 Y1113.584 R0.175
N15080 G1 X463.323 Y1120.357
N15090 X463.385 Y1120.419
N15100 X463.446 Y1120.481
N15110 G3 X463.628 Y1120.885 R0.635
N15120 G1 X464.714 Y1137.11
N15130 G3 X464.123 Y1137.786 R0.635
N15140 X463.449 Y1137.218 R0.635
N15150 G2 X457.97 Y1125.71 R19.05
N15160 G1 X384.125 Y1051.865
N15170 X387.493 Y1048.495
N15180 X441.87 Y1102.87
N15190 G2 X459.83 R12.7
N15200 X463.45 Y1095.482 R12.7
N15210 G1 X463.456 Y1095.433
N15220 X463.474 Y1095.292 Z-12.692
N15230 X463.491 Y1095.152 Z-12.668
N15240 X463.509 Y1095.016 Z-12.629
N15250 X463.525 Y1094.886 Z-12.574
N15260 X463.541 Y1094.762 Z-12.505
N15270 X463.555 Y1094.647 Z-12.423
N15280 X463.569 Y1094.542 Z-12.328
N15290 X463.581 Y1094.448 Z-12.222
N15300 X463.591 Y1094.366 Z-12.106
N15310 X463.599 Y1094.297 Z-11.981
N15320 X463.606 Y1094.243 Z-11.849
N15330 X463.611 Y1094.204 Z-11.713
N15340 X463.614 Y1094.181 Z-11.572
N15350 X463.615 Y1094.173 Z-11.43
N15360 G0 Z15.
N15370 X464.547 Y1238.25
N15380 Z5.
N15390 G1 Z-11.43 F500.
N15400 X464.541 Y1238.255 Z-11.572 F5000.
N15410 X464.522 Y1238.27 Z-11.713
N15420 X464.491 Y1238.294 Z-11.849
N15430 X464.449 Y1238.328 Z-11.981
N15440 X464.394 Y1238.371 Z-12.106
N15450 X464.33 Y1238.422 Z-12.222
N15460 X464.255 Y1238.481 Z-12.328
N15470 X464.172 Y1238.547 Z-12.423
N15480 X464.081 Y1238.619 Z-12.505
N15490 X463.983 Y1238.696 Z-12.574
N15500 X463.88 Y1238.778 Z-12.629
N15510 X463.773 Y1238.863 Z-12.668
N15520 X463.662 Y1238.95 Z-12.692
N15530 X463.551 Y1239.038 Z-12.7
N15540 X463.545 Y1239.043
N15550 X463.445 Y1239.122
N15560 G3 X456.561 Y1242.672 R20.207
N15570 G2 X456.442 Y1242.89 R0.175
N15580 X456.486 Y1242.964 R0.175
N15590 G1 X463.323 Y1249.737
N15600 X463.385 Y1249.799
N15610 X463.446 Y1249.861
N15620 G3 X463.628 Y1250.265 R0.635
N15630 G1 X464.714 Y1266.49
N15640 G3 X464.123 Y1267.166 R0.635
N15650 X463.449 Y1266.598 R0.635
N15660 G2 X457.97 Y1255.09 R19.05
N15670 G1 X384.125 Y1181.245
N15680 X387.493 Y1177.875
N15690 X441.87 Y1232.25
N15700 G2 X459.83 R12.7
N15710 X463.45 Y1224.862 R12.7
N15720 G1 X463.456 Y1224.813
N15730 X463.474 Y1224.672 Z-12.692
N15740 X463.491 Y1224.532 Z-12.668
N15750 X463.509 Y1224.396 Z-12.629
N15760 X463.525 Y1224.266 Z-12.574
N15770 X463.541 Y1224.142 Z-12.505
N15780 X463.555 Y1224.027 Z-12.423
N15790 X463.569 Y1223.922 Z-12.328
N15800 X463.581 Y1223.828 Z-12.222
N15810 X463.591 Y1223.746 Z-12.106
N15820 X463.599 Y1223.677 Z-11.981
N15830 X463.606 Y1223.623 Z-11.849
N15840 X463.611 Y1223.584 Z-11.713
N15850 X463.614 Y1223.561 Z-11.572
N15860 X463.615 Y1223.553 Z-11.43
N15870 G0 Z15.
N15880 X464.547 Y1367.63
N15890 Z5.
N15900 G1 Z-11.43 F500.
N15910 X464.541 Y1367.635 Z-11.572 F5000.
N15920 X464.522 Y1367.65 Z-11.713
N15930 X464.491 Y1367.674 Z-11.849
N15940 X464.449 Y1367.708 Z-11.981
N15950 X464.394 Y1367.751 Z-12.106
N15960 X464.33 Y1367.802 Z-12.222
N15970 X464.255 Y1367.861 Z-12.328
N15980 X464.172 Y1367.927 Z-12.423
N15990 X464.081 Y1367.999 Z-12.505
N16000 X463.983 Y1368.076 Z-12.574
N16010 X463.88 Y1368.158 Z-12.629
N16020 X463.773 Y1368.243 Z-12.668
N16030 X463.662 Y1368.33 Z-12.692
N16040 X463.551 Y1368.418 Z-12.7
N16050 X463.545 Y1368.423
N16060 X463.445 Y1368.502
N16070 G3 X456.561 Y1372.052 R20.207
N16080 G2 X456.442 Y1372.27 R0.175
N16090 X456.486 Y1372.344 R0.175
N16100 G1 X463.323 Y1379.117
N16110 X463.385 Y1379.179
N16120 X463.446 Y1379.241
N16130 G3 X463.628 Y1379.645 R0.635
N16140 G1 X464.714 Y1395.87
N16150 G3 X464.123 Y1396.546 R0.635
N16160 X463.449 Y1395.978 R0.635
N16170 G2 X457.97 Y1384.47 R19.05
N16180 G1 X384.125 Y1310.625
N16190 X387.493 Y1307.255
N16200 X441.87 Y1361.63
N16210 G2 X459.83 R12.7
N16220 X463.45 Y1354.242 R12.7
N16230 G1 X463.456 Y1354.193
N16240 X463.474 Y1354.052 Z-12.692
N16250 X463.491 Y1353.912 Z-12.668
N16260 X463.509 Y1353.776 Z-12.629
N16270 X463.525 Y1353.646 Z-12.574
N16280 X463.541 Y1353.522 Z-12.505
N16290 X463.555 Y1353.407 Z-12.423
N16300 X463.569 Y1353.302 Z-12.328
N16310 X463.581 Y1353.208 Z-12.222
N16320 X463.591 Y1353.126 Z-12.106
N16330 X463.599 Y1353.057 Z-11.981
N16340 X463.606 Y1353.003 Z-11.849
N16350 X463.611 Y1352.964 Z-11.713
N16360 X463.614 Y1352.941 Z-11.572
N16370 X463.615 Y1352.933 Z-11.43
N16380 G0 Z15.
N16390 X616.947 Y1367.63
N16400 Z5.
N16410 G1 Z-11.43 F500.
N16420 X616.941 Y1367.635 Z-11.572 F5000.
N16430 X616.922 Y1367.65 Z-11.713
N16440 X616.891 Y1367.674 Z-11.849
N16450 X616.848 Y1367.708 Z-11.981
N16460 X616.794 Y1367.751 Z-12.106
N16470 X616.73 Y1367.802 Z-12.222
N16480 X616.655 Y1367.861 Z-12.328
N16490 X616.572 Y1367.927 Z-12.423
N16500 X616.481 Y1367.999 Z-12.505
N16510 X616.383 Y1368.076 Z-12.574
N16520 X616.28 Y1368.158 Z-12.629
N16530 X616.173 Y1368.243 Z-12.668
N16540 X616.062 Y1368.33 Z-12.692
N16550 X615.951 Y1368.418 Z-12.7
N16560 X615.845 Y1368.502
N16570 G3 X608.961 Y1372.052 R20.207
N16580 G2 X608.842 Y1372.27 R0.175
N16590 X608.886 Y1372.344 R0.175
N16600 G1 X615.723 Y1379.117
N16610 X615.785 Y1379.179
N16620 X615.846 Y1379.241
N16630 G3 X616.028 Y1379.645 R0.635
N16640 G1 X617.114 Y1395.87
N16650 G3 X616.523 Y1396.546 R0.635
N16660 X615.849 Y1395.978 R0.635
N16670 G2 X610.37 Y1384.47 R19.05
N16680 G1 X536.525 Y1310.625
N16690 X539.893 Y1307.255
N16700 X594.27 Y1361.63
N16710 G2 X612.23 R12.7
N16720 X615.85 Y1354.242 R12.7
N16730 G1 X615.856 Y1354.193
N16740 X615.874 Y1354.052 Z-12.692
N16750 X615.892 Y1353.912 Z-12.668
N16760 X615.909 Y1353.776 Z-12.629
N16770 X615.925 Y1353.646 Z-12.574
N16780 X615.941 Y1353.522 Z-12.505
N16790 X615.955 Y1353.407 Z-12.423
N16800 X615.969 Y1353.302 Z-12.328
N16810 X615.981 Y1353.208 Z-12.222
N16820 X615.991 Y1353.126 Z-12.106
N16830 X615.999 Y1353.057 Z-11.981
N16840 X616.006 Y1353.003 Z-11.849
N16850 X616.011 Y1352.964 Z-11.713
N16860 X616.014 Y1352.941 Z-11.572
N16870 X616.015 Y1352.933 Z-11.43
N16880 G0 Z15.
N16890 X616.947 Y1238.25
N16900 Z5.
N16910 G1 Z-11.43 F500.
N16920 X616.941 Y1238.255 Z-11.572 F5000.
N16930 X616.922 Y1238.27 Z-11.713
N16940 X616.891 Y1238.294 Z-11.849
N16950 X616.848 Y1238.328 Z-11.981
N16960 X616.794 Y1238.371 Z-12.106
N16970 X616.73 Y1238.422 Z-12.222
N16980 X616.655 Y1238.481 Z-12.328
N16990 X616.572 Y1238.547 Z-12.423
N17000 X616.481 Y1238.619 Z-12.505
N17010 X616.383 Y1238.696 Z-12.574
N17020 X616.28 Y1238.778 Z-12.629
N17030 X616.173 Y1238.863 Z-12.668
N17040 X616.062 Y1238.95 Z-12.692
N17050 X615.951 Y1239.038 Z-12.7
N17060 X615.845 Y1239.122
N17070 G3 X608.961 Y1242.672 R20.207
N17080 G2 X608.842 Y1242.89 R0.175
N17090 X608.886 Y1242.964 R0.175
N17100 G1 X615.723 Y1249.737
N17110 X615.785 Y1249.799
N17120 X615.846 Y1249.861
N17130 G3 X616.028 Y1250.265 R0.635
N17140 G1 X617.114 Y1266.49
N17150 G3 X616.523 Y1267.166 R0.635
N17160 X615.849 Y1266.598 R0.635
N17170 G2 X610.37 Y1255.09 R19.05
N17180 G1 X536.525 Y1181.245
N17190 X539.893 Y1177.875
N17200 X594.27 Y1232.25
N17210 G2 X612.23 R12.7
N17220 X615.85 Y1224.862 R12.7
N17230 G1 X615.856 Y1224.813
N17240 X615.874 Y1224.672 Z-12.692
N17250 X615.892 Y1224.532 Z-12.668
N17260 X615.909 Y1224.396 Z-12.629
N17270 X615.925 Y1224.266 Z-12.574
N17280 X615.941 Y1224.142 Z-12.505
N17290 X615.955 Y1224.027 Z-12.423
N17300 X615.969 Y1223.922 Z-12.328
N17310 X615.981 Y1223.828 Z-12.222
N17320 X615.991 Y1223.746 Z-12.106
N17330 X615.999 Y1223.677 Z-11.981
N17340 X616.006 Y1223.623 Z-11.849
N17350 X616.011 Y1223.584 Z-11.713
N17360 X616.014 Y1223.561 Z-11.572
N17370 X616.015 Y1223.553 Z-11.43
N17380 G0 Z15.
N17390 X616.947 Y1108.87
N17400 Z5.
N17410 G1 Z-11.43 F500.
N17420 X616.941 Y1108.875 Z-11.572 F5000.
N17430 X616.922 Y1108.89 Z-11.713
N17440 X616.891 Y1108.915 Z-11.849
N17450 X616.848 Y1108.948 Z-11.981
N17460 X616.794 Y1108.991 Z-12.106
N17470 X616.73 Y1109.042 Z-12.222
N17480 X616.655 Y1109.101 Z-12.328
N17490 X616.572 Y1109.167 Z-12.423
N17500 X616.481 Y1109.239 Z-12.505
N17510 X616.383 Y1109.316 Z-12.574
N17520 X616.28 Y1109.398 Z-12.629
N17530 X616.173 Y1109.483 Z-12.668
N17540 X616.062 Y1109.57 Z-12.692
N17550 X615.951 Y1109.658 Z-12.7
N17560 X615.845 Y1109.742
N17570 G3 X608.961 Y1113.292 R20.207
N17580 G2 X608.842 Y1113.51 R0.175
N17590 X608.886 Y1113.584 R0.175
N17600 G1 X615.723 Y1120.357
N17610 X615.785 Y1120.419
N17620 X615.846 Y1120.481
N17630 G3 X616.028 Y1120.885 R0.635
N17640 G1 X617.114 Y1137.11
N17650 G3 X616.523 Y1137.786 R0.635
N17660 X615.849 Y1137.218 R0.635
N17670 G2 X610.37 Y1125.71 R19.05
N17680 G1 X536.525 Y1051.865
N17690 X539.893 Y1048.495
N17700 X594.27 Y1102.87
N17710 G2 X612.23 R12.7
N17720 X615.85 Y1095.482 R12.7
N17730 G1 X615.856 Y1095.433
N17740 X615.874 Y1095.292 Z-12.692
N17750 X615.892 Y1095.152 Z-12.668
N17760 X615.909 Y1095.016 Z-12.629
N17770 X615.925 Y1094.886 Z-12.574
N17780 X615.941 Y1094.762 Z-12.505
N17790 X615.955 Y1094.647 Z-12.423
N17800 X615.969 Y1094.542 Z-12.328
N17810 X615.981 Y1094.448 Z-12.222
N17820 X615.991 Y1094.366 Z-12.106
N17830 X615.999 Y1094.297 Z-11.981
N17840 X616.006 Y1094.243 Z-11.849
N17850 X616.011 Y1094.204 Z-11.713
N17860 X616.014 Y1094.181 Z-11.572
N17870 X616.015 Y1094.173 Z-11.43
N17880 G0 Z15.
N17890 X616.947 Y979.49
N17900 Z5.
N17910 G1 Z-11.43 F500.
N17920 X616.941 Y979.494 Z-11.572 F5000.
N17930 X616.922 Y979.509 Z-11.713
N17940 X616.891 Y979.534 Z-11.849
N17950 X616.849 Y979.568 Z-11.981
N17960 X616.795 Y979.61 Z-12.106
N17970 X616.73 Y979.661 Z-12.222
N17980 X616.655 Y979.72 Z-12.328
N17990 X616.572 Y979.786 Z-12.423
N18000 X616.481 Y979.858 Z-12.505
N18010 X616.383 Y979.935 Z-12.574
N18020 X616.28 Y980.017 Z-12.629
N18030 X616.173 Y980.102 Z-12.668
N18040 X616.063 Y980.189 Z-12.692
N18050 X615.951 Y980.277 Z-12.7
N18060 X615.845 Y980.361
N18070 G3 X608.96 Y983.911 R20.208
N18080 G2 X608.842 Y984.129 R0.175
N18090 X608.886 Y984.203 R0.175
N18100 G1 X615.723 Y990.977
N18110 X615.785 Y991.039
N18120 X615.847 Y991.102
N18130 G3 X616.028 Y991.505 R0.635
N18140 G1 X617.114 Y1007.73
N18150 G3 X616.523 Y1008.406 R0.635
N18160 X615.849 Y1007.838 R0.635
N18170 G2 X610.37 Y996.33 R19.05
N18180 G1 X536.525 Y922.481
N18190 X539.893 Y919.113
N18200 X594.27 Y973.491
N18210 G2 X612.231 Y973.488 R12.7
N18220 X615.85 Y966.101 R12.7
N18230 G1 X615.856 Y966.052
N18240 X615.874 Y965.911 Z-12.692
N18250 X615.891 Y965.771 Z-12.668
N18260 X615.909 Y965.635 Z-12.629
N18270 X615.925 Y965.505 Z-12.574
N18280 X615.941 Y965.381 Z-12.505
N18290 X615.955 Y965.266 Z-12.423
N18300 X615.969 Y965.161 Z-12.328
N18310 X615.981 Y965.066 Z-12.222
N18320 X615.991 Y964.985 Z-12.106
N18330 X615.999 Y964.916 Z-11.981
N18340 X616.006 Y964.862 Z-11.849
N18350 X616.011 Y964.823 Z-11.713
N18360 X616.014 Y964.8 Z-11.572
N18370 X616.015 Y964.792 Z-11.43
N18380 G0 Z15.
N18390 X616.948 Y850.109
N18400 Z5.
N18410 G1 Z-11.43 F500.
N18420 X616.941 Y850.113 Z-11.572 F5000.
N18430 X616.923 Y850.128 Z-11.713
N18440 X616.892 Y850.153 Z-11.849
N18450 X616.849 Y850.187 Z-11.981
N18460 X616.795 Y850.229 Z-12.106
N18470 X616.73 Y850.28 Z-12.222
N18480 X616.656 Y850.339 Z-12.328
N18490 X616.572 Y850.405 Z-12.423
N18500 X616.481 Y850.477 Z-12.505
N18510 X616.384 Y850.554 Z-12.574
N18520 X616.28 Y850.636 Z-12.629
N18530 X616.173 Y850.721 Z-12.668
N18540 X616.063 Y850.808 Z-12.692
N18550 X615.951 Y850.896 Z-12.7
N18560 X615.846 Y850.98
N18570 G3 X608.96 Y854.531 R20.209
N18580 G2 X608.843 Y854.744 R0.172
N18590 X608.887 Y854.817 R0.172
N18600 G1 X615.723 Y861.591
N18610 X615.785 Y861.653
N18620 X615.846 Y861.715
N18630 G3 X616.028 Y862.119 R0.635
N18640 G1 X617.114 Y878.344
N18650 G3 X616.523 Y879.02 R0.635
N18660 X615.849 Y878.452 R0.635
N18670 G2 X610.37 Y866.944 R19.05
N18680 G1 X536.525 Y793.099
N18690 X539.893 Y789.731
N18700 X594.27 Y844.108
N18710 G2 X612.23 R12.7
N18720 X615.85 Y836.72 R12.7
N18730 G1 X615.856 Y836.671
N18740 X615.874 Y836.53 Z-12.692
N18750 X615.892 Y836.39 Z-12.668
N18760 X615.909 Y836.255 Z-12.629
N18770 X615.925 Y836.124 Z-12.574
N18780 X615.941 Y836. Z-12.505
N18790 X615.955 Y835.885 Z-12.423
N18800 X615.969 Y835.78 Z-12.328
N18810 X615.981 Y835.686 Z-12.222
N18820 X615.991 Y835.604 Z-12.106
N18830 X615.999 Y835.535 Z-11.981
N18840 X616.006 Y835.481 Z-11.849
N18850 X616.011 Y835.442 Z-11.713
N18860 X616.014 Y835.419 Z-11.572
N18870 X616.015 Y835.411 Z-11.43
N18880 G0 Z15.
N18890 X616.948 Y720.728
N18900 Z5.
N18910 G1 Z-11.43 F500.
N18920 X616.941 Y720.732 Z-11.572 F5000.
N18930 X616.923 Y720.747 Z-11.713
N18940 X616.892 Y720.772 Z-11.849
N18950 X616.849 Y720.806 Z-11.981
N18960 X616.795 Y720.848 Z-12.106
N18970 X616.73 Y720.899 Z-12.222
N18980 X616.656 Y720.958 Z-12.328
N18990 X616.572 Y721.024 Z-12.423
N19000 X616.481 Y721.096 Z-12.505
N19010 X616.384 Y721.173 Z-12.574
N19020 X616.28 Y721.255 Z-12.629
N19030 X616.173 Y721.34 Z-12.668
N19040 X616.063 Y721.427 Z-12.692
N19050 X615.951 Y721.515 Z-12.7
N19060 X615.846 Y721.599
N19070 G3 X608.96 Y725.15 R20.209
N19080 G2 X608.843 Y725.363 R0.172
N19090 X608.887 Y725.436 R0.172
N19100 G1 X615.723 Y732.21
N19110 X615.785 Y732.272
N19120 X615.846 Y732.334
N19130 G3 X616.028 Y732.738 R0.635
N19140 G1 X617.114 Y748.963
N19150 G3 X616.523 Y749.639 R0.635
N19160 X615.849 Y749.071 R0.635
N19170 G2 X610.37 Y737.563 R19.05
N19180 G1 X536.525 Y663.718
N19190 X539.893 Y660.35
N19200 X594.27 Y714.727
N19210 G2 X612.23 R12.7
N19220 X615.85 Y707.339 R12.7
N19230 G1 X615.856 Y707.29
N19240 X615.874 Y707.149 Z-12.692
N19250 X615.892 Y707.009 Z-12.668
N19260 X615.909 Y706.873 Z-12.629
N19270 X615.925 Y706.743 Z-12.574
N19280 X615.941 Y706.619 Z-12.505
N19290 X615.955 Y706.504 Z-12.423
N19300 X615.969 Y706.399 Z-12.328
N19310 X615.981 Y706.305 Z-12.222
N19320 X615.991 Y706.223 Z-12.106
N19330 X615.999 Y706.154 Z-11.981
N19340 X616.006 Y706.1 Z-11.849
N19350 X616.011 Y706.061 Z-11.713
N19360 X616.014 Y706.038 Z-11.572
N19370 X616.015 Y706.03 Z-11.43
N19380 G0 Z15.
N19390 X616.948 Y591.346
N19400 Z5.
N19410 G1 Z-11.43 F500.
N19420 X616.941 Y591.351 Z-11.572 F5000.
N19430 X616.923 Y591.366 Z-11.713
N19440 X616.892 Y591.391 Z-11.849
N19450 X616.849 Y591.425 Z-11.981
N19460 X616.795 Y591.467 Z-12.106
N19470 X616.73 Y591.518 Z-12.222
N19480 X616.656 Y591.577 Z-12.328
N19490 X616.572 Y591.643 Z-12.423
N19500 X616.481 Y591.715 Z-12.505
N19510 X616.384 Y591.792 Z-12.574
N19520 X616.28 Y591.874 Z-12.629
N19530 X616.173 Y591.959 Z-12.668
N19540 X616.063 Y592.046 Z-12.692
N19550 X615.951 Y592.134 Z-12.7
N19560 X615.846 Y592.218
N19570 G3 X608.96 Y595.769 R20.209
N19580 G2 X608.843 Y595.982 R0.172
N19590 X608.887 Y596.055 R0.172
N19600 G1 X615.723 Y602.829
N19610 X615.785 Y602.891
N19620 X615.846 Y602.953
N19630 G3 X616.028 Y603.357 R0.635
N19640 G1 X617.114 Y619.582
N19650 G3 X616.523 Y620.258 R0.635
N19660 X615.849 Y619.69 R0.635
N19670 G2 X610.37 Y608.182 R19.05
N19680 G1 X536.525 Y534.337
N19690 X539.893 Y530.969
N19700 X594.27 Y585.346
N19710 G2 X612.23 R12.7
N19720 X615.85 Y577.958 R12.7
N19730 G1 X615.856 Y577.909
N19740 X615.874 Y577.768 Z-12.692
N19750 X615.892 Y577.628 Z-12.668
N19760 X615.909 Y577.492 Z-12.629
N19770 X615.925 Y577.362 Z-12.574
N19780 X615.941 Y577.238 Z-12.505
N19790 X615.955 Y577.123 Z-12.423
N19800 X615.969 Y577.018 Z-12.328
N19810 X615.981 Y576.924 Z-12.222
N19820 X615.991 Y576.842 Z-12.106
N19830 X615.999 Y576.773 Z-11.981
N19840 X616.006 Y576.719 Z-11.849
N19850 X616.011 Y576.68 Z-11.713
N19860 X616.014 Y576.657 Z-11.572
N19870 X616.015 Y576.649 Z-11.43
N19880 G0 Z15.
N19890 X616.948 Y461.965
N19900 Z5.
N19910 G1 Z-11.43 F500.
N19920 X616.941 Y461.97 Z-11.572 F5000.
N19930 X616.923 Y461.984 Z-11.713
N19940 X616.892 Y462.009 Z-11.849
N19950 X616.849 Y462.043 Z-11.981
N19960 X616.795 Y462.085 Z-12.106
N19970 X616.73 Y462.137 Z-12.222
N19980 X616.656 Y462.195 Z-12.328
N19990 X616.573 Y462.261 Z-12.423
N20000 X616.481 Y462.333 Z-12.505
N20010 X616.384 Y462.411 Z-12.574
N20020 X616.28 Y462.492 Z-12.629
N20030 X616.173 Y462.577 Z-12.668
N20040 X616.063 Y462.664 Z-12.692
N20050 X615.951 Y462.752 Z-12.7
N20060 X615.846 Y462.836
N20070 G3 X608.959 Y466.388 R20.209
N20080 G2 X608.843 Y466.601 R0.172
N20090 X608.886 Y466.674 R0.172
N20100 G1 X615.723 Y473.448
N20110 X615.785 Y473.51
N20120 X615.846 Y473.572
N20130 G3 X616.028 Y473.976 R0.635
N20140 G1 X617.114 Y490.201
N20150 G3 X616.523 Y490.877 R0.635
N20160 X615.849 Y490.309 R0.635
N20170 G2 X610.37 Y478.801 R19.05
N20180 G1 X536.525 Y404.956
N20190 X539.893 Y401.588
N20200 X594.27 Y455.966
N20210 G2 X612.231 Y455.963 R12.7
N20220 X615.85 Y448.576 R12.7
N20230 G1 X615.856 Y448.527
N20240 X615.874 Y448.386 Z-12.692
N20250 X615.891 Y448.246 Z-12.668
N20260 X615.909 Y448.11 Z-12.629
N20270 X615.925 Y447.98 Z-12.574
N20280 X615.941 Y447.856 Z-12.505
N20290 X615.955 Y447.741 Z-12.423
N20300 X615.969 Y447.636 Z-12.328
N20310 X615.981 Y447.541 Z-12.222
N20320 X615.991 Y447.46 Z-12.106
N20330 X615.999 Y447.391 Z-11.981
N20340 X616.006 Y447.337 Z-11.849
N20350 X616.011 Y447.298 Z-11.713
N20360 X616.014 Y447.275 Z-11.572
N20370 X616.015 Y447.267 Z-11.43
N20380 G0 Z15.
N20390 X616.948 Y332.584
N20400 Z5.
N20410 G1 Z-11.43 F500.
N20420 X616.941 Y332.588 Z-11.572 F5000.
N20430 X616.923 Y332.603 Z-11.713
N20440 X616.892 Y332.628 Z-11.849
N20450 X616.849 Y332.662 Z-11.981
N20460 X616.795 Y332.704 Z-12.106
N20470 X616.73 Y332.755 Z-12.222
N20480 X616.656 Y332.814 Z-12.328
N20490 X616.572 Y332.88 Z-12.423
N20500 X616.481 Y332.952 Z-12.505
N20510 X616.384 Y333.029 Z-12.574
N20520 X616.28 Y333.111 Z-12.629
N20530 X616.173 Y333.196 Z-12.668
N20540 X616.063 Y333.283 Z-12.692
N20550 X615.951 Y333.371 Z-12.7
N20560 X615.846 Y333.455
N20570 G3 X608.96 Y337.006 R20.209
N20580 G2 X608.843 Y337.219 R0.172
N20590 X608.887 Y337.292 R0.172
N20600 G1 X615.723 Y344.066
N20610 X615.785 Y344.128
N20620 X615.846 Y344.19
N20630 G3 X616.028 Y344.594 R0.635
N20640 G1 X617.114 Y360.819
N20650 G3 X616.523 Y361.495 R0.635
N20660 X615.849 Y360.927 R0.635
N20670 G2 X610.37 Y349.419 R19.05
N20680 G1 X536.525 Y275.574
N20690 X539.893 Y272.206
N20700 X594.27 Y326.583
N20710 G2 X612.23 R12.7
N20720 X615.85 Y319.195 R12.7
N20730 G1 X615.856 Y319.146
N20740 X615.874 Y319.005 Z-12.692
N20750 X615.892 Y318.865 Z-12.668
N20760 X615.909 Y318.729 Z-12.629
N20770 X615.925 Y318.599 Z-12.574
N20780 X615.941 Y318.475 Z-12.505
N20790 X615.955 Y318.36 Z-12.423
N20800 X615.969 Y318.255 Z-12.328
N20810 X615.981 Y318.161 Z-12.222
N20820 X615.991 Y318.079 Z-12.106
N20830 X615.999 Y318.01 Z-11.981
N20840 X616.006 Y317.956 Z-11.849
N20850 X616.011 Y317.917 Z-11.713
N20860 X616.014 Y317.894 Z-11.572
N20870 X616.015 Y317.886 Z-11.43
N20880 G0 Z15.
N20890 X616.948 Y203.203
N20900 Z5.
N20910 G1 Z-11.43 F500.
N20920 X616.941 Y203.207 Z-11.572 F5000.
N20930 X616.923 Y203.222 Z-11.713
N20940 X616.892 Y203.247 Z-11.849
N20950 X616.849 Y203.281 Z-11.981
N20960 X616.795 Y203.323 Z-12.106
N20970 X616.73 Y203.374 Z-12.222
N20980 X616.656 Y203.433 Z-12.328
N20990 X616.572 Y203.499 Z-12.423
N21000 X616.481 Y203.571 Z-12.505
N21010 X616.384 Y203.648 Z-12.574
N21020 X616.28 Y203.73 Z-12.629
N21030 X616.173 Y203.815 Z-12.668
N21040 X616.063 Y203.902 Z-12.692
N21050 X615.951 Y203.99 Z-12.7
N21060 X615.846 Y204.074
N21070 G3 X608.96 Y207.625 R20.209
N21080 G2 X608.843 Y207.838 R0.172
N21090 X608.887 Y207.911 R0.172
N21100 G1 X615.723 Y214.685
N21110 X615.785 Y214.747
N21120 X615.846 Y214.809
N21130 G3 X616.028 Y215.213 R0.635
N21140 G1 X617.114 Y231.438
N21150 G3 X616.523 Y232.114 R0.635
N21160 X615.849 Y231.546 R0.635
N21170 G2 X610.37 Y220.038 R19.05
N21180 G1 X536.525 Y146.193
N21190 X539.893 Y142.825
N21200 X594.27 Y197.202
N21210 G2 X612.23 R12.7
N21220 X615.85 Y189.814 R12.7
N21230 G1 X615.856 Y189.765
N21240 X615.874 Y189.624 Z-12.692
N21250 X615.892 Y189.484 Z-12.668
N21260 X615.909 Y189.348 Z-12.629
N21270 X615.925 Y189.218 Z-12.574
N21280 X615.941 Y189.094 Z-12.505
N21290 X615.955 Y188.979 Z-12.423
N21300 X615.969 Y188.874 Z-12.328
N21310 X615.981 Y188.78 Z-12.222
N21320 X615.991 Y188.698 Z-12.106
N21330 X615.999 Y188.629 Z-11.981
N21340 X616.006 Y188.575 Z-11.849
N21350 X616.011 Y188.536 Z-11.713
N21360 X616.014 Y188.513 Z-11.572
N21370 X616.015 Y188.505 Z-11.43
N21380 G0 Z15.
N21390 X562.965 Y-7.568
N21400 Z5.
N21410 G1 Z-11.24 F500.
N21420 Z-11.557 F5000.
N21430 X562.964 Y-7.561 Z-11.685
N21440 X562.96 Y-7.54 Z-11.811
N21450 X562.955 Y-7.505 Z-11.935
N21460 X562.947 Y-7.456 Z-12.053
N21470 X562.937 Y-7.395 Z-12.165
N21480 X562.926 Y-7.322 Z-12.27
N21490 X562.912 Y-7.238 Z-12.365
N21500 X562.897 Y-7.143 Z-12.451
N21510 X562.881 Y-7.04 Z-12.525
N21520 X562.863 Y-6.929 Z-12.587
N21530 X562.845 Y-6.812 Z-12.636
N21540 X562.826 Y-6.691 Z-12.671
N21550 X562.806 Y-6.566 Z-12.693
N21560 X562.786 Y-6.439 Z-12.7
N21570 X562.785 Y-6.432
N21580 X562.773 Y-6.333
N21590 X562.769 Y-6.233
N21600 Y114.3
N21610 X567.531
N21620 Y-6.244
N21630 X567.527 Y-6.344
N21640 X567.515 Y-6.443
N21650 X567.508 Y-6.492
N21660 X567.485 Y-6.632 Z-12.692
N21670 X567.463 Y-6.771 Z-12.668
N21680 X567.442 Y-6.906 Z-12.629
N21690 X567.421 Y-7.036 Z-12.574
N21700 X567.402 Y-7.159 Z-12.505
N21710 X567.384 Y-7.274 Z-12.423
N21720 X567.367 Y-7.379 Z-12.328
N21730 X567.352 Y-7.472 Z-12.222
N21740 X567.339 Y-7.554 Z-12.106
N21750 X567.329 Y-7.622 Z-11.981
N21760 X567.32 Y-7.676 Z-11.849
N21770 X567.314 Y-7.714 Z-11.713
N21780 X567.31 Y-7.738 Z-11.572
N21790 X567.309 Y-7.746 Z-11.43
N21800 G0 Z15.
N21810 G4 P1.0
N21820 G0 X0 Y0
N21830 M30
%
