%
(PORCHSIDES)
(MACHINE)
(  VENDOR AUTODESK)
(  MODEL GENERIC 3-AXIS ROUTER)
(  DESCRIPTION THIS MACHINE HAS XYZ AXIS ON THE HEAD)
(T21 D=12.7 CR=0. - ZMIN=-12.7 - FLAT END MILL)
N10 G90 G94 G17 G91.1
N20 G21
(-ATTENTION- PROPERTY SAFE RETRACTS IS SET TO CLEARANCE HEIGHT.)
(ENSURE THE CLEARANCE HEIGHT WILL CLEAR THE PART AND OR FIXTURES.)
(RAISE THE Z-AXIS TO A SAFE HEIGHT BEFORE STARTING THE PROGRAM.)
(2D POCKET29)
N30 M0
(MANUAL TOOL CHANGE TO T21)
N40 S20000 M3
N50 G4 P5.0
N60 G54
N70 G0 X46.636 Y-7.573
N80 G43 Z15. H21
N90 G0 Z5.
N100 G1 Z-11.557 F500.
N110 X46.637 Y-7.566 Z-11.685 F5000.
N120 X46.64 Y-7.544 Z-11.811
N130 X46.646 Y-7.509 Z-11.935
N140 X46.653 Y-7.461 Z-12.053
N150 X46.663 Y-7.4 Z-12.165
N160 X46.675 Y-7.326 Z-12.27
N170 X46.688 Y-7.242 Z-12.365
N180 X46.703 Y-7.148 Z-12.451
N190 X46.719 Y-7.044 Z-12.525
N200 X46.737 Y-6.934 Z-12.587
N210 X46.755 Y-6.817 Z-12.636
N220 X46.775 Y-6.695 Z-12.671
N230 X46.794 Y-6.57 Z-12.693
N240 X46.814 Y-6.444 Z-12.7
N250 X46.816 Y-6.436
N260 X46.827 Y-6.337
N270 X46.831 Y-6.237
N280 Y111.125
N290 X42.069
N300 Y-6.244
N310 X42.073 Y-6.344
N320 X42.084 Y-6.443
N330 X42.092 Y-6.492
N340 X42.114 Y-6.632 Z-12.692
N350 X42.136 Y-6.771 Z-12.668
N360 X42.158 Y-6.906 Z-12.629
N370 X42.178 Y-7.036 Z-12.574
N380 X42.198 Y-7.159 Z-12.505
N390 X42.216 Y-7.274 Z-12.423
N400 X42.233 Y-7.379 Z-12.328
N410 X42.248 Y-7.472 Z-12.222
N420 X42.26 Y-7.554 Z-12.106
N430 X42.271 Y-7.622 Z-11.981
N440 X42.28 Y-7.676 Z-11.849
N450 X42.286 Y-7.714 Z-11.713
N460 X42.29 Y-7.738 Z-11.572
N470 X42.291 Y-7.746 Z-11.43
N480 G0 Z15.
N490 X96.245 Y213.975
N500 Z5.
N510 G1 Z-11.43 F500.
N520 X96.239 Y213.98 Z-11.572 F5000.
N530 X96.221 Y213.995 Z-11.713
N540 X96.19 Y214.019 Z-11.849
N550 X96.147 Y214.053 Z-11.981
N560 X96.093 Y214.096 Z-12.106
N570 X96.028 Y214.147 Z-12.222
N580 X95.954 Y214.206 Z-12.328
N590 X95.871 Y214.272 Z-12.423
N600 X95.78 Y214.344 Z-12.505
N610 X95.682 Y214.422 Z-12.574
N620 X95.579 Y214.504 Z-12.629
N630 X95.472 Y214.589 Z-12.668
N640 X95.362 Y214.676 Z-12.692
N650 X95.251 Y214.764 Z-12.7
N660 X95.145 Y214.848
N670 G3 X88.26 Y218.42 R20.287
N680 G2 X88.143 Y218.633 R0.172
N690 X88.187 Y218.707 R0.172
N700 G1 X95.14 Y225.61
N710 G3 X95.144 Y226.508 R0.635
N720 X94.483 Y226.66 R0.635
N730 G1 X55.118 Y212.855
N740 X55.049 Y212.835
N750 X54.979 Y212.823
N760 X54.908 Y212.819
N770 X49.908
N780 G3 X49.595 Y212.506 R0.313
N790 G1 Y195.017
N800 G3 X49.741 Y194.871 R0.146
N810 X49.844 Y194.914 R0.146
N820 G1 X67.499 Y212.57
N830 G3 Y212.776 R0.146
N840 X67.396 Y212.819 R0.146
N850 G1 X54.908
N860 G3 X54.629 Y212.78 Z-12.668 R1.239
N870 X54.378 Y212.685 Z-12.574 R1.239
N880 G1 X54.273 Y212.625 Z-12.499
N890 X54.175 Y212.556 Z-12.423
N900 X54.099 Y212.49 Z-12.322
N910 X54.028 Y212.419 Z-12.222
N920 X53.978 Y212.362 Z-12.101
N930 X53.932 Y212.302 Z-11.981
N940 X53.881 Y212.224 Z-11.713
N950 X53.864 Y212.196 Z-11.43
N960 G0 Z5.
N970 X95.315 Y241.39
N980 G1 Z1. F500.
N990 Z-11.43 F5000.
N1000 X95.314 Y241.382 Z-11.572
N1010 X95.311 Y241.359 Z-11.713
N1020 X95.306 Y241.32 Z-11.849
N1030 X95.299 Y241.265 Z-11.981
N1040 X95.291 Y241.197 Z-12.106
N1050 X95.281 Y241.115 Z-12.222
N1060 X95.269 Y241.021 Z-12.328
N1070 X95.255 Y240.916 Z-12.423
N1080 X95.241 Y240.801 Z-12.505
N1090 X95.225 Y240.677 Z-12.574
N1100 X95.209 Y240.546 Z-12.629
N1110 X95.191 Y240.411 Z-12.668
N1120 X95.174 Y240.271 Z-12.692
N1130 X95.156 Y240.13 Z-12.7
N1140 X95.15 Y240.081
N1150 G2 X91.53 Y232.693 R12.7
N1160 G1 X82.902 Y224.065
N1170 G2 X73.922 Y220.345 R12.7
N1180 G1 X42.069
N1190 Y188.492
N1200 G2 X38.349 Y179.512 R12.7
N1210 G1 X15.276 Y156.439
N1220 G3 X46.831 Y143.368 R38.949
N1230 G1 Y169.587
N1240 G3 X43.48 Y172.938 R3.351
N1250 X40.949 Y171.783 R3.351
N1260 G2 X36.669 Y167.189 R88.719
N1270 G1 X26.361 Y156.88
N1280 G3 Y156.554 R0.231
N1290 X26.392 Y156.529 R0.231
N1300 X39.035 Y151.291 R31.424
N1310 X39.302 Y151.479 R0.231
N1320 X39.305 Y151.518 R0.231
N1330 G1 Y169.473
N1340 G3 X39.159 Y169.619 R0.146
N1350 X39.056 Y169.576 R0.146
N1360 G1 X36.669 Y167.189
N1370 G3 X36.5 Y166.964 Z-12.668 R1.239
N1380 X36.39 Y166.719 Z-12.574 R1.239
N1390 G1 X36.358 Y166.603 Z-12.499
N1400 X36.338 Y166.485 Z-12.423
N1410 X36.33 Y166.384 Z-12.322
N1420 Y166.284 Z-12.222
N1430 X36.335 Y166.208 Z-12.101
N1440 X36.345 Y166.134 Z-11.981
N1450 X36.364 Y166.042 Z-11.713
N1460 X36.372 Y166.011 Z-11.43
N1470 G0 Z5.
N1480 X95.325 Y199.225
N1490 G1 Z1. F500.
N1500 Z-11.43 F5000.
N1510 X95.324 Y199.233 Z-11.572
N1520 X95.321 Y199.257 Z-11.713
N1530 X95.316 Y199.296 Z-11.849
N1540 X95.309 Y199.35 Z-11.981
N1550 X95.3 Y199.418 Z-12.106
N1560 X95.29 Y199.5 Z-12.222
N1570 X95.278 Y199.594 Z-12.328
N1580 X95.265 Y199.699 Z-12.423
N1590 X95.25 Y199.815 Z-12.505
N1600 X95.235 Y199.938 Z-12.574
N1610 X95.218 Y200.069 Z-12.629
N1620 X95.201 Y200.205 Z-12.668
N1630 X95.183 Y200.344 Z-12.692
N1640 X95.166 Y200.485 Z-12.7
N1650 X95.15 Y200.611
N1660 G3 X80.956 Y211.616 R12.7
N1670 X73.57 Y207.997 R12.7
N1680 G1 X50.551 Y184.978
N1690 G3 X46.831 Y175.998 R12.7
N1700 G1 Y143.368
N1710 G2 X15.276 Y156.439 R38.949
N1720 G1 X38.349 Y179.512
N1730 G3 X42.069 Y188.492 R12.7
N1740 G1 Y220.345
N1750 X73.922
N1760 G3 X82.902 Y224.065 R12.7
N1770 G1 X91.53 Y232.693
N1780 G3 X95.15 Y240.081 R12.7
N1790 G1 X95.156 Y240.13
N1800 X95.174 Y240.271 Z-12.692
N1810 X95.191 Y240.411 Z-12.668
N1820 X95.209 Y240.546 Z-12.629
N1830 X95.225 Y240.677 Z-12.574
N1840 X95.241 Y240.801 Z-12.505
N1850 X95.255 Y240.916 Z-12.423
N1860 X95.269 Y241.021 Z-12.328
N1870 X95.281 Y241.115 Z-12.222
N1880 X95.291 Y241.197 Z-12.106
N1890 X95.299 Y241.265 Z-11.981
N1900 X95.306 Y241.32 Z-11.849
N1910 X95.311 Y241.359 Z-11.713
N1920 X95.314 Y241.382 Z-11.572
N1930 X95.315 Y241.39 Z-11.43
N1940 G0 Z15.
N1950 X96.245 Y325.735
N1960 Z5.
N1970 G1 Z-11.43 F500.
N1980 X96.239 Y325.74 Z-11.572 F5000.
N1990 X96.221 Y325.755 Z-11.713
N2000 X96.19 Y325.779 Z-11.849
N2010 X96.147 Y325.813 Z-11.981
N2020 X96.093 Y325.856 Z-12.106
N2030 X96.028 Y325.907 Z-12.222
N2040 X95.954 Y325.966 Z-12.328
N2050 X95.871 Y326.032 Z-12.423
N2060 X95.78 Y326.104 Z-12.505
N2070 X95.682 Y326.182 Z-12.574
N2080 X95.579 Y326.264 Z-12.629
N2090 X95.472 Y326.349 Z-12.668
N2100 X95.362 Y326.436 Z-12.692
N2110 X95.251 Y326.525 Z-12.7
N2120 X95.145 Y326.608
N2130 G3 X88.26 Y330.18 R20.287
N2140 G2 X88.143 Y330.393 R0.172
N2150 X88.187 Y330.467 R0.172
N2160 G1 X95.14 Y337.37
N2170 G3 X95.144 Y338.268 R0.635
N2180 X94.483 Y338.42 R0.635
N2190 G1 X55.118 Y324.615
N2200 X55.049 Y324.595
N2210 X54.979 Y324.583
N2220 X54.908 Y324.579
N2230 X49.908
N2240 G3 X49.595 Y324.266 R0.313
N2250 G1 Y306.777
N2260 G3 X49.741 Y306.631 R0.146
N2270 X49.844 Y306.674 R0.146
N2280 G1 X67.499 Y324.33
N2290 G3 Y324.536 R0.146
N2300 X67.396 Y324.579 R0.146
N2310 G1 X54.908
N2320 G3 X54.629 Y324.54 Z-12.668 R1.239
N2330 X54.378 Y324.445 Z-12.574 R1.239
N2340 G1 X54.273 Y324.385 Z-12.499
N2350 X54.175 Y324.316 Z-12.423
N2360 X54.099 Y324.25 Z-12.322
N2370 X54.028 Y324.179 Z-12.222
N2380 X53.978 Y324.122 Z-12.101
N2390 X53.932 Y324.062 Z-11.981
N2400 X53.881 Y323.984 Z-11.713
N2410 X53.864 Y323.956 Z-11.43
N2420 G0 Z5.
N2430 X95.315 Y353.15
N2440 G1 Z1. F500.
N2450 Z-11.43 F5000.
N2460 X95.314 Y353.142 Z-11.572
N2470 X95.311 Y353.119 Z-11.713
N2480 X95.306 Y353.08 Z-11.849
N2490 X95.299 Y353.025 Z-11.981
N2500 X95.291 Y352.957 Z-12.106
N2510 X95.281 Y352.875 Z-12.222
N2520 X95.269 Y352.781 Z-12.328
N2530 X95.255 Y352.676 Z-12.423
N2540 X95.241 Y352.561 Z-12.505
N2550 X95.225 Y352.437 Z-12.574
N2560 X95.209 Y352.306 Z-12.629
N2570 X95.191 Y352.171 Z-12.668
N2580 X95.174 Y352.031 Z-12.692
N2590 X95.156 Y351.89 Z-12.7
N2600 X95.15 Y351.841
N2610 G2 X91.53 Y344.453 R12.7
N2620 G1 X82.902 Y335.825
N2630 G2 X73.922 Y332.105 R12.7
N2640 G1 X42.069
N2650 Y300.252
N2660 G2 X38.349 Y291.272 R12.7
N2670 G1 X15.276 Y268.199
N2680 G3 X46.831 Y255.128 R38.949
N2690 G1 Y281.347
N2700 G3 X43.48 Y284.698 R3.351
N2710 X40.949 Y283.543 R3.351
N2720 G2 X36.669 Y278.949 R88.719
N2730 G1 X30.807 Y273.087
N2740 X26.361 Y268.64
N2750 G3 Y268.314 R0.231
N2760 X26.392 Y268.289 R0.231
N2770 X39.035 Y263.051 R31.424
N2780 X39.302 Y263.239 R0.231
N2790 X39.305 Y263.278 R0.231
N2800 G1 Y281.233
N2810 G3 X39.159 Y281.379 R0.146
N2820 X39.056 Y281.336 R0.146
N2830 G1 X36.669 Y278.949
N2840 G3 X36.5 Y278.724 Z-12.668 R1.239
N2850 X36.39 Y278.479 Z-12.574 R1.239
N2860 G1 X36.358 Y278.363 Z-12.499
N2870 X36.338 Y278.245 Z-12.423
N2880 X36.33 Y278.144 Z-12.322
N2890 Y278.044 Z-12.222
N2900 X36.335 Y277.968 Z-12.101
N2910 X36.345 Y277.894 Z-11.981
N2920 X36.364 Y277.802 Z-11.713
N2930 X36.372 Y277.771 Z-11.43
N2940 G0 Z5.
N2950 X95.325 Y310.985
N2960 G1 Z1. F500.
N2970 Z-11.43 F5000.
N2980 X95.324 Y310.993 Z-11.572
N2990 X95.321 Y311.017 Z-11.713
N3000 X95.316 Y311.056 Z-11.849
N3010 X95.309 Y311.11 Z-11.981
N3020 X95.3 Y311.178 Z-12.106
N3030 X95.29 Y311.26 Z-12.222
N3040 X95.278 Y311.354 Z-12.328
N3050 X95.265 Y311.459 Z-12.423
N3060 X95.25 Y311.575 Z-12.505
N3070 X95.235 Y311.698 Z-12.574
N3080 X95.218 Y311.829 Z-12.629
N3090 X95.201 Y311.965 Z-12.668
N3100 X95.183 Y312.104 Z-12.692
N3110 X95.166 Y312.245 Z-12.7
N3120 X95.15 Y312.371
N3130 G3 X80.956 Y323.376 R12.7
N3140 X73.57 Y319.757 R12.7
N3150 G1 X50.551 Y296.738
N3160 G3 X46.831 Y287.758 R12.7
N3170 G1 Y255.128
N3180 G2 X15.276 Y268.199 R38.949
N3190 G1 X38.349 Y291.272
N3200 G3 X42.069 Y300.252 R12.7
N3210 G1 Y332.105
N3220 X73.922
N3230 G3 X82.902 Y335.825 R12.7
N3240 G1 X91.53 Y344.453
N3250 G3 X95.15 Y351.841 R12.7
N3260 G1 X95.156 Y351.89
N3270 X95.174 Y352.031 Z-12.692
N3280 X95.191 Y352.171 Z-12.668
N3290 X95.209 Y352.306 Z-12.629
N3300 X95.225 Y352.437 Z-12.574
N3310 X95.241 Y352.561 Z-12.505
N3320 X95.255 Y352.676 Z-12.423
N3330 X95.269 Y352.781 Z-12.328
N3340 X95.281 Y352.875 Z-12.222
N3350 X95.291 Y352.957 Z-12.106
N3360 X95.299 Y353.025 Z-11.981
N3370 X95.306 Y353.08 Z-11.849
N3380 X95.311 Y353.119 Z-11.713
N3390 X95.314 Y353.142 Z-11.572
N3400 X95.315 Y353.15 Z-11.43
N3410 G0 Z15.
N3420 X96.245 Y437.495
N3430 Z5.
N3440 G1 Z-11.43 F500.
N3450 X96.239 Y437.5 Z-11.572 F5000.
N3460 X96.221 Y437.515 Z-11.713
N3470 X96.19 Y437.539 Z-11.849
N3480 X96.147 Y437.573 Z-11.981
N3490 X96.093 Y437.616 Z-12.106
N3500 X96.028 Y437.667 Z-12.222
N3510 X95.954 Y437.726 Z-12.328
N3520 X95.871 Y437.792 Z-12.423
N3530 X95.78 Y437.864 Z-12.505
N3540 X95.682 Y437.942 Z-12.574
N3550 X95.579 Y438.024 Z-12.629
N3560 X95.472 Y438.109 Z-12.668
N3570 X95.362 Y438.196 Z-12.692
N3580 X95.251 Y438.285 Z-12.7
N3590 X95.145 Y438.368
N3600 G3 X88.26 Y441.94 R20.287
N3610 G2 X88.143 Y442.153 R0.172
N3620 X88.187 Y442.227 R0.172
N3630 G1 X95.14 Y449.13
N3640 G3 X95.144 Y450.028 R0.635
N3650 X94.483 Y450.18 R0.635
N3660 G1 X55.118 Y436.375
N3670 X55.049 Y436.355
N3680 X54.979 Y436.343
N3690 X54.908 Y436.339
N3700 X49.908
N3710 G3 X49.595 Y436.026 R0.313
N3720 G1 Y418.537
N3730 G3 X49.741 Y418.391 R0.146
N3740 X49.844 Y418.434 R0.146
N3750 G1 X67.499 Y436.09
N3760 G3 Y436.296 R0.146
N3770 X67.396 Y436.339 R0.146
N3780 G1 X54.908
N3790 G3 X54.629 Y436.3 Z-12.668 R1.239
N3800 X54.378 Y436.205 Z-12.574 R1.239
N3810 G1 X54.273 Y436.145 Z-12.499
N3820 X54.175 Y436.076 Z-12.423
N3830 X54.099 Y436.01 Z-12.322
N3840 X54.028 Y435.939 Z-12.222
N3850 X53.978 Y435.882 Z-12.101
N3860 X53.932 Y435.822 Z-11.981
N3870 X53.881 Y435.744 Z-11.713
N3880 X53.864 Y435.716 Z-11.43
N3890 G0 Z5.
N3900 X95.315 Y464.91
N3910 G1 Z1. F500.
N3920 Z-11.43 F5000.
N3930 X95.314 Y464.902 Z-11.572
N3940 X95.311 Y464.879 Z-11.713
N3950 X95.306 Y464.84 Z-11.849
N3960 X95.299 Y464.785 Z-11.981
N3970 X95.291 Y464.717 Z-12.106
N3980 X95.281 Y464.635 Z-12.222
N3990 X95.269 Y464.541 Z-12.328
N4000 X95.255 Y464.436 Z-12.423
N4010 X95.241 Y464.321 Z-12.505
N4020 X95.225 Y464.197 Z-12.574
N4030 X95.209 Y464.066 Z-12.629
N4040 X95.191 Y463.931 Z-12.668
N4050 X95.174 Y463.791 Z-12.692
N4060 X95.156 Y463.65 Z-12.7
N4070 X95.15 Y463.601
N4080 G2 X91.53 Y456.213 R12.7
N4090 G1 X82.902 Y447.585
N4100 G2 X73.922 Y443.865 R12.7
N4110 G1 X42.069
N4120 Y412.012
N4130 G2 X38.349 Y403.032 R12.7
N4140 G1 X15.276 Y379.959
N4150 G3 X46.831 Y366.888 R38.949
N4160 G1 Y393.107
N4170 G3 X43.48 Y396.458 R3.351
N4180 X40.949 Y395.303 R3.351
N4190 G2 X36.669 Y390.709 R88.719
N4200 G1 X30.807 Y384.847
N4210 X26.361 Y380.4
N4220 G3 Y380.074 R0.231
N4230 X26.392 Y380.049 R0.231
N4240 X39.035 Y374.811 R31.424
N4250 X39.302 Y374.999 R0.231
N4260 X39.305 Y375.038 R0.231
N4270 G1 Y392.993
N4280 G3 X39.159 Y393.139 R0.146
N4290 X39.056 Y393.096 R0.146
N4300 G1 X36.669 Y390.709
N4310 G3 X36.5 Y390.484 Z-12.668 R1.239
N4320 X36.39 Y390.239 Z-12.574 R1.239
N4330 G1 X36.358 Y390.123 Z-12.499
N4340 X36.338 Y390.005 Z-12.423
N4350 X36.33 Y389.904 Z-12.322
N4360 Y389.804 Z-12.222
N4370 X36.335 Y389.728 Z-12.101
N4380 X36.345 Y389.654 Z-11.981
N4390 X36.364 Y389.562 Z-11.713
N4400 X36.372 Y389.531 Z-11.43
N4410 G0 Z5.
N4420 X95.325 Y422.745
N4430 G1 Z1. F500.
N4440 Z-11.43 F5000.
N4450 X95.324 Y422.753 Z-11.572
N4460 X95.321 Y422.777 Z-11.713
N4470 X95.316 Y422.816 Z-11.849
N4480 X95.309 Y422.87 Z-11.981
N4490 X95.3 Y422.938 Z-12.106
N4500 X95.29 Y423.02 Z-12.222
N4510 X95.278 Y423.114 Z-12.328
N4520 X95.265 Y423.219 Z-12.423
N4530 X95.25 Y423.335 Z-12.505
N4540 X95.235 Y423.458 Z-12.574
N4550 X95.218 Y423.589 Z-12.629
N4560 X95.201 Y423.725 Z-12.668
N4570 X95.183 Y423.864 Z-12.692
N4580 X95.166 Y424.005 Z-12.7
N4590 X95.15 Y424.131
N4600 G3 X80.956 Y435.137 R12.7
N4610 X73.57 Y431.517 R12.7
N4620 G1 X50.551 Y408.498
N4630 G3 X46.831 Y399.518 R12.7
N4640 G1 Y366.888
N4650 G2 X15.276 Y379.959 R38.949
N4660 G1 X38.349 Y403.032
N4670 G3 X42.069 Y412.012 R12.7
N4680 G1 Y443.865
N4690 X73.922
N4700 G3 X82.902 Y447.585 R12.7
N4710 G1 X91.53 Y456.213
N4720 G3 X95.15 Y463.601 R12.7
N4730 G1 X95.156 Y463.65
N4740 X95.174 Y463.791 Z-12.692
N4750 X95.191 Y463.931 Z-12.668
N4760 X95.209 Y464.066 Z-12.629
N4770 X95.225 Y464.197 Z-12.574
N4780 X95.241 Y464.321 Z-12.505
N4790 X95.255 Y464.436 Z-12.423
N4800 X95.269 Y464.541 Z-12.328
N4810 X95.281 Y464.635 Z-12.222
N4820 X95.291 Y464.717 Z-12.106
N4830 X95.299 Y464.785 Z-11.981
N4840 X95.306 Y464.84 Z-11.849
N4850 X95.311 Y464.879 Z-11.713
N4860 X95.314 Y464.902 Z-11.572
N4870 X95.315 Y464.91 Z-11.43
N4880 G0 Z15.
N4890 X96.245 Y549.255
N4900 Z5.
N4910 G1 Z-11.43 F500.
N4920 X96.239 Y549.26 Z-11.572 F5000.
N4930 X96.221 Y549.275 Z-11.713
N4940 X96.19 Y549.299 Z-11.849
N4950 X96.147 Y549.333 Z-11.981
N4960 X96.093 Y549.376 Z-12.106
N4970 X96.028 Y549.427 Z-12.222
N4980 X95.954 Y549.486 Z-12.328
N4990 X95.871 Y549.552 Z-12.423
N5000 X95.78 Y549.624 Z-12.505
N5010 X95.682 Y549.702 Z-12.574
N5020 X95.579 Y549.784 Z-12.629
N5030 X95.472 Y549.869 Z-12.668
N5040 X95.362 Y549.956 Z-12.692
N5050 X95.251 Y550.044 Z-12.7
N5060 X95.145 Y550.128
N5070 G3 X88.26 Y553.7 R20.287
N5080 G2 X88.143 Y553.913 R0.172
N5090 X88.187 Y553.987 R0.172
N5100 G1 X95.14 Y560.89
N5110 G3 X95.144 Y561.788 R0.635
N5120 X94.483 Y561.94 R0.635
N5130 G1 X55.118 Y548.135
N5140 X55.049 Y548.115
N5150 X54.979 Y548.103
N5160 X54.908 Y548.099
N5170 X49.908
N5180 G3 X49.595 Y547.786 R0.313
N5190 G1 Y530.297
N5200 G3 X49.741 Y530.151 R0.146
N5210 X49.844 Y530.194 R0.146
N5220 G1 X67.499 Y547.85
N5230 G3 Y548.056 R0.146
N5240 X67.396 Y548.099 R0.146
N5250 G1 X54.908
N5260 G3 X54.629 Y548.06 Z-12.668 R1.239
N5270 X54.378 Y547.965 Z-12.574 R1.239
N5280 G1 X54.273 Y547.905 Z-12.499
N5290 X54.175 Y547.836 Z-12.423
N5300 X54.099 Y547.77 Z-12.322
N5310 X54.028 Y547.699 Z-12.222
N5320 X53.978 Y547.642 Z-12.101
N5330 X53.932 Y547.582 Z-11.981
N5340 X53.881 Y547.504 Z-11.713
N5350 X53.864 Y547.476 Z-11.43
N5360 G0 Z5.
N5370 X95.315 Y576.67
N5380 G1 Z1. F500.
N5390 Z-11.43 F5000.
N5400 X95.314 Y576.662 Z-11.572
N5410 X95.311 Y576.639 Z-11.713
N5420 X95.306 Y576.6 Z-11.849
N5430 X95.299 Y576.545 Z-11.981
N5440 X95.291 Y576.477 Z-12.106
N5450 X95.281 Y576.395 Z-12.222
N5460 X95.269 Y576.301 Z-12.328
N5470 X95.255 Y576.196 Z-12.423
N5480 X95.241 Y576.081 Z-12.505
N5490 X95.225 Y575.957 Z-12.574
N5500 X95.209 Y575.826 Z-12.629
N5510 X95.191 Y575.691 Z-12.668
N5520 X95.174 Y575.551 Z-12.692
N5530 X95.156 Y575.41 Z-12.7
N5540 X95.15 Y575.361
N5550 G2 X91.53 Y567.973 R12.7
N5560 G1 X82.902 Y559.345
N5570 G2 X73.922 Y555.625 R12.7
N5580 G1 X42.069
N5590 Y523.772
N5600 G2 X38.349 Y514.792 R12.7
N5610 G1 X15.276 Y491.719
N5620 G3 X46.831 Y478.648 R38.949
N5630 G1 Y504.867
N5640 G3 X43.48 Y508.218 R3.351
N5650 X40.949 Y507.063 R3.351
N5660 G2 X36.669 Y502.469 R88.719
N5670 G1 X30.807 Y496.607
N5680 X26.361 Y492.16
N5690 G3 Y491.834 R0.231
N5700 X26.392 Y491.809 R0.231
N5710 X39.035 Y486.571 R31.424
N5720 X39.302 Y486.759 R0.231
N5730 X39.305 Y486.798 R0.231
N5740 G1 Y504.753
N5750 G3 X39.159 Y504.899 R0.146
N5760 X39.056 Y504.856 R0.146
N5770 G1 X36.669 Y502.469
N5780 G3 X36.5 Y502.244 Z-12.668 R1.239
N5790 X36.39 Y501.999 Z-12.574 R1.239
N5800 G1 X36.358 Y501.883 Z-12.499
N5810 X36.338 Y501.765 Z-12.423
N5820 X36.33 Y501.664 Z-12.322
N5830 Y501.564 Z-12.222
N5840 X36.335 Y501.489 Z-12.101
N5850 X36.345 Y501.414 Z-11.981
N5860 X36.364 Y501.322 Z-11.713
N5870 X36.372 Y501.291 Z-11.43
N5880 G0 Z5.
N5890 X95.325 Y534.505
N5900 G1 Z1. F500.
N5910 Z-11.43 F5000.
N5920 X95.324 Y534.513 Z-11.572
N5930 X95.321 Y534.537 Z-11.713
N5940 X95.316 Y534.576 Z-11.849
N5950 X95.309 Y534.63 Z-11.981
N5960 X95.3 Y534.698 Z-12.106
N5970 X95.29 Y534.78 Z-12.222
N5980 X95.278 Y534.874 Z-12.328
N5990 X95.265 Y534.979 Z-12.423
N6000 X95.25 Y535.095 Z-12.505
N6010 X95.235 Y535.218 Z-12.574
N6020 X95.218 Y535.349 Z-12.629
N6030 X95.201 Y535.485 Z-12.668
N6040 X95.183 Y535.624 Z-12.692
N6050 X95.166 Y535.765 Z-12.7
N6060 X95.15 Y535.891
N6070 G3 X80.956 Y546.897 R12.7
N6080 X73.57 Y543.277 R12.7
N6090 G1 X50.551 Y520.258
N6100 G3 X46.831 Y511.278 R12.7
N6110 G1 Y478.648
N6120 G2 X15.276 Y491.719 R38.949
N6130 G1 X38.349 Y514.792
N6140 G3 X42.069 Y523.772 R12.7
N6150 G1 Y555.625
N6160 X73.922
N6170 G3 X82.902 Y559.345 R12.7
N6180 G1 X91.53 Y567.973
N6190 G3 X95.15 Y575.361 R12.7
N6200 G1 X95.156 Y575.41
N6210 X95.174 Y575.551 Z-12.692
N6220 X95.191 Y575.691 Z-12.668
N6230 X95.209 Y575.826 Z-12.629
N6240 X95.225 Y575.957 Z-12.574
N6250 X95.241 Y576.081 Z-12.505
N6260 X95.255 Y576.196 Z-12.423
N6270 X95.269 Y576.301 Z-12.328
N6280 X95.281 Y576.395 Z-12.222
N6290 X95.291 Y576.477 Z-12.106
N6300 X95.299 Y576.545 Z-11.981
N6310 X95.306 Y576.6 Z-11.849
N6320 X95.311 Y576.639 Z-11.713
N6330 X95.314 Y576.662 Z-11.572
N6340 X95.315 Y576.67 Z-11.43
N6350 G0 Z15.
N6360 X96.245 Y661.015
N6370 Z5.
N6380 G1 Z-11.43 F500.
N6390 X96.239 Y661.02 Z-11.572 F5000.
N6400 X96.221 Y661.035 Z-11.713
N6410 X96.19 Y661.059 Z-11.849
N6420 X96.147 Y661.093 Z-11.981
N6430 X96.093 Y661.136 Z-12.106
N6440 X96.028 Y661.187 Z-12.222
N6450 X95.954 Y661.246 Z-12.328
N6460 X95.871 Y661.312 Z-12.423
N6470 X95.78 Y661.384 Z-12.505
N6480 X95.682 Y661.462 Z-12.574
N6490 X95.579 Y661.544 Z-12.629
N6500 X95.472 Y661.629 Z-12.668
N6510 X95.362 Y661.716 Z-12.692
N6520 X95.251 Y661.805 Z-12.7
N6530 X95.145 Y661.888
N6540 G3 X88.26 Y665.46 R20.287
N6550 G2 X88.143 Y665.673 R0.172
N6560 X88.187 Y665.747 R0.172
N6570 G1 X95.14 Y672.65
N6580 G3 X95.144 Y673.548 R0.635
N6590 X94.483 Y673.7 R0.635
N6600 G1 X55.118 Y659.895
N6610 X55.049 Y659.875
N6620 X54.979 Y659.863
N6630 X54.908 Y659.859
N6640 X49.908
N6650 G3 X49.595 Y659.546 R0.313
N6660 G1 Y642.057
N6670 G3 X49.741 Y641.911 R0.146
N6680 X49.844 Y641.954 R0.146
N6690 G1 X67.499 Y659.61
N6700 G3 Y659.816 R0.146
N6710 X67.396 Y659.859 R0.146
N6720 G1 X54.908
N6730 G3 X54.629 Y659.82 Z-12.668 R1.239
N6740 X54.378 Y659.725 Z-12.574 R1.239
N6750 G1 X54.273 Y659.665 Z-12.499
N6760 X54.175 Y659.596 Z-12.423
N6770 X54.099 Y659.53 Z-12.322
N6780 X54.028 Y659.459 Z-12.222
N6790 X53.978 Y659.402 Z-12.101
N6800 X53.932 Y659.342 Z-11.981
N6810 X53.881 Y659.264 Z-11.713
N6820 X53.864 Y659.236 Z-11.43
N6830 G0 Z5.
N6840 X95.315 Y688.43
N6850 G1 Z1. F500.
N6860 Z-11.43 F5000.
N6870 X95.314 Y688.422 Z-11.572
N6880 X95.311 Y688.399 Z-11.713
N6890 X95.306 Y688.36 Z-11.849
N6900 X95.299 Y688.305 Z-11.981
N6910 X95.291 Y688.237 Z-12.106
N6920 X95.281 Y688.155 Z-12.222
N6930 X95.269 Y688.061 Z-12.328
N6940 X95.255 Y687.956 Z-12.423
N6950 X95.241 Y687.841 Z-12.505
N6960 X95.225 Y687.717 Z-12.574
N6970 X95.209 Y687.586 Z-12.629
N6980 X95.191 Y687.451 Z-12.668
N6990 X95.174 Y687.311 Z-12.692
N7000 X95.156 Y687.17 Z-12.7
N7010 X95.15 Y687.121
N7020 G2 X91.53 Y679.733 R12.7
N7030 G1 X82.902 Y671.105
N7040 G2 X73.922 Y667.385 R12.7
N7050 G1 X42.069
N7060 Y635.532
N7070 G2 X38.349 Y626.552 R12.7
N7080 G1 X15.276 Y603.479
N7090 G3 X46.831 Y590.408 R38.949
N7100 G1 Y616.627
N7110 G3 X43.48 Y619.978 R3.351
N7120 X40.949 Y618.823 R3.351
N7130 G2 X36.669 Y614.229 R88.719
N7140 G1 X26.361 Y603.92
N7150 G3 Y603.594 R0.231
N7160 X26.392 Y603.569 R0.231
N7170 X39.035 Y598.331 R31.424
N7180 X39.302 Y598.519 R0.231
N7190 X39.305 Y598.558 R0.231
N7200 G1 Y616.513
N7210 G3 X39.159 Y616.659 R0.146
N7220 X39.056 Y616.616 R0.146
N7230 G1 X36.669 Y614.229
N7240 G3 X36.5 Y614.004 Z-12.668 R1.239
N7250 X36.39 Y613.759 Z-12.574 R1.239
N7260 G1 X36.358 Y613.643 Z-12.499
N7270 X36.338 Y613.525 Z-12.423
N7280 X36.33 Y613.424 Z-12.322
N7290 Y613.324 Z-12.222
N7300 X36.335 Y613.248 Z-12.101
N7310 X36.345 Y613.174 Z-11.981
N7320 X36.364 Y613.082 Z-11.713
N7330 X36.372 Y613.051 Z-11.43
N7340 G0 Z5.
N7350 X95.325 Y646.265
N7360 G1 Z1. F500.
N7370 Z-11.43 F5000.
N7380 X95.324 Y646.273 Z-11.572
N7390 X95.321 Y646.297 Z-11.713
N7400 X95.316 Y646.336 Z-11.849
N7410 X95.309 Y646.39 Z-11.981
N7420 X95.3 Y646.458 Z-12.106
N7430 X95.29 Y646.54 Z-12.222
N7440 X95.278 Y646.634 Z-12.328
N7450 X95.265 Y646.739 Z-12.423
N7460 X95.25 Y646.855 Z-12.505
N7470 X95.235 Y646.978 Z-12.574
N7480 X95.218 Y647.109 Z-12.629
N7490 X95.201 Y647.245 Z-12.668
N7500 X95.183 Y647.384 Z-12.692
N7510 X95.166 Y647.525 Z-12.7
N7520 X95.15 Y647.651
N7530 G3 X80.956 Y658.657 R12.7
N7540 X73.57 Y655.037 R12.7
N7550 G1 X50.551 Y632.018
N7560 G3 X46.831 Y623.038 R12.7
N7570 G1 Y590.408
N7580 G2 X15.276 Y603.479 R38.949
N7590 G1 X38.349 Y626.552
N7600 G3 X42.069 Y635.532 R12.7
N7610 G1 Y667.385
N7620 X73.922
N7630 G3 X82.902 Y671.105 R12.7
N7640 G1 X91.53 Y679.733
N7650 G3 X95.15 Y687.121 R12.7
N7660 G1 X95.156 Y687.17
N7670 X95.174 Y687.311 Z-12.692
N7680 X95.191 Y687.451 Z-12.668
N7690 X95.209 Y687.586 Z-12.629
N7700 X95.225 Y687.717 Z-12.574
N7710 X95.241 Y687.841 Z-12.505
N7720 X95.255 Y687.956 Z-12.423
N7730 X95.269 Y688.061 Z-12.328
N7740 X95.281 Y688.155 Z-12.222
N7750 X95.291 Y688.237 Z-12.106
N7760 X95.299 Y688.305 Z-11.981
N7770 X95.306 Y688.36 Z-11.849
N7780 X95.311 Y688.399 Z-11.713
N7790 X95.314 Y688.422 Z-11.572
N7800 X95.315 Y688.43 Z-11.43
N7810 G0 Z15.
N7820 X96.245 Y772.775
N7830 Z5.
N7840 G1 Z-11.43 F500.
N7850 X96.239 Y772.78 Z-11.572 F5000.
N7860 X96.221 Y772.795 Z-11.713
N7870 X96.19 Y772.819 Z-11.849
N7880 X96.147 Y772.853 Z-11.981
N7890 X96.093 Y772.896 Z-12.106
N7900 X96.028 Y772.947 Z-12.222
N7910 X95.954 Y773.006 Z-12.328
N7920 X95.871 Y773.072 Z-12.423
N7930 X95.78 Y773.144 Z-12.505
N7940 X95.682 Y773.222 Z-12.574
N7950 X95.579 Y773.304 Z-12.629
N7960 X95.472 Y773.389 Z-12.668
N7970 X95.362 Y773.476 Z-12.692
N7980 X95.251 Y773.565 Z-12.7
N7990 X95.145 Y773.648
N8000 G3 X88.26 Y777.22 R20.287
N8010 G2 X88.143 Y777.433 R0.172
N8020 X88.187 Y777.507 R0.172
N8030 G1 X95.14 Y784.41
N8040 G3 X95.144 Y785.308 R0.635
N8050 X94.483 Y785.46 R0.635
N8060 G1 X55.118 Y771.655
N8070 X55.049 Y771.635
N8080 X54.979 Y771.623
N8090 X54.908 Y771.619
N8100 X49.908
N8110 G3 X49.595 Y771.306 R0.313
N8120 G1 Y753.817
N8130 G3 X49.741 Y753.671 R0.146
N8140 X49.844 Y753.714 R0.146
N8150 G1 X67.499 Y771.37
N8160 G3 Y771.576 R0.146
N8170 X67.396 Y771.619 R0.146
N8180 G1 X54.908
N8190 G3 X54.629 Y771.58 Z-12.668 R1.239
N8200 X54.378 Y771.485 Z-12.574 R1.239
N8210 G1 X54.273 Y771.425 Z-12.499
N8220 X54.175 Y771.356 Z-12.423
N8230 X54.099 Y771.29 Z-12.322
N8240 X54.028 Y771.219 Z-12.222
N8250 X53.978 Y771.162 Z-12.101
N8260 X53.932 Y771.102 Z-11.981
N8270 X53.881 Y771.024 Z-11.713
N8280 X53.864 Y770.996 Z-11.43
N8290 G0 Z5.
N8300 X95.315 Y800.19
N8310 G1 Z1. F500.
N8320 Z-11.43 F5000.
N8330 X95.314 Y800.182 Z-11.572
N8340 X95.311 Y800.159 Z-11.713
N8350 X95.306 Y800.119 Z-11.849
N8360 X95.299 Y800.065 Z-11.981
N8370 X95.291 Y799.997 Z-12.106
N8380 X95.281 Y799.915 Z-12.222
N8390 X95.269 Y799.821 Z-12.328
N8400 X95.255 Y799.716 Z-12.423
N8410 X95.241 Y799.601 Z-12.505
N8420 X95.225 Y799.477 Z-12.574
N8430 X95.209 Y799.346 Z-12.629
N8440 X95.191 Y799.211 Z-12.668
N8450 X95.174 Y799.071 Z-12.692
N8460 X95.156 Y798.93 Z-12.7
N8470 X95.15 Y798.881
N8480 G2 X91.53 Y791.493 R12.7
N8490 G1 X82.902 Y782.865
N8500 G2 X73.922 Y779.145 R12.7
N8510 G1 X42.069
N8520 Y747.292
N8530 G2 X38.349 Y738.312 R12.7
N8540 G1 X15.276 Y715.239
N8550 G3 X46.831 Y702.168 R38.949
N8560 G1 Y728.387
N8570 G3 X43.48 Y731.738 R3.351
N8580 X40.949 Y730.583 R3.351
N8590 G2 X36.669 Y725.989 R88.719
N8600 G1 X30.807 Y720.127
N8610 X26.361 Y715.68
N8620 G3 Y715.354 R0.231
N8630 X26.392 Y715.329 R0.231
N8640 X39.035 Y710.091 R31.424
N8650 X39.302 Y710.279 R0.231
N8660 X39.305 Y710.318 R0.231
N8670 G1 Y728.273
N8680 G3 X39.159 Y728.419 R0.146
N8690 X39.056 Y728.376 R0.146
N8700 G1 X36.669 Y725.989
N8710 G3 X36.5 Y725.764 Z-12.668 R1.239
N8720 X36.39 Y725.519 Z-12.574 R1.239
N8730 G1 X36.358 Y725.403 Z-12.499
N8740 X36.338 Y725.285 Z-12.423
N8750 X36.33 Y725.184 Z-12.322
N8760 Y725.084 Z-12.222
N8770 X36.335 Y725.008 Z-12.101
N8780 X36.345 Y724.934 Z-11.981
N8790 X36.364 Y724.842 Z-11.713
N8800 X36.372 Y724.811 Z-11.43
N8810 G0 Z5.
N8820 X95.325 Y758.025
N8830 G1 Z1. F500.
N8840 Z-11.43 F5000.
N8850 X95.324 Y758.033 Z-11.572
N8860 X95.321 Y758.057 Z-11.713
N8870 X95.316 Y758.096 Z-11.849
N8880 X95.309 Y758.15 Z-11.981
N8890 X95.3 Y758.218 Z-12.106
N8900 X95.29 Y758.3 Z-12.222
N8910 X95.278 Y758.394 Z-12.328
N8920 X95.265 Y758.499 Z-12.423
N8930 X95.25 Y758.615 Z-12.505
N8940 X95.235 Y758.738 Z-12.574
N8950 X95.218 Y758.869 Z-12.629
N8960 X95.201 Y759.005 Z-12.668
N8970 X95.183 Y759.144 Z-12.692
N8980 X95.166 Y759.285 Z-12.7
N8990 X95.15 Y759.411
N9000 G3 X80.956 Y770.416 R12.7
N9010 X73.57 Y766.797 R12.7
N9020 G1 X50.551 Y743.778
N9030 G3 X46.831 Y734.798 R12.7
N9040 G1 Y702.168
N9050 G2 X15.276 Y715.239 R38.949
N9060 G1 X38.349 Y738.312
N9070 G3 X42.069 Y747.292 R12.7
N9080 G1 Y779.145
N9090 X73.922
N9100 G3 X82.902 Y782.865 R12.7
N9110 G1 X91.53 Y791.493
N9120 G3 X95.15 Y798.881 R12.7
N9130 G1 X95.156 Y798.93
N9140 X95.174 Y799.071 Z-12.692
N9150 X95.191 Y799.211 Z-12.668
N9160 X95.209 Y799.346 Z-12.629
N9170 X95.225 Y799.477 Z-12.574
N9180 X95.241 Y799.601 Z-12.505
N9190 X95.255 Y799.716 Z-12.423
N9200 X95.269 Y799.821 Z-12.328
N9210 X95.281 Y799.915 Z-12.222
N9220 X95.291 Y799.997 Z-12.106
N9230 X95.299 Y800.065 Z-11.981
N9240 X95.306 Y800.119 Z-11.849
N9250 X95.311 Y800.159 Z-11.713
N9260 X95.314 Y800.182 Z-11.572
N9270 X95.315 Y800.19 Z-11.43
N9280 G0 Z15.
N9290 X96.245 Y884.535
N9300 Z5.
N9310 G1 Z-11.43 F500.
N9320 X96.239 Y884.54 Z-11.572 F5000.
N9330 X96.221 Y884.555 Z-11.713
N9340 X96.19 Y884.579 Z-11.849
N9350 X96.147 Y884.613 Z-11.981
N9360 X96.093 Y884.656 Z-12.106
N9370 X96.028 Y884.707 Z-12.222
N9380 X95.954 Y884.766 Z-12.328
N9390 X95.871 Y884.832 Z-12.423
N9400 X95.78 Y884.904 Z-12.505
N9410 X95.682 Y884.982 Z-12.574
N9420 X95.579 Y885.064 Z-12.629
N9430 X95.472 Y885.149 Z-12.668
N9440 X95.362 Y885.236 Z-12.692
N9450 X95.251 Y885.325 Z-12.7
N9460 X95.145 Y885.408
N9470 G3 X88.26 Y888.98 R20.287
N9480 G2 X88.143 Y889.193 R0.172
N9490 X88.187 Y889.267 R0.172
N9500 G1 X95.14 Y896.17
N9510 G3 X95.144 Y897.068 R0.635
N9520 X94.483 Y897.22 R0.635
N9530 G1 X55.118 Y883.415
N9540 X55.049 Y883.395
N9550 X54.979 Y883.383
N9560 X54.908 Y883.379
N9570 X49.908
N9580 G3 X49.595 Y883.066 R0.313
N9590 G1 Y865.577
N9600 G3 X49.741 Y865.431 R0.146
N9610 X49.844 Y865.474 R0.146
N9620 G1 X67.499 Y883.13
N9630 G3 Y883.336 R0.146
N9640 X67.396 Y883.379 R0.146
N9650 G1 X54.908
N9660 G3 X54.629 Y883.34 Z-12.668 R1.239
N9670 X54.378 Y883.245 Z-12.574 R1.239
N9680 G1 X54.273 Y883.185 Z-12.499
N9690 X54.175 Y883.116 Z-12.423
N9700 X54.099 Y883.05 Z-12.322
N9710 X54.028 Y882.979 Z-12.222
N9720 X53.978 Y882.922 Z-12.101
N9730 X53.932 Y882.862 Z-11.981
N9740 X53.881 Y882.784 Z-11.713
N9750 X53.864 Y882.756 Z-11.43
N9760 G0 Z5.
N9770 X95.315 Y911.95
N9780 G1 Z1. F500.
N9790 Z-11.43 F5000.
N9800 X95.314 Y911.942 Z-11.572
N9810 X95.311 Y911.919 Z-11.713
N9820 X95.306 Y911.879 Z-11.849
N9830 X95.299 Y911.825 Z-11.981
N9840 X95.291 Y911.757 Z-12.106
N9850 X95.281 Y911.675 Z-12.222
N9860 X95.269 Y911.581 Z-12.328
N9870 X95.255 Y911.476 Z-12.423
N9880 X95.241 Y911.361 Z-12.505
N9890 X95.225 Y911.237 Z-12.574
N9900 X95.209 Y911.106 Z-12.629
N9910 X95.191 Y910.971 Z-12.668
N9920 X95.174 Y910.831 Z-12.692
N9930 X95.156 Y910.69 Z-12.7
N9940 X95.15 Y910.641
N9950 G2 X91.53 Y903.253 R12.7
N9960 G1 X82.902 Y894.625
N9970 G2 X73.922 Y890.905 R12.7
N9980 G1 X42.069
N9990 Y859.052
N10000 G2 X38.349 Y850.072 R12.7
N10010 G1 X15.276 Y826.999
N10020 G3 X46.831 Y813.928 R38.949
N10030 G1 Y840.147
N10040 G3 X43.48 Y843.498 R3.351
N10050 X40.949 Y842.343 R3.351
N10060 G2 X36.669 Y837.749 R88.719
N10070 G1 X30.807 Y831.887
N10080 X26.361 Y827.44
N10090 G3 Y827.114 R0.231
N10100 X26.392 Y827.089 R0.231
N10110 X39.035 Y821.851 R31.424
N10120 X39.302 Y822.039 R0.231
N10130 X39.305 Y822.078 R0.231
N10140 G1 Y840.033
N10150 G3 X39.159 Y840.179 R0.146
N10160 X39.056 Y840.136 R0.146
N10170 G1 X36.669 Y837.749
N10180 G3 X36.5 Y837.524 Z-12.668 R1.239
N10190 X36.39 Y837.279 Z-12.574 R1.239
N10200 G1 X36.358 Y837.163 Z-12.499
N10210 X36.338 Y837.045 Z-12.423
N10220 X36.33 Y836.944 Z-12.322
N10230 Y836.844 Z-12.222
N10240 X36.335 Y836.769 Z-12.101
N10250 X36.345 Y836.694 Z-11.981
N10260 X36.364 Y836.602 Z-11.713
N10270 X36.372 Y836.571 Z-11.43
N10280 G0 Z5.
N10290 X95.325 Y869.785
N10300 G1 Z1. F500.
N10310 Z-11.43 F5000.
N10320 X95.324 Y869.793 Z-11.572
N10330 X95.321 Y869.817 Z-11.713
N10340 X95.316 Y869.856 Z-11.849
N10350 X95.309 Y869.91 Z-11.981
N10360 X95.3 Y869.978 Z-12.106
N10370 X95.29 Y870.06 Z-12.222
N10380 X95.278 Y870.154 Z-12.328
N10390 X95.265 Y870.259 Z-12.423
N10400 X95.25 Y870.375 Z-12.505
N10410 X95.235 Y870.498 Z-12.574
N10420 X95.218 Y870.629 Z-12.629
N10430 X95.201 Y870.765 Z-12.668
N10440 X95.183 Y870.904 Z-12.692
N10450 X95.166 Y871.045 Z-12.7
N10460 X95.15 Y871.171
N10470 G3 X80.956 Y882.176 R12.7
N10480 X73.57 Y878.557 R12.7
N10490 G1 X50.551 Y855.538
N10500 G3 X46.831 Y846.558 R12.7
N10510 G1 Y813.928
N10520 G2 X15.276 Y826.999 R38.949
N10530 G1 X38.349 Y850.072
N10540 G3 X42.069 Y859.052 R12.7
N10550 G1 Y890.905
N10560 X73.922
N10570 G3 X82.902 Y894.625 R12.7
N10580 G1 X91.53 Y903.253
N10590 G3 X95.15 Y910.641 R12.7
N10600 G1 X95.156 Y910.69
N10610 X95.174 Y910.831 Z-12.692
N10620 X95.191 Y910.971 Z-12.668
N10630 X95.209 Y911.106 Z-12.629
N10640 X95.225 Y911.237 Z-12.574
N10650 X95.241 Y911.361 Z-12.505
N10660 X95.255 Y911.476 Z-12.423
N10670 X95.269 Y911.581 Z-12.328
N10680 X95.281 Y911.675 Z-12.222
N10690 X95.291 Y911.757 Z-12.106
N10700 X95.299 Y911.825 Z-11.981
N10710 X95.306 Y911.879 Z-11.849
N10720 X95.311 Y911.919 Z-11.713
N10730 X95.314 Y911.942 Z-11.572
N10740 X95.315 Y911.95 Z-11.43
N10750 G0 Z15.
N10760 X96.248 Y996.292
N10770 Z5.
N10780 G1 Z-11.43 F500.
N10790 X96.242 Y996.297 Z-11.572 F5000.
N10800 X96.223 Y996.312 Z-11.713
N10810 X96.193 Y996.337 Z-11.849
N10820 X96.15 Y996.37 Z-11.981
N10830 X96.096 Y996.413 Z-12.106
N10840 X96.031 Y996.465 Z-12.222
N10850 X95.957 Y996.524 Z-12.328
N10860 X95.874 Y996.59 Z-12.423
N10870 X95.783 Y996.662 Z-12.505
N10880 X95.685 Y996.739 Z-12.574
N10890 X95.582 Y996.821 Z-12.629
N10900 X95.475 Y996.906 Z-12.668
N10910 X95.365 Y996.994 Z-12.692
N10920 X95.254 Y997.082 Z-12.7
N10930 X95.148 Y997.166
N10940 G3 X88.263 Y1000.739 R20.287
N10950 G2 X88.147 Y1000.952 R0.172
N10960 X88.191 Y1001.026 R0.172
N10970 G1 X95.141 Y1007.928
N10980 G3 X95.144 Y1008.826 R0.635
N10990 X94.484 Y1008.977 R0.635
N11000 G1 X55.116 Y995.174
N11010 X55.047 Y995.154
N11020 X54.977 Y995.142
N11030 X54.906 Y995.138
N11040 X49.908 Y995.137
N11050 G3 X49.595 Y994.823 R0.313
N11060 G1 Y977.337
N11070 G3 X49.741 Y977.191 R0.146
N11080 X49.844 Y977.234 R0.146
N11090 G1 X67.502 Y994.893
N11100 G3 Y995.099 R0.146
N11110 X67.399 Y995.142 R0.146
N11120 G1 X54.906 Y995.138
N11130 G3 X54.627 Y995.099 Z-12.668 R1.239
N11140 X54.376 Y995.004 Z-12.574 R1.239
N11150 G1 X54.272 Y994.944 Z-12.499
N11160 X54.173 Y994.874 Z-12.423
N11170 X54.097 Y994.809 Z-12.322
N11180 X54.026 Y994.738 Z-12.222
N11190 X53.976 Y994.681 Z-12.101
N11200 X53.931 Y994.621 Z-11.981
N11210 X53.879 Y994.542 Z-11.713
N11220 X53.863 Y994.515 Z-11.43
N11230 G0 Z5.
N11240 X95.315 Y1023.707
N11250 G1 Z1. F500.
N11260 Z-11.43 F5000.
N11270 X95.314 Y1023.699 Z-11.572
N11280 X95.311 Y1023.676 Z-11.713
N11290 X95.306 Y1023.637 Z-11.849
N11300 X95.299 Y1023.582 Z-11.981
N11310 X95.291 Y1023.514 Z-12.106
N11320 X95.281 Y1023.432 Z-12.222
N11330 X95.269 Y1023.338 Z-12.328
N11340 X95.255 Y1023.233 Z-12.423
N11350 X95.241 Y1023.118 Z-12.505
N11360 X95.225 Y1022.994 Z-12.574
N11370 X95.209 Y1022.863 Z-12.629
N11380 X95.191 Y1022.728 Z-12.668
N11390 X95.174 Y1022.588 Z-12.692
N11400 X95.156 Y1022.447 Z-12.7
N11410 X95.15 Y1022.398
N11420 G2 X91.531 Y1015.01 R12.7
N11430 G1 X82.903 Y1006.38
N11440 X82.891 Y1006.369
N11450 G2 X73.92 Y1002.67 R12.703
N11460 G1 X42.071 Y1002.66
N11470 X42.069 Y970.812
N11480 G2 X38.349 Y961.832 R12.7
N11490 G1 X15.276 Y938.759
N11500 G3 X46.831 Y925.688 R38.949
N11510 G1 Y951.907
N11520 G3 X43.48 Y955.258 R3.351
N11530 X40.949 Y954.103 R3.351
N11540 G2 X36.669 Y949.509 R88.719
N11550 G1 X30.807 Y943.647
N11560 X26.361 Y939.2
N11570 G3 Y938.874 R0.231
N11580 X26.392 Y938.849 R0.231
N11590 X39.035 Y933.611 R31.424
N11600 X39.302 Y933.799 R0.231
N11610 X39.305 Y933.839 R0.231
N11620 G1 Y951.793
N11630 G3 X39.159 Y951.939 R0.146
N11640 X39.056 Y951.896 R0.146
N11650 G1 X36.669 Y949.509
N11660 G3 X36.5 Y949.284 Z-12.668 R1.239
N11670 X36.39 Y949.039 Z-12.574 R1.239
N11680 G1 X36.358 Y948.923 Z-12.499
N11690 X36.338 Y948.805 Z-12.423
N11700 X36.33 Y948.704 Z-12.322
N11710 Y948.604 Z-12.222
N11720 X36.335 Y948.529 Z-12.101
N11730 X36.345 Y948.454 Z-11.981
N11740 X36.364 Y948.362 Z-11.713
N11750 X36.372 Y948.331 Z-11.43
N11760 G0 Z5.
N11770 X95.325 Y981.545
N11780 G1 Z1. F500.
N11790 Z-11.43 F5000.
N11800 X95.324 Y981.553 Z-11.572
N11810 X95.321 Y981.577 Z-11.713
N11820 X95.316 Y981.616 Z-11.849
N11830 X95.309 Y981.67 Z-11.981
N11840 X95.3 Y981.738 Z-12.106
N11850 X95.29 Y981.82 Z-12.222
N11860 X95.278 Y981.914 Z-12.328
N11870 X95.265 Y982.019 Z-12.423
N11880 X95.25 Y982.135 Z-12.505
N11890 X95.235 Y982.258 Z-12.574
N11900 X95.218 Y982.389 Z-12.629
N11910 X95.201 Y982.525 Z-12.668
N11920 X95.183 Y982.664 Z-12.692
N11930 X95.166 Y982.805 Z-12.7
N11940 X95.15 Y982.931
N11950 G3 X80.956 Y993.936 R12.7
N11960 X73.57 Y990.317 R12.7
N11970 G1 X50.551 Y967.298
N11980 G3 X46.831 Y958.318 R12.7
N11990 G1 Y925.688
N12000 G2 X15.276 Y938.759 R38.949
N12010 G1 X38.349 Y961.832
N12020 G3 X42.069 Y970.812 R12.7
N12030 G1 X42.071 Y1002.66
N12040 X73.92 Y1002.67
N12050 G3 X82.891 Y1006.369 R12.703
N12060 G1 X82.903 Y1006.38
N12070 X91.531 Y1015.01
N12080 G3 X95.15 Y1022.398 R12.7
N12090 G1 X95.156 Y1022.447
N12100 X95.174 Y1022.588 Z-12.692
N12110 X95.191 Y1022.728 Z-12.668
N12120 X95.209 Y1022.863 Z-12.629
N12130 X95.225 Y1022.994 Z-12.574
N12140 X95.241 Y1023.118 Z-12.505
N12150 X95.255 Y1023.233 Z-12.423
N12160 X95.269 Y1023.338 Z-12.328
N12170 X95.281 Y1023.432 Z-12.222
N12180 X95.291 Y1023.514 Z-12.106
N12190 X95.299 Y1023.582 Z-11.981
N12200 X95.306 Y1023.637 Z-11.849
N12210 X95.311 Y1023.676 Z-11.713
N12220 X95.314 Y1023.699 Z-11.572
N12230 X95.315 Y1023.707 Z-11.43
N12240 G0 Z15.
N12250 X96.237 Y1108.065
N12260 Z5.
N12270 G1 Z-11.43 F500.
N12280 X96.231 Y1108.07 Z-11.572 F5000.
N12290 X96.212 Y1108.085 Z-11.713
N12300 X96.181 Y1108.11 Z-11.849
N12310 X96.139 Y1108.144 Z-11.981
N12320 X96.085 Y1108.186 Z-12.106
N12330 X96.02 Y1108.238 Z-12.222
N12340 X95.946 Y1108.297 Z-12.328
N12350 X95.863 Y1108.363 Z-12.423
N12360 X95.772 Y1108.435 Z-12.505
N12370 X95.674 Y1108.512 Z-12.574
N12380 X95.571 Y1108.594 Z-12.629
N12390 X95.463 Y1108.679 Z-12.668
N12400 X95.353 Y1108.766 Z-12.692
N12410 X95.242 Y1108.854 Z-12.7
N12420 X95.136 Y1108.938
N12430 G3 X88.266 Y1112.501 R20.287
N12440 G2 X88.15 Y1112.715 R0.172
N12450 X88.193 Y1112.788 R0.172
N12460 G1 X95.141 Y1119.688
N12470 G3 X95.145 Y1120.586 R0.635
N12480 X94.484 Y1120.737 R0.635
N12490 G1 X55.118 Y1106.94
N12500 X55.05 Y1106.92
N12510 X54.98 Y1106.908
N12520 X54.908 Y1106.904
N12530 X49.908
N12540 G3 X49.595 Y1106.591 R0.313
N12550 G1 Y1089.1
N12560 G3 X49.741 Y1088.954 R0.146
N12570 X49.844 Y1088.996 R0.146
N12580 G1 X67.501 Y1106.655
N12590 G3 Y1106.861 R0.146
N12600 X67.398 Y1106.904 R0.146
N12610 G1 X54.908
N12620 G3 X54.629 Y1106.865 Z-12.668 R1.239
N12630 X54.379 Y1106.77 Z-12.574 R1.239
N12640 G1 X54.274 Y1106.71 Z-12.499
N12650 X54.176 Y1106.641 Z-12.423
N12660 X54.099 Y1106.575 Z-12.322
N12670 X54.028 Y1106.504 Z-12.222
N12680 X53.979 Y1106.447 Z-12.101
N12690 X53.933 Y1106.387 Z-11.981
N12700 X53.881 Y1106.309 Z-11.713
N12710 X53.865 Y1106.281 Z-11.43
N12720 G0 Z5.
N12730 X95.315 Y1135.467
N12740 G1 Z1. F500.
N12750 Z-11.43 F5000.
N12760 X95.314 Y1135.459 Z-11.572
N12770 X95.311 Y1135.436 Z-11.713
N12780 X95.306 Y1135.396 Z-11.849
N12790 X95.299 Y1135.342 Z-11.981
N12800 X95.291 Y1135.274 Z-12.106
N12810 X95.281 Y1135.192 Z-12.222
N12820 X95.269 Y1135.098 Z-12.328
N12830 X95.255 Y1134.993 Z-12.423
N12840 X95.241 Y1134.878 Z-12.505
N12850 X95.225 Y1134.754 Z-12.574
N12860 X95.209 Y1134.623 Z-12.629
N12870 X95.191 Y1134.488 Z-12.668
N12880 X95.174 Y1134.348 Z-12.692
N12890 X95.156 Y1134.207 Z-12.7
N12900 X95.15 Y1134.158
N12910 G2 X91.531 Y1126.77 R12.7
N12920 G1 X82.903 Y1118.14
N12930 X82.891 Y1118.129
N12940 G2 X73.918 Y1114.43 R12.703
N12950 G1 X42.074
N12960 X42.069 Y1082.57
N12970 G2 X38.349 Y1073.59 R12.7
N12980 G1 X15.276 Y1050.52
N12990 G3 X46.83 Y1037.448 R38.945
N13000 G1 X46.831 Y1063.665
N13010 G3 X43.481 Y1067.016 R3.35
N13020 X40.95 Y1065.862 R3.35
N13030 G2 X36.671 Y1061.269 R88.9
N13040 G1 X26.36 Y1050.96
N13050 G3 Y1050.634 R0.23
N13060 X26.39 Y1050.608 R0.23
N13070 X39.035 Y1045.371 R31.42
N13080 X39.302 Y1045.558 R0.231
N13090 X39.305 Y1045.598 R0.231
N13100 G1 Y1063.551
N13110 G3 X39.159 Y1063.697 R0.146
N13120 X39.056 Y1063.654 R0.146
N13130 G1 X36.671 Y1061.269
N13140 G3 X36.501 Y1061.044 Z-12.668 R1.239
N13150 X36.391 Y1060.8 Z-12.574 R1.239
N13160 G1 X36.359 Y1060.683 Z-12.499
N13170 X36.339 Y1060.565 Z-12.423
N13180 X36.331 Y1060.465 Z-12.322
N13190 Y1060.364 Z-12.222
N13200 X36.336 Y1060.289 Z-12.101
N13210 X36.347 Y1060.214 Z-11.981
N13220 X36.365 Y1060.122 Z-11.713
N13230 X36.373 Y1060.091 Z-11.43
N13240 G0 Z5.
N13250 X95.325 Y1093.308
N13260 G1 Z1. F500.
N13270 Z-11.43 F5000.
N13280 X95.324 Y1093.316 Z-11.572
N13290 X95.321 Y1093.34 Z-11.713
N13300 X95.316 Y1093.379 Z-11.849
N13310 X95.309 Y1093.433 Z-11.981
N13320 X95.3 Y1093.501 Z-12.106
N13330 X95.29 Y1093.583 Z-12.222
N13340 X95.278 Y1093.677 Z-12.328
N13350 X95.265 Y1093.782 Z-12.423
N13360 X95.25 Y1093.898 Z-12.505
N13370 X95.235 Y1094.021 Z-12.574
N13380 X95.218 Y1094.152 Z-12.629
N13390 X95.201 Y1094.288 Z-12.668
N13400 X95.183 Y1094.427 Z-12.692
N13410 X95.166 Y1094.568 Z-12.7
N13420 X95.15 Y1094.694
N13430 G3 X80.956 Y1105.699 R12.7
N13440 X73.57 Y1102.08 R12.7
N13450 G1 X50.551 Y1079.06
N13460 G3 X46.831 Y1070.08 R12.7
N13470 G1 X46.83 Y1037.448
N13480 G2 X15.276 Y1050.52 R38.945
N13490 G1 X38.349 Y1073.59
N13500 G3 X42.069 Y1082.57 R12.7
N13510 G1 X42.074 Y1114.43
N13520 X73.918
N13530 G3 X82.891 Y1118.129 R12.703
N13540 G1 X82.903 Y1118.14
N13550 X91.531 Y1126.77
N13560 G3 X95.15 Y1134.158 R12.7
N13570 G1 X95.156 Y1134.207
N13580 X95.174 Y1134.348 Z-12.692
N13590 X95.191 Y1134.488 Z-12.668
N13600 X95.209 Y1134.623 Z-12.629
N13610 X95.225 Y1134.754 Z-12.574
N13620 X95.241 Y1134.878 Z-12.505
N13630 X95.255 Y1134.993 Z-12.423
N13640 X95.269 Y1135.098 Z-12.328
N13650 X95.281 Y1135.192 Z-12.222
N13660 X95.291 Y1135.274 Z-12.106
N13670 X95.299 Y1135.342 Z-11.981
N13680 X95.306 Y1135.396 Z-11.849
N13690 X95.311 Y1135.436 Z-11.713
N13700 X95.314 Y1135.459 Z-11.572
N13710 X95.315 Y1135.467 Z-11.43
N13720 G0 Z15.
N13730 X96.237 Y1219.825
N13740 Z5.
N13750 G1 Z-11.43 F500.
N13760 X96.231 Y1219.83 Z-11.572 F5000.
N13770 X96.212 Y1219.845 Z-11.713
N13780 X96.181 Y1219.87 Z-11.849
N13790 X96.139 Y1219.904 Z-11.981
N13800 X96.085 Y1219.946 Z-12.106
N13810 X96.02 Y1219.998 Z-12.222
N13820 X95.946 Y1220.057 Z-12.328
N13830 X95.863 Y1220.123 Z-12.423
N13840 X95.772 Y1220.195 Z-12.505
N13850 X95.674 Y1220.272 Z-12.574
N13860 X95.571 Y1220.354 Z-12.629
N13870 X95.463 Y1220.439 Z-12.668
N13880 X95.353 Y1220.526 Z-12.692
N13890 X95.242 Y1220.615 Z-12.7
N13900 X95.136 Y1220.698
N13910 G3 X88.266 Y1224.261 R20.287
N13920 G2 X88.15 Y1224.475 R0.172
N13930 X88.193 Y1224.548 R0.172
N13940 G1 X95.141 Y1231.448
N13950 G3 X95.145 Y1232.346 R0.635
N13960 X94.484 Y1232.497 R0.635
N13970 G1 X55.118 Y1218.7
N13980 X55.05 Y1218.68
N13990 X54.98 Y1218.668
N14000 X54.908 Y1218.664
N14010 X49.908
N14020 G3 X49.595 Y1218.351 R0.313
N14030 G1 Y1200.86
N14040 G3 X49.741 Y1200.714 R0.146
N14050 X49.844 Y1200.756 R0.146
N14060 G1 X67.501 Y1218.415
N14070 G3 Y1218.621 R0.146
N14080 X67.398 Y1218.664 R0.146
N14090 G1 X54.908
N14100 G3 X54.629 Y1218.625 Z-12.668 R1.239
N14110 X54.379 Y1218.53 Z-12.574 R1.239
N14120 G1 X54.274 Y1218.47 Z-12.499
N14130 X54.176 Y1218.401 Z-12.423
N14140 X54.099 Y1218.335 Z-12.322
N14150 X54.028 Y1218.264 Z-12.222
N14160 X53.979 Y1218.207 Z-12.101
N14170 X53.933 Y1218.147 Z-11.981
N14180 X53.881 Y1218.069 Z-11.713
N14190 X53.865 Y1218.041 Z-11.43
N14200 G0 Z5.
N14210 X95.315 Y1247.227
N14220 G1 Z1. F500.
N14230 Z-11.43 F5000.
N14240 X95.314 Y1247.219 Z-11.572
N14250 X95.311 Y1247.196 Z-11.713
N14260 X95.306 Y1247.156 Z-11.849
N14270 X95.299 Y1247.102 Z-11.981
N14280 X95.291 Y1247.034 Z-12.106
N14290 X95.281 Y1246.952 Z-12.222
N14300 X95.269 Y1246.858 Z-12.328
N14310 X95.255 Y1246.753 Z-12.423
N14320 X95.241 Y1246.638 Z-12.505
N14330 X95.225 Y1246.514 Z-12.574
N14340 X95.209 Y1246.383 Z-12.629
N14350 X95.191 Y1246.248 Z-12.668
N14360 X95.174 Y1246.108 Z-12.692
N14370 X95.156 Y1245.967 Z-12.7
N14380 X95.15 Y1245.918
N14390 G2 X91.531 Y1238.53 R12.7
N14400 G1 X82.903 Y1229.9
N14410 X82.891 Y1229.889
N14420 G2 X73.918 Y1226.19 R12.703
N14430 G1 X42.074
N14440 X42.069 Y1194.33
N14450 G2 X38.349 Y1185.35 R12.7
N14460 G1 X15.276 Y1162.28
N14470 G3 X46.83 Y1149.208 R38.954
N14480 G1 X46.831 Y1175.425
N14490 G3 X43.48 Y1178.776 R3.351
N14500 X40.949 Y1177.621 R3.351
N14510 G2 X36.669 Y1173.028 R88.651
N14520 G1 X30.808 Y1167.167
N14530 X26.36 Y1162.72
N14540 G3 Y1162.394 R0.23
N14550 X26.391 Y1162.368 R0.23
N14560 X39.035 Y1157.131 R31.428
N14570 X39.302 Y1157.319 R0.231
N14580 X39.305 Y1157.359 R0.231
N14590 G1 Y1175.311
N14600 G3 X39.159 Y1175.457 R0.146
N14610 X39.056 Y1175.414 R0.146
N14620 G1 X36.669 Y1173.028
N14630 G3 X36.499 Y1172.802 Z-12.668 R1.239
N14640 X36.389 Y1172.558 Z-12.574 R1.239
N14650 G1 X36.358 Y1172.442 Z-12.499
N14660 X36.337 Y1172.323 Z-12.423
N14670 X36.329 Y1172.223 Z-12.322
N14680 X36.33 Y1172.123 Z-12.222
N14690 X36.335 Y1172.047 Z-12.101
N14700 X36.345 Y1171.972 Z-11.981
N14710 X36.364 Y1171.88 Z-11.713
N14720 X36.372 Y1171.849 Z-11.43
N14730 G0 Z5.
N14740 X95.325 Y1205.068
N14750 G1 Z1. F500.
N14760 Z-11.43 F5000.
N14770 X95.324 Y1205.076 Z-11.572
N14780 X95.321 Y1205.1 Z-11.713
N14790 X95.316 Y1205.139 Z-11.849
N14800 X95.309 Y1205.193 Z-11.981
N14810 X95.3 Y1205.261 Z-12.106
N14820 X95.29 Y1205.343 Z-12.222
N14830 X95.278 Y1205.437 Z-12.328
N14840 X95.265 Y1205.542 Z-12.423
N14850 X95.25 Y1205.658 Z-12.505
N14860 X95.235 Y1205.781 Z-12.574
N14870 X95.218 Y1205.912 Z-12.629
N14880 X95.201 Y1206.048 Z-12.668
N14890 X95.183 Y1206.187 Z-12.692
N14900 X95.166 Y1206.328 Z-12.7
N14910 X95.15 Y1206.454
N14920 G3 X80.956 Y1217.459 R12.7
N14930 X73.57 Y1213.84 R12.7
N14940 G1 X50.551 Y1190.82
N14950 G3 X46.831 Y1181.84 R12.7
N14960 G1 X46.83 Y1149.208
N14970 G2 X15.276 Y1162.28 R38.954
N14980 G1 X38.349 Y1185.35
N14990 G3 X42.069 Y1194.33 R12.7
N15000 G1 X42.074 Y1226.19
N15010 X73.918
N15020 G3 X82.891 Y1229.889 R12.703
N15030 G1 X82.903 Y1229.9
N15040 X91.531 Y1238.53
N15050 G3 X95.15 Y1245.918 R12.7
N15060 G1 X95.156 Y1245.967
N15070 X95.174 Y1246.108 Z-12.692
N15080 X95.191 Y1246.248 Z-12.668
N15090 X95.209 Y1246.383 Z-12.629
N15100 X95.225 Y1246.514 Z-12.574
N15110 X95.241 Y1246.638 Z-12.505
N15120 X95.255 Y1246.753 Z-12.423
N15130 X95.269 Y1246.858 Z-12.328
N15140 X95.281 Y1246.952 Z-12.222
N15150 X95.291 Y1247.034 Z-12.106
N15160 X95.299 Y1247.102 Z-11.981
N15170 X95.306 Y1247.156 Z-11.849
N15180 X95.311 Y1247.196 Z-11.713
N15190 X95.314 Y1247.219 Z-11.572
N15200 X95.315 Y1247.227 Z-11.43
N15210 G0 Z15.
N15220 X42.264 Y1379.177
N15230 Z5.
N15240 G1 Z-11.557 F500.
N15250 X42.263 Y1379.17 Z-11.685 F5000.
N15260 X42.26 Y1379.148 Z-11.811
N15270 X42.254 Y1379.113 Z-11.935
N15280 X42.247 Y1379.065 Z-12.053
N15290 X42.237 Y1379.004 Z-12.165
N15300 X42.225 Y1378.93 Z-12.27
N15310 X42.212 Y1378.846 Z-12.365
N15320 X42.197 Y1378.752 Z-12.451
N15330 X42.181 Y1378.648 Z-12.525
N15340 X42.163 Y1378.538 Z-12.587
N15350 X42.145 Y1378.421 Z-12.636
N15360 X42.125 Y1378.299 Z-12.671
N15370 X42.106 Y1378.174 Z-12.693
N15380 X42.086 Y1378.048 Z-12.7
N15390 X42.084 Y1378.04
N15400 X42.073 Y1377.941
N15410 X42.069 Y1377.841
N15420 Y1260.47
N15430 X46.831
N15440 Y1377.844
N15450 X46.827 Y1377.944
N15460 X46.816 Y1378.043
N15470 X46.808 Y1378.092
N15480 X46.786 Y1378.232 Z-12.692
N15490 X46.764 Y1378.371 Z-12.668
N15500 X46.742 Y1378.506 Z-12.629
N15510 X46.722 Y1378.636 Z-12.574
N15520 X46.702 Y1378.759 Z-12.505
N15530 X46.684 Y1378.874 Z-12.423
N15540 X46.667 Y1378.979 Z-12.328
N15550 X46.653 Y1379.072 Z-12.222
N15560 X46.64 Y1379.154 Z-12.106
N15570 X46.629 Y1379.222 Z-11.981
N15580 X46.62 Y1379.276 Z-11.849
N15590 X46.614 Y1379.314 Z-11.713
N15600 X46.61 Y1379.338 Z-11.572
N15610 X46.609 Y1379.346 Z-11.43
N15620 G0 Z15.
N15630 X194.665 Y1379.177
N15640 Z5.
N15650 G1 Z-11.557 F500.
N15660 X194.664 Y1379.17 Z-11.685 F5000.
N15670 X194.66 Y1379.148 Z-11.811
N15680 X194.655 Y1379.113 Z-11.935
N15690 X194.647 Y1379.065 Z-12.053
N15700 X194.637 Y1379.004 Z-12.165
N15710 X194.626 Y1378.93 Z-12.27
N15720 X194.612 Y1378.846 Z-12.365
N15730 X194.597 Y1378.752 Z-12.451
N15740 X194.581 Y1378.648 Z-12.525
N15750 X194.563 Y1378.538 Z-12.587
N15760 X194.545 Y1378.421 Z-12.636
N15770 X194.526 Y1378.299 Z-12.671
N15780 X194.506 Y1378.174 Z-12.693
N15790 X194.486 Y1378.048 Z-12.7
N15800 X194.485 Y1378.04
N15810 X194.473 Y1377.941
N15820 X194.469 Y1377.841
N15830 Y1260.47
N15840 X199.231
N15850 Y1377.844
N15860 X199.227 Y1377.944
N15870 X199.215 Y1378.043
N15880 X199.208 Y1378.092
N15890 X199.185 Y1378.232 Z-12.692
N15900 X199.163 Y1378.371 Z-12.668
N15910 X199.142 Y1378.506 Z-12.629
N15920 X199.121 Y1378.636 Z-12.574
N15930 X199.102 Y1378.759 Z-12.505
N15940 X199.084 Y1378.874 Z-12.423
N15950 X199.067 Y1378.979 Z-12.328
N15960 X199.052 Y1379.072 Z-12.222
N15970 X199.039 Y1379.154 Z-12.106
N15980 X199.029 Y1379.222 Z-11.981
N15990 X199.02 Y1379.276 Z-11.849
N16000 X199.014 Y1379.314 Z-11.713
N16010 X199.01 Y1379.338 Z-11.572
N16020 X199.009 Y1379.346 Z-11.43
N16030 G0 Z15.
N16040 X248.637 Y1219.825
N16050 Z5.
N16060 G1 Z-11.43 F500.
N16070 X248.631 Y1219.83 Z-11.572 F5000.
N16080 X248.612 Y1219.845 Z-11.713
N16090 X248.581 Y1219.87 Z-11.849
N16100 X248.539 Y1219.904 Z-11.981
N16110 X248.485 Y1219.946 Z-12.106
N16120 X248.42 Y1219.998 Z-12.222
N16130 X248.346 Y1220.057 Z-12.328
N16140 X248.263 Y1220.123 Z-12.423
N16150 X248.171 Y1220.195 Z-12.505
N16160 X248.074 Y1220.272 Z-12.574
N16170 X247.971 Y1220.354 Z-12.629
N16180 X247.863 Y1220.439 Z-12.668
N16190 X247.753 Y1220.526 Z-12.692
N16200 X247.642 Y1220.615 Z-12.7
N16210 X247.536 Y1220.698
N16220 G3 X240.666 Y1224.261 R20.287
N16230 G2 X240.55 Y1224.475 R0.172
N16240 X240.593 Y1224.548 R0.172
N16250 G1 X247.541 Y1231.448
N16260 G3 X247.544 Y1232.346 R0.635
N16270 X246.884 Y1232.497 R0.635
N16280 G1 X207.519 Y1218.7
N16290 X207.45 Y1218.68
N16300 X207.38 Y1218.668
N16310 X207.309 Y1218.664
N16320 X202.308
N16330 G3 X201.995 Y1218.351 R0.313
N16340 G1 Y1200.86
N16350 G3 X202.141 Y1200.714 R0.146
N16360 X202.244 Y1200.757 R0.146
N16370 G1 X219.902 Y1218.415
N16380 G3 Y1218.621 R0.146
N16390 X219.798 Y1218.664 R0.146
N16400 G1 X207.309
N16410 G3 X207.029 Y1218.625 Z-12.668 R1.239
N16420 X206.779 Y1218.53 Z-12.574 R1.239
N16430 G1 X206.674 Y1218.47 Z-12.499
N16440 X206.576 Y1218.401 Z-12.423
N16450 X206.5 Y1218.335 Z-12.322
N16460 X206.429 Y1218.264 Z-12.222
N16470 X206.379 Y1218.207 Z-12.101
N16480 X206.333 Y1218.147 Z-11.981
N16490 X206.282 Y1218.069 Z-11.713
N16500 X206.265 Y1218.041 Z-11.43
N16510 G0 Z5.
N16520 X247.715 Y1247.227
N16530 G1 Z1. F500.
N16540 Z-11.43 F5000.
N16550 X247.714 Y1247.219 Z-11.572
N16560 X247.711 Y1247.196 Z-11.713
N16570 X247.706 Y1247.156 Z-11.849
N16580 X247.699 Y1247.102 Z-11.981
N16590 X247.691 Y1247.034 Z-12.106
N16600 X247.68 Y1246.952 Z-12.222
N16610 X247.669 Y1246.858 Z-12.328
N16620 X247.655 Y1246.753 Z-12.423
N16630 X247.641 Y1246.638 Z-12.505
N16640 X247.625 Y1246.514 Z-12.574
N16650 X247.609 Y1246.383 Z-12.629
N16660 X247.591 Y1246.248 Z-12.668
N16670 X247.574 Y1246.108 Z-12.692
N16680 X247.556 Y1245.967 Z-12.7
N16690 X247.55 Y1245.918
N16700 G2 X243.93 Y1238.53 R12.7
N16710 G1 X235.303 Y1229.9
N16720 X235.291 Y1229.889
N16730 G2 X226.319 Y1226.19 R12.703
N16740 G1 X194.474
N16750 X194.469 Y1194.33
N16760 G2 X190.749 Y1185.35 R12.7
N16770 G1 X167.676 Y1162.28
N16780 G3 X199.23 Y1149.208 R38.954
N16790 G1 X199.231 Y1175.425
N16800 G3 X195.88 Y1178.776 R3.351
N16810 X193.348 Y1177.621 R3.351
N16820 G2 X189.068 Y1173.027 R88.556
N16830 G1 X178.76 Y1162.72
N16840 G3 Y1162.394 R0.231
N16850 X178.791 Y1162.368 R0.231
N16860 X191.435 Y1157.131 R31.428
N16870 X191.702 Y1157.319 R0.231
N16880 X191.705 Y1157.359 R0.231
N16890 G1 Y1175.311
N16900 G3 X191.559 Y1175.457 R0.146
N16910 X191.456 Y1175.414 R0.146
N16920 G1 X189.068 Y1173.027
N16930 G3 X188.899 Y1172.802 Z-12.668 R1.239
N16940 X188.789 Y1172.557 Z-12.574 R1.239
N16950 G1 X188.757 Y1172.441 Z-12.499
N16960 X188.737 Y1172.323 Z-12.423
N16970 X188.729 Y1172.222 Z-12.322
N16980 Y1172.122 Z-12.222
N16990 X188.734 Y1172.046 Z-12.101
N17000 X188.744 Y1171.971 Z-11.981
N17010 X188.763 Y1171.879 Z-11.713
N17020 X188.771 Y1171.849 Z-11.43
N17030 G0 Z5.
N17040 X247.725 Y1205.068
N17050 G1 Z1. F500.
N17060 Z-11.43 F5000.
N17070 X247.724 Y1205.076 Z-11.572
N17080 X247.721 Y1205.099 Z-11.713
N17090 X247.716 Y1205.138 Z-11.849
N17100 X247.709 Y1205.193 Z-11.981
N17110 X247.7 Y1205.261 Z-12.106
N17120 X247.69 Y1205.343 Z-12.222
N17130 X247.678 Y1205.437 Z-12.328
N17140 X247.665 Y1205.542 Z-12.423
N17150 X247.65 Y1205.657 Z-12.505
N17160 X247.635 Y1205.781 Z-12.574
N17170 X247.618 Y1205.912 Z-12.629
N17180 X247.601 Y1206.047 Z-12.668
N17190 X247.583 Y1206.187 Z-12.692
N17200 X247.566 Y1206.328 Z-12.7
N17210 X247.55 Y1206.454
N17220 G3 X233.356 Y1217.46 R12.7
N17230 X225.97 Y1213.84 R12.7
N17240 G1 X202.951 Y1190.82
N17250 G3 X199.231 Y1181.84 R12.7
N17260 G1 X199.23 Y1149.208
N17270 G2 X167.676 Y1162.28 R38.954
N17280 G1 X190.749 Y1185.35
N17290 G3 X194.469 Y1194.33 R12.7
N17300 G1 X194.474 Y1226.19
N17310 X226.319
N17320 G3 X235.291 Y1229.889 R12.703
N17330 G1 X235.303 Y1229.9
N17340 X243.93 Y1238.53
N17350 G3 X247.55 Y1245.918 R12.7
N17360 G1 X247.556 Y1245.967
N17370 X247.574 Y1246.108 Z-12.692
N17380 X247.591 Y1246.248 Z-12.668
N17390 X247.609 Y1246.383 Z-12.629
N17400 X247.625 Y1246.514 Z-12.574
N17410 X247.641 Y1246.638 Z-12.505
N17420 X247.655 Y1246.753 Z-12.423
N17430 X247.669 Y1246.858 Z-12.328
N17440 X247.68 Y1246.952 Z-12.222
N17450 X247.691 Y1247.034 Z-12.106
N17460 X247.699 Y1247.102 Z-11.981
N17470 X247.706 Y1247.156 Z-11.849
N17480 X247.711 Y1247.196 Z-11.713
N17490 X247.714 Y1247.219 Z-11.572
N17500 X247.715 Y1247.227 Z-11.43
N17510 G0 Z15.
N17520 X248.637 Y1108.065
N17530 Z5.
N17540 G1 Z-11.43 F500.
N17550 X248.631 Y1108.07 Z-11.572 F5000.
N17560 X248.612 Y1108.085 Z-11.713
N17570 X248.581 Y1108.11 Z-11.849
N17580 X248.539 Y1108.144 Z-11.981
N17590 X248.485 Y1108.186 Z-12.106
N17600 X248.42 Y1108.238 Z-12.222
N17610 X248.346 Y1108.297 Z-12.328
N17620 X248.263 Y1108.363 Z-12.423
N17630 X248.171 Y1108.435 Z-12.505
N17640 X248.074 Y1108.512 Z-12.574
N17650 X247.971 Y1108.594 Z-12.629
N17660 X247.863 Y1108.679 Z-12.668
N17670 X247.753 Y1108.766 Z-12.692
N17680 X247.642 Y1108.854 Z-12.7
N17690 X247.536 Y1108.938
N17700 G3 X240.666 Y1112.501 R20.287
N17710 G2 X240.55 Y1112.715 R0.172
N17720 X240.593 Y1112.788 R0.172
N17730 G1 X247.541 Y1119.688
N17740 G3 X247.544 Y1120.586 R0.635
N17750 X246.884 Y1120.737 R0.635
N17760 G1 X207.519 Y1106.94
N17770 X207.45 Y1106.92
N17780 X207.38 Y1106.908
N17790 X207.309 Y1106.904
N17800 X202.308
N17810 G3 X201.995 Y1106.591 R0.313
N17820 G1 Y1089.1
N17830 G3 X202.141 Y1088.954 R0.146
N17840 X202.244 Y1088.997 R0.146
N17850 G1 X219.902 Y1106.655
N17860 G3 Y1106.861 R0.146
N17870 X219.798 Y1106.904 R0.146
N17880 G1 X207.309
N17890 G3 X207.029 Y1106.865 Z-12.668 R1.239
N17900 X206.779 Y1106.77 Z-12.574 R1.239
N17910 G1 X206.674 Y1106.71 Z-12.499
N17920 X206.576 Y1106.641 Z-12.423
N17930 X206.5 Y1106.575 Z-12.322
N17940 X206.429 Y1106.504 Z-12.222
N17950 X206.379 Y1106.447 Z-12.101
N17960 X206.333 Y1106.387 Z-11.981
N17970 X206.282 Y1106.309 Z-11.713
N17980 X206.265 Y1106.281 Z-11.43
N17990 G0 Z5.
N18000 X247.715 Y1135.467
N18010 G1 Z1. F500.
N18020 Z-11.43 F5000.
N18030 X247.714 Y1135.459 Z-11.572
N18040 X247.711 Y1135.436 Z-11.713
N18050 X247.706 Y1135.396 Z-11.849
N18060 X247.699 Y1135.342 Z-11.981
N18070 X247.691 Y1135.274 Z-12.106
N18080 X247.68 Y1135.192 Z-12.222
N18090 X247.669 Y1135.098 Z-12.328
N18100 X247.655 Y1134.993 Z-12.423
N18110 X247.641 Y1134.878 Z-12.505
N18120 X247.625 Y1134.754 Z-12.574
N18130 X247.609 Y1134.623 Z-12.629
N18140 X247.591 Y1134.488 Z-12.668
N18150 X247.574 Y1134.348 Z-12.692
N18160 X247.556 Y1134.207 Z-12.7
N18170 X247.55 Y1134.158
N18180 G2 X243.93 Y1126.77 R12.7
N18190 G1 X235.303 Y1118.14
N18200 X235.291 Y1118.129
N18210 G2 X226.319 Y1114.43 R12.703
N18220 G1 X194.474
N18230 X194.469 Y1082.57
N18240 G2 X190.749 Y1073.59 R12.7
N18250 G1 X167.676 Y1050.52
N18260 G3 X199.23 Y1037.448 R38.945
N18270 G1 X199.231 Y1063.665
N18280 G3 X195.88 Y1067.016 R3.351
N18290 X193.35 Y1065.861 R3.351
N18300 G2 X189.07 Y1061.268 R88.804
N18310 G1 X183.207 Y1055.406
N18320 X178.76 Y1050.96
N18330 G3 Y1050.634 R0.23
N18340 X178.79 Y1050.608 R0.23
N18350 X191.435 Y1045.371 R31.42
N18360 X191.702 Y1045.558 R0.231
N18370 X191.705 Y1045.598 R0.231
N18380 G1 Y1063.551
N18390 G3 X191.559 Y1063.697 R0.146
N18400 X191.456 Y1063.654 R0.146
N18410 G1 X189.07 Y1061.268
N18420 G3 X188.9 Y1061.043 Z-12.668 R1.239
N18430 X188.79 Y1060.799 Z-12.574 R1.239
N18440 G1 X188.758 Y1060.683 Z-12.499
N18450 X188.738 Y1060.564 Z-12.423
N18460 X188.73 Y1060.464 Z-12.322
N18470 Y1060.363 Z-12.222
N18480 X188.736 Y1060.288 Z-12.101
N18490 X188.746 Y1060.213 Z-11.981
N18500 X188.765 Y1060.121 Z-11.713
N18510 X188.773 Y1060.09 Z-11.43
N18520 G0 Z5.
N18530 X247.725 Y1093.308
N18540 G1 Z1. F500.
N18550 Z-11.43 F5000.
N18560 X247.724 Y1093.316 Z-11.572
N18570 X247.721 Y1093.339 Z-11.713
N18580 X247.716 Y1093.379 Z-11.849
N18590 X247.709 Y1093.433 Z-11.981
N18600 X247.7 Y1093.501 Z-12.106
N18610 X247.69 Y1093.583 Z-12.222
N18620 X247.678 Y1093.677 Z-12.328
N18630 X247.665 Y1093.782 Z-12.423
N18640 X247.65 Y1093.898 Z-12.505
N18650 X247.635 Y1094.021 Z-12.574
N18660 X247.618 Y1094.152 Z-12.629
N18670 X247.601 Y1094.288 Z-12.668
N18680 X247.583 Y1094.427 Z-12.692
N18690 X247.566 Y1094.568 Z-12.7
N18700 X247.55 Y1094.694
N18710 G3 X233.356 Y1105.699 R12.7
N18720 X225.97 Y1102.08 R12.7
N18730 G1 X202.951 Y1079.06
N18740 G3 X199.231 Y1070.08 R12.7
N18750 G1 X199.23 Y1037.448
N18760 G2 X167.676 Y1050.52 R38.945
N18770 G1 X190.749 Y1073.59
N18780 G3 X194.469 Y1082.57 R12.7
N18790 G1 X194.474 Y1114.43
N18800 X226.319
N18810 G3 X235.291 Y1118.129 R12.703
N18820 G1 X235.303 Y1118.14
N18830 X243.93 Y1126.77
N18840 G3 X247.55 Y1134.158 R12.7
N18850 G1 X247.556 Y1134.207
N18860 X247.574 Y1134.348 Z-12.692
N18870 X247.591 Y1134.488 Z-12.668
N18880 X247.609 Y1134.623 Z-12.629
N18890 X247.625 Y1134.754 Z-12.574
N18900 X247.641 Y1134.878 Z-12.505
N18910 X247.655 Y1134.993 Z-12.423
N18920 X247.669 Y1135.098 Z-12.328
N18930 X247.68 Y1135.192 Z-12.222
N18940 X247.691 Y1135.274 Z-12.106
N18950 X247.699 Y1135.342 Z-11.981
N18960 X247.706 Y1135.396 Z-11.849
N18970 X247.711 Y1135.436 Z-11.713
N18980 X247.714 Y1135.459 Z-11.572
N18990 X247.715 Y1135.467 Z-11.43
N19000 G0 Z15.
N19010 X248.648 Y996.292
N19020 Z5.
N19030 G1 Z-11.43 F500.
N19040 X248.642 Y996.297 Z-11.572 F5000.
N19050 X248.623 Y996.312 Z-11.713
N19060 X248.593 Y996.337 Z-11.849
N19070 X248.55 Y996.37 Z-11.981
N19080 X248.496 Y996.413 Z-12.106
N19090 X248.431 Y996.465 Z-12.222
N19100 X248.357 Y996.524 Z-12.328
N19110 X248.274 Y996.59 Z-12.423
N19120 X248.183 Y996.662 Z-12.505
N19130 X248.085 Y996.739 Z-12.574
N19140 X247.982 Y996.821 Z-12.629
N19150 X247.875 Y996.906 Z-12.668
N19160 X247.765 Y996.994 Z-12.692
N19170 X247.654 Y997.082 Z-12.7
N19180 X247.548 Y997.166
N19190 G3 X240.663 Y1000.739 R20.287
N19200 G2 X240.547 Y1000.952 R0.172
N19210 X240.591 Y1001.026 R0.172
N19220 G1 X247.541 Y1007.927
N19230 G3 X247.544 Y1008.826 R0.635
N19240 X246.884 Y1008.977 R0.635
N19250 G1 X207.516 Y995.174
N19260 X207.447 Y995.154
N19270 X207.377 Y995.142
N19280 X207.306 Y995.138
N19290 X202.308 Y995.137
N19300 G3 X201.995 Y994.823 R0.313
N19310 G1 Y977.338
N19320 G3 X202.141 Y977.192 R0.146
N19330 X202.244 Y977.234 R0.146
N19340 G1 X219.903 Y994.893
N19350 G3 Y995.099 R0.146
N19360 X219.799 Y995.142 R0.146
N19370 G1 X207.306 Y995.138
N19380 G3 X207.027 Y995.099 Z-12.668 R1.239
N19390 X206.776 Y995.004 Z-12.574 R1.239
N19400 G1 X206.672 Y994.944 Z-12.499
N19410 X206.574 Y994.874 Z-12.423
N19420 X206.497 Y994.809 Z-12.322
N19430 X206.426 Y994.738 Z-12.222
N19440 X206.377 Y994.681 Z-12.101
N19450 X206.331 Y994.621 Z-11.981
N19460 X206.279 Y994.542 Z-11.713
N19470 X206.263 Y994.515 Z-11.43
N19480 G0 Z5.
N19490 X247.715 Y1023.707
N19500 G1 Z1. F500.
N19510 Z-11.43 F5000.
N19520 X247.714 Y1023.699 Z-11.572
N19530 X247.711 Y1023.676 Z-11.713
N19540 X247.706 Y1023.636 Z-11.849
N19550 X247.699 Y1023.582 Z-11.981
N19560 X247.691 Y1023.514 Z-12.106
N19570 X247.68 Y1023.432 Z-12.222
N19580 X247.669 Y1023.338 Z-12.328
N19590 X247.655 Y1023.233 Z-12.423
N19600 X247.641 Y1023.117 Z-12.505
N19610 X247.625 Y1022.994 Z-12.574
N19620 X247.609 Y1022.863 Z-12.629
N19630 X247.591 Y1022.728 Z-12.668
N19640 X247.574 Y1022.588 Z-12.692
N19650 X247.556 Y1022.447 Z-12.7
N19660 X247.55 Y1022.398
N19670 G2 X243.93 Y1015.01 R12.7
N19680 G1 X235.303 Y1006.38
N19690 X235.291 Y1006.369
N19700 G2 X226.32 Y1002.67 R12.703
N19710 G1 X194.471 Y1002.66
N19720 X194.469 Y970.812
N19730 G2 X190.749 Y961.832 R12.7
N19740 G1 X167.676 Y938.759
N19750 G3 X199.231 Y925.688 R38.95
N19760 G1 Y951.907
N19770 G3 X195.88 Y955.258 R3.351
N19780 X193.349 Y954.103 R3.351
N19790 G2 X189.069 Y949.508 R88.643
N19800 G1 X183.207 Y943.647
N19810 X178.761 Y939.2
N19820 G3 Y938.874 R0.231
N19830 X178.791 Y938.849 R0.231
N19840 X191.435 Y933.611 R31.424
N19850 X191.702 Y933.799 R0.231
N19860 X191.705 Y933.839 R0.231
N19870 G1 Y951.792
N19880 G3 X191.559 Y951.938 R0.146
N19890 X191.456 Y951.896 R0.146
N19900 G1 X189.069 Y949.508
N19910 G3 X188.899 Y949.283 Z-12.668 R1.239
N19920 X188.789 Y949.039 Z-12.574 R1.239
N19930 G1 X188.757 Y948.923 Z-12.499
N19940 X188.737 Y948.804 Z-12.423
N19950 X188.729 Y948.704 Z-12.322
N19960 Y948.603 Z-12.222
N19970 X188.735 Y948.528 Z-12.101
N19980 X188.745 Y948.453 Z-11.981
N19990 X188.764 Y948.361 Z-11.713
N20000 X188.771 Y948.33 Z-11.43
N20010 G0 Z5.
N20020 X247.725 Y981.545
N20030 G1 Z1. F500.
N20040 Z-11.43 F5000.
N20050 X247.724 Y981.553 Z-11.572
N20060 X247.721 Y981.576 Z-11.713
N20070 X247.716 Y981.616 Z-11.849
N20080 X247.709 Y981.67 Z-11.981
N20090 X247.7 Y981.738 Z-12.106
N20100 X247.69 Y981.82 Z-12.222
N20110 X247.678 Y981.914 Z-12.328
N20120 X247.665 Y982.019 Z-12.423
N20130 X247.65 Y982.134 Z-12.505
N20140 X247.635 Y982.258 Z-12.574
N20150 X247.618 Y982.389 Z-12.629
N20160 X247.601 Y982.524 Z-12.668
N20170 X247.583 Y982.664 Z-12.692
N20180 X247.566 Y982.805 Z-12.7
N20190 X247.55 Y982.931
N20200 G3 X233.356 Y993.936 R12.7
N20210 X225.97 Y990.317 R12.7
N20220 G1 X202.951 Y967.298
N20230 G3 X199.231 Y958.318 R12.7
N20240 G1 Y925.688
N20250 G2 X167.676 Y938.759 R38.95
N20260 G1 X190.749 Y961.832
N20270 G3 X194.469 Y970.812 R12.7
N20280 G1 X194.471 Y1002.66
N20290 X226.32 Y1002.67
N20300 G3 X235.291 Y1006.369 R12.703
N20310 G1 X235.303 Y1006.38
N20320 X243.93 Y1015.01
N20330 G3 X247.55 Y1022.398 R12.7
N20340 G1 X247.556 Y1022.447
N20350 X247.574 Y1022.588 Z-12.692
N20360 X247.591 Y1022.728 Z-12.668
N20370 X247.609 Y1022.863 Z-12.629
N20380 X247.625 Y1022.994 Z-12.574
N20390 X247.641 Y1023.117 Z-12.505
N20400 X247.655 Y1023.233 Z-12.423
N20410 X247.669 Y1023.338 Z-12.328
N20420 X247.68 Y1023.432 Z-12.222
N20430 X247.691 Y1023.514 Z-12.106
N20440 X247.699 Y1023.582 Z-11.981
N20450 X247.706 Y1023.636 Z-11.849
N20460 X247.711 Y1023.676 Z-11.713
N20470 X247.714 Y1023.699 Z-11.572
N20480 X247.715 Y1023.707 Z-11.43
N20490 G0 Z15.
N20500 X248.645 Y884.535
N20510 Z5.
N20520 G1 Z-11.43 F500.
N20530 X248.639 Y884.54 Z-11.572 F5000.
N20540 X248.621 Y884.555 Z-11.713
N20550 X248.59 Y884.579 Z-11.849
N20560 X248.547 Y884.613 Z-11.981
N20570 X248.493 Y884.656 Z-12.106
N20580 X248.428 Y884.707 Z-12.222
N20590 X248.354 Y884.766 Z-12.328
N20600 X248.271 Y884.832 Z-12.423
N20610 X248.18 Y884.904 Z-12.505
N20620 X248.082 Y884.982 Z-12.574
N20630 X247.979 Y885.064 Z-12.629
N20640 X247.872 Y885.149 Z-12.668
N20650 X247.762 Y885.236 Z-12.692
N20660 X247.651 Y885.324 Z-12.7
N20670 X247.545 Y885.408
N20680 G3 X240.66 Y888.98 R20.287
N20690 G2 X240.543 Y889.193 R0.172
N20700 X240.587 Y889.267 R0.172
N20710 G1 X247.54 Y896.17
N20720 G3 X247.544 Y897.068 R0.635
N20730 X246.883 Y897.22 R0.635
N20740 G1 X207.518 Y883.415
N20750 X207.449 Y883.395
N20760 X207.379 Y883.383
N20770 X207.308 Y883.379
N20780 X202.308
N20790 G3 X201.995 Y883.066 R0.313
N20800 G1 Y865.578
N20810 G3 X202.141 Y865.432 R0.146
N20820 X202.244 Y865.474 R0.146
N20830 G1 X219.9 Y883.13
N20840 G3 Y883.336 R0.146
N20850 X219.796 Y883.379 R0.146
N20860 G1 X207.308
N20870 G3 X207.029 Y883.34 Z-12.668 R1.239
N20880 X206.778 Y883.245 Z-12.574 R1.239
N20890 G1 X206.674 Y883.185 Z-12.499
N20900 X206.575 Y883.116 Z-12.423
N20910 X206.499 Y883.05 Z-12.322
N20920 X206.428 Y882.979 Z-12.222
N20930 X206.378 Y882.922 Z-12.101
N20940 X206.333 Y882.862 Z-11.981
N20950 X206.281 Y882.784 Z-11.713
N20960 X206.265 Y882.756 Z-11.43
N20970 G0 Z5.
N20980 X247.715 Y911.95
N20990 G1 Z1. F500.
N21000 Z-11.43 F5000.
N21010 X247.714 Y911.942 Z-11.572
N21020 X247.711 Y911.919 Z-11.713
N21030 X247.706 Y911.879 Z-11.849
N21040 X247.699 Y911.825 Z-11.981
N21050 X247.691 Y911.757 Z-12.106
N21060 X247.68 Y911.675 Z-12.222
N21070 X247.669 Y911.581 Z-12.328
N21080 X247.655 Y911.476 Z-12.423
N21090 X247.641 Y911.36 Z-12.505
N21100 X247.625 Y911.237 Z-12.574
N21110 X247.609 Y911.106 Z-12.629
N21120 X247.591 Y910.97 Z-12.668
N21130 X247.574 Y910.831 Z-12.692
N21140 X247.556 Y910.69 Z-12.7
N21150 X247.55 Y910.641
N21160 G2 X243.93 Y903.253 R12.7
N21170 G1 X235.302 Y894.625
N21180 G2 X226.322 Y890.905 R12.7
N21190 G1 X194.469
N21200 Y859.052
N21210 G2 X190.749 Y850.072 R12.7
N21220 G1 X167.676 Y826.999
N21230 G3 X199.231 Y813.928 R38.95
N21240 G1 Y840.147
N21250 G3 X195.88 Y843.498 R3.351
N21260 X193.349 Y842.343 R3.351
N21270 G2 X189.069 Y837.748 R88.642
N21280 G1 X183.207 Y831.887
N21290 X178.761 Y827.44
N21300 G3 Y827.114 R0.231
N21310 X178.791 Y827.089 R0.231
N21320 X191.435 Y821.851 R31.424
N21330 X191.702 Y822.039 R0.231
N21340 X191.705 Y822.079 R0.231
N21350 G1 Y840.032
N21360 G3 X191.559 Y840.178 R0.146
N21370 X191.456 Y840.135 R0.146
N21380 G1 X189.069 Y837.748
N21390 G3 X188.899 Y837.523 Z-12.668 R1.239
N21400 X188.789 Y837.279 Z-12.574 R1.239
N21410 G1 X188.757 Y837.163 Z-12.499
N21420 X188.737 Y837.044 Z-12.423
N21430 X188.729 Y836.944 Z-12.322
N21440 Y836.843 Z-12.222
N21450 X188.735 Y836.768 Z-12.101
N21460 X188.745 Y836.693 Z-11.981
N21470 X188.764 Y836.601 Z-11.713
N21480 X188.771 Y836.57 Z-11.43
N21490 G0 Z5.
N21500 X247.725 Y869.785
N21510 G1 Z1. F500.
N21520 Z-11.43 F5000.
N21530 X247.724 Y869.793 Z-11.572
N21540 X247.721 Y869.816 Z-11.713
N21550 X247.716 Y869.855 Z-11.849
N21560 X247.709 Y869.91 Z-11.981
N21570 X247.7 Y869.978 Z-12.106
N21580 X247.69 Y870.06 Z-12.222
N21590 X247.678 Y870.154 Z-12.328
N21600 X247.665 Y870.259 Z-12.423
N21610 X247.65 Y870.374 Z-12.505
N21620 X247.635 Y870.498 Z-12.574
N21630 X247.618 Y870.629 Z-12.629
N21640 X247.601 Y870.764 Z-12.668
N21650 X247.583 Y870.904 Z-12.692
N21660 X247.566 Y871.045 Z-12.7
N21670 X247.55 Y871.171
N21680 G3 X233.356 Y882.176 R12.7
N21690 X225.97 Y878.557 R12.7
N21700 G1 X202.951 Y855.538
N21710 G3 X199.231 Y846.558 R12.7
N21720 G1 Y813.928
N21730 G2 X167.676 Y826.999 R38.95
N21740 G1 X190.749 Y850.072
N21750 G3 X194.469 Y859.052 R12.7
N21760 G1 Y890.905
N21770 X226.322
N21780 G3 X235.302 Y894.625 R12.7
N21790 G1 X243.93 Y903.253
N21800 G3 X247.55 Y910.641 R12.7
N21810 G1 X247.556 Y910.69
N21820 X247.574 Y910.831 Z-12.692
N21830 X247.591 Y910.97 Z-12.668
N21840 X247.609 Y911.106 Z-12.629
N21850 X247.625 Y911.237 Z-12.574
N21860 X247.641 Y911.36 Z-12.505
N21870 X247.655 Y911.476 Z-12.423
N21880 X247.669 Y911.581 Z-12.328
N21890 X247.68 Y911.675 Z-12.222
N21900 X247.691 Y911.757 Z-12.106
N21910 X247.699 Y911.825 Z-11.981
N21920 X247.706 Y911.879 Z-11.849
N21930 X247.711 Y911.919 Z-11.713
N21940 X247.714 Y911.942 Z-11.572
N21950 X247.715 Y911.95 Z-11.43
N21960 G0 Z15.
N21970 X248.645 Y772.775
N21980 Z5.
N21990 G1 Z-11.43 F500.
N22000 X248.639 Y772.78 Z-11.572 F5000.
N22010 X248.621 Y772.795 Z-11.713
N22020 X248.59 Y772.819 Z-11.849
N22030 X248.547 Y772.853 Z-11.981
N22040 X248.493 Y772.896 Z-12.106
N22050 X248.428 Y772.947 Z-12.222
N22060 X248.354 Y773.006 Z-12.328
N22070 X248.271 Y773.072 Z-12.423
N22080 X248.18 Y773.144 Z-12.505
N22090 X248.082 Y773.222 Z-12.574
N22100 X247.979 Y773.304 Z-12.629
N22110 X247.872 Y773.389 Z-12.668
N22120 X247.762 Y773.476 Z-12.692
N22130 X247.651 Y773.565 Z-12.7
N22140 X247.545 Y773.648
N22150 G3 X240.66 Y777.22 R20.287
N22160 G2 X240.543 Y777.433 R0.172
N22170 X240.587 Y777.507 R0.172
N22180 G1 X247.54 Y784.41
N22190 G3 X247.544 Y785.308 R0.635
N22200 X246.883 Y785.46 R0.635
N22210 G1 X207.518 Y771.655
N22220 X207.449 Y771.635
N22230 X207.379 Y771.623
N22240 X207.308 Y771.619
N22250 X202.308
N22260 G3 X201.995 Y771.306 R0.313
N22270 G1 Y753.818
N22280 G3 X202.141 Y753.672 R0.146
N22290 X202.244 Y753.714 R0.146
N22300 G1 X219.9 Y771.37
N22310 G3 Y771.576 R0.146
N22320 X219.796 Y771.619 R0.146
N22330 G1 X207.308
N22340 G3 X207.029 Y771.58 Z-12.668 R1.239
N22350 X206.778 Y771.485 Z-12.574 R1.239
N22360 G1 X206.674 Y771.425 Z-12.499
N22370 X206.575 Y771.356 Z-12.423
N22380 X206.499 Y771.29 Z-12.322
N22390 X206.428 Y771.219 Z-12.222
N22400 X206.378 Y771.162 Z-12.101
N22410 X206.333 Y771.102 Z-11.981
N22420 X206.281 Y771.024 Z-11.713
N22430 X206.265 Y770.996 Z-11.43
N22440 G0 Z5.
N22450 X247.715 Y800.19
N22460 G1 Z1. F500.
N22470 Z-11.43 F5000.
N22480 X247.714 Y800.182 Z-11.572
N22490 X247.711 Y800.159 Z-11.713
N22500 X247.706 Y800.119 Z-11.849
N22510 X247.699 Y800.065 Z-11.981
N22520 X247.691 Y799.997 Z-12.106
N22530 X247.68 Y799.915 Z-12.222
N22540 X247.669 Y799.821 Z-12.328
N22550 X247.655 Y799.716 Z-12.423
N22560 X247.641 Y799.601 Z-12.505
N22570 X247.625 Y799.477 Z-12.574
N22580 X247.609 Y799.346 Z-12.629
N22590 X247.591 Y799.211 Z-12.668
N22600 X247.574 Y799.071 Z-12.692
N22610 X247.556 Y798.93 Z-12.7
N22620 X247.55 Y798.881
N22630 G2 X243.93 Y791.493 R12.7
N22640 G1 X235.302 Y782.865
N22650 G2 X226.322 Y779.145 R12.7
N22660 G1 X194.469
N22670 Y747.292
N22680 G2 X190.749 Y738.312 R12.7
N22690 G1 X167.676 Y715.239
N22700 G3 X199.231 Y702.168 R38.949
N22710 G1 Y728.387
N22720 G3 X195.88 Y731.738 R3.351
N22730 X193.349 Y730.583 R3.351
N22740 G2 X189.069 Y725.988 R88.642
N22750 G1 X183.207 Y720.127
N22760 X178.761 Y715.68
N22770 G3 Y715.354 R0.231
N22780 X178.791 Y715.329 R0.231
N22790 X191.435 Y710.091 R31.424
N22800 X191.702 Y710.279 R0.231
N22810 X191.705 Y710.319 R0.231
N22820 G1 Y728.272
N22830 G3 X191.559 Y728.418 R0.146
N22840 X191.456 Y728.376 R0.146
N22850 G1 X189.069 Y725.988
N22860 G3 X188.899 Y725.763 Z-12.668 R1.239
N22870 X188.789 Y725.519 Z-12.574 R1.239
N22880 G1 X188.757 Y725.403 Z-12.499
N22890 X188.737 Y725.284 Z-12.423
N22900 X188.729 Y725.184 Z-12.322
N22910 Y725.083 Z-12.222
N22920 X188.735 Y725.008 Z-12.101
N22930 X188.745 Y724.933 Z-11.981
N22940 X188.764 Y724.841 Z-11.713
N22950 X188.771 Y724.81 Z-11.43
N22960 G0 Z5.
N22970 X247.725 Y758.025
N22980 G1 Z1. F500.
N22990 Z-11.43 F5000.
N23000 X247.724 Y758.033 Z-11.572
N23010 X247.721 Y758.056 Z-11.713
N23020 X247.716 Y758.095 Z-11.849
N23030 X247.709 Y758.15 Z-11.981
N23040 X247.7 Y758.218 Z-12.106
N23050 X247.69 Y758.3 Z-12.222
N23060 X247.678 Y758.394 Z-12.328
N23070 X247.665 Y758.499 Z-12.423
N23080 X247.65 Y758.614 Z-12.505
N23090 X247.635 Y758.738 Z-12.574
N23100 X247.618 Y758.869 Z-12.629
N23110 X247.601 Y759.004 Z-12.668
N23120 X247.583 Y759.144 Z-12.692
N23130 X247.566 Y759.285 Z-12.7
N23140 X247.55 Y759.411
N23150 G3 X233.356 Y770.416 R12.7
N23160 X225.97 Y766.797 R12.7
N23170 G1 X202.951 Y743.778
N23180 G3 X199.231 Y734.798 R12.7
N23190 G1 Y702.168
N23200 G2 X167.676 Y715.239 R38.95
N23210 G1 X190.749 Y738.312
N23220 G3 X194.469 Y747.292 R12.7
N23230 G1 Y779.145
N23240 X226.322
N23250 G3 X235.302 Y782.865 R12.7
N23260 G1 X243.93 Y791.493
N23270 G3 X247.55 Y798.881 R12.7
N23280 G1 X247.556 Y798.93
N23290 X247.574 Y799.071 Z-12.692
N23300 X247.591 Y799.211 Z-12.668
N23310 X247.609 Y799.346 Z-12.629
N23320 X247.625 Y799.477 Z-12.574
N23330 X247.641 Y799.601 Z-12.505
N23340 X247.655 Y799.716 Z-12.423
N23350 X247.669 Y799.821 Z-12.328
N23360 X247.68 Y799.915 Z-12.222
N23370 X247.691 Y799.997 Z-12.106
N23380 X247.699 Y800.065 Z-11.981
N23390 X247.706 Y800.119 Z-11.849
N23400 X247.711 Y800.159 Z-11.713
N23410 X247.714 Y800.182 Z-11.572
N23420 X247.715 Y800.19 Z-11.43
N23430 G0 Z15.
N23440 X248.645 Y661.015
N23450 Z5.
N23460 G1 Z-11.43 F500.
N23470 X248.639 Y661.02 Z-11.572 F5000.
N23480 X248.621 Y661.035 Z-11.713
N23490 X248.59 Y661.059 Z-11.849
N23500 X248.547 Y661.093 Z-11.981
N23510 X248.493 Y661.136 Z-12.106
N23520 X248.428 Y661.187 Z-12.222
N23530 X248.354 Y661.246 Z-12.328
N23540 X248.271 Y661.312 Z-12.423
N23550 X248.18 Y661.384 Z-12.505
N23560 X248.082 Y661.462 Z-12.574
N23570 X247.979 Y661.544 Z-12.629
N23580 X247.872 Y661.629 Z-12.668
N23590 X247.762 Y661.716 Z-12.692
N23600 X247.651 Y661.805 Z-12.7
N23610 X247.545 Y661.888
N23620 G3 X240.66 Y665.46 R20.287
N23630 G2 X240.543 Y665.673 R0.172
N23640 X240.587 Y665.747 R0.172
N23650 G1 X247.54 Y672.65
N23660 G3 X247.544 Y673.548 R0.635
N23670 X246.883 Y673.7 R0.635
N23680 G1 X207.518 Y659.895
N23690 X207.449 Y659.875
N23700 X207.379 Y659.863
N23710 X207.308 Y659.859
N23720 X202.308
N23730 G3 X201.995 Y659.546 R0.313
N23740 G1 Y642.058
N23750 G3 X202.141 Y641.912 R0.146
N23760 X202.244 Y641.954 R0.146
N23770 G1 X219.9 Y659.61
N23780 G3 Y659.816 R0.146
N23790 X219.796 Y659.859 R0.146
N23800 G1 X207.308
N23810 G3 X207.029 Y659.82 Z-12.668 R1.239
N23820 X206.778 Y659.725 Z-12.574 R1.239
N23830 G1 X206.674 Y659.665 Z-12.499
N23840 X206.575 Y659.596 Z-12.423
N23850 X206.499 Y659.53 Z-12.322
N23860 X206.428 Y659.459 Z-12.222
N23870 X206.378 Y659.402 Z-12.101
N23880 X206.333 Y659.342 Z-11.981
N23890 X206.281 Y659.264 Z-11.713
N23900 X206.265 Y659.236 Z-11.43
N23910 G0 Z5.
N23920 X247.715 Y688.43
N23930 G1 Z1. F500.
N23940 Z-11.43 F5000.
N23950 X247.714 Y688.422 Z-11.572
N23960 X247.711 Y688.399 Z-11.713
N23970 X247.706 Y688.359 Z-11.849
N23980 X247.699 Y688.305 Z-11.981
N23990 X247.691 Y688.237 Z-12.106
N24000 X247.68 Y688.155 Z-12.222
N24010 X247.669 Y688.061 Z-12.328
N24020 X247.655 Y687.956 Z-12.423
N24030 X247.641 Y687.841 Z-12.505
N24040 X247.625 Y687.717 Z-12.574
N24050 X247.609 Y687.586 Z-12.629
N24060 X247.591 Y687.451 Z-12.668
N24070 X247.574 Y687.311 Z-12.692
N24080 X247.556 Y687.17 Z-12.7
N24090 X247.55 Y687.121
N24100 G2 X243.93 Y679.733 R12.7
N24110 G1 X235.302 Y671.105
N24120 G2 X226.322 Y667.385 R12.7
N24130 G1 X194.469
N24140 Y635.532
N24150 G2 X190.749 Y626.552 R12.7
N24160 G1 X167.676 Y603.479
N24170 G3 X199.231 Y590.408 R38.949
N24180 G1 Y616.627
N24190 G3 X195.88 Y619.978 R3.351
N24200 X193.349 Y618.823 R3.351
N24210 G2 X189.069 Y614.228 R88.642
N24220 G1 X183.207 Y608.367
N24230 X178.761 Y603.92
N24240 G3 Y603.594 R0.231
N24250 X178.791 Y603.569 R0.231
N24260 X191.435 Y598.331 R31.424
N24270 X191.702 Y598.519 R0.231
N24280 X191.705 Y598.559 R0.231
N24290 G1 Y616.512
N24300 G3 X191.559 Y616.658 R0.146
N24310 X191.456 Y616.616 R0.146
N24320 G1 X189.069 Y614.228
N24330 G3 X188.899 Y614.003 Z-12.668 R1.239
N24340 X188.789 Y613.759 Z-12.574 R1.239
N24350 G1 X188.757 Y613.643 Z-12.499
N24360 X188.737 Y613.524 Z-12.423
N24370 X188.729 Y613.424 Z-12.322
N24380 Y613.323 Z-12.222
N24390 X188.735 Y613.248 Z-12.101
N24400 X188.745 Y613.173 Z-11.981
N24410 X188.764 Y613.081 Z-11.713
N24420 X188.771 Y613.05 Z-11.43
N24430 G0 Z5.
N24440 X247.725 Y646.265
N24450 G1 Z1. F500.
N24460 Z-11.43 F5000.
N24470 X247.724 Y646.273 Z-11.572
N24480 X247.721 Y646.296 Z-11.713
N24490 X247.716 Y646.335 Z-11.849
N24500 X247.709 Y646.39 Z-11.981
N24510 X247.7 Y646.458 Z-12.106
N24520 X247.69 Y646.54 Z-12.222
N24530 X247.678 Y646.634 Z-12.328
N24540 X247.665 Y646.739 Z-12.423
N24550 X247.65 Y646.854 Z-12.505
N24560 X247.635 Y646.978 Z-12.574
N24570 X247.618 Y647.109 Z-12.629
N24580 X247.601 Y647.244 Z-12.668
N24590 X247.583 Y647.384 Z-12.692
N24600 X247.566 Y647.525 Z-12.7
N24610 X247.55 Y647.651
N24620 G3 X233.356 Y658.656 R12.7
N24630 X225.97 Y655.037 R12.7
N24640 G1 X202.951 Y632.018
N24650 G3 X199.231 Y623.038 R12.7
N24660 G1 Y590.408
N24670 G2 X167.676 Y603.479 R38.95
N24680 G1 X190.749 Y626.552
N24690 G3 X194.469 Y635.532 R12.7
N24700 G1 Y667.385
N24710 X226.322
N24720 G3 X235.302 Y671.105 R12.7
N24730 G1 X243.93 Y679.733
N24740 G3 X247.55 Y687.121 R12.7
N24750 G1 X247.556 Y687.17
N24760 X247.574 Y687.311 Z-12.692
N24770 X247.591 Y687.451 Z-12.668
N24780 X247.609 Y687.586 Z-12.629
N24790 X247.625 Y687.717 Z-12.574
N24800 X247.641 Y687.841 Z-12.505
N24810 X247.655 Y687.956 Z-12.423
N24820 X247.669 Y688.061 Z-12.328
N24830 X247.68 Y688.155 Z-12.222
N24840 X247.691 Y688.237 Z-12.106
N24850 X247.699 Y688.305 Z-11.981
N24860 X247.706 Y688.359 Z-11.849
N24870 X247.711 Y688.399 Z-11.713
N24880 X247.714 Y688.422 Z-11.572
N24890 X247.715 Y688.43 Z-11.43
N24900 G0 Z15.
N24910 X248.645 Y549.255
N24920 Z5.
N24930 G1 Z-11.43 F500.
N24940 X248.639 Y549.26 Z-11.572 F5000.
N24950 X248.621 Y549.275 Z-11.713
N24960 X248.59 Y549.299 Z-11.849
N24970 X248.547 Y549.333 Z-11.981
N24980 X248.493 Y549.376 Z-12.106
N24990 X248.428 Y549.427 Z-12.222
N25000 X248.354 Y549.486 Z-12.328
N25010 X248.271 Y549.552 Z-12.423
N25020 X248.18 Y549.624 Z-12.505
N25030 X248.082 Y549.702 Z-12.574
N25040 X247.979 Y549.784 Z-12.629
N25050 X247.872 Y549.869 Z-12.668
N25060 X247.762 Y549.956 Z-12.692
N25070 X247.651 Y550.044 Z-12.7
N25080 X247.545 Y550.128
N25090 G3 X240.66 Y553.7 R20.287
N25100 G2 X240.543 Y553.913 R0.172
N25110 X240.587 Y553.987 R0.172
N25120 G1 X247.54 Y560.89
N25130 G3 X247.544 Y561.788 R0.635
N25140 X246.883 Y561.94 R0.635
N25150 G1 X207.518 Y548.135
N25160 X207.449 Y548.115
N25170 X207.379 Y548.103
N25180 X207.308 Y548.099
N25190 X202.308
N25200 G3 X201.995 Y547.786 R0.313
N25210 G1 Y530.298
N25220 G3 X202.141 Y530.152 R0.146
N25230 X202.244 Y530.194 R0.146
N25240 G1 X219.9 Y547.85
N25250 G3 Y548.056 R0.146
N25260 X219.796 Y548.099 R0.146
N25270 G1 X207.308
N25280 G3 X207.029 Y548.06 Z-12.668 R1.239
N25290 X206.778 Y547.965 Z-12.574 R1.239
N25300 G1 X206.674 Y547.905 Z-12.499
N25310 X206.575 Y547.836 Z-12.423
N25320 X206.499 Y547.77 Z-12.322
N25330 X206.428 Y547.699 Z-12.222
N25340 X206.378 Y547.642 Z-12.101
N25350 X206.333 Y547.582 Z-11.981
N25360 X206.281 Y547.504 Z-11.713
N25370 X206.265 Y547.476 Z-11.43
N25380 G0 Z5.
N25390 X247.715 Y576.67
N25400 G1 Z1. F500.
N25410 Z-11.43 F5000.
N25420 X247.714 Y576.662 Z-11.572
N25430 X247.711 Y576.639 Z-11.713
N25440 X247.706 Y576.599 Z-11.849
N25450 X247.699 Y576.545 Z-11.981
N25460 X247.691 Y576.477 Z-12.106
N25470 X247.68 Y576.395 Z-12.222
N25480 X247.669 Y576.301 Z-12.328
N25490 X247.655 Y576.196 Z-12.423
N25500 X247.641 Y576.08 Z-12.505
N25510 X247.625 Y575.957 Z-12.574
N25520 X247.609 Y575.826 Z-12.629
N25530 X247.591 Y575.691 Z-12.668
N25540 X247.574 Y575.551 Z-12.692
N25550 X247.556 Y575.41 Z-12.7
N25560 X247.55 Y575.361
N25570 G2 X243.93 Y567.973 R12.7
N25580 G1 X235.302 Y559.345
N25590 G2 X226.322 Y555.625 R12.7
N25600 G1 X194.469
N25610 Y523.772
N25620 G2 X190.749 Y514.792 R12.7
N25630 G1 X167.676 Y491.719
N25640 G3 X199.231 Y478.648 R38.95
N25650 G1 Y504.867
N25660 G3 X195.88 Y508.218 R3.351
N25670 X193.349 Y507.063 R3.351
N25680 G2 X189.069 Y502.468 R88.642
N25690 G1 X183.207 Y496.607
N25700 X178.761 Y492.16
N25710 G3 Y491.834 R0.231
N25720 X178.791 Y491.809 R0.231
N25730 X191.435 Y486.571 R31.424
N25740 X191.702 Y486.759 R0.231
N25750 X191.705 Y486.799 R0.231
N25760 G1 Y504.752
N25770 G3 X191.559 Y504.898 R0.146
N25780 X191.456 Y504.856 R0.146
N25790 G1 X189.069 Y502.468
N25800 G3 X188.899 Y502.243 Z-12.668 R1.239
N25810 X188.789 Y501.999 Z-12.574 R1.239
N25820 G1 X188.757 Y501.883 Z-12.499
N25830 X188.737 Y501.764 Z-12.423
N25840 X188.729 Y501.664 Z-12.322
N25850 Y501.563 Z-12.222
N25860 X188.735 Y501.488 Z-12.101
N25870 X188.745 Y501.413 Z-11.981
N25880 X188.764 Y501.321 Z-11.713
N25890 X188.771 Y501.29 Z-11.43
N25900 G0 Z5.
N25910 X247.725 Y534.505
N25920 G1 Z1. F500.
N25930 Z-11.43 F5000.
N25940 X247.724 Y534.513 Z-11.572
N25950 X247.721 Y534.536 Z-11.713
N25960 X247.716 Y534.575 Z-11.849
N25970 X247.709 Y534.63 Z-11.981
N25980 X247.7 Y534.698 Z-12.106
N25990 X247.69 Y534.78 Z-12.222
N26000 X247.678 Y534.874 Z-12.328
N26010 X247.665 Y534.979 Z-12.423
N26020 X247.65 Y535.094 Z-12.505
N26030 X247.635 Y535.218 Z-12.574
N26040 X247.618 Y535.349 Z-12.629
N26050 X247.601 Y535.484 Z-12.668
N26060 X247.583 Y535.624 Z-12.692
N26070 X247.566 Y535.765 Z-12.7
N26080 X247.55 Y535.891
N26090 G3 X233.356 Y546.896 R12.7
N26100 X225.97 Y543.277 R12.7
N26110 G1 X202.951 Y520.258
N26120 G3 X199.231 Y511.278 R12.7
N26130 G1 Y478.648
N26140 G2 X167.676 Y491.719 R38.95
N26150 G1 X190.749 Y514.792
N26160 G3 X194.469 Y523.772 R12.7
N26170 G1 Y555.625
N26180 X226.322
N26190 G3 X235.302 Y559.345 R12.7
N26200 G1 X243.93 Y567.973
N26210 G3 X247.55 Y575.361 R12.7
N26220 G1 X247.556 Y575.41
N26230 X247.574 Y575.551 Z-12.692
N26240 X247.591 Y575.691 Z-12.668
N26250 X247.609 Y575.826 Z-12.629
N26260 X247.625 Y575.957 Z-12.574
N26270 X247.641 Y576.08 Z-12.505
N26280 X247.655 Y576.196 Z-12.423
N26290 X247.669 Y576.301 Z-12.328
N26300 X247.68 Y576.395 Z-12.222
N26310 X247.691 Y576.477 Z-12.106
N26320 X247.699 Y576.545 Z-11.981
N26330 X247.706 Y576.599 Z-11.849
N26340 X247.711 Y576.639 Z-11.713
N26350 X247.714 Y576.662 Z-11.572
N26360 X247.715 Y576.67 Z-11.43
N26370 G0 Z15.
N26380 X248.645 Y437.495
N26390 Z5.
N26400 G1 Z-11.43 F500.
N26410 X248.639 Y437.5 Z-11.572 F5000.
N26420 X248.621 Y437.515 Z-11.713
N26430 X248.59 Y437.539 Z-11.849
N26440 X248.547 Y437.573 Z-11.981
N26450 X248.493 Y437.616 Z-12.106
N26460 X248.428 Y437.667 Z-12.222
N26470 X248.354 Y437.726 Z-12.328
N26480 X248.271 Y437.792 Z-12.423
N26490 X248.18 Y437.864 Z-12.505
N26500 X248.082 Y437.942 Z-12.574
N26510 X247.979 Y438.024 Z-12.629
N26520 X247.872 Y438.109 Z-12.668
N26530 X247.762 Y438.196 Z-12.692
N26540 X247.651 Y438.284 Z-12.7
N26550 X247.545 Y438.368
N26560 G3 X240.66 Y441.94 R20.287
N26570 G2 X240.543 Y442.153 R0.172
N26580 X240.587 Y442.227 R0.172
N26590 G1 X247.54 Y449.13
N26600 G3 X247.544 Y450.028 R0.635
N26610 X246.883 Y450.18 R0.635
N26620 G1 X207.518 Y436.375
N26630 X207.449 Y436.355
N26640 X207.379 Y436.343
N26650 X207.308 Y436.339
N26660 X202.308
N26670 G3 X201.995 Y436.026 R0.313
N26680 G1 Y418.538
N26690 G3 X202.141 Y418.392 R0.146
N26700 X202.244 Y418.434 R0.146
N26710 G1 X219.9 Y436.09
N26720 G3 Y436.296 R0.146
N26730 X219.796 Y436.339 R0.146
N26740 G1 X207.308
N26750 G3 X207.029 Y436.3 Z-12.668 R1.239
N26760 X206.778 Y436.205 Z-12.574 R1.239
N26770 G1 X206.674 Y436.145 Z-12.499
N26780 X206.575 Y436.076 Z-12.423
N26790 X206.499 Y436.01 Z-12.322
N26800 X206.428 Y435.939 Z-12.222
N26810 X206.378 Y435.882 Z-12.101
N26820 X206.333 Y435.822 Z-11.981
N26830 X206.281 Y435.744 Z-11.713
N26840 X206.265 Y435.716 Z-11.43
N26850 G0 Z5.
N26860 X247.715 Y464.91
N26870 G1 Z1. F500.
N26880 Z-11.43 F5000.
N26890 X247.714 Y464.902 Z-11.572
N26900 X247.711 Y464.879 Z-11.713
N26910 X247.706 Y464.839 Z-11.849
N26920 X247.699 Y464.785 Z-11.981
N26930 X247.691 Y464.717 Z-12.106
N26940 X247.68 Y464.635 Z-12.222
N26950 X247.669 Y464.541 Z-12.328
N26960 X247.655 Y464.436 Z-12.423
N26970 X247.641 Y464.32 Z-12.505
N26980 X247.625 Y464.197 Z-12.574
N26990 X247.609 Y464.066 Z-12.629
N27000 X247.591 Y463.931 Z-12.668
N27010 X247.574 Y463.791 Z-12.692
N27020 X247.556 Y463.65 Z-12.7
N27030 X247.55 Y463.601
N27040 G2 X243.93 Y456.213 R12.7
N27050 G1 X235.302 Y447.585
N27060 G2 X226.322 Y443.865 R12.7
N27070 G1 X194.469
N27080 Y412.012
N27090 G2 X190.749 Y403.032 R12.7
N27100 G1 X167.676 Y379.959
N27110 G3 X199.231 Y366.888 R38.949
N27120 G1 Y393.107
N27130 G3 X195.88 Y396.458 R3.351
N27140 X193.349 Y395.303 R3.351
N27150 G2 X189.069 Y390.708 R88.642
N27160 G1 X178.761 Y380.4
N27170 G3 Y380.074 R0.231
N27180 X178.791 Y380.049 R0.231
N27190 X191.435 Y374.811 R31.424
N27200 X191.702 Y374.999 R0.231
N27210 X191.705 Y375.039 R0.231
N27220 G1 Y392.992
N27230 G3 X191.559 Y393.138 R0.146
N27240 X191.456 Y393.096 R0.146
N27250 G1 X189.069 Y390.708
N27260 G3 X188.899 Y390.483 Z-12.668 R1.239
N27270 X188.789 Y390.239 Z-12.574 R1.239
N27280 G1 X188.757 Y390.123 Z-12.499
N27290 X188.737 Y390.004 Z-12.423
N27300 X188.729 Y389.904 Z-12.322
N27310 Y389.803 Z-12.222
N27320 X188.735 Y389.728 Z-12.101
N27330 X188.745 Y389.653 Z-11.981
N27340 X188.764 Y389.561 Z-11.713
N27350 X188.771 Y389.53 Z-11.43
N27360 G0 Z5.
N27370 X247.725 Y422.745
N27380 G1 Z1. F500.
N27390 Z-11.43 F5000.
N27400 X247.724 Y422.753 Z-11.572
N27410 X247.721 Y422.776 Z-11.713
N27420 X247.716 Y422.815 Z-11.849
N27430 X247.709 Y422.87 Z-11.981
N27440 X247.7 Y422.938 Z-12.106
N27450 X247.69 Y423.02 Z-12.222
N27460 X247.678 Y423.114 Z-12.328
N27470 X247.665 Y423.219 Z-12.423
N27480 X247.65 Y423.334 Z-12.505
N27490 X247.635 Y423.458 Z-12.574
N27500 X247.618 Y423.589 Z-12.629
N27510 X247.601 Y423.724 Z-12.668
N27520 X247.583 Y423.864 Z-12.692
N27530 X247.566 Y424.005 Z-12.7
N27540 X247.55 Y424.131
N27550 G3 X233.356 Y435.136 R12.7
N27560 X225.97 Y431.517 R12.7
N27570 G1 X202.951 Y408.498
N27580 G3 X199.231 Y399.518 R12.7
N27590 G1 Y366.888
N27600 G2 X167.676 Y379.959 R38.949
N27610 G1 X190.749 Y403.032
N27620 G3 X194.469 Y412.012 R12.7
N27630 G1 Y443.865
N27640 X226.322
N27650 G3 X235.302 Y447.585 R12.7
N27660 G1 X243.93 Y456.213
N27670 G3 X247.55 Y463.601 R12.7
N27680 G1 X247.556 Y463.65
N27690 X247.574 Y463.791 Z-12.692
N27700 X247.591 Y463.931 Z-12.668
N27710 X247.609 Y464.066 Z-12.629
N27720 X247.625 Y464.197 Z-12.574
N27730 X247.641 Y464.32 Z-12.505
N27740 X247.655 Y464.436 Z-12.423
N27750 X247.669 Y464.541 Z-12.328
N27760 X247.68 Y464.635 Z-12.222
N27770 X247.691 Y464.717 Z-12.106
N27780 X247.699 Y464.785 Z-11.981
N27790 X247.706 Y464.839 Z-11.849
N27800 X247.711 Y464.879 Z-11.713
N27810 X247.714 Y464.902 Z-11.572
N27820 X247.715 Y464.91 Z-11.43
N27830 G0 Z15.
N27840 X248.645 Y325.735
N27850 Z5.
N27860 G1 Z-11.43 F500.
N27870 X248.639 Y325.74 Z-11.572 F5000.
N27880 X248.621 Y325.755 Z-11.713
N27890 X248.59 Y325.779 Z-11.849
N27900 X248.547 Y325.813 Z-11.981
N27910 X248.493 Y325.856 Z-12.106
N27920 X248.428 Y325.907 Z-12.222
N27930 X248.354 Y325.966 Z-12.328
N27940 X248.271 Y326.032 Z-12.423
N27950 X248.18 Y326.104 Z-12.505
N27960 X248.082 Y326.182 Z-12.574
N27970 X247.979 Y326.264 Z-12.629
N27980 X247.872 Y326.349 Z-12.668
N27990 X247.762 Y326.436 Z-12.692
N28000 X247.651 Y326.524 Z-12.7
N28010 X247.545 Y326.608
N28020 G3 X240.66 Y330.18 R20.287
N28030 G2 X240.543 Y330.393 R0.172
N28040 X240.587 Y330.467 R0.172
N28050 G1 X247.54 Y337.37
N28060 G3 X247.544 Y338.268 R0.635
N28070 X246.883 Y338.42 R0.635
N28080 G1 X207.518 Y324.615
N28090 X207.449 Y324.595
N28100 X207.379 Y324.583
N28110 X207.308 Y324.579
N28120 X202.308
N28130 G3 X201.995 Y324.266 R0.313
N28140 G1 Y306.778
N28150 G3 X202.141 Y306.632 R0.146
N28160 X202.244 Y306.674 R0.146
N28170 G1 X219.9 Y324.33
N28180 G3 Y324.536 R0.146
N28190 X219.796 Y324.579 R0.146
N28200 G1 X207.308
N28210 G3 X207.029 Y324.54 Z-12.668 R1.239
N28220 X206.778 Y324.445 Z-12.574 R1.239
N28230 G1 X206.674 Y324.385 Z-12.499
N28240 X206.575 Y324.316 Z-12.423
N28250 X206.499 Y324.25 Z-12.322
N28260 X206.428 Y324.179 Z-12.222
N28270 X206.378 Y324.122 Z-12.101
N28280 X206.333 Y324.062 Z-11.981
N28290 X206.281 Y323.984 Z-11.713
N28300 X206.265 Y323.956 Z-11.43
N28310 G0 Z5.
N28320 X247.715 Y353.15
N28330 G1 Z1. F500.
N28340 Z-11.43 F5000.
N28350 X247.714 Y353.142 Z-11.572
N28360 X247.711 Y353.119 Z-11.713
N28370 X247.706 Y353.079 Z-11.849
N28380 X247.699 Y353.025 Z-11.981
N28390 X247.691 Y352.957 Z-12.106
N28400 X247.68 Y352.875 Z-12.222
N28410 X247.669 Y352.781 Z-12.328
N28420 X247.655 Y352.676 Z-12.423
N28430 X247.641 Y352.56 Z-12.505
N28440 X247.625 Y352.437 Z-12.574
N28450 X247.609 Y352.306 Z-12.629
N28460 X247.591 Y352.171 Z-12.668
N28470 X247.574 Y352.031 Z-12.692
N28480 X247.556 Y351.89 Z-12.7
N28490 X247.55 Y351.841
N28500 G2 X243.93 Y344.453 R12.7
N28510 G1 X235.302 Y335.825
N28520 G2 X226.322 Y332.105 R12.7
N28530 G1 X194.469
N28540 Y300.252
N28550 G2 X190.749 Y291.272 R12.7
N28560 G1 X167.676 Y268.199
N28570 G3 X199.231 Y255.128 R38.95
N28580 G1 Y281.347
N28590 G3 X195.88 Y284.698 R3.351
N28600 X193.349 Y283.543 R3.351
N28610 G2 X189.069 Y278.948 R88.642
N28620 G1 X183.207 Y273.087
N28630 X178.761 Y268.64
N28640 G3 Y268.314 R0.231
N28650 X178.791 Y268.289 R0.231
N28660 X191.435 Y263.051 R31.424
N28670 X191.702 Y263.239 R0.231
N28680 X191.705 Y263.279 R0.231
N28690 G1 Y281.232
N28700 G3 X191.559 Y281.378 R0.146
N28710 X191.456 Y281.336 R0.146
N28720 G1 X189.069 Y278.948
N28730 G3 X188.899 Y278.723 Z-12.668 R1.239
N28740 X188.789 Y278.479 Z-12.574 R1.239
N28750 G1 X188.757 Y278.363 Z-12.499
N28760 X188.737 Y278.244 Z-12.423
N28770 X188.729 Y278.144 Z-12.322
N28780 Y278.043 Z-12.222
N28790 X188.735 Y277.968 Z-12.101
N28800 X188.745 Y277.893 Z-11.981
N28810 X188.764 Y277.801 Z-11.713
N28820 X188.771 Y277.77 Z-11.43
N28830 G0 Z5.
N28840 X247.725 Y310.985
N28850 G1 Z1. F500.
N28860 Z-11.43 F5000.
N28870 X247.724 Y310.993 Z-11.572
N28880 X247.721 Y311.016 Z-11.713
N28890 X247.716 Y311.056 Z-11.849
N28900 X247.709 Y311.11 Z-11.981
N28910 X247.7 Y311.178 Z-12.106
N28920 X247.69 Y311.26 Z-12.222
N28930 X247.678 Y311.354 Z-12.328
N28940 X247.665 Y311.459 Z-12.423
N28950 X247.65 Y311.574 Z-12.505
N28960 X247.635 Y311.698 Z-12.574
N28970 X247.618 Y311.829 Z-12.629
N28980 X247.601 Y311.964 Z-12.668
N28990 X247.583 Y312.104 Z-12.692
N29000 X247.566 Y312.245 Z-12.7
N29010 X247.55 Y312.371
N29020 G3 X233.356 Y323.376 R12.7
N29030 X225.97 Y319.757 R12.7
N29040 G1 X202.951 Y296.738
N29050 G3 X199.231 Y287.758 R12.7
N29060 G1 Y255.128
N29070 G2 X167.676 Y268.199 R38.95
N29080 G1 X190.749 Y291.272
N29090 G3 X194.469 Y300.252 R12.7
N29100 G1 Y332.105
N29110 X226.322
N29120 G3 X235.302 Y335.825 R12.7
N29130 G1 X243.93 Y344.453
N29140 G3 X247.55 Y351.841 R12.7
N29150 G1 X247.556 Y351.89
N29160 X247.574 Y352.031 Z-12.692
N29170 X247.591 Y352.171 Z-12.668
N29180 X247.609 Y352.306 Z-12.629
N29190 X247.625 Y352.437 Z-12.574
N29200 X247.641 Y352.56 Z-12.505
N29210 X247.655 Y352.676 Z-12.423
N29220 X247.669 Y352.781 Z-12.328
N29230 X247.68 Y352.875 Z-12.222
N29240 X247.691 Y352.957 Z-12.106
N29250 X247.699 Y353.025 Z-11.981
N29260 X247.706 Y353.079 Z-11.849
N29270 X247.711 Y353.119 Z-11.713
N29280 X247.714 Y353.142 Z-11.572
N29290 X247.715 Y353.15 Z-11.43
N29300 G0 Z15.
N29310 X248.645 Y213.975
N29320 Z5.
N29330 G1 Z-11.43 F500.
N29340 X248.639 Y213.98 Z-11.572 F5000.
N29350 X248.621 Y213.995 Z-11.713
N29360 X248.59 Y214.019 Z-11.849
N29370 X248.547 Y214.053 Z-11.981
N29380 X248.493 Y214.096 Z-12.106
N29390 X248.428 Y214.147 Z-12.222
N29400 X248.354 Y214.206 Z-12.328
N29410 X248.271 Y214.272 Z-12.423
N29420 X248.18 Y214.344 Z-12.505
N29430 X248.082 Y214.422 Z-12.574
N29440 X247.979 Y214.504 Z-12.629
N29450 X247.872 Y214.589 Z-12.668
N29460 X247.762 Y214.676 Z-12.692
N29470 X247.651 Y214.764 Z-12.7
N29480 X247.545 Y214.848
N29490 G3 X240.66 Y218.42 R20.287
N29500 G2 X240.543 Y218.633 R0.172
N29510 X240.587 Y218.707 R0.172
N29520 G1 X247.54 Y225.61
N29530 G3 X247.544 Y226.508 R0.635
N29540 X246.883 Y226.66 R0.635
N29550 G1 X207.518 Y212.855
N29560 X207.449 Y212.835
N29570 X207.379 Y212.823
N29580 X207.308 Y212.819
N29590 X202.308
N29600 G3 X201.995 Y212.506 R0.313
N29610 G1 Y195.018
N29620 G3 X202.141 Y194.872 R0.146
N29630 X202.244 Y194.914 R0.146
N29640 G1 X219.9 Y212.57
N29650 G3 Y212.776 R0.146
N29660 X219.796 Y212.819 R0.146
N29670 G1 X207.308
N29680 G3 X207.029 Y212.78 Z-12.668 R1.239
N29690 X206.778 Y212.685 Z-12.574 R1.239
N29700 G1 X206.674 Y212.625 Z-12.499
N29710 X206.575 Y212.556 Z-12.423
N29720 X206.499 Y212.49 Z-12.322
N29730 X206.428 Y212.419 Z-12.222
N29740 X206.378 Y212.362 Z-12.101
N29750 X206.333 Y212.302 Z-11.981
N29760 X206.281 Y212.224 Z-11.713
N29770 X206.265 Y212.196 Z-11.43
N29780 G0 Z5.
N29790 X247.715 Y241.39
N29800 G1 Z1. F500.
N29810 Z-11.43 F5000.
N29820 X247.714 Y241.382 Z-11.572
N29830 X247.711 Y241.359 Z-11.713
N29840 X247.706 Y241.319 Z-11.849
N29850 X247.699 Y241.265 Z-11.981
N29860 X247.691 Y241.197 Z-12.106
N29870 X247.68 Y241.115 Z-12.222
N29880 X247.669 Y241.021 Z-12.328
N29890 X247.655 Y240.916 Z-12.423
N29900 X247.641 Y240.8 Z-12.505
N29910 X247.625 Y240.677 Z-12.574
N29920 X247.609 Y240.546 Z-12.629
N29930 X247.591 Y240.411 Z-12.668
N29940 X247.574 Y240.271 Z-12.692
N29950 X247.556 Y240.13 Z-12.7
N29960 X247.55 Y240.081
N29970 G2 X243.93 Y232.693 R12.7
N29980 G1 X235.302 Y224.065
N29990 G2 X226.322 Y220.345 R12.7
N30000 G1 X194.469
N30010 Y188.492
N30020 G2 X190.749 Y179.512 R12.7
N30030 G1 X167.676 Y156.439
N30040 G3 X199.231 Y143.368 R38.949
N30050 G1 Y169.587
N30060 G3 X195.88 Y172.938 R3.351
N30070 X193.349 Y171.783 R3.351
N30080 G2 X189.069 Y167.188 R88.642
N30090 G1 X178.761 Y156.88
N30100 G3 Y156.554 R0.231
N30110 X178.791 Y156.529 R0.231
N30120 X191.435 Y151.291 R31.424
N30130 X191.702 Y151.479 R0.231
N30140 X191.705 Y151.519 R0.231
N30150 G1 Y169.472
N30160 G3 X191.559 Y169.618 R0.146
N30170 X191.456 Y169.576 R0.146
N30180 G1 X189.069 Y167.188
N30190 G3 X188.899 Y166.963 Z-12.668 R1.239
N30200 X188.789 Y166.719 Z-12.574 R1.239
N30210 G1 X188.757 Y166.603 Z-12.499
N30220 X188.737 Y166.484 Z-12.423
N30230 X188.729 Y166.384 Z-12.322
N30240 Y166.283 Z-12.222
N30250 X188.735 Y166.208 Z-12.101
N30260 X188.745 Y166.133 Z-11.981
N30270 X188.764 Y166.041 Z-11.713
N30280 X188.771 Y166.01 Z-11.43
N30290 G0 Z5.
N30300 X247.725 Y199.225
N30310 G1 Z1. F500.
N30320 Z-11.43 F5000.
N30330 X247.724 Y199.233 Z-11.572
N30340 X247.721 Y199.256 Z-11.713
N30350 X247.716 Y199.295 Z-11.849
N30360 X247.709 Y199.35 Z-11.981
N30370 X247.7 Y199.418 Z-12.106
N30380 X247.69 Y199.5 Z-12.222
N30390 X247.678 Y199.594 Z-12.328
N30400 X247.665 Y199.699 Z-12.423
N30410 X247.65 Y199.814 Z-12.505
N30420 X247.635 Y199.938 Z-12.574
N30430 X247.618 Y200.069 Z-12.629
N30440 X247.601 Y200.204 Z-12.668
N30450 X247.583 Y200.344 Z-12.692
N30460 X247.566 Y200.485 Z-12.7
N30470 X247.55 Y200.611
N30480 G3 X233.356 Y211.616 R12.7
N30490 X225.97 Y207.997 R12.7
N30500 G1 X202.951 Y184.978
N30510 G3 X199.231 Y175.998 R12.7
N30520 G1 Y143.368
N30530 G2 X167.676 Y156.439 R38.95
N30540 G1 X190.749 Y179.512
N30550 G3 X194.469 Y188.492 R12.7
N30560 G1 Y220.345
N30570 X226.322
N30580 G3 X235.302 Y224.065 R12.7
N30590 G1 X243.93 Y232.693
N30600 G3 X247.55 Y240.081 R12.7
N30610 G1 X247.556 Y240.13
N30620 X247.574 Y240.271 Z-12.692
N30630 X247.591 Y240.411 Z-12.668
N30640 X247.609 Y240.546 Z-12.629
N30650 X247.625 Y240.677 Z-12.574
N30660 X247.641 Y240.8 Z-12.505
N30670 X247.655 Y240.916 Z-12.423
N30680 X247.669 Y241.021 Z-12.328
N30690 X247.68 Y241.115 Z-12.222
N30700 X247.691 Y241.197 Z-12.106
N30710 X247.699 Y241.265 Z-11.981
N30720 X247.706 Y241.319 Z-11.849
N30730 X247.711 Y241.359 Z-11.713
N30740 X247.714 Y241.382 Z-11.572
N30750 X247.715 Y241.39 Z-11.43
N30760 G0 Z15.
N30770 X199.035 Y-7.573
N30780 Z5.
N30790 G1 Z-11.557 F500.
N30800 X199.036 Y-7.566 Z-11.685 F5000.
N30810 X199.04 Y-7.544 Z-11.811
N30820 X199.045 Y-7.509 Z-11.935
N30830 X199.053 Y-7.461 Z-12.053
N30840 X199.063 Y-7.4 Z-12.165
N30850 X199.074 Y-7.326 Z-12.27
N30860 X199.088 Y-7.242 Z-12.365
N30870 X199.103 Y-7.148 Z-12.451
N30880 X199.119 Y-7.044 Z-12.525
N30890 X199.137 Y-6.934 Z-12.587
N30900 X199.155 Y-6.817 Z-12.636
N30910 X199.174 Y-6.695 Z-12.671
N30920 X199.194 Y-6.57 Z-12.693
N30930 X199.214 Y-6.444 Z-12.7
N30940 X199.215 Y-6.436
N30950 X199.227 Y-6.337
N30960 X199.231 Y-6.237
N30970 Y111.125
N30980 X194.469
N30990 Y-6.244
N31000 X194.473 Y-6.344
N31010 X194.485 Y-6.443
N31020 X194.492 Y-6.492
N31030 X194.515 Y-6.632 Z-12.692
N31040 X194.537 Y-6.771 Z-12.668
N31050 X194.558 Y-6.906 Z-12.629
N31060 X194.579 Y-7.036 Z-12.574
N31070 X194.598 Y-7.159 Z-12.505
N31080 X194.616 Y-7.274 Z-12.423
N31090 X194.633 Y-7.379 Z-12.328
N31100 X194.648 Y-7.472 Z-12.222
N31110 X194.661 Y-7.554 Z-12.106
N31120 X194.671 Y-7.622 Z-11.981
N31130 X194.68 Y-7.676 Z-11.849
N31140 X194.686 Y-7.714 Z-11.713
N31150 X194.69 Y-7.738 Z-11.572
N31160 X194.691 Y-7.746 Z-11.43
N31170 G0 Z15.
N31180 X414.935 Y-7.573
N31190 Z5.
N31200 G1 Z-11.557 F500.
N31210 X414.936 Y-7.566 Z-11.685 F5000.
N31220 X414.94 Y-7.544 Z-11.811
N31230 X414.945 Y-7.509 Z-11.935
N31240 X414.953 Y-7.461 Z-12.053
N31250 X414.963 Y-7.4 Z-12.165
N31260 X414.974 Y-7.326 Z-12.27
N31270 X414.988 Y-7.242 Z-12.365
N31280 X415.003 Y-7.148 Z-12.451
N31290 X415.019 Y-7.044 Z-12.525
N31300 X415.037 Y-6.934 Z-12.587
N31310 X415.055 Y-6.817 Z-12.636
N31320 X415.074 Y-6.695 Z-12.671
N31330 X415.094 Y-6.57 Z-12.693
N31340 X415.114 Y-6.444 Z-12.7
N31350 X415.115 Y-6.436
N31360 X415.127 Y-6.337
N31370 X415.131 Y-6.237
N31380 Y111.125
N31390 X410.369
N31400 Y-6.244
N31410 X410.373 Y-6.344
N31420 X410.385 Y-6.443
N31430 X410.392 Y-6.492
N31440 X410.415 Y-6.632 Z-12.692
N31450 X410.437 Y-6.771 Z-12.668
N31460 X410.458 Y-6.906 Z-12.629
N31470 X410.479 Y-7.036 Z-12.574
N31480 X410.498 Y-7.159 Z-12.505
N31490 X410.516 Y-7.274 Z-12.423
N31500 X410.533 Y-7.379 Z-12.328
N31510 X410.548 Y-7.472 Z-12.222
N31520 X410.561 Y-7.554 Z-12.106
N31530 X410.571 Y-7.622 Z-11.981
N31540 X410.58 Y-7.676 Z-11.849
N31550 X410.586 Y-7.714 Z-11.713
N31560 X410.59 Y-7.738 Z-11.572
N31570 X410.591 Y-7.746 Z-11.43
N31580 G0 Z15.
N31590 X360.952 Y213.998
N31600 Z5.
N31610 G1 Z-11.43 F500.
N31620 X360.959 Y214.002 Z-11.572 F5000.
N31630 X360.977 Y214.017 Z-11.713
N31640 X361.008 Y214.042 Z-11.849
N31650 X361.051 Y214.076 Z-11.981
N31660 X361.105 Y214.118 Z-12.106
N31670 X361.17 Y214.169 Z-12.222
N31680 X361.244 Y214.228 Z-12.328
N31690 X361.328 Y214.294 Z-12.423
N31700 X361.419 Y214.366 Z-12.505
N31710 X361.516 Y214.443 Z-12.574
N31720 X361.62 Y214.525 Z-12.629
N31730 X361.727 Y214.61 Z-12.668
N31740 X361.837 Y214.697 Z-12.692
N31750 X361.949 Y214.785 Z-12.7
N31760 X362.054 Y214.869
N31770 G2 X368.94 Y218.42 R20.209
N31780 G3 X369.057 Y218.633 R0.172
N31790 X369.013 Y218.707 R0.172
N31800 G1 X362.055 Y225.614
N31810 G2 X362.052 Y226.512 R0.635
N31820 X362.845 Y226.6 R0.635
N31830 G1 X398.424 Y203.826
N31840 X398.48 Y203.786
N31850 X398.531 Y203.74
N31860 X407.356 Y194.914
N31870 G3 X407.562 R0.146
N31880 X407.605 Y195.018 R0.146
N31890 G1 Y212.506
N31900 G3 X407.292 Y212.819 R0.313
N31910 G1 X389.804
N31920 G3 X389.658 Y212.673 R0.146
N31930 X389.7 Y212.57 R0.146
N31940 G1 X398.531 Y203.74
N31950 G3 X398.756 Y203.57 Z-12.668 R1.239
N31960 X399. Y203.46 Z-12.574 R1.239
N31970 G1 X399.116 Y203.428 Z-12.499
N31980 X399.235 Y203.408 Z-12.423
N31990 X399.335 Y203.4 Z-12.322
N32000 X399.436 Z-12.222
N32010 X399.511 Y203.406 Z-12.101
N32020 X399.586 Y203.416 Z-11.981
N32030 X399.678 Y203.435 Z-11.713
N32040 X399.709 Y203.443 Z-11.43
N32050 G0 Z5.
N32060 X361.885 Y199.3
N32070 G1 Z1. F500.
N32080 Z-11.43 F5000.
N32090 X361.886 Y199.308 Z-11.572
N32100 X361.889 Y199.331 Z-11.713
N32110 X361.894 Y199.37 Z-11.849
N32120 X361.901 Y199.424 Z-11.981
N32130 X361.909 Y199.493 Z-12.106
N32140 X361.919 Y199.575 Z-12.222
N32150 X361.931 Y199.669 Z-12.328
N32160 X361.945 Y199.774 Z-12.423
N32170 X361.959 Y199.889 Z-12.505
N32180 X361.975 Y200.013 Z-12.574
N32190 X361.991 Y200.143 Z-12.629
N32200 X362.009 Y200.279 Z-12.668
N32210 X362.026 Y200.419 Z-12.692
N32220 X362.044 Y200.56 Z-12.7
N32230 X362.05 Y200.609
N32240 G2 X376.242 Y211.617 R12.7
N32250 X383.63 Y207.997 R12.7
N32260 G1 X406.649 Y184.978
N32270 G2 X410.369 Y175.998 R12.7
N32280 G1 Y169.543
N32290 G3 X414.132 Y163.864 R6.168
N32300 G2 X417.895 Y158.184 R6.168
N32310 G1 Y151.519
N32320 G3 X418.125 Y151.288 R0.231
N32330 X418.165 Y151.291 R0.231
N32340 X430.809 Y156.529 R31.424
N32350 X430.865 Y156.85 R0.231
N32360 X430.839 Y156.88 R0.231
N32370 G1 X418.144 Y169.576
N32380 G3 X417.938 R0.146
N32390 X417.895 Y169.472 R0.146
N32400 G1 Y158.184
N32410 G3 X417.934 Y157.905 Z-12.668 R1.239
N32420 X418.029 Y157.655 Z-12.574 R1.239
N32430 G1 X418.089 Y157.55 Z-12.499
N32440 X418.158 Y157.452 Z-12.423
N32450 X418.224 Y157.375 Z-12.322
N32460 X418.295 Y157.304 Z-12.222
N32470 X418.352 Y157.255 Z-12.101
N32480 X418.412 Y157.209 Z-11.981
N32490 X418.49 Y157.157 Z-11.713
N32500 X418.518 Y157.141 Z-11.43
N32510 G0 Z5.
N32520 X361.875 Y199.223
N32530 G1 Z1. F500.
N32540 Z-11.43 F5000.
N32550 X361.876 Y199.231 Z-11.572
N32560 X361.879 Y199.254 Z-11.713
N32570 X361.884 Y199.294 Z-11.849
N32580 X361.891 Y199.348 Z-11.981
N32590 X361.899 Y199.416 Z-12.106
N32600 X361.91 Y199.498 Z-12.222
N32610 X361.922 Y199.592 Z-12.328
N32620 X361.935 Y199.697 Z-12.423
N32630 X361.95 Y199.812 Z-12.505
N32640 X361.965 Y199.936 Z-12.574
N32650 X361.982 Y200.067 Z-12.629
N32660 X361.999 Y200.202 Z-12.668
N32670 X362.016 Y200.342 Z-12.692
N32680 X362.034 Y200.483 Z-12.7
N32690 X362.05 Y200.609
N32700 G2 X376.242 Y211.617 R12.7
N32710 X383.63 Y207.997 R12.7
N32720 G1 X406.649 Y184.978
N32730 G2 X410.369 Y175.998 R12.7
N32740 G1 Y143.368
N32750 G3 X441.924 Y156.439 R38.95
N32760 G1 X418.851 Y179.512
N32770 G2 X415.131 Y188.492 R12.7
N32780 G1 Y220.345
N32790 X383.278
N32800 G2 X374.298 Y224.065 R12.7
N32810 G1 X365.67 Y232.693
N32820 G2 X362.052 Y240.069 R12.7
N32830 G1 X362.045 Y240.118
N32840 X362.028 Y240.259 Z-12.692
N32850 X362.01 Y240.398 Z-12.668
N32860 X361.992 Y240.534 Z-12.629
N32870 X361.976 Y240.665 Z-12.574
N32880 X361.96 Y240.788 Z-12.505
N32890 X361.945 Y240.904 Z-12.423
N32900 X361.932 Y241.009 Z-12.328
N32910 X361.92 Y241.103 Z-12.222
N32920 X361.91 Y241.185 Z-12.106
N32930 X361.901 Y241.253 Z-11.981
N32940 X361.894 Y241.307 Z-11.849
N32950 X361.889 Y241.346 Z-11.713
N32960 X361.886 Y241.37 Z-11.572
N32970 X361.885 Y241.378 Z-11.43
N32980 G0 Z15.
N32990 X360.952 Y325.758
N33000 Z5.
N33010 G1 Z-11.43 F500.
N33020 X360.959 Y325.762 Z-11.572 F5000.
N33030 X360.977 Y325.777 Z-11.713
N33040 X361.008 Y325.802 Z-11.849
N33050 X361.051 Y325.836 Z-11.981
N33060 X361.105 Y325.878 Z-12.106
N33070 X361.17 Y325.929 Z-12.222
N33080 X361.244 Y325.988 Z-12.328
N33090 X361.328 Y326.054 Z-12.423
N33100 X361.419 Y326.126 Z-12.505
