%
(RAIL-12IN)
(MACHINE)
(  VENDOR AUTODESK)
(  MODEL GENERIC 3-AXIS ROUTER)
(  DESCRIPTION THIS MACHINE HAS XYZ AXIS ON THE HEAD)
(T21 D=12.7 CR=0. - ZMIN=-12.7 - FLAT END MILL)
N10 G90 G94 G17 G91.1
N20 G21
(-ATTENTION- PROPERTY SAFE RETRACTS IS SET TO CLEARANCE HEIGHT.)
(ENSURE THE CLEARANCE HEIGHT WILL CLEAR THE PART AND OR FIXTURES.)
(RAISE THE Z-AXIS TO A SAFE HEIGHT BEFORE STARTING THE PROGRAM.)
(2D POCKET12)
N30 M0
(MANUAL TOOL CHANGE TO T21)
N40 S20000 M3
N50 G4 P5.0
N60 G54
N70 G0 X46.636 Y1531.57
N80 G43 Z15. H21
N90 G0 Z5.
N100 G1 Z-11.557 F333.33
N110 X46.637 Y1531.563 Z-11.685 F3000.
N120 X46.64 Y1531.542 Z-11.811
N130 X46.646 Y1531.507 Z-11.935
N140 X46.653 Y1531.458 Z-12.053
N150 X46.663 Y1531.397 Z-12.165
N160 X46.675 Y1531.324 Z-12.27
N170 X46.688 Y1531.24 Z-12.365
N180 X46.703 Y1531.145 Z-12.451
N190 X46.719 Y1531.042 Z-12.525
N200 X46.737 Y1530.931 Z-12.587
N210 X46.755 Y1530.814 Z-12.636
N220 X46.775 Y1530.692 Z-12.671
N230 X46.794 Y1530.568 Z-12.693
N240 X46.814 Y1530.441 Z-12.7
N250 X46.816 Y1530.433
N260 X46.827 Y1530.334
N270 X46.831 Y1530.235
N280 Y1524.
N290 Y0.
N300 Y-6.244
N310 G2 X46.645 Y-6.693 R0.635
N320 X46.195 Y-6.879 R0.635
N330 G1 X42.702 Y-6.87
N340 G2 X42.069 Y-6.235 R0.635
N350 G1 Y1530.244
N360 X42.073 Y1530.344
N370 X42.084 Y1530.443
N380 X42.092 Y1530.492
N390 X42.114 Y1530.632 Z-12.692
N400 X42.136 Y1530.771 Z-12.668
N410 X42.158 Y1530.906 Z-12.629
N420 X42.178 Y1531.036 Z-12.574
N430 X42.198 Y1531.159 Z-12.505
N440 X42.216 Y1531.274 Z-12.423
N450 X42.233 Y1531.379 Z-12.328
N460 X42.248 Y1531.472 Z-12.222
N470 X42.26 Y1531.554 Z-12.106
N480 X42.271 Y1531.622 Z-11.981
N490 X42.28 Y1531.676 Z-11.849
N500 X42.286 Y1531.715 Z-11.713
N510 X42.29 Y1531.738 Z-11.572
N520 X42.291 Y1531.746 Z-11.43
N530 G0 Z15.
N540 G4 P1.0
N550 G0 X0 Y0
N560 M30
%
