%
(OVERPORCHRAILS)
(MACHINE)
(  VENDOR AUTODESK)
(  MODEL GENERIC 3-AXIS ROUTER)
(  DESCRIPTION THIS MACHINE HAS XYZ AXIS ON THE HEAD)
(T21 D=12.7 CR=0. - ZMIN=-12.7 - FLAT END MILL)
N10 G90 G94 G17 G91.1
N20 G21
(-ATTENTION- PROPERTY SAFE RETRACTS IS SET TO CLEARANCE HEIGHT.)
(ENSURE THE CLEARANCE HEIGHT WILL CLEAR THE PART AND OR FIXTURES.)
(RAISE THE Z-AXIS TO A SAFE HEIGHT BEFORE STARTING THE PROGRAM.)
(2D POCKET1)
N30 (T21 M6)
(FLAT END MILL D=12.7 12 END MILL)
N40 S20000 M3
N45 G4 P5.0
N50 G54
N60 G0 X42.258 Y-7.583
N70 Z15.
N80 G0 Z5.
N90 G1 Z-11.24 F333.33
N100 Z-11.557 F4000.
N110 X42.257 Y-7.576 Z-11.685
N120 X42.254 Y-7.554 Z-11.811
N130 X42.248 Y-7.519 Z-11.935
N140 X42.24 Y-7.471 Z-12.053
N150 X42.231 Y-7.41 Z-12.165
N160 X42.219 Y-7.336 Z-12.27
N170 X42.206 Y-7.252 Z-12.365
N180 X42.191 Y-7.158 Z-12.451
N190 X42.174 Y-7.054 Z-12.525
N200 X42.157 Y-6.944 Z-12.587
N210 X42.138 Y-6.827 Z-12.636
N220 X42.119 Y-6.705 Z-12.671
N230 X42.099 Y-6.58 Z-12.693
N240 X42.079 Y-6.454 Z-12.7
N250 X42.078 Y-6.446
N260 X42.066 Y-6.347
N270 X42.062 Y-6.247
N280 Y69.85
N290 X46.838
N300 Y0.
N310 Y-6.244
N320 X46.834 Y-6.344
N330 X46.822 Y-6.443
N340 X46.814 Y-6.492
N350 X46.792 Y-6.632 Z-12.692
N360 X46.77 Y-6.771 Z-12.668
N370 X46.749 Y-6.906 Z-12.629
N380 X46.728 Y-7.036 Z-12.574
N390 X46.709 Y-7.159 Z-12.505
N400 X46.69 Y-7.274 Z-12.423
N410 X46.674 Y-7.379 Z-12.328
N420 X46.659 Y-7.472 Z-12.222
N430 X46.646 Y-7.554 Z-12.106
N440 X46.635 Y-7.622 Z-11.981
N450 X46.627 Y-7.676 Z-11.849
N460 X46.621 Y-7.714 Z-11.713
N470 X46.617 Y-7.738 Z-11.572
N480 X46.616 Y-7.746 Z-11.43
N490 G0 Z15.
N500 X-7.25 Y156.985
N510 Z5.
N520 G1 Z-11.43 F333.33
N530 X-7.245 Y156.98 Z-11.572 F4000.
N540 X-7.228 Y156.963 Z-11.713
N550 X-7.2 Y156.934 Z-11.849
N560 X-7.162 Y156.896 Z-11.981
N570 X-7.113 Y156.847 Z-12.106
N580 X-7.056 Y156.788 Z-12.222
N590 X-6.989 Y156.72 Z-12.328
N600 X-6.914 Y156.645 Z-12.423
N610 X-6.833 Y156.562 Z-12.505
N620 X-6.745 Y156.473 Z-12.574
N630 X-6.653 Y156.38 Z-12.629
N640 X-6.557 Y156.282 Z-12.668
N650 X-6.458 Y156.182 Z-12.692
N660 X-6.358 Y156.081 Z-12.7
N670 X-6.247 Y155.969
N680 X-6.123 Y155.844
N690 X0.713 Y149.07
N700 G2 Y148.827 R0.172
N710 X0.64 Y148.784 R0.172
N720 G3 X-6.245 Y145.212 R20.287
N730 G2 X-7.137 Y145.315 R0.635
N740 X-7.275 Y145.704 R0.635
N750 G1 X-7.515 Y172.636
N760 G2 X-6.886 Y173.277 R0.635
N770 X-6.249 Y172.707 R0.635
N780 G3 X-0.77 Y161.197 R19.05
N790 G1 X73.075 Y87.352
N800 X69.707 Y83.985
N810 X15.33 Y138.361
N820 G3 X-2.63 R12.7
N830 X-6.25 Y130.975 R12.7
N840 G1 X-6.256 Y130.926
N850 X-6.274 Y130.785 Z-12.692
N860 X-6.291 Y130.645 Z-12.668
N870 X-6.308 Y130.51 Z-12.629
N880 X-6.325 Y130.379 Z-12.574
N890 X-6.341 Y130.255 Z-12.505
N900 X-6.355 Y130.14 Z-12.423
N910 X-6.369 Y130.035 Z-12.328
N920 X-6.38 Y129.941 Z-12.222
N930 X-6.391 Y129.859 Z-12.106
N940 X-6.399 Y129.791 Z-11.981
N950 X-6.406 Y129.736 Z-11.849
N960 X-6.411 Y129.697 Z-11.713
N970 X-6.414 Y129.674 Z-11.572
N980 X-6.415 Y129.666 Z-11.43
N990 G0 Z15.
N1000 X-7.25 Y286.367
N1010 Z5.
N1020 G1 Z-11.43 F333.33
N1030 X-7.244 Y286.361 Z-11.572 F4000.
N1040 X-7.228 Y286.344 Z-11.713
N1050 X-7.2 Y286.316 Z-11.849
N1060 X-7.162 Y286.278 Z-11.981
N1070 X-7.113 Y286.229 Z-12.106
N1080 X-7.055 Y286.17 Z-12.222
N1090 X-6.989 Y286.102 Z-12.328
N1100 X-6.914 Y286.027 Z-12.423
N1110 X-6.833 Y285.944 Z-12.505
N1120 X-6.745 Y285.855 Z-12.574
N1130 X-6.653 Y285.762 Z-12.629
N1140 X-6.557 Y285.664 Z-12.668
N1150 X-6.458 Y285.564 Z-12.692
N1160 X-6.358 Y285.463 Z-12.7
N1170 X-6.247 Y285.351
N1180 X-6.123 Y285.226
N1190 X0.713 Y278.452
N1200 G2 Y278.209 R0.172
N1210 X0.64 Y278.166 R0.172
N1220 G3 X-6.245 Y274.594 R20.287
N1230 G2 X-7.137 Y274.697 R0.635
N1240 X-7.275 Y275.086 R0.635
N1250 G1 X-7.515 Y302.017
N1260 G2 X-6.886 Y302.658 R0.635
N1270 X-6.249 Y302.088 R0.635
N1280 G3 X-0.77 Y290.579 R19.05
N1290 G1 X73.075 Y216.734
N1300 X69.707 Y213.366
N1310 X15.33 Y267.743
N1320 G3 X-2.63 R12.7
N1330 X-6.25 Y260.357 R12.7
N1340 G1 X-6.256 Y260.308
N1350 X-6.274 Y260.167 Z-12.692
N1360 X-6.291 Y260.027 Z-12.668
N1370 X-6.308 Y259.892 Z-12.629
N1380 X-6.325 Y259.761 Z-12.574
N1390 X-6.341 Y259.637 Z-12.505
N1400 X-6.355 Y259.522 Z-12.423
N1410 X-6.369 Y259.417 Z-12.328
N1420 X-6.38 Y259.323 Z-12.222
N1430 X-6.391 Y259.241 Z-12.106
N1440 X-6.399 Y259.173 Z-11.981
N1450 X-6.406 Y259.118 Z-11.849
N1460 X-6.411 Y259.079 Z-11.713
N1470 X-6.414 Y259.056 Z-11.572
N1480 X-6.415 Y259.048 Z-11.43
N1490 G0 Z15.
N1500 X-7.25 Y415.748
N1510 Z5.
N1520 G1 Z-11.43 F333.33
N1530 X-7.244 Y415.742 Z-11.572 F4000.
N1540 X-7.228 Y415.725 Z-11.713
N1550 X-7.2 Y415.697 Z-11.849
N1560 X-7.162 Y415.659 Z-11.981
N1570 X-7.113 Y415.61 Z-12.106
N1580 X-7.055 Y415.551 Z-12.222
N1590 X-6.989 Y415.483 Z-12.328
N1600 X-6.914 Y415.408 Z-12.423
N1610 X-6.833 Y415.325 Z-12.505
N1620 X-6.745 Y415.236 Z-12.574
N1630 X-6.653 Y415.143 Z-12.629
N1640 X-6.557 Y415.045 Z-12.668
N1650 X-6.458 Y414.945 Z-12.692
N1660 X-6.358 Y414.844 Z-12.7
N1670 X-6.247 Y414.732
N1680 X-6.123 Y414.607
N1690 X0.713 Y407.833
N1700 G2 Y407.59 R0.172
N1710 X0.64 Y407.547 R0.172
N1720 G3 X-6.245 Y403.975 R20.287
N1730 G2 X-7.138 Y404.078 R0.635
N1740 X-7.275 Y404.467 R0.635
N1750 G1 X-7.515 Y431.398
N1760 G2 X-6.886 Y432.039 R0.635
N1770 X-6.249 Y431.469 R0.635
N1780 G3 X-0.77 Y419.96 R19.05
N1790 G1 X73.075 Y346.115
N1800 X69.707 Y342.747
N1810 X15.33 Y397.124
N1820 G3 X-2.63 R12.7
N1830 X-6.25 Y389.738 R12.7
N1840 G1 X-6.256 Y389.689
N1850 X-6.274 Y389.548 Z-12.692
N1860 X-6.291 Y389.408 Z-12.668
N1870 X-6.308 Y389.273 Z-12.629
N1880 X-6.325 Y389.142 Z-12.574
N1890 X-6.341 Y389.018 Z-12.505
N1900 X-6.355 Y388.903 Z-12.423
N1910 X-6.369 Y388.798 Z-12.328
N1920 X-6.38 Y388.704 Z-12.222
N1930 X-6.391 Y388.622 Z-12.106
N1940 X-6.399 Y388.554 Z-11.981
N1950 X-6.406 Y388.499 Z-11.849
N1960 X-6.411 Y388.46 Z-11.713
N1970 X-6.414 Y388.437 Z-11.572
N1980 X-6.415 Y388.429 Z-11.43
N1990 G0 Z15.
N2000 X-7.25 Y545.129
N2010 Z5.
N2020 G1 Z-11.43 F333.33
N2030 X-7.244 Y545.123 Z-11.572 F4000.
N2040 X-7.228 Y545.106 Z-11.713
N2050 X-7.2 Y545.078 Z-11.849
N2060 X-7.162 Y545.04 Z-11.981
N2070 X-7.113 Y544.991 Z-12.106
N2080 X-7.055 Y544.932 Z-12.222
N2090 X-6.989 Y544.864 Z-12.328
N2100 X-6.914 Y544.789 Z-12.423
N2110 X-6.833 Y544.706 Z-12.505
N2120 X-6.745 Y544.617 Z-12.574
N2130 X-6.653 Y544.524 Z-12.629
N2140 X-6.557 Y544.426 Z-12.668
N2150 X-6.458 Y544.326 Z-12.692
N2160 X-6.358 Y544.225 Z-12.7
N2170 X-6.247 Y544.113
N2180 X-6.123 Y543.988
N2190 X0.713 Y537.214
N2200 G2 Y536.971 R0.172
N2210 X0.64 Y536.928 R0.172
N2220 G3 X-6.245 Y533.356 R20.287
N2230 G2 X-7.138 Y533.459 R0.635
N2240 X-7.275 Y533.848 R0.635
N2250 G1 X-7.515 Y560.779
N2260 G2 X-6.886 Y561.42 R0.635
N2270 X-6.249 Y560.85 R0.635
N2280 G3 X-0.77 Y549.341 R19.05
N2290 G1 X73.075 Y475.496
N2300 X69.707 Y472.128
N2310 X15.33 Y526.505
N2320 G3 X-2.63 R12.7
N2330 X-6.25 Y519.119 R12.7
N2340 G1 X-6.256 Y519.07
N2350 X-6.274 Y518.929 Z-12.692
N2360 X-6.291 Y518.789 Z-12.668
N2370 X-6.308 Y518.654 Z-12.629
N2380 X-6.325 Y518.523 Z-12.574
N2390 X-6.341 Y518.399 Z-12.505
N2400 X-6.355 Y518.284 Z-12.423
N2410 X-6.369 Y518.179 Z-12.328
N2420 X-6.38 Y518.085 Z-12.222
N2430 X-6.391 Y518.003 Z-12.106
N2440 X-6.399 Y517.935 Z-11.981
N2450 X-6.406 Y517.88 Z-11.849
N2460 X-6.411 Y517.841 Z-11.713
N2470 X-6.414 Y517.818 Z-11.572
N2480 X-6.415 Y517.81 Z-11.43
N2490 G0 Z15.
N2500 X46.636 Y705.171
N2510 Z5.
N2520 G1 Z-11.557 F333.33
N2530 X46.637 Y705.164 Z-11.685 F4000.
N2540 X46.64 Y705.143 Z-11.811
N2550 X46.646 Y705.108 Z-11.935
N2560 X46.653 Y705.059 Z-12.053
N2570 X46.663 Y704.998 Z-12.165
N2580 X46.675 Y704.925 Z-12.27
N2590 X46.688 Y704.841 Z-12.365
N2600 X46.703 Y704.746 Z-12.451
N2610 X46.719 Y704.643 Z-12.525
N2620 X46.737 Y704.532 Z-12.587
N2630 X46.755 Y704.415 Z-12.636
N2640 X46.775 Y704.294 Z-12.671
N2650 X46.794 Y704.169 Z-12.693
N2660 X46.814 Y704.042 Z-12.7
N2670 X46.816 Y704.035
N2680 X46.827 Y703.936
N2690 X46.831 Y703.836
N2700 Y697.603
N2710 Y583.303
N2720 X42.069
N2730 Y697.603
N2740 Y703.847
N2750 X42.073 Y703.947
N2760 X42.084 Y704.046
N2770 X42.092 Y704.095
N2780 X42.114 Y704.235 Z-12.692
N2790 X42.136 Y704.374 Z-12.668
N2800 X42.158 Y704.509 Z-12.629
N2810 X42.178 Y704.639 Z-12.574
N2820 X42.198 Y704.762 Z-12.505
N2830 X42.216 Y704.877 Z-12.423
N2840 X42.233 Y704.982 Z-12.328
N2850 X42.248 Y705.075 Z-12.222
N2860 X42.26 Y705.157 Z-12.106
N2870 X42.271 Y705.225 Z-11.981
N2880 X42.28 Y705.279 Z-11.849
N2890 X42.286 Y705.317 Z-11.713
N2900 X42.29 Y705.341 Z-11.572
N2910 X42.291 Y705.349 Z-11.43
N2920 G0 Z15.
N2930 X199.035 Y705.171
N2940 Z5.
N2950 G1 Z-11.557 F333.33
N2960 X199.036 Y705.164 Z-11.685 F4000.
N2970 X199.04 Y705.143 Z-11.811
N2980 X199.045 Y705.108 Z-11.935
N2990 X199.053 Y705.059 Z-12.053
N3000 X199.063 Y704.998 Z-12.165
N3010 X199.074 Y704.925 Z-12.27
N3020 X199.088 Y704.841 Z-12.365
N3030 X199.103 Y704.746 Z-12.451
N3040 X199.119 Y704.643 Z-12.525
N3050 X199.137 Y704.532 Z-12.587
N3060 X199.155 Y704.415 Z-12.636
N3070 X199.174 Y704.294 Z-12.671
N3080 X199.194 Y704.169 Z-12.693
N3090 X199.214 Y704.042 Z-12.7
N3100 X199.215 Y704.035
N3110 X199.227 Y703.936
N3120 X199.231 Y703.836
N3130 Y583.303
N3140 X194.469
N3150 Y697.603
N3160 Y703.847
N3170 X194.473 Y703.947
N3180 X194.485 Y704.046
N3190 X194.492 Y704.095
N3200 X194.515 Y704.235 Z-12.692
N3210 X194.537 Y704.374 Z-12.668
N3220 X194.558 Y704.509 Z-12.629
N3230 X194.579 Y704.639 Z-12.574
N3240 X194.598 Y704.762 Z-12.505
N3250 X194.616 Y704.877 Z-12.423
N3260 X194.633 Y704.982 Z-12.328
N3270 X194.648 Y705.075 Z-12.222
N3280 X194.661 Y705.157 Z-12.106
N3290 X194.671 Y705.225 Z-11.981
N3300 X194.68 Y705.279 Z-11.849
N3310 X194.686 Y705.317 Z-11.713
N3320 X194.69 Y705.341 Z-11.572
N3330 X194.691 Y705.349 Z-11.43
N3340 G0 Z15.
N3350 X145.145 Y545.135
N3360 Z5.
N3370 G1 Z-11.43 F333.33
N3380 X145.15 Y545.129 Z-11.572 F4000.
N3390 X145.167 Y545.112 Z-11.713
N3400 X145.195 Y545.084 Z-11.849
N3410 X145.233 Y545.045 Z-11.981
N3420 X145.282 Y544.996 Z-12.106
N3430 X145.339 Y544.937 Z-12.222
N3440 X145.406 Y544.87 Z-12.328
N3450 X145.481 Y544.794 Z-12.423
N3460 X145.562 Y544.712 Z-12.505
N3470 X145.65 Y544.623 Z-12.574
N3480 X145.742 Y544.529 Z-12.629
N3490 X145.838 Y544.432 Z-12.668
N3500 X145.937 Y544.332 Z-12.692
N3510 X146.037 Y544.231 Z-12.7
N3520 X146.154 Y544.112
N3530 X146.277 Y543.988
N3540 X153.113 Y537.214
N3550 G2 Y536.971 R0.172
N3560 X153.04 Y536.928 R0.172
N3570 G3 X146.155 Y533.356 R20.287
N3580 G2 X145.263 Y533.459 R0.635
N3590 X145.125 Y533.848 R0.635
N3600 G1 X144.885 Y560.779
N3610 G2 X145.514 Y561.419 R0.635
N3620 X146.151 Y560.85 R0.635
N3630 G3 X151.63 Y549.341 R19.05
N3640 G1 X225.475 Y475.496
N3650 X222.107 Y472.128
N3660 X167.73 Y526.505
N3670 G3 X149.77 R12.7
N3680 X146.15 Y519.119 R12.7
N3690 G1 X146.144 Y519.07
N3700 X146.126 Y518.928 Z-12.692
N3710 X146.109 Y518.789 Z-12.668
N3720 X146.092 Y518.653 Z-12.629
N3730 X146.075 Y518.523 Z-12.574
N3740 X146.059 Y518.399 Z-12.505
N3750 X146.045 Y518.284 Z-12.423
N3760 X146.031 Y518.179 Z-12.328
N3770 X146.02 Y518.084 Z-12.222
N3780 X146.009 Y518.003 Z-12.106
N3790 X146.001 Y517.934 Z-11.981
N3800 X145.994 Y517.88 Z-11.849
N3810 X145.989 Y517.841 Z-11.713
N3820 X145.986 Y517.817 Z-11.572
N3830 X145.985 Y517.81 Z-11.43
N3840 G0 Z15.
N3850 X145.145 Y415.754
N3860 Z5.
N3870 G1 Z-11.43 F333.33
N3880 X145.15 Y415.748 Z-11.572 F4000.
N3890 X145.167 Y415.731 Z-11.713
N3900 X145.195 Y415.703 Z-11.849
N3910 X145.233 Y415.664 Z-11.981
N3920 X145.282 Y415.615 Z-12.106
N3930 X145.339 Y415.556 Z-12.222
N3940 X145.406 Y415.489 Z-12.328
N3950 X145.481 Y415.413 Z-12.423
N3960 X145.562 Y415.331 Z-12.505
N3970 X145.65 Y415.242 Z-12.574
N3980 X145.742 Y415.148 Z-12.629
N3990 X145.838 Y415.051 Z-12.668
N4000 X145.937 Y414.951 Z-12.692
N4010 X146.037 Y414.85 Z-12.7
N4020 X146.154 Y414.731
N4030 X146.277 Y414.607
N4040 X153.113 Y407.833
N4050 G2 Y407.59 R0.172
N4060 X153.04 Y407.547 R0.172
N4070 G3 X146.155 Y403.975 R20.287
N4080 G2 X145.263 Y404.078 R0.635
N4090 X145.125 Y404.467 R0.635
N4100 G1 X144.885 Y431.398
N4110 G2 X145.514 Y432.038 R0.635
N4120 X146.151 Y431.469 R0.635
N4130 G3 X151.63 Y419.96 R19.05
N4140 G1 X225.475 Y346.115
N4150 X222.107 Y342.747
N4160 X167.73 Y397.124
N4170 G3 X149.77 R12.7
N4180 X146.15 Y389.738 R12.7
N4190 G1 X146.144 Y389.689
N4200 X146.126 Y389.547 Z-12.692
N4210 X146.109 Y389.408 Z-12.668
N4220 X146.092 Y389.272 Z-12.629
N4230 X146.075 Y389.142 Z-12.574
N4240 X146.059 Y389.018 Z-12.505
N4250 X146.045 Y388.903 Z-12.423
N4260 X146.031 Y388.798 Z-12.328
N4270 X146.02 Y388.703 Z-12.222
N4280 X146.009 Y388.622 Z-12.106
N4290 X146.001 Y388.553 Z-11.981
N4300 X145.994 Y388.499 Z-11.849
N4310 X145.989 Y388.46 Z-11.713
N4320 X145.986 Y388.436 Z-11.572
N4330 X145.985 Y388.429 Z-11.43
N4340 G0 Z15.
N4350 X145.145 Y286.373
N4360 Z5.
N4370 G1 Z-11.43 F333.33
N4380 X145.15 Y286.367 Z-11.572 F4000.
N4390 X145.167 Y286.35 Z-11.713
N4400 X145.195 Y286.322 Z-11.849
N4410 X145.233 Y286.283 Z-11.981
N4420 X145.282 Y286.234 Z-12.106
N4430 X145.339 Y286.175 Z-12.222
N4440 X145.406 Y286.108 Z-12.328
N4450 X145.481 Y286.032 Z-12.423
N4460 X145.562 Y285.95 Z-12.505
N4470 X145.65 Y285.861 Z-12.574
N4480 X145.742 Y285.767 Z-12.629
N4490 X145.838 Y285.67 Z-12.668
N4500 X145.937 Y285.57 Z-12.692
N4510 X146.037 Y285.469 Z-12.7
N4520 X146.154 Y285.35
N4530 X146.277 Y285.226
N4540 X153.114 Y278.452
N4550 G2 Y278.209 R0.172
N4560 X153.041 Y278.166 R0.172
N4570 G3 X146.155 Y274.594 R20.288
N4580 G2 X145.263 Y274.697 R0.635
N4590 X145.125 Y275.086 R0.635
N4600 G1 X144.885 Y302.017
N4610 G2 X145.514 Y302.657 R0.635
N4620 X146.151 Y302.088 R0.635
N4630 G3 X151.63 Y290.579 R19.05
N4640 G1 X225.475 Y216.734
N4650 X222.107 Y213.366
N4660 X167.73 Y267.743
N4670 G3 X149.769 Y267.742 R12.7
N4680 X146.15 Y260.355 R12.7
N4690 G1 X146.144 Y260.306
N4700 X146.126 Y260.165 Z-12.692
N4710 X146.109 Y260.025 Z-12.668
N4720 X146.091 Y259.89 Z-12.629
N4730 X146.075 Y259.759 Z-12.574
N4740 X146.059 Y259.635 Z-12.505
N4750 X146.045 Y259.52 Z-12.423
N4760 X146.031 Y259.415 Z-12.328
N4770 X146.02 Y259.321 Z-12.222
N4780 X146.009 Y259.239 Z-12.106
N4790 X146.001 Y259.171 Z-11.981
N4800 X145.994 Y259.117 Z-11.849
N4810 X145.989 Y259.077 Z-11.713
N4820 X145.986 Y259.054 Z-11.572
N4830 X145.985 Y259.046 Z-11.43
N4840 G0 Z15.
N4850 X145.145 Y156.991
N4860 Z5.
N4870 G1 Z-11.43 F333.33
N4880 X145.15 Y156.985 Z-11.572 F4000.
N4890 X145.167 Y156.968 Z-11.713
N4900 X145.195 Y156.94 Z-11.849
N4910 X145.233 Y156.901 Z-11.981
N4920 X145.281 Y156.852 Z-12.106
N4930 X145.339 Y156.794 Z-12.222
N4940 X145.406 Y156.726 Z-12.328
N4950 X145.48 Y156.65 Z-12.423
N4960 X145.562 Y156.568 Z-12.505
N4970 X145.65 Y156.479 Z-12.574
N4980 X145.742 Y156.385 Z-12.629
N4990 X145.838 Y156.288 Z-12.668
N5000 X145.937 Y156.188 Z-12.692
N5010 X146.037 Y156.087 Z-12.7
N5020 X146.153 Y155.969
N5030 X146.277 Y155.844
N5040 X153.113 Y149.07
N5050 G2 Y148.827 R0.172
N5060 X153.04 Y148.784 R0.172
N5070 G3 X146.155 Y145.212 R20.287
N5080 G2 X145.263 Y145.315 R0.635
N5090 X145.125 Y145.704 R0.635
N5100 G1 X144.885 Y172.636
N5110 G2 X145.514 Y173.277 R0.635
N5120 X146.151 Y172.707 R0.635
N5130 G3 X151.63 Y161.197 R19.05
N5140 G1 X225.475 Y87.352
N5150 X222.107 Y83.985
N5160 X167.73 Y138.361
N5170 G3 X149.77 R12.7
N5180 X146.15 Y130.975 R12.7
N5190 G1 X146.144 Y130.926
N5200 X146.126 Y130.784 Z-12.692
N5210 X146.109 Y130.645 Z-12.668
N5220 X146.092 Y130.509 Z-12.629
N5230 X146.075 Y130.379 Z-12.574
N5240 X146.059 Y130.255 Z-12.505
N5250 X146.045 Y130.14 Z-12.423
N5260 X146.031 Y130.035 Z-12.328
N5270 X146.02 Y129.94 Z-12.222
N5280 X146.009 Y129.859 Z-12.106
N5290 X146.001 Y129.79 Z-11.981
N5300 X145.994 Y129.736 Z-11.849
N5310 X145.989 Y129.697 Z-11.713
N5320 X145.986 Y129.673 Z-11.572
N5330 X145.985 Y129.666 Z-11.43
N5340 G0 Z15.
N5350 X194.658 Y-7.583
N5360 Z5.
N5370 G1 Z-11.24 F333.33
N5380 Z-11.557 F4000.
N5390 X194.657 Y-7.576 Z-11.685
N5400 X194.653 Y-7.554 Z-11.811
N5410 X194.648 Y-7.519 Z-11.935
N5420 X194.64 Y-7.471 Z-12.053
N5430 X194.63 Y-7.41 Z-12.165
N5440 X194.619 Y-7.336 Z-12.27
N5450 X194.605 Y-7.252 Z-12.365
N5460 X194.59 Y-7.158 Z-12.451
N5470 X194.574 Y-7.054 Z-12.525
N5480 X194.556 Y-6.944 Z-12.587
N5490 X194.538 Y-6.827 Z-12.636
N5500 X194.519 Y-6.705 Z-12.671
N5510 X194.499 Y-6.58 Z-12.693
N5520 X194.479 Y-6.454 Z-12.7
N5530 X194.478 Y-6.446
N5540 X194.466 Y-6.347
N5550 X194.462 Y-6.247
N5560 Y69.85
N5570 X199.238
N5580 Y0.
N5590 Y-6.244
N5600 X199.234 Y-6.344
N5610 X199.222 Y-6.443
N5620 X199.215 Y-6.492
N5630 X199.192 Y-6.632 Z-12.692
N5640 X199.17 Y-6.771 Z-12.668
N5650 X199.149 Y-6.906 Z-12.629
N5660 X199.128 Y-7.036 Z-12.574
N5670 X199.109 Y-7.159 Z-12.505
N5680 X199.091 Y-7.274 Z-12.423
N5690 X199.074 Y-7.379 Z-12.328
N5700 X199.059 Y-7.472 Z-12.222
N5710 X199.046 Y-7.554 Z-12.106
N5720 X199.036 Y-7.622 Z-11.981
N5730 X199.027 Y-7.676 Z-11.849
N5740 X199.021 Y-7.714 Z-11.713
N5750 X199.017 Y-7.738 Z-11.572
N5760 X199.016 Y-7.746 Z-11.43
N5770 G0 Z15.
N5780 X410.549 Y-7.583
N5790 Z5.
N5800 G1 Z-11.24 F333.33
N5810 Z-11.557 F4000.
N5820 X410.548 Y-7.576 Z-11.685
N5830 X410.544 Y-7.554 Z-11.811
N5840 X410.539 Y-7.519 Z-11.935
N5850 X410.531 Y-7.471 Z-12.053
N5860 X410.521 Y-7.41 Z-12.165
N5870 X410.51 Y-7.336 Z-12.27
N5880 X410.496 Y-7.252 Z-12.365
N5890 X410.481 Y-7.158 Z-12.451
N5900 X410.465 Y-7.054 Z-12.525
N5910 X410.447 Y-6.944 Z-12.587
N5920 X410.429 Y-6.827 Z-12.636
N5930 X410.41 Y-6.705 Z-12.671
N5940 X410.39 Y-6.58 Z-12.693
N5950 X410.37 Y-6.454 Z-12.7
N5960 X410.369 Y-6.446
N5970 X410.357 Y-6.347
N5980 X410.353 Y-6.247
N5990 Y69.85
N6000 X415.128
N6010 Y0.
N6020 Y-6.244
N6030 X415.124 Y-6.344
N6040 X415.112 Y-6.443
N6050 X415.105 Y-6.492
N6060 X415.082 Y-6.632 Z-12.692
N6070 X415.06 Y-6.771 Z-12.668
N6080 X415.039 Y-6.906 Z-12.629
N6090 X415.018 Y-7.036 Z-12.574
N6100 X414.999 Y-7.159 Z-12.505
N6110 X414.981 Y-7.274 Z-12.423
N6120 X414.964 Y-7.379 Z-12.328
N6130 X414.949 Y-7.472 Z-12.222
N6140 X414.936 Y-7.554 Z-12.106
N6150 X414.926 Y-7.622 Z-11.981
N6160 X414.917 Y-7.676 Z-11.849
N6170 X414.911 Y-7.714 Z-11.713
N6180 X414.907 Y-7.738 Z-11.572
N6190 X414.906 Y-7.746 Z-11.43
N6200 G0 Z15.
N6210 X464.538 Y144.362
N6220 Z5.
N6230 G1 Z-11.43 F333.33
N6240 X464.531 Y144.366 Z-11.572 F4000.
N6250 X464.513 Y144.381 Z-11.713
N6260 X464.482 Y144.406 Z-11.849
N6270 X464.439 Y144.44 Z-11.981
N6280 X464.385 Y144.482 Z-12.106
N6290 X464.32 Y144.533 Z-12.222
N6300 X464.246 Y144.592 Z-12.328
N6310 X464.162 Y144.658 Z-12.423
N6320 X464.071 Y144.73 Z-12.505
N6330 X463.974 Y144.807 Z-12.574
N6340 X463.87 Y144.889 Z-12.629
N6350 X463.763 Y144.974 Z-12.668
N6360 X463.653 Y145.061 Z-12.692
N6370 X463.541 Y145.149 Z-12.7
N6380 X463.436 Y145.233
N6390 G3 X456.55 Y148.784 R20.209
N6400 G2 X456.434 Y148.997 R0.172
N6410 X456.478 Y149.07 R0.172
N6420 G1 X463.315 Y155.845
N6430 X463.439 Y155.969
N6440 G2 X464.337 Y155.975 R0.635
N6450 X464.525 Y155.528 R0.635
N6460 G1 X464.705 Y131.057
N6470 G2 X464.074 Y130.417 R0.635
N6480 X463.44 Y130.973 R0.635
N6490 G3 X449.248 Y141.981 R12.7
N6500 X441.86 Y138.361 R12.7
N6510 G1 X387.484 Y83.984
N6520 X384.116 Y87.352
N6530 X457.961 Y161.197
N6540 G3 X463.439 Y172.706 R19.051
N6550 G1 X463.444 Y172.756
N6560 X463.459 Y172.897 Z-12.692
N6570 X463.473 Y173.037 Z-12.668
N6580 X463.487 Y173.173 Z-12.629
N6590 X463.501 Y173.304 Z-12.574
N6600 X463.513 Y173.428 Z-12.505
N6610 X463.525 Y173.543 Z-12.423
N6620 X463.536 Y173.649 Z-12.328
N6630 X463.546 Y173.743 Z-12.222
N6640 X463.555 Y173.825 Z-12.106
N6650 X463.562 Y173.894 Z-11.981
N6660 X463.567 Y173.948 Z-11.849
N6670 X463.571 Y173.987 Z-11.713
N6680 X463.574 Y174.011 Z-11.572
N6690 X463.575 Y174.019 Z-11.43
N6700 G0 Z15.
N6710 X464.538 Y273.743
N6720 Z5.
N6730 G1 Z-11.43 F333.33
N6740 X464.531 Y273.748 Z-11.572 F4000.
N6750 X464.513 Y273.762 Z-11.713
N6760 X464.482 Y273.787 Z-11.849
N6770 X464.439 Y273.821 Z-11.981
N6780 X464.385 Y273.863 Z-12.106
N6790 X464.32 Y273.915 Z-12.222
N6800 X464.246 Y273.973 Z-12.328
N6810 X464.163 Y274.039 Z-12.423
N6820 X464.071 Y274.111 Z-12.505
N6830 X463.974 Y274.189 Z-12.574
N6840 X463.87 Y274.27 Z-12.629
N6850 X463.763 Y274.355 Z-12.668
N6860 X463.653 Y274.442 Z-12.692
N6870 X463.541 Y274.53 Z-12.7
N6880 X463.436 Y274.614
N6890 G3 X456.55 Y278.165 R20.209
N6900 G2 X456.434 Y278.379 R0.172
N6910 X456.477 Y278.452 R0.172
N6920 G1 X463.315 Y285.227
N6930 X463.438 Y285.351
N6940 G2 X464.336 Y285.357 R0.635
N6950 X464.525 Y284.91 R0.635
N6960 G1 X464.705 Y260.438
N6970 G2 X464.075 Y259.798 R0.635
N6980 X463.44 Y260.354 R0.635
N6990 G3 X449.248 Y271.362 R12.7
N7000 X441.86 Y267.744 R12.7
N7010 G1 X387.484 Y213.366
N7020 X384.116 Y216.734
N7030 X457.961 Y290.579
N7040 G3 X463.439 Y302.088 R19.05
N7050 G1 X463.444 Y302.138
N7060 X463.459 Y302.279 Z-12.692
N7070 X463.473 Y302.419 Z-12.668
N7080 X463.487 Y302.555 Z-12.629
N7090 X463.501 Y302.686 Z-12.574
N7100 X463.513 Y302.81 Z-12.505
N7110 X463.525 Y302.925 Z-12.423
N7120 X463.536 Y303.031 Z-12.328
N7130 X463.546 Y303.125 Z-12.222
N7140 X463.555 Y303.207 Z-12.106
N7150 X463.562 Y303.276 Z-11.981
N7160 X463.567 Y303.33 Z-11.849
N7170 X463.571 Y303.369 Z-11.713
N7180 X463.574 Y303.393 Z-11.572
N7190 X463.575 Y303.401 Z-11.43
N7200 G0 Z15.
N7210 X464.538 Y403.125
N7220 Z5.
N7230 G1 Z-11.43 F333.33
N7240 X464.531 Y403.129 Z-11.572 F4000.
N7250 X464.513 Y403.144 Z-11.713
N7260 X464.482 Y403.169 Z-11.849
N7270 X464.439 Y403.203 Z-11.981
N7280 X464.385 Y403.245 Z-12.106
N7290 X464.32 Y403.296 Z-12.222
N7300 X464.246 Y403.355 Z-12.328
N7310 X464.162 Y403.421 Z-12.423
N7320 X464.071 Y403.493 Z-12.505
N7330 X463.974 Y403.57 Z-12.574
N7340 X463.87 Y403.652 Z-12.629
N7350 X463.763 Y403.737 Z-12.668
N7360 X463.653 Y403.824 Z-12.692
N7370 X463.541 Y403.912 Z-12.7
N7380 X463.436 Y403.996
N7390 G3 X456.55 Y407.547 R20.209
N7400 G2 X456.434 Y407.76 R0.172
N7410 X456.478 Y407.833 R0.172
N7420 G1 X463.315 Y414.608
N7430 X463.438 Y414.732
N7440 G2 X464.336 Y414.738 R0.635
N7450 X464.525 Y414.291 R0.635
N7460 G1 X464.705 Y389.82
N7470 G2 X464.074 Y389.18 R0.635
N7480 X463.44 Y389.736 R0.635
N7490 G3 X449.248 Y400.744 R12.7
N7500 X441.86 Y397.124 R12.7
N7510 G1 X387.484 Y342.747
N7520 X384.116 Y346.115
N7530 X457.961 Y419.96
N7540 G3 X463.439 Y431.469 R19.05
N7550 G1 X463.444 Y431.519
N7560 X463.459 Y431.66 Z-12.692
N7570 X463.473 Y431.8 Z-12.668
N7580 X463.487 Y431.936 Z-12.629
N7590 X463.501 Y432.067 Z-12.574
N7600 X463.513 Y432.191 Z-12.505
N7610 X463.525 Y432.306 Z-12.423
N7620 X463.536 Y432.412 Z-12.328
N7630 X463.546 Y432.506 Z-12.222
N7640 X463.555 Y432.588 Z-12.106
N7650 X463.562 Y432.657 Z-11.981
N7660 X463.567 Y432.711 Z-11.849
N7670 X463.571 Y432.75 Z-11.713
N7680 X463.574 Y432.774 Z-11.572
N7690 X463.575 Y432.782 Z-11.43
N7700 G0 Z15.
N7710 X464.538 Y532.506
N7720 Z5.
N7730 G1 Z-11.43 F333.33
N7740 X464.531 Y532.511 Z-11.572 F4000.
N7750 X464.513 Y532.525 Z-11.713
N7760 X464.482 Y532.55 Z-11.849
N7770 X464.439 Y532.584 Z-11.981
N7780 X464.385 Y532.626 Z-12.106
N7790 X464.32 Y532.677 Z-12.222
N7800 X464.246 Y532.736 Z-12.328
N7810 X464.162 Y532.802 Z-12.423
N7820 X464.071 Y532.874 Z-12.505
N7830 X463.974 Y532.951 Z-12.574
N7840 X463.87 Y533.033 Z-12.629
N7850 X463.763 Y533.118 Z-12.668
N7860 X463.653 Y533.205 Z-12.692
N7870 X463.541 Y533.293 Z-12.7
N7880 X463.436 Y533.377
N7890 G3 X456.55 Y536.928 R20.209
N7900 G2 X456.434 Y537.141 R0.172
N7910 X456.478 Y537.214 R0.172
N7920 G1 X463.315 Y543.989
N7930 X463.438 Y544.113
N7940 G2 X464.336 Y544.119 R0.635
N7950 X464.525 Y543.672 R0.635
N7960 G1 X464.705 Y519.201
N7970 G2 X464.074 Y518.562 R0.635
N7980 X463.44 Y519.117 R0.635
N7990 G3 X449.248 Y530.125 R12.7
N8000 X441.86 Y526.505 R12.7
N8010 G1 X387.484 Y472.128
N8020 X384.116 Y475.496
N8030 X457.961 Y549.341
N8040 G3 X463.439 Y560.85 R19.05
N8050 G1 X463.444 Y560.9
N8060 X463.459 Y561.041 Z-12.692
N8070 X463.473 Y561.181 Z-12.668
N8080 X463.487 Y561.317 Z-12.629
N8090 X463.501 Y561.448 Z-12.574
N8100 X463.513 Y561.572 Z-12.505
N8110 X463.525 Y561.687 Z-12.423
N8120 X463.536 Y561.793 Z-12.328
N8130 X463.546 Y561.887 Z-12.222
N8140 X463.555 Y561.969 Z-12.106
N8150 X463.562 Y562.038 Z-11.981
N8160 X463.567 Y562.092 Z-11.849
N8170 X463.571 Y562.131 Z-11.713
N8180 X463.574 Y562.155 Z-11.572
N8190 X463.575 Y562.163 Z-11.43
N8200 G0 Z15.
N8210 X414.926 Y705.171
N8220 Z5.
N8230 G1 Z-11.557 F333.33
N8240 X414.927 Y705.164 Z-11.685 F4000.
N8250 X414.931 Y705.143 Z-11.811
N8260 X414.936 Y705.108 Z-11.935
N8270 X414.944 Y705.059 Z-12.053
N8280 X414.954 Y704.998 Z-12.165
N8290 X414.965 Y704.925 Z-12.27
N8300 X414.979 Y704.841 Z-12.365
N8310 X414.994 Y704.746 Z-12.451
N8320 X415.01 Y704.643 Z-12.525
N8330 X415.028 Y704.532 Z-12.587
N8340 X415.046 Y704.415 Z-12.636
N8350 X415.065 Y704.294 Z-12.671
N8360 X415.085 Y704.169 Z-12.693
N8370 X415.105 Y704.042 Z-12.7
N8380 X415.106 Y704.035
N8390 X415.118 Y703.936
N8400 X415.122 Y703.836
N8410 Y583.303
N8420 X410.359
N8430 Y697.603
N8440 Y703.847
N8450 X410.363 Y703.947
N8460 X410.375 Y704.046
N8470 X410.382 Y704.095
N8480 X410.405 Y704.235 Z-12.692
N8490 X410.427 Y704.374 Z-12.668
N8500 X410.448 Y704.509 Z-12.629
N8510 X410.469 Y704.639 Z-12.574
N8520 X410.488 Y704.762 Z-12.505
N8530 X410.506 Y704.877 Z-12.423
N8540 X410.523 Y704.982 Z-12.328
N8550 X410.538 Y705.075 Z-12.222
N8560 X410.551 Y705.157 Z-12.106
N8570 X410.561 Y705.225 Z-11.981
N8580 X410.57 Y705.279 Z-11.849
N8590 X410.576 Y705.317 Z-11.713
N8600 X410.58 Y705.341 Z-11.572
N8610 X410.581 Y705.349 Z-11.43
N8620 G0 Z15.
N8630 X567.326 Y705.171
N8640 Z5.
N8650 G1 Z-11.557 F333.33
N8660 X567.327 Y705.164 Z-11.685 F4000.
N8670 X567.331 Y705.143 Z-11.811
N8680 X567.336 Y705.108 Z-11.935
N8690 X567.344 Y705.059 Z-12.053
N8700 X567.354 Y704.998 Z-12.165
N8710 X567.365 Y704.925 Z-12.27
N8720 X567.379 Y704.841 Z-12.365
N8730 X567.394 Y704.746 Z-12.451
N8740 X567.41 Y704.643 Z-12.525
N8750 X567.428 Y704.532 Z-12.587
N8760 X567.446 Y704.415 Z-12.636
N8770 X567.465 Y704.294 Z-12.671
N8780 X567.485 Y704.169 Z-12.693
N8790 X567.505 Y704.042 Z-12.7
N8800 X567.506 Y704.035
N8810 X567.518 Y703.936
N8820 X567.522 Y703.836
N8830 Y583.303
N8840 X562.759
N8850 Y697.603
N8860 Y703.847
N8870 X562.763 Y703.947
N8880 X562.775 Y704.046
N8890 X562.782 Y704.095
N8900 X562.805 Y704.235 Z-12.692
N8910 X562.827 Y704.374 Z-12.668
N8920 X562.848 Y704.509 Z-12.629
N8930 X562.869 Y704.639 Z-12.574
N8940 X562.888 Y704.762 Z-12.505
N8950 X562.906 Y704.877 Z-12.423
N8960 X562.923 Y704.982 Z-12.328
N8970 X562.938 Y705.075 Z-12.222
N8980 X562.951 Y705.157 Z-12.106
N8990 X562.961 Y705.225 Z-11.981
N9000 X562.97 Y705.279 Z-11.849
N9010 X562.976 Y705.317 Z-11.713
N9020 X562.98 Y705.341 Z-11.572
N9030 X562.981 Y705.349 Z-11.43
N9040 G0 Z15.
N9050 X616.938 Y532.506
N9060 Z5.
N9070 G1 Z-11.43 F333.33
N9080 X616.931 Y532.511 Z-11.572 F4000.
N9090 X616.913 Y532.525 Z-11.713
N9100 X616.882 Y532.55 Z-11.849
N9110 X616.839 Y532.584 Z-11.981
N9120 X616.785 Y532.626 Z-12.106
N9130 X616.72 Y532.677 Z-12.222
N9140 X616.646 Y532.736 Z-12.328
N9150 X616.562 Y532.802 Z-12.423
N9160 X616.471 Y532.874 Z-12.505
N9170 X616.374 Y532.951 Z-12.574
N9180 X616.27 Y533.033 Z-12.629
N9190 X616.163 Y533.118 Z-12.668
N9200 X616.053 Y533.205 Z-12.692
N9210 X615.941 Y533.293 Z-12.7
N9220 X615.836 Y533.377
N9230 G3 X608.95 Y536.928 R20.208
N9240 G2 X608.834 Y537.141 R0.172
N9250 X608.878 Y537.214 R0.172
N9260 G1 X615.715 Y543.989
N9270 X615.838 Y544.113
N9280 G2 X616.736 Y544.119 R0.635
N9290 X616.925 Y543.672 R0.635
N9300 G1 X617.105 Y519.201
N9310 G2 X616.474 Y518.561 R0.635
N9320 X615.84 Y519.117 R0.635
N9330 G3 X601.648 Y530.125 R12.7
N9340 X594.26 Y526.505 R12.7
N9350 G1 X539.884 Y472.128
N9360 X536.516 Y475.496
N9370 X610.361 Y549.341
N9380 G3 X615.839 Y560.85 R19.05
N9390 G1 X615.844 Y560.9
N9400 X615.859 Y561.041 Z-12.692
N9410 X615.873 Y561.181 Z-12.668
N9420 X615.887 Y561.317 Z-12.629
N9430 X615.901 Y561.448 Z-12.574
N9440 X615.914 Y561.572 Z-12.505
N9450 X615.925 Y561.687 Z-12.423
N9460 X615.936 Y561.793 Z-12.328
N9470 X615.946 Y561.887 Z-12.222
N9480 X615.955 Y561.969 Z-12.106
N9490 X615.962 Y562.038 Z-11.981
N9500 X615.967 Y562.092 Z-11.849
N9510 X615.971 Y562.131 Z-11.713
N9520 X615.974 Y562.155 Z-11.572
N9530 X615.975 Y562.163 Z-11.43
N9540 G0 Z15.
N9550 X616.938 Y403.125
N9560 Z5.
N9570 G1 Z-11.43 F333.33
N9580 X616.931 Y403.129 Z-11.572 F4000.
N9590 X616.913 Y403.144 Z-11.713
N9600 X616.882 Y403.169 Z-11.849
N9610 X616.839 Y403.203 Z-11.981
N9620 X616.785 Y403.245 Z-12.106
N9630 X616.72 Y403.296 Z-12.222
N9640 X616.646 Y403.355 Z-12.328
N9650 X616.562 Y403.421 Z-12.423
N9660 X616.471 Y403.493 Z-12.505
N9670 X616.374 Y403.57 Z-12.574
N9680 X616.27 Y403.652 Z-12.629
N9690 X616.163 Y403.737 Z-12.668
N9700 X616.053 Y403.824 Z-12.692
N9710 X615.941 Y403.912 Z-12.7
N9720 X615.836 Y403.996
N9730 G3 X608.95 Y407.547 R20.209
N9740 G2 X608.834 Y407.76 R0.172
N9750 X608.878 Y407.833 R0.172
N9760 G1 X615.715 Y414.608
N9770 X615.838 Y414.732
N9780 G2 X616.736 Y414.738 R0.635
N9790 X616.925 Y414.291 R0.635
N9800 G1 X617.105 Y389.82
N9810 G2 X616.474 Y389.18 R0.635
N9820 X615.84 Y389.736 R0.635
N9830 G3 X601.648 Y400.744 R12.7
N9840 X594.26 Y397.124 R12.7
N9850 G1 X539.884 Y342.747
N9860 X536.516 Y346.115
N9870 X610.361 Y419.96
N9880 G3 X615.839 Y431.469 R19.05
N9890 G1 X615.844 Y431.519
N9900 X615.859 Y431.66 Z-12.692
N9910 X615.873 Y431.8 Z-12.668
N9920 X615.887 Y431.936 Z-12.629
N9930 X615.901 Y432.067 Z-12.574
N9940 X615.914 Y432.191 Z-12.505
N9950 X615.925 Y432.306 Z-12.423
N9960 X615.936 Y432.412 Z-12.328
N9970 X615.946 Y432.506 Z-12.222
N9980 X615.955 Y432.588 Z-12.106
N9990 X615.962 Y432.657 Z-11.981
N10000 X615.967 Y432.711 Z-11.849
N10010 X615.971 Y432.75 Z-11.713
N10020 X615.974 Y432.774 Z-11.572
N10030 X615.975 Y432.782 Z-11.43
N10040 G0 Z15.
N10050 X616.938 Y273.743
N10060 Z5.
N10070 G1 Z-11.43 F333.33
N10080 X616.931 Y273.748 Z-11.572 F4000.
N10090 X616.913 Y273.762 Z-11.713
N10100 X616.882 Y273.787 Z-11.849
N10110 X616.839 Y273.821 Z-11.981
N10120 X616.785 Y273.863 Z-12.106
N10130 X616.72 Y273.915 Z-12.222
N10140 X616.646 Y273.973 Z-12.328
N10150 X616.563 Y274.039 Z-12.423
N10160 X616.471 Y274.111 Z-12.505
N10170 X616.374 Y274.189 Z-12.574
N10180 X616.27 Y274.27 Z-12.629
N10190 X616.163 Y274.355 Z-12.668
N10200 X616.053 Y274.442 Z-12.692
N10210 X615.941 Y274.53 Z-12.7
N10220 X615.836 Y274.614
N10230 G3 X608.95 Y278.165 R20.209
N10240 G2 X608.834 Y278.379 R0.172
N10250 X608.877 Y278.452 R0.172
N10260 G1 X615.715 Y285.227
N10270 X615.838 Y285.351
N10280 G2 X616.736 Y285.357 R0.635
N10290 X616.925 Y284.91 R0.635
N10300 G1 X617.105 Y260.438
N10310 G2 X616.475 Y259.798 R0.635
N10320 X615.84 Y260.354 R0.635
N10330 G3 X601.648 Y271.362 R12.7
N10340 X594.26 Y267.744 R12.7
N10350 G1 X539.884 Y213.366
N10360 X536.516 Y216.734
N10370 X610.361 Y290.579
N10380 G3 X615.839 Y302.088 R19.05
N10390 G1 X615.844 Y302.138
N10400 X615.859 Y302.279 Z-12.692
N10410 X615.873 Y302.419 Z-12.668
N10420 X615.887 Y302.555 Z-12.629
N10430 X615.901 Y302.686 Z-12.574
N10440 X615.914 Y302.81 Z-12.505
N10450 X615.925 Y302.925 Z-12.423
N10460 X615.936 Y303.031 Z-12.328
N10470 X615.946 Y303.125 Z-12.222
N10480 X615.955 Y303.207 Z-12.106
N10490 X615.962 Y303.276 Z-11.981
N10500 X615.967 Y303.33 Z-11.849
N10510 X615.971 Y303.369 Z-11.713
N10520 X615.974 Y303.393 Z-11.572
N10530 X615.975 Y303.401 Z-11.43
N10540 G0 Z15.
N10550 X616.938 Y144.362
N10560 Z5.
N10570 G1 Z-11.43 F333.33
N10580 X616.931 Y144.366 Z-11.572 F4000.
N10590 X616.913 Y144.381 Z-11.713
N10600 X616.882 Y144.406 Z-11.849
N10610 X616.839 Y144.44 Z-11.981
N10620 X616.785 Y144.482 Z-12.106
N10630 X616.72 Y144.533 Z-12.222
N10640 X616.646 Y144.592 Z-12.328
N10650 X616.562 Y144.658 Z-12.423
N10660 X616.471 Y144.73 Z-12.505
N10670 X616.374 Y144.807 Z-12.574
N10680 X616.27 Y144.889 Z-12.629
N10690 X616.163 Y144.974 Z-12.668
N10700 X616.053 Y145.061 Z-12.692
N10710 X615.941 Y145.149 Z-12.7
N10720 X615.836 Y145.233
N10730 G3 X608.95 Y148.784 R20.209
N10740 G2 X608.834 Y148.997 R0.172
N10750 X608.878 Y149.07 R0.172
N10760 G1 X615.715 Y155.845
N10770 X615.839 Y155.969
N10780 G2 X616.737 Y155.976 R0.635
N10790 X616.925 Y155.528 R0.635
N10800 G1 X617.105 Y131.057
N10810 G2 X616.475 Y130.417 R0.635
N10820 X615.84 Y130.973 R0.635
N10830 G3 X601.648 Y141.981 R12.7
N10840 X594.26 Y138.361 R12.7
N10850 G1 X539.884 Y83.984
N10860 X536.516 Y87.352
N10870 X610.361 Y161.197
N10880 G3 X615.839 Y172.706 R19.051
N10890 G1 X615.844 Y172.756
N10900 X615.859 Y172.897 Z-12.692
N10910 X615.873 Y173.037 Z-12.668
N10920 X615.887 Y173.173 Z-12.629
N10930 X615.901 Y173.304 Z-12.574
N10940 X615.913 Y173.428 Z-12.505
N10950 X615.925 Y173.543 Z-12.423
N10960 X615.936 Y173.649 Z-12.328
N10970 X615.946 Y173.743 Z-12.222
N10980 X615.955 Y173.825 Z-12.106
N10990 X615.962 Y173.894 Z-11.981
N11000 X615.967 Y173.948 Z-11.849
N11010 X615.971 Y173.987 Z-11.713
N11020 X615.974 Y174.011 Z-11.572
N11030 X615.975 Y174.019 Z-11.43
N11040 G0 Z15.
N11050 X562.949 Y-7.583
N11060 Z5.
N11070 G1 Z-11.24 F333.33
N11080 Z-11.557 F4000.
N11090 X562.948 Y-7.576 Z-11.685
N11100 X562.944 Y-7.554 Z-11.811
N11110 X562.939 Y-7.519 Z-11.935
N11120 X562.931 Y-7.471 Z-12.053
N11130 X562.921 Y-7.41 Z-12.165
N11140 X562.91 Y-7.336 Z-12.27
N11150 X562.896 Y-7.252 Z-12.365
N11160 X562.881 Y-7.158 Z-12.451
N11170 X562.865 Y-7.054 Z-12.525
N11180 X562.847 Y-6.944 Z-12.587
N11190 X562.829 Y-6.827 Z-12.636
N11200 X562.81 Y-6.705 Z-12.671
N11210 X562.79 Y-6.58 Z-12.693
N11220 X562.77 Y-6.454 Z-12.7
N11230 X562.769 Y-6.446
N11240 X562.757 Y-6.347
N11250 X562.753 Y-6.247
N11260 Y69.85
N11270 X567.528
N11280 Y0.
N11290 Y-6.244
N11300 X567.524 Y-6.344
N11310 X567.512 Y-6.443
N11320 X567.505 Y-6.492
N11330 X567.482 Y-6.632 Z-12.692
N11340 X567.46 Y-6.771 Z-12.668
N11350 X567.439 Y-6.906 Z-12.629
N11360 X567.418 Y-7.036 Z-12.574
N11370 X567.399 Y-7.159 Z-12.505
N11380 X567.381 Y-7.274 Z-12.423
N11390 X567.364 Y-7.379 Z-12.328
N11400 X567.349 Y-7.472 Z-12.222
N11410 X567.336 Y-7.554 Z-12.106
N11420 X567.326 Y-7.622 Z-11.981
N11430 X567.317 Y-7.676 Z-11.849
N11440 X567.311 Y-7.714 Z-11.713
N11450 X567.307 Y-7.738 Z-11.572
N11460 X567.306 Y-7.746 Z-11.43
N11470 G0 Z15.
N11480 G4 P1.0
N11490 G0 X0 Y0
N11500 M30
%
