%
(4-ENDS-14-MIDDLE)
(MACHINE)
(  VENDOR AUTODESK)
(  MODEL GENERIC 3-AXIS ROUTER)
(  DESCRIPTION THIS MACHINE HAS XYZ AXIS ON THE HEAD)
(T1 D=5. CR=0. TAPER=118DEG - ZMIN=-15.502 - DRILL)
(T20 D=6.35 CR=0. - ZMIN=-13.2 - FLAT END MILL)
(T21 D=12.7 CR=0. - ZMIN=-6.65 - FLAT END MILL)
(T25 D=6.35 CR=3.175 - ZMIN=-6.65 - BALL END MILL)
N10 G90 G94 G17 G91.1
N15 G21
N20 G53 G0 Z0.
(DRILL4)
N25 G4 P2.0
N30 T1 M6
N35 T21
N40 S24000 M3
N45 G4 P4.0
N50 G17 G90 G94
N55 G54
N60 G0 X469.9 Y482.6
N65 G43 Z17. H1
N70 G0 Z7.
N75 G98 G81 X469.9 Y482.6 Z-10.422 R5. F1000.
N80 X406.4 Y419.1
N85 X533.4
N90 X469.9 Y355.6
N95 Y203.2
N100 X533.4 Y139.7
N105 X469.9 Y76.2
N110 X406.4 Y139.7
N115 G80
N120 G0 X317.5 Y101.6 Z7.
N125 G81 X317.5 Y101.6 Z-15.502 R5. F1000.
N130 X254. Y38.1
N135 X190.5 Y101.6
N140 X152.4
N145 X88.9 Y38.1
N150 X25.4 Y101.6
N155 X88.9 Y165.1
N160 X89.662 Y202.946
N165 X153.162 Y266.446
N170 X190.5 Y266.7
N175 X254. Y203.2
N180 Y165.1
N185 X317.5 Y266.7
N190 X254. Y330.2
N195 Y368.3
N200 X317.5 Y431.8
N205 X190.5
N210 X152.4 Y430.53
N215 X89.662 Y329.946
N220 X26.162 Y266.446
N225 X88.9 Y367.03
N230 X25.4 Y430.53
N235 X88.9 Y494.03
N240 Y533.4
N245 X25.4 Y596.9
N250 X88.9 Y660.4
N255 X152.4 Y596.9
N260 X190.5
N265 X254. Y495.3
N270 Y533.4
N275 X317.5 Y596.9
N280 X254. Y660.4
N285 Y711.2
N290 X190.5 Y774.7
N295 X152.4
N300 X88.9 Y711.2
N305 X25.4 Y774.7
N310 X88.9 Y838.2
N315 Y889.
N320 X25.4 Y952.5
N325 X88.9 Y1016.
N330 Y1066.8
N335 X25.4 Y1130.3
N340 X88.9 Y1193.8
N345 X152.4 Y1130.3
N350 X190.5
N355 X254. Y1193.8
N360 X317.5 Y1130.3
N365 X254. Y1066.8
N370 Y1016.
N375 X190.5 Y952.5
N380 X152.4
N385 X254. Y889.
N390 X317.5 Y952.5
N395 G80
N400 G0 X406.4 Y972.82 Z7.
N405 G81 X406.4 Y972.82 Z-10.422 R5. F1000.
N410 X469.9 Y1036.32
N415 X533.4 Y972.82
N420 X469.9 Y909.32
N425 Y762.
N430 X533.4 Y698.5
N435 X469.9 Y635.
N440 X406.4 Y698.5
N445 G80
N450 G0 X317.5 Y774.7 Z7.
N455 G81 X317.5 Y774.7 Z-15.502 R5. F1000.
N460 G80
N465 G0 Z17.
N470 M5
N475 G53 G0 Z0.
(2D ADAPTIVE1)
N480 G53 G0 X-200 Y0
N485 M1
N490 T21 M6
N495 T20
N500 S18500 M3
N505 G4 P4.0
N510 G17 G90 G94
N515 G54
N520 G0 X342.9 Y1013.358
N525 G43 Z15. H21
N530 G0 Z5.
N535 Z2.5
N540 G1 Z-6.65 F1500.
N545 Y1013.035 F3500.
N550 X342.935 Y1012.714
N555 X343.215 Y1011.453
N560 X343.267 Y1011.367
N565 X343.482 Y1011.004
N570 X343.705 Y1010.546
N575 X343.929 Y1009.971
N580 X344.144 Y1009.253
N585 X344.338 Y1008.349
N590 X344.492 Y1007.187
N595 X344.557 Y1005.897
N600 X344.552 Y1004.605
N605 X344.493 Y1003.314
N610 X344.393 Y1002.026
N615 X344.26 Y1000.741
N620 X344.101 Y999.458
N625 X343.934 Y998.177
N630 X343.765 Y996.896
N635 X343.593 Y995.616
N640 X343.419 Y994.335
N645 X343.244 Y993.055
N650 X343.072 Y991.775
N655 X342.912 Y990.493
N660 X342.763 Y989.209
N665 X342.623 Y987.925
N670 X342.489 Y986.64
N675 X342.36 Y985.354
N680 X342.246 Y984.067
N685 X342.147 Y982.779
N690 X342.062 Y981.49
N695 X341.987 Y980.2
N700 X341.919 Y978.909
N705 X341.861 Y977.619
N710 X341.821 Y976.327
N715 X341.798 Y975.035
N720 X341.786 Y973.743
N725 X341.785 Y972.451
N730 X341.791 Y971.159
N735 X341.812 Y969.867
N740 X341.851 Y968.576
N745 X341.905 Y967.285
N750 X341.969 Y965.995
N755 X342.043 Y964.705
N760 X342.125 Y963.415
N765 X342.226 Y962.127
N770 X342.344 Y960.84
N775 X342.475 Y959.555
N780 X342.616 Y958.271
N785 X342.766 Y956.987
N790 X342.928 Y955.705
N795 X343.109 Y954.426
N800 X343.305 Y953.149
N805 X343.512 Y951.874
N810 X343.729 Y950.6
N815 X343.952 Y949.327
N820 X344.195 Y948.058
N825 X344.455 Y946.793
N830 X344.727 Y945.53
N835 X345.01 Y944.269
N840 X345.301 Y943.01
N845 X345.604 Y941.754
N850 X345.925 Y940.502
N855 X346.261 Y939.255
N860 X346.608 Y938.01
N865 X346.965 Y936.769
N870 X347.329 Y935.529
N875 X347.71 Y934.294
N880 X348.107 Y933.065
N885 X348.518 Y931.84
N890 X348.939 Y930.618
N895 X349.368 Y929.399
N900 X349.807 Y928.184
N905 X350.264 Y926.976
N910 X350.736 Y925.773
N915 X351.219 Y924.575
N920 X351.712 Y923.38
N925 X352.212 Y922.189
N930 X352.726 Y921.004
N935 X353.257 Y919.826
N940 X353.801 Y918.654
N945 X354.355 Y917.486
N950 X354.917 Y916.323
N955 X355.487 Y915.163
N960 X356.074 Y914.013
N965 X356.676 Y912.869
N970 X357.29 Y911.732
N975 X357.912 Y910.6
N980 X358.541 Y909.471
N985 X359.183 Y908.35
N990 X359.841 Y907.238
N995 X360.511 Y906.133
N1000 X361.191 Y905.035
N1005 X361.879 Y903.941
N1010 X362.573 Y902.851
N1015 X363.284 Y901.772
N1020 X364.009 Y900.703
N1025 X364.744 Y899.64
N1030 X365.489 Y898.584
N1035 X366.24 Y897.533
N1040 X367.001 Y896.489
N1045 X367.777 Y895.456
N1050 X368.565 Y894.432
N1055 X369.363 Y893.416
N1060 X370.168 Y892.405
N1065 X370.979 Y891.4
N1070 X371.805 Y890.406
N1075 X372.643 Y889.423
N1080 X373.492 Y888.448
N1085 X374.349 Y887.481
N1090 X375.212 Y886.52
N1095 X376.083 Y885.566
N1100 X376.969 Y884.625
N1105 X377.866 Y883.695
N1110 X378.771 Y882.773
N1115 X379.684 Y881.859
N1120 X380.602 Y880.95
N1125 X381.532 Y880.052
N1130 X382.474 Y879.168
N1135 X383.425 Y878.294
N1140 X384.384 Y877.428
N1145 X385.349 Y876.568
N1150 X386.32 Y875.716
N1155 X387.304 Y874.879
N1160 X388.298 Y874.053
N1165 X389.3 Y873.238
N1170 X390.309 Y872.431
N1175 X391.323 Y871.629
N1180 X392.345 Y870.84
N1185 X393.379 Y870.065
N1190 X394.422 Y869.301
N1195 X395.471 Y868.547
N1200 X396.525 Y867.8
N1205 X397.584 Y867.06
N1210 X398.654 Y866.336
N1215 X399.734 Y865.626
N1220 X400.82 Y864.927
N1225 X401.912 Y864.236
N1230 X403.009 Y863.553
N1235 X404.112 Y862.881
N1240 X405.225 Y862.225
N1245 X406.346 Y861.581
N1250 X407.472 Y860.948
N1255 X408.603 Y860.323
N1260 X409.737 Y859.705
N1265 X410.881 Y859.103
N1270 X412.032 Y858.517
N1275 X413.189 Y857.942
N1280 X414.351 Y857.377
N1285 X415.517 Y856.82
N1290 X416.688 Y856.273
N1295 X417.866 Y855.744
N1300 X419.051 Y855.228
N1305 X420.241 Y854.724
N1310 X421.434 Y854.229
N1315 X422.63 Y853.741
N1320 X423.833 Y853.269
N1325 X425.042 Y852.813
N1330 X426.256 Y852.37
N1335 X427.473 Y851.938
N1340 X428.694 Y851.514
N1345 X429.918 Y851.099
N1350 X431.147 Y850.703
N1355 X432.382 Y850.322
N1360 X433.62 Y849.952
N1365 X434.861 Y849.593
N1370 X436.104 Y849.241
N1375 X437.352 Y848.904
N1380 X438.604 Y848.584
N1385 X439.859 Y848.278
N1390 X441.117 Y847.984
N1395 X442.377 Y847.698
N1400 X443.639 Y847.42
N1405 X444.905 Y847.162
N1410 X446.174 Y846.92
N1415 X447.445 Y846.69
N1420 X448.719 Y846.471
N1425 X449.993 Y846.26
N1430 X451.27 Y846.062
N1435 X452.55 Y845.883
N1440 X453.831 Y845.718
N1445 X455.114 Y845.565
N1450 X456.398 Y845.421
N1455 X457.683 Y845.284
N1460 X458.97 Y845.167
N1465 X460.258 Y845.067
N1470 X461.547 Y844.979
N1475 X462.837 Y844.903
N1480 X464.127 Y844.834
N1485 X465.418 Y844.779
N1490 X466.709 Y844.742
N1495 X468.001 Y844.72
N1500 X469.293 Y844.71
N1505 X470.585 Y844.709
N1510 X471.877 Y844.716
N1515 X473.169 Y844.742
N1520 X474.461 Y844.784
N1525 X475.751 Y844.841
N1530 X477.042 Y844.908
N1535 X478.332 Y844.983
N1540 X479.621 Y845.07
N1545 X480.908 Y845.175
N1550 X482.195 Y845.297
N1555 X483.48 Y845.43
N1560 X484.764 Y845.573
N1565 X486.047 Y845.724
N1570 X487.328 Y845.891
N1575 X488.607 Y846.076
N1580 X489.884 Y846.275
N1585 X491.159 Y846.484
N1590 X492.432 Y846.703
N1595 X493.704 Y846.93
N1600 X494.972 Y847.178
N1605 X496.237 Y847.44
N1610 X497.5 Y847.716
N1615 X498.76 Y848.001
N1620 X500.018 Y848.294
N1625 X501.273 Y848.601
N1630 X502.524 Y848.926
N1635 X503.771 Y849.265
N1640 X505.014 Y849.615
N1645 X506.256 Y849.974
N1650 X507.495 Y850.34
N1655 X508.728 Y850.725
N1660 X509.956 Y851.126
N1665 X511.18 Y851.54
N1670 X512.401 Y851.963
N1675 X513.619 Y852.394
N1680 X514.833 Y852.838
N1685 X516.04 Y853.299
N1690 X517.241 Y853.773
N1695 X518.439 Y854.259
N1700 X519.632 Y854.754
N1705 X520.823 Y855.255
N1710 X522.006 Y855.774
N1715 X523.183 Y856.309
N1720 X524.353 Y856.855
N1725 X525.52 Y857.412
N1730 X526.682 Y857.976
N1735 X527.839 Y858.55
N1740 X528.988 Y859.141
N1745 X530.13 Y859.746
N1750 X531.266 Y860.362
N1755 X532.397 Y860.986
N1760 X533.525 Y861.617
N1765 X534.644 Y862.263
N1770 X535.754 Y862.924
N1775 X536.857 Y863.597
N1780 X537.954 Y864.279
N1785 X539.047 Y864.968
N1790 X540.134 Y865.667
N1795 X541.211 Y866.381
N1800 X542.278 Y867.109
N1805 X543.339 Y867.846
N1810 X544.394 Y868.592
N1815 X545.444 Y869.345
N1820 X546.485 Y870.11
N1825 X547.516 Y870.889
N1830 X548.538 Y871.68
N1835 X549.552 Y872.48
N1840 X550.562 Y873.287
N1845 X551.566 Y874.1
N1850 X552.557 Y874.929
N1855 X553.537 Y875.77
N1860 X554.51 Y876.621
N1865 X555.475 Y877.48
N1870 X556.435 Y878.344
N1875 X557.386 Y879.22
N1880 X558.324 Y880.108
N1885 X559.252 Y881.007
N1890 X560.171 Y881.915
N1895 X561.085 Y882.829
N1900 X561.993 Y883.748
N1905 X562.886 Y884.681
N1910 X563.768 Y885.626
N1915 X564.64 Y886.579
N1920 X565.504 Y887.54
N1925 X566.362 Y888.506
N1930 X567.21 Y889.48
N1935 X568.044 Y890.467
N1940 X568.867 Y891.463
N1945 X569.68 Y892.467
N1950 X570.486 Y893.477
N1955 X571.286 Y894.492
N1960 X572.072 Y895.518
N1965 X572.844 Y896.554
N1970 X573.605 Y897.598
N1975 X574.357 Y898.649
N1980 X575.102 Y899.704
N1985 X575.838 Y900.766
N1990 X576.558 Y901.839
N1995 X577.266 Y902.92
N2000 X577.963 Y904.008
N2005 X578.651 Y905.101
N2010 X579.333 Y906.198
N2015 X580.001 Y907.304
N2020 X580.654 Y908.419
N2025 X581.295 Y909.541
N2030 X581.926 Y910.669
N2035 X582.549 Y911.801
N2040 X583.164 Y912.937
N2045 X583.762 Y914.083
N2050 X584.345 Y915.235
N2055 X584.917 Y916.394
N2060 X585.48 Y917.557
N2065 X586.036 Y918.723
N2070 X586.578 Y919.896
N2075 X587.104 Y921.076
N2080 X587.616 Y922.262
N2085 X588.118 Y923.453
N2090 X588.611 Y924.647
N2095 X589.098 Y925.844
N2100 X589.565 Y927.049
N2105 X590.017 Y928.259
N2110 X590.457 Y929.474
N2115 X590.887 Y930.692
N2120 X591.31 Y931.913
N2125 X591.72 Y933.139
N2130 X592.112 Y934.37
N2135 X592.49 Y935.605
N2140 X592.857 Y936.844
N2145 X593.214 Y938.086
N2150 X593.565 Y939.329
N2155 X593.897 Y940.578
N2160 X594.213 Y941.831
N2165 X594.515 Y943.087
N2170 X594.808 Y944.346
N2175 X595.092 Y945.606
N2180 X595.364 Y946.869
N2185 X595.618 Y948.136
N2190 X595.857 Y949.406
N2195 X596.084 Y950.678
N2200 X596.301 Y951.951
N2205 X596.511 Y953.226
N2210 X596.704 Y954.504
N2215 X596.879 Y955.784
N2220 X597.041 Y957.066
N2225 X597.191 Y958.349
N2230 X597.334 Y959.633
N2235 X597.466 Y960.919
N2240 X597.578 Y962.206
N2245 X597.675 Y963.494
N2250 X597.76 Y964.783
N2255 X597.834 Y966.073
N2260 X597.901 Y967.364
N2265 X597.952 Y968.655
N2270 X597.985 Y969.946
N2275 X598.004 Y971.238
N2280 X598.011 Y972.53
N2285 X598.01 Y973.822
N2290 X598. Y975.114
N2295 X597.97 Y976.406
N2300 X597.923 Y977.697
N2305 X597.864 Y978.988
N2310 X597.795 Y980.278
N2315 X597.717 Y981.568
N2320 X597.626 Y982.857
N2325 X597.516 Y984.144
N2330 X597.392 Y985.43
N2335 X597.256 Y986.715
N2340 X597.111 Y987.999
N2345 X596.958 Y989.282
N2350 X596.786 Y990.562
N2355 X596.597 Y991.841
N2360 X596.395 Y993.117
N2365 X596.183 Y994.391
N2370 X595.963 Y995.664
N2375 X595.73 Y996.935
N2380 X595.479 Y998.203
N2385 X595.213 Y999.467
N2390 X594.935 Y1000.729
N2395 X594.648 Y1001.989
N2400 X594.354 Y1003.247
N2405 X594.041 Y1004.501
N2410 X593.713 Y1005.75
N2415 X593.371 Y1006.996
N2420 X593.019 Y1008.239
N2425 X592.658 Y1009.48
N2430 X592.287 Y1010.718
N2435 X591.898 Y1011.95
N2440 X591.494 Y1013.177
N2445 X591.078 Y1014.4
N2450 X590.652 Y1015.62
N2455 X590.219 Y1016.838
N2460 X589.771 Y1018.049
N2465 X589.306 Y1019.255
N2470 X588.828 Y1020.455
N2475 X588.34 Y1021.651
N2480 X587.843 Y1022.844
N2485 X587.339 Y1024.034
N2490 X586.815 Y1025.215
N2495 X586.277 Y1026.39
N2500 X585.728 Y1027.559
N2505 X585.17 Y1028.724
N2510 X584.604 Y1029.886
N2515 X584.026 Y1031.041
N2520 X583.431 Y1032.188
N2525 X582.823 Y1033.329
N2530 X582.205 Y1034.463
N2535 X581.58 Y1035.594
N2540 X580.948 Y1036.721
N2545 X580.297 Y1037.837
N2550 X579.633 Y1038.946
N2555 X578.958 Y1040.047
N2560 X578.273 Y1041.143
N2565 X577.582 Y1042.234
N2570 X576.879 Y1043.319
N2575 X576.161 Y1044.393
N2580 X575.431 Y1045.459
N2585 X574.691 Y1046.518
N2590 X573.943 Y1047.571
N2595 X573.189 Y1048.621
N2600 X572.42 Y1049.659
N2605 X571.637 Y1050.687
N2610 X570.844 Y1051.707
N2615 X570.043 Y1052.72
N2620 X569.235 Y1053.729
N2625 X568.418 Y1054.73
N2630 X567.586 Y1055.718
N2635 X566.742 Y1056.697
N2640 X565.889 Y1057.667
N2645 X565.029 Y1058.631
N2650 X564.162 Y1059.59
N2655 X563.283 Y1060.537
N2660 X562.392 Y1061.472
N2665 X561.491 Y1062.398
N2670 X560.582 Y1063.316
N2675 X559.666 Y1064.228
N2680 X558.744 Y1065.133
N2685 X557.808 Y1066.024
N2690 X556.861 Y1066.903
N2695 X555.906 Y1067.772
N2700 X554.944 Y1068.635
N2705 X553.976 Y1069.491
N2710 X552.998 Y1070.335
N2715 X552.009 Y1071.167
N2720 X551.011 Y1071.987
N2725 X550.005 Y1072.799
N2730 X548.994 Y1073.603
N2735 X547.979 Y1074.401
N2740 X546.95 Y1075.184
N2745 X545.912 Y1075.952
N2750 X544.865 Y1076.711
N2755 X543.813 Y1077.461
N2760 X542.756 Y1078.204
N2765 X541.691 Y1078.935
N2770 X540.616 Y1079.652
N2775 X539.533 Y1080.356
N2780 X538.443 Y1081.051
N2785 X537.349 Y1081.737
N2790 X536.251 Y1082.418
N2795 X535.142 Y1083.082
N2800 X534.025 Y1083.731
N2805 X532.901 Y1084.369
N2810 X531.773 Y1084.997
N2815 X530.64 Y1085.619
N2820 X529.501 Y1086.229
N2825 X528.354 Y1086.823
N2830 X527.199 Y1087.404
N2835 X526.04 Y1087.973
N2840 X524.876 Y1088.534
N2845 X523.709 Y1089.089
N2850 X522.534 Y1089.626
N2855 X521.352 Y1090.148
N2860 X520.165 Y1090.658
N2865 X518.973 Y1091.158
N2870 X517.778 Y1091.649
N2875 X516.579 Y1092.131
N2880 X515.373 Y1092.595
N2885 X514.162 Y1093.044
N2890 X512.946 Y1093.482
N2895 X511.728 Y1093.911
N2900 X510.506 Y1094.333
N2905 X509.28 Y1094.738
N2910 X508.047 Y1095.127
N2915 X506.811 Y1095.503
N2920 X505.572 Y1095.867
N2925 X504.33 Y1096.224
N2930 X503.085 Y1096.571
N2935 X501.835 Y1096.899
N2940 X500.582 Y1097.211
N2945 X499.325 Y1097.511
N2950 X498.066 Y1097.802
N2955 X496.805 Y1098.084
N2960 X495.541 Y1098.352
N2965 X494.273 Y1098.601
N2970 X493.003 Y1098.837
N2975 X491.73 Y1099.061
N2980 X490.456 Y1099.275
N2985 X489.181 Y1099.483
N2990 X487.903 Y1099.67
N2995 X486.622 Y1099.841
N3000 X485.34 Y1100.
N3005 X484.056 Y1100.148
N3010 X482.772 Y1100.288
N3015 X481.486 Y1100.415
N3020 X480.198 Y1100.523
N3025 X478.91 Y1100.617
N3030 X477.62 Y1100.699
N3035 X476.33 Y1100.771
N3040 X475.04 Y1100.836
N3045 X473.749 Y1100.882
N3050 X472.457 Y1100.911
N3055 X471.165 Y1100.927
N3060 X469.873 Y1100.932
N3065 X468.581 Y1100.928
N3070 X467.289 Y1100.913
N3075 X465.997 Y1100.879
N3080 X464.706 Y1100.829
N3085 X463.416 Y1100.767
N3090 X462.125 Y1100.696
N3095 X460.836 Y1100.616
N3100 X459.547 Y1100.52
N3105 X458.26 Y1100.407
N3110 X456.975 Y1100.28
N3115 X455.69 Y1100.141
N3120 X454.406 Y1099.995
N3125 X453.124 Y1099.839
N3130 X451.844 Y1099.663
N3135 X450.566 Y1099.471
N3140 X449.29 Y1099.267
N3145 X448.016 Y1099.052
N3150 X446.743 Y1098.831
N3155 X445.473 Y1098.593
N3160 X444.206 Y1098.338
N3165 X442.943 Y1098.069
N3170 X441.681 Y1097.789
N3175 X440.422 Y1097.5
N3180 X439.165 Y1097.203
N3185 X437.912 Y1096.886
N3190 X436.664 Y1096.553
N3195 X435.418 Y1096.208
N3200 X434.176 Y1095.852
N3205 X432.936 Y1095.489
N3210 X431.7 Y1095.112
N3215 X430.47 Y1094.719
N3220 X429.244 Y1094.311
N3225 X428.021 Y1093.892
N3230 X426.802 Y1093.464
N3235 X425.585 Y1093.03
N3240 X424.375 Y1092.577
N3245 X423.171 Y1092.109
N3250 X421.972 Y1091.628
N3255 X420.777 Y1091.137
N3260 X419.584 Y1090.639
N3265 X418.397 Y1090.13
N3270 X417.217 Y1089.603
N3275 X416.044 Y1089.062
N3280 X414.875 Y1088.51
N3285 X413.711 Y1087.95
N3290 X412.55 Y1087.383
N3295 X411.397 Y1086.8
N3300 X410.252 Y1086.201
N3305 X409.114 Y1085.591
N3310 X407.98 Y1084.971
N3315 X406.851 Y1084.343
N3320 X405.727 Y1083.706
N3325 X404.612 Y1083.052
N3330 X403.505 Y1082.385
N3335 X402.405 Y1081.708
N3340 X401.31 Y1081.023
N3345 X400.219 Y1080.331
N3350 X399.137 Y1079.625
N3355 X398.064 Y1078.904
N3360 X397. Y1078.171
N3365 X395.943 Y1077.429
N3370 X394.89 Y1076.679
N3375 X393.843 Y1075.922
N3380 X392.808 Y1075.149
N3385 X391.782 Y1074.364
N3390 X390.764 Y1073.568
N3395 X389.752 Y1072.765
N3400 X388.745 Y1071.956
N3405 X387.747 Y1071.135
N3410 X386.761 Y1070.3
N3415 X385.785 Y1069.453
N3420 X384.816 Y1068.598
N3425 X383.854 Y1067.736
N3430 X382.896 Y1066.869
N3435 X381.952 Y1065.986
N3440 X381.019 Y1065.092
N3445 X380.096 Y1064.189
N3450 X379.179 Y1063.278
N3455 X378.269 Y1062.362
N3460 X377.367 Y1061.436
N3465 X376.48 Y1060.497
N3470 X375.603 Y1059.548
N3475 X374.735 Y1058.59
N3480 X373.875 Y1057.627
N3485 X373.02 Y1056.658
N3490 X372.179 Y1055.677
N3495 X371.351 Y1054.685
N3500 X370.533 Y1053.685
N3505 X369.724 Y1052.677
N3510 X368.921 Y1051.665
N3515 X368.127 Y1050.646
N3520 X367.349 Y1049.615
N3525 X366.582 Y1048.574
N3530 X365.826 Y1047.527
N3535 X365.077 Y1046.474
N3540 X364.335 Y1045.417
N3545 X363.606 Y1044.349
N3550 X362.893 Y1043.272
N3555 X362.191 Y1042.187
N3560 X361.498 Y1041.096
N3565 X360.813 Y1040.001
N3570 X360.137 Y1038.9
N3575 X359.477 Y1037.79
N3580 X358.83 Y1036.671
N3585 X358.195 Y1035.546
N3590 X357.568 Y1034.416
N3595 X356.948 Y1033.282
N3600 X356.342 Y1032.141
N3605 X355.752 Y1030.992
N3610 X355.174 Y1029.836
N3615 X354.607 Y1028.675
N3620 X354.047 Y1027.511
N3625 X353.495 Y1026.342
N3630 X352.962 Y1025.166
N3635 X352.443 Y1023.982
N3640 X351.936 Y1022.794
N3645 X351.438 Y1021.602
N3650 X350.948 Y1020.406
N3655 X350.471 Y1019.205
N3660 X350.041 Y1017.987
N3665 X349.786 Y1016.72
N3670 X349.65 Y1015.436
N3675 X349.591 Y1014.145
N3680 X349.578 Y1012.853
N3685 X349.585 Y1011.561
N3690 X349.595 Y1010.269
N3695 X349.599 Y1008.977
N3700 X349.588 Y1007.685
N3705 X349.559 Y1006.393
N3710 X349.507 Y1005.102
N3715 X349.434 Y1003.812
N3720 X349.34 Y1002.523
N3725 X349.231 Y1001.236
N3730 X349.109 Y999.95
N3735 X348.976 Y998.664
N3740 X348.834 Y997.38
N3745 X348.686 Y996.097
N3750 X348.385 Y993.53
N3755 X348.236 Y992.247
N3760 X348.091 Y990.963
N3765 X347.949 Y989.679
N3770 X347.814 Y988.394
N3775 X347.687 Y987.108
N3780 X347.568 Y985.821
N3785 X347.46 Y984.534
N3790 X347.36 Y983.246
N3795 X347.27 Y981.957
N3800 X347.191 Y980.667
N3805 X347.125 Y979.377
N3810 X347.072 Y978.086
N3815 X347.029 Y976.794
N3820 X346.999 Y975.503
N3825 X346.981 Y974.211
N3830 X346.977 Y972.919
N3835 X346.986 Y971.627
N3840 X347.008 Y970.335
N3845 X347.042 Y969.043
N3850 X347.089 Y967.752
N3855 X347.15 Y966.461
N3860 X347.225 Y965.171
N3865 X347.314 Y963.882
N3870 X347.415 Y962.594
N3875 X347.529 Y961.307
N3880 X347.657 Y960.022
N3885 X347.799 Y958.737
N3890 X347.955 Y957.455
N3895 X348.123 Y956.174
N3900 X348.304 Y954.894
N3905 X348.499 Y953.617
N3910 X348.708 Y952.342
N3915 X348.931 Y951.069
N3920 X349.167 Y949.799
N3925 X349.415 Y948.531
N3930 X349.677 Y947.266
N3935 X349.952 Y946.003
N3940 X350.241 Y944.744
N3945 X350.544 Y943.488
N3950 X350.859 Y942.235
N3955 X351.186 Y940.985
N3960 X351.527 Y939.739
N3965 X351.882 Y938.496
N3970 X352.25 Y937.258
N3975 X352.63 Y936.023
N3980 X353.022 Y934.792
N3985 X353.428 Y933.565
N3990 X353.847 Y932.343
N3995 X354.279 Y931.125
N4000 X354.725 Y929.913
N4005 X355.181 Y928.704
N4010 X355.651 Y927.5
N4015 X356.134 Y926.302
N4020 X356.63 Y925.109
N4025 X357.138 Y923.921
N4030 X357.658 Y922.738
N4035 X358.19 Y921.561
N4040 X358.735 Y920.389
N4045 X359.293 Y919.224
N4050 X359.863 Y918.064
N4055 X360.445 Y916.911
N4060 X361.038 Y915.763
N4065 X361.643 Y914.621
N4070 X362.261 Y913.487
N4075 X362.892 Y912.359
N4080 X363.534 Y911.237
N4085 X364.186 Y910.122
N4090 X364.85 Y909.014
N4095 X365.527 Y907.913
N4100 X366.215 Y906.82
N4105 X366.915 Y905.734
N4110 X367.626 Y904.655
N4115 X368.347 Y903.583
N4120 X369.08 Y902.519
N4125 X369.825 Y901.463
N4130 X370.582 Y900.416
N4135 X371.349 Y899.376
N4140 X372.125 Y898.343
N4145 X372.913 Y897.319
N4150 X373.713 Y896.304
N4155 X374.523 Y895.298
N4160 X375.343 Y894.3
N4165 X376.174 Y893.31
N4170 X377.014 Y892.328
N4175 X377.865 Y891.356
N4180 X378.727 Y890.394
N4185 X379.599 Y889.44
N4190 X380.481 Y888.496
N4195 X381.371 Y887.56
N4200 X382.272 Y886.634
N4205 X383.183 Y885.717
N4210 X384.104 Y884.811
N4215 X385.034 Y883.914
N4220 X385.973 Y883.026
N4225 X386.921 Y882.148
N4230 X387.879 Y881.281
N4235 X388.846 Y880.425
N4240 X389.822 Y879.578
N4245 X390.807 Y878.741
N4250 X391.799 Y877.914
N4255 X392.801 Y877.099
N4260 X393.812 Y876.294
N4265 X394.832 Y875.5
N4270 X395.859 Y874.716
N4275 X396.894 Y873.943
N4280 X397.937 Y873.18
N4285 X398.989 Y872.43
N4290 X400.048 Y871.691
N4295 X401.115 Y870.962
N4300 X402.19 Y870.244
N4305 X403.271 Y869.538
N4310 X404.361 Y868.843
N4315 X405.458 Y868.161
N4320 X406.562 Y867.489
N4325 X407.672 Y866.829
N4330 X408.79 Y866.18
N4335 X409.914 Y865.543
N4340 X411.045 Y864.919
N4345 X412.183 Y864.306
N4350 X413.327 Y863.706
N4355 X414.476 Y863.116
N4360 X415.633 Y862.539
N4365 X416.795 Y861.975
N4370 X417.964 Y861.424
N4375 X419.138 Y860.884
N4380 X420.317 Y860.356
N4385 X421.502 Y859.841
N4390 X422.692 Y859.339
N4395 X423.888 Y858.849
N4400 X425.089 Y858.373
N4405 X426.294 Y857.908
N4410 X427.504 Y857.455
N4415 X428.719 Y857.015
N4420 X429.939 Y856.59
N4425 X431.164 Y856.177
N4430 X432.392 Y855.776
N4435 X433.624 Y855.387
N4440 X434.86 Y855.012
N4445 X436.101 Y854.65
N4450 X437.345 Y854.302
N4455 X438.593 Y853.966
N4460 X439.844 Y853.643
N4465 X441.098 Y853.332
N4470 X442.356 Y853.036
N4475 X443.616 Y852.754
N4480 X444.88 Y852.485
N4485 X446.146 Y852.228
N4490 X447.415 Y851.985
N4495 X448.687 Y851.755
N4500 X449.961 Y851.54
N4505 X451.237 Y851.338
N4510 X452.515 Y851.148
N4515 X453.795 Y850.971
N4520 X455.077 Y850.808
N4525 X456.36 Y850.659
N4530 X457.645 Y850.525
N4535 X458.931 Y850.403
N4540 X460.219 Y850.294
N4545 X461.507 Y850.198
N4550 X462.797 Y850.117
N4555 X464.087 Y850.049
N4560 X465.378 Y849.996
N4565 X466.669 Y849.954
N4570 X467.961 Y849.926
N4575 X469.253 Y849.912
N4580 X470.545 Y849.913
N4585 X471.837 Y849.927
N4590 X473.129 Y849.954
N4595 X474.42 Y849.994
N4600 X475.711 Y850.048
N4605 X477.002 Y850.116
N4610 X478.291 Y850.199
N4615 X479.58 Y850.294
N4620 X480.867 Y850.402
N4625 X482.153 Y850.523
N4630 X483.438 Y850.659
N4635 X484.722 Y850.809
N4640 X486.003 Y850.972
N4645 X487.283 Y851.148
N4650 X488.562 Y851.336
N4655 X489.838 Y851.539
N4660 X491.111 Y851.756
N4665 X492.383 Y851.986
N4670 X493.652 Y852.229
N4675 X494.918 Y852.484
N4680 X496.182 Y852.754
N4685 X497.443 Y853.037
N4690 X498.7 Y853.334
N4695 X499.955 Y853.644
N4700 X501.206 Y853.965
N4705 X502.454 Y854.3
N4710 X503.698 Y854.648
N4715 X504.938 Y855.011
N4720 X506.174 Y855.387
N4725 X507.407 Y855.774
N4730 X508.636 Y856.174
N4735 X509.86 Y856.588
N4740 X511.079 Y857.015
N4745 X512.294 Y857.455
N4750 X513.504 Y857.907
N4755 X514.71 Y858.371
N4760 X515.911 Y858.848
N4765 X517.106 Y859.338
N4770 X518.296 Y859.841
N4775 X519.481 Y860.357
N4780 X520.661 Y860.884
N4785 X521.835 Y861.423
N4790 X523.003 Y861.975
N4795 X524.165 Y862.54
N4800 X525.321 Y863.117
N4805 X526.472 Y863.705
N4810 X527.616 Y864.305
N4815 X528.754 Y864.917
N4820 X529.885 Y865.543
N4825 X531.009 Y866.18
N4830 X532.126 Y866.828
N4835 X533.237 Y867.487
N4840 X534.341 Y868.159
N4845 X535.438 Y868.842
N4850 X536.527 Y869.538
N4855 X537.609 Y870.244
N4860 X538.684 Y870.961
N4865 X539.751 Y871.689
N4870 X540.81 Y872.429
N4875 X541.861 Y873.181
N4880 X542.904 Y873.943
N4885 X543.94 Y874.716
N4890 X544.968 Y875.499
N4895 X545.987 Y876.293
N4900 X546.997 Y877.098
N4905 X547.998 Y877.915
N4910 X548.992 Y878.741
N4915 X549.977 Y879.577
N4920 X550.953 Y880.423
N4925 X551.92 Y881.281
N4930 X552.877 Y882.148
N4935 X553.826 Y883.026
N4940 X554.766 Y883.912
N4945 X555.696 Y884.809
N4950 X556.616 Y885.715
N4955 X557.527 Y886.632
N4960 X558.427 Y887.559
N4965 X559.319 Y888.494
N4970 X560.201 Y889.438
N4975 X561.072 Y890.392
N4980 X561.933 Y891.355
N4985 X562.784 Y892.328
N4990 X563.625 Y893.309
N4995 X564.456 Y894.298
N5000 X565.277 Y895.296
N5005 X566.086 Y896.303
N5010 X566.884 Y897.319
N5015 X567.672 Y898.343
N5020 X568.451 Y899.375
N5025 X569.218 Y900.414
N5030 X569.973 Y901.462
N5035 X570.717 Y902.519
N5040 X571.45 Y903.583
N5045 X572.173 Y904.654
N5050 X572.885 Y905.732
N5055 X573.585 Y906.818
N5060 X574.272 Y907.912
N5065 X574.948 Y909.013
N5070 X575.613 Y910.121
N5075 X576.267 Y911.235
N5080 X576.909 Y912.357
N5085 X577.538 Y913.485
N5090 X578.155 Y914.62
N5095 X578.761 Y915.762
N5100 X579.355 Y916.909
N5105 X579.937 Y918.062
N5110 X580.507 Y919.222
N5115 X581.063 Y920.388
N5120 X581.608 Y921.56
N5125 X582.141 Y922.737
N5130 X582.662 Y923.919
N5135 X583.17 Y925.107
N5140 X583.665 Y926.301
N5145 X584.147 Y927.499
N5150 X584.617 Y928.703
N5155 X585.076 Y929.911
N5160 X585.521 Y931.124
N5165 X585.952 Y932.342
N5170 X586.371 Y933.564
N5175 X586.777 Y934.791
N5180 X587.171 Y936.021
N5185 X587.552 Y937.256
N5190 X587.919 Y938.495
N5195 X588.273 Y939.737
N5200 X588.613 Y940.984
N5205 X588.942 Y942.233
N5210 X589.257 Y943.486
N5215 X589.559 Y944.742
N5220 X589.847 Y946.002
N5225 X590.122 Y947.265
N5230 X590.384 Y948.53
N5235 X590.633 Y949.798
N5240 X590.869 Y951.068
N5245 X591.09 Y952.341
N5250 X591.298 Y953.616
N5255 X591.493 Y954.893
N5260 X591.675 Y956.172
N5265 X591.845 Y957.453
N5270 X591.999 Y958.736
N5275 X592.14 Y960.021
N5280 X592.267 Y961.306
N5285 X592.382 Y962.593
N5290 X592.484 Y963.881
N5295 X592.571 Y965.17
N5300 X592.644 Y966.46
N5305 X592.704 Y967.751
N5310 X592.75 Y969.042
N5315 X592.784 Y970.334
N5320 X592.804 Y971.626
N5325 X592.809 Y972.918
N5330 X592.8 Y974.21
N5335 X592.779 Y975.502
N5340 X592.744 Y976.793
N5345 X592.696 Y978.084
N5350 X592.634 Y979.375
N5355 X592.557 Y980.665
N5360 X592.467 Y981.954
N5365 X592.365 Y983.242
N5370 X592.25 Y984.529
N5375 X592.12 Y985.814
N5380 X591.977 Y987.098
N5385 X591.819 Y988.381
N5390 X591.649 Y989.661
N5395 X591.466 Y990.94
N5400 X591.269 Y992.218
N5405 X591.059 Y993.492
N5410 X590.834 Y994.765
N5415 X590.596 Y996.035
N5420 X590.346 Y997.302
N5425 X590.083 Y998.567
N5430 X589.805 Y999.829
N5435 X589.514 Y1001.088
N5440 X589.21 Y1002.344
N5445 X588.893 Y1003.596
N5450 X588.564 Y1004.846
N5455 X588.221 Y1006.091
N5460 X587.864 Y1007.333
N5465 X587.494 Y1008.571
N5470 X587.112 Y1009.805
N5475 X586.717 Y1011.036
N5480 X586.309 Y1012.262
N5485 X585.888 Y1013.483
N5490 X585.453 Y1014.7
N5495 X585.006 Y1015.912
N5500 X584.547 Y1017.12
N5505 X584.076 Y1018.323
N5510 X583.591 Y1019.521
N5515 X583.093 Y1020.713
N5520 X582.583 Y1021.9
N5525 X582.061 Y1023.082
N5530 X581.527 Y1024.258
N5535 X580.981 Y1025.429
N5540 X580.421 Y1026.594
N5545 X579.849 Y1027.752
N5550 X579.265 Y1028.905
N5555 X578.67 Y1030.052
N5560 X578.063 Y1031.193
N5565 X577.444 Y1032.326
N5570 X576.812 Y1033.453
N5575 X576.168 Y1034.573
N5580 X575.513 Y1035.687
N5585 X574.847 Y1036.794
N5590 X574.169 Y1037.894
N5595 X573.478 Y1038.986
N5600 X572.776 Y1040.071
N5605 X572.064 Y1041.149
N5610 X571.341 Y1042.219
N5615 X570.606 Y1043.282
N5620 X569.859 Y1044.337
N5625 X569.101 Y1045.383
N5630 X568.333 Y1046.422
N5635 X567.555 Y1047.453
N5640 X566.766 Y1048.476
N5645 X565.965 Y1049.49
N5650 X565.153 Y1050.496
N5655 X564.331 Y1051.492
N5660 X563.499 Y1052.481
N5665 X562.657 Y1053.461
N5670 X561.804 Y1054.431
N5675 X560.94 Y1055.392
N5680 X560.067 Y1056.344
N5685 X559.184 Y1057.288
N5690 X558.292 Y1058.223
N5695 X557.39 Y1059.147
N5700 X556.477 Y1060.062
N5705 X555.554 Y1060.966
N5710 X554.623 Y1061.862
N5715 X553.683 Y1062.748
N5720 X552.733 Y1063.624
N5725 X551.773 Y1064.489
N5730 X550.805 Y1065.344
N5735 X549.827 Y1066.19
N5740 X548.842 Y1067.025
N5745 X547.848 Y1067.851
N5750 X546.845 Y1068.665
N5755 X545.833 Y1069.469
N5760 X544.813 Y1070.261
N5765 X543.784 Y1071.043
N5770 X542.748 Y1071.815
N5775 X541.703 Y1072.575
N5780 X540.65 Y1073.323
N5785 X539.589 Y1074.061
N5790 X538.52 Y1074.787
N5795 X537.445 Y1075.504
N5800 X536.362 Y1076.208
N5805 X535.271 Y1076.901
N5810 X534.173 Y1077.581
N5815 X533.068 Y1078.251
N5820 X531.956 Y1078.909
N5825 X530.838 Y1079.556
N5830 X529.712 Y1080.191
N5835 X528.58 Y1080.813
N5840 X527.441 Y1081.423
N5845 X526.296 Y1082.022
N5850 X525.146 Y1082.61
N5855 X523.989 Y1083.185
N5860 X522.825 Y1083.747
N5865 X521.656 Y1084.297
N5870 X520.481 Y1084.835
N5875 X519.301 Y1085.361
N5880 X518.116 Y1085.875
N5885 X516.925 Y1086.375
N5890 X515.728 Y1086.863
N5895 X514.527 Y1087.338
N5900 X513.321 Y1087.802
N5905 X512.11 Y1088.253
N5910 X510.894 Y1088.691
N5915 X509.674 Y1089.115
N5920 X508.449 Y1089.526
N5925 X507.22 Y1089.926
N5930 X505.988 Y1090.313
N5935 X504.751 Y1090.686
N5940 X503.51 Y1091.046
N5945 X502.265 Y1091.392
N5950 X501.017 Y1091.726
N5955 X499.765 Y1092.048
N5960 X498.51 Y1092.356
N5965 X497.252 Y1092.65
N5970 X495.991 Y1092.93
N5975 X494.727 Y1093.197
N5980 X493.46 Y1093.452
N5985 X492.191 Y1093.694
N5990 X490.919 Y1093.921
N5995 X489.645 Y1094.135
N6000 X488.368 Y1094.334
N6005 X487.09 Y1094.522
N6010 X485.81 Y1094.696
N6015 X484.528 Y1094.857
N6020 X483.244 Y1095.003
N6025 X481.959 Y1095.136
N6030 X480.672 Y1095.255
N6035 X479.385 Y1095.363
N6040 X478.096 Y1095.456
N6045 X476.806 Y1095.535
N6050 X475.516 Y1095.6
N6055 X474.225 Y1095.652
N6060 X472.933 Y1095.691
N6065 X471.642 Y1095.717
N6070 X470.35 Y1095.728
N6075 X469.057 Y1095.725
N6080 X467.766 Y1095.709
N6085 X466.474 Y1095.68
N6090 X465.182 Y1095.638
N6095 X463.892 Y1095.582
N6100 X462.601 Y1095.511
N6105 X461.312 Y1095.427
N6110 X460.024 Y1095.331
N6115 X458.736 Y1095.222
N6120 X457.45 Y1095.098
N6125 X456.165 Y1094.961
N6130 X454.882 Y1094.809
N6135 X453.601 Y1094.645
N6140 X452.321 Y1094.467
N6145 X451.043 Y1094.277
N6150 X449.767 Y1094.072
N6155 X448.494 Y1093.853
N6160 X447.223 Y1093.621
N6165 X445.954 Y1093.376
N6170 X444.688 Y1093.118
N6175 X443.425 Y1092.847
N6180 X442.165 Y1092.562
N6185 X440.908 Y1092.262
N6190 X439.654 Y1091.95
N6195 X438.403 Y1091.626
N6200 X437.156 Y1091.289
N6205 X435.913 Y1090.937
N6210 X434.673 Y1090.572
N6215 X433.438 Y1090.194
N6220 X432.206 Y1089.805
N6225 X430.978 Y1089.403
N6230 X429.754 Y1088.988
N6235 X428.536 Y1088.558
N6240 X427.322 Y1088.116
N6245 X426.112 Y1087.662
N6250 X424.907 Y1087.196
N6255 X423.707 Y1086.717
N6260 X422.513 Y1086.224
N6265 X421.323 Y1085.719
N6270 X420.139 Y1085.202
N6275 X418.96 Y1084.673
N6280 X417.787 Y1084.132
N6285 X416.62 Y1083.577
N6290 X415.459 Y1083.01
N6295 X414.304 Y1082.431
N6300 X413.155 Y1081.841
N6305 X412.011 Y1081.239
N6310 X410.875 Y1080.625
N6315 X409.745 Y1079.998
N6320 X408.622 Y1079.359
N6325 X407.505 Y1078.71
N6330 X406.394 Y1078.049
N6335 X405.291 Y1077.377
N6340 X404.196 Y1076.692
N6345 X403.108 Y1075.995
N6350 X402.027 Y1075.287
N6355 X400.953 Y1074.569
N6360 X399.887 Y1073.839
N6365 X398.829 Y1073.097
N6370 X397.779 Y1072.344
N6375 X396.737 Y1071.58
N6380 X395.702 Y1070.806
N6385 X394.676 Y1070.021
N6390 X393.658 Y1069.225
N6395 X392.65 Y1068.418
N6400 X391.649 Y1067.6
N6405 X390.657 Y1066.772
N6410 X389.673 Y1065.935
N6415 X388.699 Y1065.086
N6420 X387.734 Y1064.227
N6425 X386.778 Y1063.358
N6430 X385.831 Y1062.479
N6435 X384.892 Y1061.591
N6440 X383.963 Y1060.693
N6445 X383.044 Y1059.785
N6450 X382.135 Y1058.866
N6455 X381.236 Y1057.939
N6460 X380.345 Y1057.003
N6465 X379.465 Y1056.057
N6470 X378.595 Y1055.102
N6475 X377.736 Y1054.137
N6480 X376.887 Y1053.163
N6485 X376.047 Y1052.181
N6490 X375.218 Y1051.19
N6495 X374.399 Y1050.191
N6500 X373.591 Y1049.182
N6505 X372.795 Y1048.165
N6510 X372.008 Y1047.14
N6515 X371.232 Y1046.107
N6520 X370.466 Y1045.066
N6525 X369.712 Y1044.017
N6530 X368.97 Y1042.959
N6535 X368.239 Y1041.894
N6540 X367.518 Y1040.822
N6545 X366.808 Y1039.742
N6550 X366.11 Y1038.655
N6555 X365.425 Y1037.56
N6560 X364.751 Y1036.457
N6565 X364.087 Y1035.349
N6570 X363.435 Y1034.233
N6575 X362.795 Y1033.111
N6580 X362.167 Y1031.981
N6585 X361.552 Y1030.845
N6590 X360.948 Y1029.703
N6595 X360.355 Y1028.555
N6600 X359.775 Y1027.401
N6605 X359.207 Y1026.24
N6610 X358.652 Y1025.073
N6615 X358.109 Y1023.901
N6620 X357.578 Y1022.723
N6625 X357.062 Y1021.539
N6630 X356.599 Y1020.332
N6635 X356.211 Y1019.1
N6640 X355.896 Y1017.847
N6645 X355.646 Y1016.579
N6650 X355.447 Y1015.303
N6655 X355.29 Y1014.02
N6660 X355.162 Y1012.734
N6665 X355.055 Y1011.447
N6670 X354.96 Y1010.158
N6675 X354.782 Y1007.58
N6680 X354.69 Y1006.292
N6685 X354.594 Y1005.003
N6690 X354.491 Y1003.715
N6695 X354.381 Y1002.428
N6700 X354.263 Y1001.141
N6705 X354.139 Y999.855
N6710 X354.01 Y998.569
N6715 X353.876 Y997.284
N6720 X353.74 Y995.999
N6725 X353.463 Y993.43
N6730 X353.327 Y992.145
N6735 X353.193 Y990.86
N6740 X353.063 Y989.575
N6745 X352.939 Y988.289
N6750 X352.821 Y987.002
N6755 X352.711 Y985.715
N6760 X352.609 Y984.427
N6765 X352.516 Y983.138
N6770 X352.433 Y981.849
N6775 X352.361 Y980.558
N6780 X352.299 Y979.268
N6785 X352.249 Y977.977
N6790 X352.211 Y976.685
N6795 X352.186 Y975.393
N6800 X352.172 Y974.102
N6805 Y972.809
N6810 X352.185 Y971.517
N6815 X352.211 Y970.226
N6820 X352.25 Y968.934
N6825 X352.303 Y967.643
N6830 X352.37 Y966.353
N6835 X352.45 Y965.063
N6840 X352.544 Y963.775
N6845 X352.652 Y962.487
N6850 X352.774 Y961.201
N6855 X352.909 Y959.916
N6860 X353.059 Y958.633
N6865 X353.222 Y957.351
N6870 X353.4 Y956.071
N6875 X353.591 Y954.793
N6880 X353.796 Y953.518
N6885 X354.015 Y952.244
N6890 X354.249 Y950.973
N6895 X354.496 Y949.705
N6900 X354.757 Y948.44
N6905 X355.031 Y947.177
N6910 X355.319 Y945.918
N6915 X355.622 Y944.662
N6920 X355.938 Y943.409
N6925 X356.268 Y942.16
N6930 X356.611 Y940.914
N6935 X356.968 Y939.672
N6940 X357.339 Y938.435
N6945 X357.723 Y937.201
N6950 X358.121 Y935.972
N6955 X358.532 Y934.747
N6960 X358.957 Y933.527
N6965 X359.395 Y932.311
N6970 X359.847 Y931.1
N6975 X360.311 Y929.895
N6980 X360.789 Y928.694
N6985 X361.28 Y927.499
N6990 X361.784 Y926.31
N6995 X362.301 Y925.126
N7000 X362.832 Y923.947
N7005 X363.374 Y922.775
N7010 X363.93 Y921.608
N7015 X364.498 Y920.448
N7020 X365.08 Y919.294
N7025 X365.674 Y918.147
N7030 X366.28 Y917.006
N7035 X366.899 Y915.872
N7040 X367.53 Y914.744
N7045 X368.174 Y913.624
N7050 X368.83 Y912.511
N7055 X369.498 Y911.405
N7060 X370.178 Y910.306
N7065 X370.871 Y909.215
N7070 X371.575 Y908.132
N7075 X372.291 Y907.057
N7080 X373.019 Y905.989
N7085 X373.758 Y904.93
N7090 X374.509 Y903.878
N7095 X375.272 Y902.835
N7100 X376.046 Y901.801
N7105 X376.831 Y900.775
N7110 X377.628 Y899.758
N7115 X378.435 Y898.749
N7120 X379.254 Y897.749
N7125 X380.083 Y896.759
N7130 X380.924 Y895.777
N7135 X381.775 Y894.805
N7140 X382.636 Y893.842
N7145 X383.509 Y892.889
N7150 X384.391 Y891.945
N7155 X385.284 Y891.012
N7160 X386.188 Y890.088
N7165 X387.101 Y889.174
N7170 X388.024 Y888.27
N7175 X388.957 Y887.376
N7180 X389.9 Y886.493
N7185 X390.853 Y885.62
N7190 X391.815 Y884.757
N7195 X392.786 Y883.905
N7200 X393.767 Y883.064
N7205 X394.757 Y882.234
N7210 X395.756 Y881.415
N7215 X396.764 Y880.606
N7220 X397.78 Y879.809
N7225 X398.806 Y879.023
N7230 X399.84 Y878.248
N7235 X400.882 Y877.485
N7240 X401.933 Y876.732
N7245 X402.992 Y875.992
N7250 X404.059 Y875.263
N7255 X405.134 Y874.547
N7260 X406.216 Y873.842
N7265 X407.307 Y873.148
N7270 X408.405 Y872.467
N7275 X409.51 Y871.798
N7280 X410.623 Y871.141
N7285 X411.743 Y870.497
N7290 X412.869 Y869.865
N7295 X414.003 Y869.245
N7300 X415.143 Y868.637
N7305 X416.29 Y868.043
N7310 X417.444 Y867.461
N7315 X418.604 Y866.891
N7320 X419.77 Y866.334
N7325 X420.942 Y865.79
N7330 X422.12 Y865.26
N7335 X423.303 Y864.742
N7340 X424.493 Y864.237
N7345 X425.687 Y863.744
N7350 X426.887 Y863.266
N7355 X428.093 Y862.8
N7360 X429.303 Y862.348
N7365 X430.518 Y861.909
N7370 X431.738 Y861.483
N7375 X432.962 Y861.071
N7380 X434.191 Y860.672
N7385 X435.425 Y860.287
N7390 X436.662 Y859.915
N7395 X437.904 Y859.557
N7400 X439.149 Y859.212
N7405 X440.398 Y858.882
N7410 X441.65 Y858.565
N7415 X442.906 Y858.262
N7420 X444.166 Y857.972
N7425 X445.428 Y857.697
N7430 X446.693 Y857.435
N7435 X447.961 Y857.187
N7440 X449.232 Y856.954
N7445 X450.505 Y856.733
N7450 X451.781 Y856.527
N7455 X453.059 Y856.336
N7460 X454.338 Y856.158
N7465 X455.62 Y855.994
N7470 X456.903 Y855.844
N7475 X458.188 Y855.708
N7480 X459.474 Y855.587
N7485 X460.762 Y855.479
N7490 X462.051 Y855.386
N7495 X463.34 Y855.307
N7500 X464.631 Y855.242
N7505 X465.922 Y855.191
N7510 X467.213 Y855.155
N7515 X468.505 Y855.133
N7520 X469.797 Y855.124
N7525 X471.089 Y855.13
N7530 X472.381 Y855.151
N7535 X473.673 Y855.185
N7540 X474.964 Y855.234
N7545 X476.254 Y855.296
N7550 X477.544 Y855.373
N7555 X478.833 Y855.464
N7560 X480.121 Y855.569
N7565 X481.407 Y855.689
N7570 X482.693 Y855.822
N7575 X483.976 Y855.969
N7580 X485.258 Y856.13
N7585 X486.538 Y856.306
N7590 X487.816 Y856.496
N7595 X489.092 Y856.699
N7600 X490.366 Y856.917
N7605 X491.637 Y857.149
N7610 X492.905 Y857.394
N7615 X494.171 Y857.654
N7620 X495.434 Y857.927
N7625 X496.694 Y858.214
N7630 X497.95 Y858.516
N7635 X499.203 Y858.83
N7640 X500.453 Y859.159
N7645 X501.699 Y859.501
N7650 X502.941 Y859.857
N7655 X504.179 Y860.227
N7660 X505.413 Y860.61
N7665 X506.642 Y861.007
N7670 X507.868 Y861.417
N7675 X509.088 Y861.84
N7680 X510.304 Y862.277
N7685 X511.515 Y862.727
N7690 X512.721 Y863.191
N7695 X513.922 Y863.667
N7700 X515.118 Y864.157
N7705 X516.308 Y864.66
N7710 X517.493 Y865.176
N7715 X518.672 Y865.705
N7720 X519.844 Y866.247
N7725 X521.011 Y866.801
N7730 X522.172 Y867.369
N7735 X523.327 Y867.949
N7740 X524.475 Y868.542
N7745 X525.616 Y869.148
N7750 X526.751 Y869.765
N7755 X527.879 Y870.396
N7760 X529. Y871.038
N7765 X530.113 Y871.693
N7770 X531.22 Y872.361
N7775 X532.319 Y873.04
N7780 X533.41 Y873.731
N7785 X534.494 Y874.434
N7790 X535.57 Y875.149
N7795 X536.639 Y875.876
N7800 X537.699 Y876.614
N7805 X538.751 Y877.364
N7810 X539.795 Y878.126
N7815 X540.831 Y878.899
N7820 X541.857 Y879.683
N7825 X542.875 Y880.478
N7830 X543.885 Y881.285
N7835 X544.885 Y882.103
N7840 X545.876 Y882.931
N7845 X546.859 Y883.771
N7850 X547.832 Y884.621
N7855 X548.795 Y885.482
N7860 X549.749 Y886.353
N7865 X550.694 Y887.235
N7870 X551.628 Y888.127
N7875 X552.553 Y889.029
N7880 X553.468 Y889.942
N7885 X554.373 Y890.864
N7890 X555.267 Y891.797
N7895 X556.151 Y892.739
N7900 X557.025 Y893.69
N7905 X557.889 Y894.651
N7910 X558.742 Y895.622
N7915 X559.584 Y896.602
N7920 X560.415 Y897.591
N7925 X561.235 Y898.589
N7930 X562.045 Y899.596
N7935 X562.843 Y900.612
N7940 X563.63 Y901.637
N7945 X564.406 Y902.67
N7950 X565.17 Y903.712
N7955 X565.923 Y904.762
N7960 X566.664 Y905.82
N7965 X567.394 Y906.887
N7970 X568.112 Y907.961
N7975 X568.818 Y909.043
N7980 X569.512 Y910.133
N7985 X570.194 Y911.23
N7990 X570.864 Y912.335
N7995 X571.522 Y913.447
N8000 X572.168 Y914.566
N8005 X572.801 Y915.692
N8010 X573.422 Y916.825
N8015 X574.031 Y917.965
N8020 X574.626 Y919.111
N8025 X575.21 Y920.264
N8030 X575.781 Y921.423
N8035 X576.339 Y922.589
N8040 X576.884 Y923.76
N8045 X577.416 Y924.938
N8050 X577.935 Y926.121
N8055 X578.441 Y927.31
N8060 X578.934 Y928.504
N8065 X579.414 Y929.703
N8070 X579.881 Y930.908
N8075 X580.334 Y932.118
N8080 X580.774 Y933.333
N8085 X581.201 Y934.552
N8090 X581.614 Y935.777
N8095 X582.014 Y937.005
N8100 X582.4 Y938.238
N8105 X582.773 Y939.475
N8110 X583.133 Y940.716
N8115 X583.478 Y941.961
N8120 X583.81 Y943.21
N8125 X584.128 Y944.462
N8130 X584.433 Y945.718
N8135 X584.723 Y946.977
N8140 X585. Y948.239
N8145 X585.263 Y949.504
N8150 X585.512 Y950.772
N8155 X585.747 Y952.042
N8160 X585.969 Y953.315
N8165 X586.176 Y954.591
N8170 X586.369 Y955.868
N8175 X586.548 Y957.148
N8180 X586.713 Y958.429
N8185 X586.864 Y959.713
N8190 X587.001 Y960.997
N8195 X587.123 Y962.284
N8200 X587.232 Y963.571
N8205 X587.326 Y964.86
N8210 X587.406 Y966.149
N8215 X587.473 Y967.44
N8220 X587.524 Y968.731
N8225 X587.562 Y970.022
N8230 X587.586 Y971.314
N8235 X587.595 Y972.606
N8240 X587.591 Y973.898
N8245 X587.572 Y975.19
N8250 X587.538 Y976.482
N8255 X587.491 Y977.773
N8260 X587.43 Y979.063
N8265 X587.355 Y980.353
N8270 X587.265 Y981.642
N8275 X587.161 Y982.93
N8280 X587.043 Y984.217
N8285 X586.911 Y985.502
N8290 X586.765 Y986.786
N8295 X586.604 Y988.068
N8300 X586.43 Y989.348
N8305 X586.241 Y990.626
N8310 X586.039 Y991.902
N8315 X585.822 Y993.176
N8320 X585.592 Y994.447
N8325 X585.347 Y995.716
N8330 X585.089 Y996.982
N8335 X584.817 Y998.245
N8340 X584.531 Y999.505
N8345 X584.231 Y1000.762
N8350 X583.917 Y1002.015
N8355 X583.59 Y1003.265
N8360 X583.249 Y1004.511
N8365 X582.895 Y1005.754
N8370 X582.526 Y1006.992
N8375 X582.144 Y1008.227
N8380 X581.749 Y1009.457
N8385 X581.34 Y1010.682
N8390 X580.917 Y1011.903
N8395 X580.482 Y1013.12
N8400 X580.032 Y1014.331
N8405 X579.57 Y1015.538
N8410 X579.094 Y1016.739
N8415 X578.605 Y1017.935
N8420 X578.104 Y1019.126
N8425 X577.589 Y1020.311
N8430 X577.061 Y1021.49
N8435 X576.52 Y1022.663
N8440 X575.966 Y1023.831
N8445 X575.4 Y1024.992
N8450 X574.821 Y1026.147
N8455 X574.229 Y1027.296
N8460 X573.625 Y1028.438
N8465 X573.008 Y1029.573
N8470 X572.379 Y1030.702
N8475 X571.737 Y1031.823
N8480 X571.084 Y1032.938
N8485 X570.418 Y1034.045
N8490 X569.74 Y1035.145
N8495 X569.049 Y1036.237
N8500 X568.347 Y1037.321
N8505 X567.633 Y1038.398
N8510 X566.907 Y1039.467
N8515 X566.17 Y1040.528
N8520 X565.421 Y1041.581
N8525 X564.66 Y1042.625
N8530 X563.888 Y1043.661
N8535 X563.105 Y1044.689
N8540 X562.31 Y1045.708
N8545 X561.505 Y1046.718
N8550 X560.688 Y1047.719
N8555 X559.86 Y1048.711
N8560 X559.022 Y1049.694
N8565 X558.172 Y1050.668
N8570 X557.313 Y1051.632
N8575 X556.442 Y1052.587
N8580 X555.561 Y1053.532
N8585 X554.67 Y1054.468
N8590 X553.769 Y1055.394
N8595 X552.857 Y1056.309
N8600 X551.936 Y1057.215
N8605 X551.004 Y1058.111
N8610 X550.063 Y1058.996
N8615 X549.112 Y1059.87
N8620 X548.152 Y1060.735
N8625 X547.182 Y1061.589
N8630 X546.203 Y1062.432
N8635 X545.215 Y1063.264
N8640 X544.217 Y1064.085
N8645 X543.211 Y1064.896
N8650 X542.196 Y1065.695
N8655 X541.172 Y1066.483
N8660 X540.139 Y1067.259
N8665 X539.098 Y1068.024
N8670 X538.048 Y1068.778
N8675 X536.991 Y1069.52
N8680 X535.925 Y1070.25
N8685 X534.851 Y1070.969
N8690 X533.77 Y1071.676
N8695 X532.681 Y1072.371
N8700 X531.584 Y1073.055
N8705 X530.48 Y1073.726
N8710 X529.368 Y1074.384
N8715 X528.25 Y1075.031
N8720 X527.124 Y1075.666
N8725 X525.992 Y1076.288
N8730 X524.853 Y1076.897
N8735 X523.707 Y1077.494
N8740 X522.554 Y1078.078
N8745 X521.395 Y1078.65
N8750 X520.231 Y1079.209
N8755 X519.06 Y1079.755
N8760 X517.883 Y1080.288
N8765 X516.7 Y1080.808
N8770 X515.512 Y1081.316
N8775 X514.318 Y1081.81
N8780 X513.119 Y1082.292
N8785 X511.915 Y1082.76
N8790 X510.705 Y1083.214
N8795 X509.491 Y1083.656
N8800 X508.272 Y1084.085
N8805 X507.049 Y1084.5
N8810 X505.821 Y1084.901
N8815 X504.588 Y1085.289
N8820 X503.352 Y1085.663
N8825 X502.111 Y1086.024
N8830 X500.866 Y1086.372
N8835 X499.618 Y1086.705
N8840 X498.366 Y1087.024
N8845 X497.111 Y1087.33
N8850 X495.852 Y1087.622
N8855 X494.59 Y1087.9
N8860 X493.325 Y1088.163
N8865 X492.058 Y1088.413
N8870 X490.787 Y1088.649
N8875 X489.515 Y1088.872
N8880 X488.239 Y1089.08
N8885 X486.962 Y1089.274
N8890 X485.683 Y1089.454
N8895 X484.401 Y1089.62
N8900 X483.118 Y1089.772
N8905 X481.833 Y1089.91
N8910 X480.547 Y1090.034
N8915 X479.26 Y1090.143
N8920 X477.971 Y1090.239
N8925 X476.682 Y1090.32
N8930 X475.392 Y1090.388
N8935 X474.101 Y1090.441
N8940 X472.809 Y1090.48
N8945 X471.517 Y1090.505
N8950 X470.225 Y1090.516
N8955 X468.933 Y1090.512
N8960 X467.641 Y1090.494
N8965 X466.35 Y1090.462
N8970 X465.059 Y1090.416
N8975 X463.768 Y1090.356
N8980 X462.478 Y1090.282
N8985 X461.189 Y1090.194
N8990 X459.901 Y1090.091
N8995 X458.614 Y1089.974
N9000 X457.329 Y1089.844
N9005 X456.045 Y1089.699
N9010 X454.763 Y1089.54
N9015 X453.482 Y1089.367
N9020 X452.204 Y1089.18
N9025 X450.927 Y1088.979
N9030 X449.653 Y1088.764
N9035 X448.382 Y1088.535
N9040 X447.113 Y1088.292
N9045 X445.847 Y1088.034
N9050 X444.583 Y1087.763
N9055 X443.323 Y1087.479
N9060 X442.066 Y1087.18
N9065 X440.812 Y1086.867
N9070 X439.562 Y1086.54
N9075 X438.316 Y1086.2
N9080 X437.073 Y1085.846
N9085 X435.834 Y1085.479
N9090 X434.6 Y1085.098
N9095 X433.37 Y1084.703
N9100 X432.144 Y1084.295
N9105 X430.922 Y1083.873
N9110 X429.706 Y1083.439
N9115 X428.494 Y1082.99
N9120 X427.287 Y1082.529
N9125 X426.085 Y1082.054
N9130 X424.889 Y1081.567
N9135 X423.698 Y1081.066
N9140 X422.512 Y1080.552
N9145 X421.333 Y1080.025
N9150 X420.159 Y1079.485
N9155 X418.991 Y1078.933
N9160 X417.829 Y1078.368
N9165 X416.673 Y1077.79
N9170 X415.524 Y1077.199
N9175 X414.381 Y1076.596
N9180 X413.245 Y1075.98
N9185 X412.116 Y1075.352
N9190 X410.994 Y1074.712
N9195 X409.879 Y1074.059
N9200 X408.771 Y1073.394
N9205 X407.67 Y1072.718
N9210 X406.577 Y1072.029
N9215 X405.492 Y1071.328
N9220 X404.415 Y1070.615
N9225 X403.345 Y1069.89
N9230 X402.283 Y1069.153
N9235 X401.23 Y1068.405
N9240 X400.184 Y1067.646
N9245 X399.148 Y1066.875
N9250 X398.119 Y1066.092
N9255 X397.1 Y1065.299
N9260 X396.089 Y1064.494
N9265 X395.087 Y1063.679
N9270 X394.094 Y1062.852
N9275 X393.11 Y1062.015
N9280 X392.135 Y1061.166
N9285 X391.17 Y1060.308
N9290 X390.214 Y1059.438
N9295 X389.268 Y1058.558
N9300 X388.332 Y1057.668
N9305 X387.405 Y1056.767
N9310 X386.489 Y1055.857
N9315 X385.582 Y1054.936
N9320 X384.686 Y1054.005
N9325 X383.8 Y1053.065
N9330 X382.924 Y1052.115
N9335 X382.059 Y1051.155
N9340 X381.205 Y1050.186
N9345 X380.361 Y1049.207
N9350 X379.528 Y1048.22
N9355 X378.706 Y1047.223
N9360 X377.894 Y1046.217
N9365 X377.094 Y1045.203
N9370 X376.305 Y1044.18
N9375 X375.527 Y1043.148
N9380 X374.761 Y1042.108
N9385 X374.006 Y1041.059
N9390 X373.263 Y1040.003
N9395 X372.531 Y1038.938
N9400 X371.811 Y1037.865
N9405 X371.103 Y1036.784
N9410 X370.407 Y1035.696
N9415 X369.723 Y1034.599
N9420 X369.051 Y1033.496
N9425 X368.391 Y1032.385
N9430 X367.743 Y1031.267
N9435 X367.108 Y1030.142
N9440 X366.484 Y1029.01
N9445 X365.874 Y1027.872
N9450 X365.276 Y1026.726
N9455 X364.69 Y1025.575
N9460 X364.118 Y1024.416
N9465 X363.564 Y1023.249
N9470 X363.048 Y1022.064
N9475 X362.577 Y1020.861
N9480 X362.158 Y1019.639
N9485 X361.789 Y1018.401
N9490 X361.469 Y1017.149
N9495 X361.192 Y1015.887
N9500 X360.951 Y1014.617
N9505 X360.742 Y1013.342
N9510 X360.557 Y1012.064
N9515 X360.39 Y1010.782
N9520 X360.239 Y1009.499
N9525 X360.097 Y1008.215
N9530 X359.961 Y1006.93
N9535 X359.83 Y1005.645
N9540 X359.44 Y1001.788
N9545 X359.308 Y1000.503
N9550 X359.175 Y999.218
N9555 X358.772 Y995.363
N9560 X358.638 Y994.078
N9565 X358.507 Y992.792
N9570 X358.378 Y991.507
N9575 X358.253 Y990.221
N9580 X358.132 Y988.934
N9585 X358.018 Y987.647
N9590 X357.91 Y986.36
N9595 X357.81 Y985.071
N9600 X357.718 Y983.783
N9605 X357.636 Y982.493
N9610 X357.563 Y981.203
N9615 X357.5 Y979.913
N9620 X357.449 Y978.622
N9625 X357.409 Y977.33
N9630 X357.381 Y976.039
N9635 X357.366 Y974.747
N9640 X357.363 Y973.454
N9645 X357.373 Y972.162
N9650 X357.397 Y970.871
N9655 X357.434 Y969.579
N9660 X357.484 Y968.288
N9665 X357.549 Y966.998
N9670 X357.627 Y965.708
N9675 X357.72 Y964.419
N9680 X357.827 Y963.132
N9685 X357.948 Y961.845
N9690 X358.083 Y960.56
N9695 X358.233 Y959.277
N9700 X358.397 Y957.995
N9705 X358.576 Y956.716
N9710 X358.769 Y955.438
N9715 X358.977 Y954.163
N9720 X359.2 Y952.89
N9725 X359.436 Y951.62
N9730 X359.688 Y950.353
N9735 X359.954 Y949.088
N9740 X360.234 Y947.827
N9745 X360.529 Y946.569
N9750 X360.838 Y945.314
N9755 X361.161 Y944.063
N9760 X361.499 Y942.816
N9765 X361.851 Y941.573
N9770 X362.217 Y940.334
N9775 X362.597 Y939.099
N9780 X362.991 Y937.869
N9785 X363.4 Y936.643
N9790 X363.823 Y935.422
N9795 X364.259 Y934.206
N9800 X364.709 Y932.995
N9805 X365.174 Y931.789
N9810 X365.652 Y930.589
N9815 X366.144 Y929.394
N9820 X366.65 Y928.205
N9825 X367.169 Y927.022
N9830 X367.702 Y925.845
N9835 X368.249 Y924.674
N9840 X368.808 Y923.51
N9845 X369.382 Y922.352
N9850 X369.968 Y921.201
N9855 X370.568 Y920.056
N9860 X371.18 Y918.919
N9865 X371.806 Y917.788
N9870 X372.445 Y916.665
N9875 X373.096 Y915.549
N9880 X373.76 Y914.441
N9885 X374.437 Y913.34
N9890 X375.127 Y912.248
N9895 X375.829 Y911.163
N9900 X376.543 Y910.086
N9905 X377.27 Y909.018
N9910 X378.009 Y907.958
N9915 X378.76 Y906.907
N9920 X379.523 Y905.864
N9925 X380.298 Y904.83
N9930 X381.085 Y903.806
N9935 X381.884 Y902.79
N9940 X382.694 Y901.784
N9945 X383.516 Y900.787
N9950 X384.349 Y899.799
N9955 X385.193 Y898.821
N9960 X386.049 Y897.853
N9965 X386.916 Y896.895
N9970 X387.793 Y895.947
N9975 X388.682 Y895.008
N9980 X389.581 Y894.081
N9985 X390.491 Y893.163
N9990 X391.411 Y892.256
N9995 X392.342 Y891.36
N10000 X393.282 Y890.474
N10005 X394.233 Y889.6
N10010 X395.194 Y888.736
N10015 X396.165 Y887.883
N10020 X397.145 Y887.042
N10025 X398.136 Y886.212
N10030 X399.135 Y885.393
N10035 X400.144 Y884.586
N10040 X401.162 Y883.791
N10045 X402.19 Y883.007
N10050 X403.226 Y882.235
N10055 X404.271 Y881.475
N10060 X405.325 Y880.727
N10065 X406.387 Y879.992
N10070 X407.457 Y879.268
N10075 X408.536 Y878.557
N10080 X409.623 Y877.859
N10085 X410.718 Y877.173
N10090 X411.82 Y876.499
N10095 X412.931 Y875.838
N10100 X414.048 Y875.19
N10105 X415.174 Y874.555
N10110 X416.306 Y873.933
N10115 X417.445 Y873.324
N10120 X418.592 Y872.727
N10125 X419.745 Y872.145
N10130 X420.905 Y871.575
N10135 X422.071 Y871.019
N10140 X423.243 Y870.476
N10145 X424.422 Y869.947
N10150 X425.607 Y869.432
N10155 X426.798 Y868.93
N10160 X427.994 Y868.442
N10165 X429.196 Y867.967
N10170 X430.403 Y867.507
N10175 X431.615 Y867.06
N10180 X432.833 Y866.627
N10185 X434.055 Y866.208
N10190 X435.282 Y865.804
N10195 X436.513 Y865.413
N10200 X437.749 Y865.036
N10205 X438.99 Y864.674
N10210 X440.234 Y864.326
N10215 X441.482 Y863.992
N10220 X442.734 Y863.673
N10225 X443.99 Y863.368
N10230 X445.249 Y863.078
N10235 X446.511 Y862.802
N10240 X447.776 Y862.54
N10245 X449.045 Y862.293
N10250 X450.316 Y862.061
N10255 X451.589 Y861.844
N10260 X452.865 Y861.641
N10265 X454.143 Y861.452
N10270 X455.424 Y861.279
N10275 X456.706 Y861.12
N10280 X457.99 Y860.976
N10285 X459.276 Y860.846
N10290 X460.563 Y860.732
N10295 X461.851 Y860.632
N10300 X463.14 Y860.547
N10305 X464.43 Y860.477
N10310 X465.721 Y860.421
N10315 X467.012 Y860.381
N10320 X468.304 Y860.355
N10325 X469.596 Y860.344
N10330 X470.888 Y860.348
N10335 X472.18 Y860.366
N10340 X473.472 Y860.4
N10345 X474.763 Y860.448
N10350 X476.053 Y860.512
N10355 X477.343 Y860.59
N10360 X478.632 Y860.683
N10365 X479.919 Y860.79
N10370 X481.206 Y860.913
N10375 X482.49 Y861.05
N10380 X483.773 Y861.202
N10385 X485.055 Y861.369
N10390 X486.334 Y861.55
N10395 X487.611 Y861.747
N10400 X488.886 Y861.958
N10405 X490.158 Y862.183
N10410 X491.428 Y862.423
N10415 X492.694 Y862.677
N10420 X493.958 Y862.947
N10425 X495.219 Y863.23
N10430 X496.476 Y863.528
N10435 X497.729 Y863.841
N10440 X498.98 Y864.167
N10445 X500.226 Y864.508
N10450 X501.468 Y864.864
N10455 X502.706 Y865.233
N10460 X503.94 Y865.617
N10465 X505.169 Y866.016
N10470 X506.393 Y866.428
N10475 X507.613 Y866.854
N10480 X508.828 Y867.294
N10485 X510.037 Y867.748
N10490 X511.242 Y868.217
N10495 X512.441 Y868.698
N10500 X513.634 Y869.194
N10505 X514.821 Y869.703
N10510 X516.003 Y870.226
N10515 X517.178 Y870.763
N10520 X518.347 Y871.312
N10525 X519.51 Y871.876
N10530 X520.667 Y872.452
N10535 X521.816 Y873.042
N10540 X522.959 Y873.645
N10545 X524.095 Y874.261
N10550 X525.223 Y874.89
N10555 X526.345 Y875.532
N10560 X527.459 Y876.186
N10565 X528.565 Y876.854
N10570 X529.663 Y877.534
N10575 X530.754 Y878.227
N10580 X531.836 Y878.932
N10585 X532.911 Y879.65
N10590 X533.977 Y880.38
N10595 X535.035 Y881.122
N10600 X536.084 Y881.876
N10605 X537.124 Y882.643
N10610 X538.155 Y883.421
N10615 X539.178 Y884.211
N10620 X540.191 Y885.012
N10625 X541.195 Y885.826
N10630 X542.19 Y886.65
N10635 X543.175 Y887.486
N10640 X544.15 Y888.334
N10645 X545.116 Y889.192
N10650 X546.072 Y890.062
N10655 X547.018 Y890.942
N10660 X547.953 Y891.833
N10665 X548.878 Y892.735
N10670 X549.793 Y893.647
N10675 X550.697 Y894.57
N10680 X551.591 Y895.504
N10685 X552.473 Y896.447
N10690 X553.345 Y897.401
N10695 X554.206 Y898.365
N10700 X555.055 Y899.338
N10705 X555.894 Y900.321
N10710 X556.721 Y901.314
N10715 X557.537 Y902.316
N10720 X558.341 Y903.327
N10725 X559.133 Y904.348
N10730 X559.914 Y905.377
N10735 X560.682 Y906.416
N10740 X561.439 Y907.463
N10745 X562.184 Y908.519
N10750 X562.916 Y909.583
N10755 X563.637 Y910.656
N10760 X564.345 Y911.737
N10765 X565.04 Y912.825
N10770 X565.723 Y913.922
N10775 X566.394 Y915.027
N10780 X567.051 Y916.139
N10785 X567.696 Y917.259
N10790 X568.327 Y918.386
N10795 X568.946 Y919.52
N10800 X569.552 Y920.661
N10805 X570.145 Y921.81
N10810 X570.724 Y922.964
N10815 X571.29 Y924.126
N10820 X571.842 Y925.294
N10825 X572.382 Y926.468
N10830 X572.907 Y927.648
N10835 X573.419 Y928.835
N10840 X573.918 Y930.027
N10845 X574.402 Y931.224
N10850 X574.873 Y932.427
N10855 X575.331 Y933.636
N10860 X575.774 Y934.85
N10865 X576.203 Y936.068
N10870 X576.618 Y937.292
N10875 X577.019 Y938.52
N10880 X577.406 Y939.753
N10885 X577.779 Y940.99
N10890 X578.138 Y942.231
N10895 X578.482 Y943.477
N10900 X578.812 Y944.726
N10905 X579.127 Y945.979
N10910 X579.428 Y947.235
N10915 X579.715 Y948.495
N10920 X579.987 Y949.758
N10925 X580.245 Y951.024
N10930 X580.488 Y952.293
N10935 X580.716 Y953.565
N10940 X580.93 Y954.839
N10945 X581.129 Y956.116
N10950 X581.314 Y957.395
N10955 X581.483 Y958.675
N10960 X581.639 Y959.958
N10965 X581.779 Y961.243
N10970 X581.905 Y962.529
N10975 X582.016 Y963.816
N10980 X582.112 Y965.104
N10985 X582.193 Y966.394
N10990 X582.26 Y967.684
N10995 X582.311 Y968.975
N11000 X582.348 Y970.267
N11005 X582.37 Y971.559
N11010 X582.377 Y972.851
N11015 X582.369 Y974.143
N11020 X582.346 Y975.434
N11025 X582.309 Y976.726
N11030 X582.257 Y978.017
N11035 X582.189 Y979.307
N11040 X582.107 Y980.597
N11045 X582.011 Y981.885
N11050 X581.899 Y983.172
N11055 X581.773 Y984.458
N11060 X581.632 Y985.743
N11065 X581.476 Y987.025
N11070 X581.305 Y988.306
N11075 X581.12 Y989.585
N11080 X580.92 Y990.861
N11085 X580.706 Y992.135
N11090 X580.477 Y993.407
N11095 X580.233 Y994.676
N11100 X579.975 Y995.942
N11105 X579.702 Y997.205
N11110 X579.415 Y998.464
N11115 X579.113 Y999.721
N11120 X578.797 Y1000.973
N11125 X578.466 Y1002.222
N11130 X578.121 Y1003.468
N11135 X577.762 Y1004.709
N11140 X577.388 Y1005.946
N11145 X577.001 Y1007.178
N11150 X576.599 Y1008.406
N11155 X576.183 Y1009.629
N11160 X575.753 Y1010.848
N11165 X575.309 Y1012.061
N11170 X574.851 Y1013.269
N11175 X574.38 Y1014.472
N11180 X573.894 Y1015.67
N11185 X573.395 Y1016.862
N11190 X572.883 Y1018.048
N11195 X572.356 Y1019.228
N11200 X571.817 Y1020.401
N11205 X571.263 Y1021.569
N11210 X570.697 Y1022.73
N11215 X570.117 Y1023.885
N11220 X569.524 Y1025.033
N11225 X568.917 Y1026.174
N11230 X568.298 Y1027.307
N11235 X567.665 Y1028.434
N11240 X567.02 Y1029.553
N11245 X566.362 Y1030.665
N11250 X565.691 Y1031.77
N11255 X565.007 Y1032.866
N11260 X564.311 Y1033.954
N11265 X563.603 Y1035.035
N11270 X562.882 Y1036.107
N11275 X562.149 Y1037.171
N11280 X561.404 Y1038.227
N11285 X560.646 Y1039.274
N11290 X559.877 Y1040.312
N11295 X559.096 Y1041.341
N11300 X558.303 Y1042.361
N11305 X557.498 Y1043.372
N11310 X556.682 Y1044.374
N11315 X555.855 Y1045.366
N11320 X555.016 Y1046.349
N11325 X554.166 Y1047.321
N11330 X553.304 Y1048.284
N11335 X552.432 Y1049.238
N11340 X551.548 Y1050.181
N11345 X550.654 Y1051.113
N11350 X549.75 Y1052.036
N11355 X548.834 Y1052.948
N11360 X547.909 Y1053.849
N11365 X546.973 Y1054.74
N11370 X546.027 Y1055.62
N11375 X545.07 Y1056.489
N11380 X544.104 Y1057.347
N11385 X543.128 Y1058.193
N11390 X542.143 Y1059.029
N11395 X541.148 Y1059.853
N11400 X540.143 Y1060.666
N11405 X539.13 Y1061.467
N11410 X538.107 Y1062.256
N11415 X537.075 Y1063.034
N11420 X536.034 Y1063.799
N11425 X534.984 Y1064.553
N11430 X533.926 Y1065.294
N11435 X532.86 Y1066.024
N11440 X531.785 Y1066.74
N11445 X530.702 Y1067.445
N11450 X529.611 Y1068.137
N11455 X528.512 Y1068.816
N11460 X527.405 Y1069.483
N11465 X526.291 Y1070.137
N11470 X525.169 Y1070.778
N11475 X524.04 Y1071.407
N11480 X522.904 Y1072.022
N11485 X521.761 Y1072.624
N11490 X520.611 Y1073.214
N11495 X519.454 Y1073.789
N11500 X518.291 Y1074.352
N11505 X517.122 Y1074.901
N11510 X515.946 Y1075.437
N11515 X514.764 Y1075.96
N11520 X513.577 Y1076.469
N11525 X512.383 Y1076.964
N11530 X511.184 Y1077.445
N11535 X509.98 Y1077.913
N11540 X508.77 Y1078.367
N11545 X507.555 Y1078.807
N11550 X506.335 Y1079.232
N11555 X505.111 Y1079.644
N11560 X503.881 Y1080.042
N11565 X502.647 Y1080.425
N11570 X501.409 Y1080.794
N11575 X500.167 Y1081.149
N11580 X498.921 Y1081.49
N11585 X497.67 Y1081.816
N11590 X496.416 Y1082.128
N11595 X495.159 Y1082.426
N11600 X493.898 Y1082.708
N11605 X492.634 Y1082.977
N11610 X491.368 Y1083.231
N11615 X490.098 Y1083.47
N11620 X488.826 Y1083.694
N11625 X487.551 Y1083.905
N11630 X486.273 Y1084.1
N11635 X484.994 Y1084.281
N11640 X483.713 Y1084.447
N11645 X482.43 Y1084.598
N11650 X481.145 Y1084.734
N11655 X479.858 Y1084.856
N11660 X478.571 Y1084.963
N11665 X477.282 Y1085.055
N11670 X475.992 Y1085.132
N11675 X474.702 Y1085.194
N11680 X473.411 Y1085.242
N11685 X472.119 Y1085.275
N11690 X470.827 Y1085.293
N11695 X469.535 Y1085.296
N11700 X468.243 Y1085.284
N11705 X466.951 Y1085.258
N11710 X465.66 Y1085.217
N11715 X464.369 Y1085.161
N11720 X463.079 Y1085.09
N11725 X461.79 Y1085.005
N11730 X460.501 Y1084.904
N11735 X459.215 Y1084.789
N11740 X457.929 Y1084.66
N11745 X456.645 Y1084.515
N11750 X455.363 Y1084.355
N11755 X454.083 Y1084.181
N11760 X452.804 Y1083.992
N11765 X451.529 Y1083.789
N11770 X450.255 Y1083.57
N11775 X448.984 Y1083.337
N11780 X447.716 Y1083.09
N11785 X446.451 Y1082.827
N11790 X445.189 Y1082.55
N11795 X443.93 Y1082.259
N11800 X442.675 Y1081.953
N11805 X441.423 Y1081.633
N11810 X440.175 Y1081.298
N11815 X438.931 Y1080.95
N11820 X437.691 Y1080.587
N11825 X436.455 Y1080.209
N11830 X435.224 Y1079.818
N11835 X433.997 Y1079.412
N11840 X432.775 Y1078.993
N11845 X431.558 Y1078.559
N11850 X430.346 Y1078.112
N11855 X429.139 Y1077.65
N11860 X427.938 Y1077.175
N11865 X426.742 Y1076.686
N11870 X425.552 Y1076.183
N11875 X424.367 Y1075.666
N11880 X423.189 Y1075.136
N11885 X422.017 Y1074.593
N11890 X420.851 Y1074.036
N11895 X419.691 Y1073.466
N11900 X418.538 Y1072.882
N11905 X417.392 Y1072.286
N11910 X416.253 Y1071.676
N11915 X415.121 Y1071.053
N11920 X413.996 Y1070.418
N11925 X412.879 Y1069.769
N11930 X411.769 Y1069.108
N11935 X410.666 Y1068.434
N11940 X409.572 Y1067.748
N11945 X408.485 Y1067.049
N11950 X407.407 Y1066.337
N11955 X406.336 Y1065.613
N11960 X405.275 Y1064.877
N11965 X404.221 Y1064.129
N11970 X403.177 Y1063.368
N11975 X402.141 Y1062.596
N11980 X401.114 Y1061.812
N11985 X400.096 Y1061.016
N11990 X399.088 Y1060.208
N11995 X398.089 Y1059.389
N12000 X397.099 Y1058.558
N12005 X396.119 Y1057.716
N12010 X395.148 Y1056.863
N12015 X394.188 Y1055.999
N12020 X393.237 Y1055.124
N12025 X392.297 Y1054.238
N12030 X391.367 Y1053.341
N12035 X390.447 Y1052.434
N12040 X389.538 Y1051.516
N12045 X388.639 Y1050.587
N12050 X387.751 Y1049.649
N12055 X386.874 Y1048.7
N12060 X386.008 Y1047.741
N12065 X385.153 Y1046.773
N12070 X384.309 Y1045.794
N12075 X383.476 Y1044.806
N12080 X382.655 Y1043.809
N12085 X381.846 Y1042.802
N12090 X381.048 Y1041.786
N12095 X380.261 Y1040.76
N12100 X379.487 Y1039.726
N12105 X378.724 Y1038.683
N12110 X377.974 Y1037.631
N12115 X377.236 Y1036.571
N12120 X376.509 Y1035.502
N12125 X375.796 Y1034.425
N12130 X375.094 Y1033.34
N12135 X374.405 Y1032.247
N12140 X373.729 Y1031.146
N12145 X373.065 Y1030.038
N12150 X372.414 Y1028.922
N12155 X371.776 Y1027.798
N12160 X371.151 Y1026.667
N12165 X370.54 Y1025.529
N12170 X369.951 Y1024.379
N12175 X369.388 Y1023.216
N12180 X368.86 Y1022.037
N12185 X368.37 Y1020.841
N12190 X367.922 Y1019.629
N12195 X367.517 Y1018.403
N12200 X367.151 Y1017.163
N12205 X366.823 Y1015.914
N12210 X366.528 Y1014.656
N12215 X366.263 Y1013.391
N12220 X366.024 Y1012.121
N12225 X365.806 Y1010.848
N12230 X365.606 Y1009.571
N12235 X365.42 Y1008.293
N12240 X365.246 Y1007.012
N12245 X365.081 Y1005.731
N12250 X364.922 Y1004.449
N12255 X364.769 Y1003.166
N12260 X364.619 Y1001.882
N12265 X364.473 Y1000.599
N12270 X364.329 Y999.315
N12275 X364.188 Y998.03
N12280 X364.049 Y996.746
N12285 X363.912 Y995.461
N12290 X363.778 Y994.176
N12295 X363.647 Y992.89
N12300 X363.52 Y991.605
N12305 X363.398 Y990.318
N12310 X363.281 Y989.032
N12315 X363.171 Y987.744
N12320 X363.067 Y986.456
N12325 X362.97 Y985.168
N12330 X362.883 Y983.879
N12335 X362.804 Y982.589
N12340 X362.734 Y981.299
N12345 X362.676 Y980.008
N12350 X362.628 Y978.717
N12355 X362.591 Y977.426
N12360 X362.566 Y976.134
N12365 X362.554 Y974.842
N12370 X362.555 Y973.55
N12375 X362.568 Y972.258
N12380 X362.595 Y970.966
N12385 X362.636 Y969.675
N12390 X362.691 Y968.384
N12395 X362.76 Y967.094
N12400 X362.843 Y965.804
N12405 X362.941 Y964.516
N12410 X363.054 Y963.229
N12415 X363.181 Y961.943
N12420 X363.323 Y960.659
N12425 X363.48 Y959.376
N12430 X363.652 Y958.096
N12435 X363.84 Y956.817
N12440 X364.042 Y955.541
N12445 X364.259 Y954.267
N12450 X364.491 Y952.997
N12455 X364.739 Y951.728
N12460 X365.001 Y950.463
N12465 X365.279 Y949.201
N12470 X365.571 Y947.943
N12475 X365.879 Y946.688
N12480 X366.202 Y945.437
N12485 X366.539 Y944.19
N12490 X366.892 Y942.947
N12495 X367.26 Y941.708
N12500 X367.642 Y940.474
N12505 X368.039 Y939.244
N12510 X368.451 Y938.02
N12515 X368.878 Y936.8
N12520 X369.319 Y935.586
N12525 X369.775 Y934.377
N12530 X370.246 Y933.174
N12535 X370.731 Y931.976
N12540 X371.23 Y930.784
N12545 X371.744 Y929.599
N12550 X372.272 Y928.419
N12555 X372.814 Y927.247
N12560 X373.37 Y926.08
N12565 X373.94 Y924.921
N12570 X374.524 Y923.768
N12575 X375.121 Y922.623
N12580 X375.733 Y921.485
N12585 X376.358 Y920.354
N12590 X376.997 Y919.231
N12595 X377.649 Y918.115
N12600 X378.315 Y917.008
N12605 X378.994 Y915.909
N12610 X379.686 Y914.818
N12615 X380.391 Y913.735
N12620 X381.11 Y912.661
N12625 X381.841 Y911.596
N12630 X382.585 Y910.54
N12635 X383.342 Y909.492
N12640 X384.111 Y908.454
N12645 X384.892 Y907.425
N12650 X385.686 Y906.406
N12655 X386.493 Y905.396
N12660 X387.311 Y904.397
N12665 X388.141 Y903.407
N12670 X388.983 Y902.427
N12675 X389.837 Y901.457
N12680 X390.702 Y900.497
N12685 X391.579 Y899.548
N12690 X392.468 Y898.61
N12695 X393.367 Y897.683
N12700 X394.278 Y896.766
N12705 X395.2 Y895.861
N12710 X396.132 Y894.967
N12715 X397.076 Y894.084
N12720 X398.029 Y893.212
N12725 X398.994 Y892.352
N12730 X399.968 Y891.504
N12735 X400.953 Y890.667
N12740 X401.948 Y889.843
N12745 X402.952 Y889.03
N12750 X403.967 Y888.23
N12755 X404.99 Y887.442
N12760 X406.024 Y886.666
N12765 X407.066 Y885.903
N12770 X408.118 Y885.152
N12775 X409.178 Y884.414
N12780 X410.248 Y883.689
N12785 X411.326 Y882.977
N12790 X412.412 Y882.277
N12795 X413.507 Y881.591
N12800 X414.61 Y880.919
N12805 X415.721 Y880.259
N12810 X416.84 Y879.613
N12815 X417.967 Y878.981
N12820 X419.101 Y878.362
N12825 X420.243 Y877.757
N12830 X421.392 Y877.166
N12835 X422.548 Y876.589
N12840 X423.711 Y876.025
N12845 X424.88 Y875.476
N12850 X426.056 Y874.941
N12855 X427.238 Y874.42
N12860 X428.427 Y873.913
N12865 X429.621 Y873.42
N12870 X430.822 Y872.942
N12875 X432.028 Y872.479
N12880 X433.239 Y872.03
N12885 X434.456 Y871.595
N12890 X435.678 Y871.175
N12895 X436.905 Y870.77
N12900 X438.137 Y870.38
N12905 X439.373 Y870.005
N12910 X440.614 Y869.645
N12915 X441.859 Y869.3
N12920 X443.108 Y868.969
N12925 X444.361 Y868.654
N12930 X445.618 Y868.354
N12935 X446.878 Y868.069
N12940 X448.142 Y867.8
N12945 X449.408 Y867.545
N12950 X450.678 Y867.306
N12955 X451.951 Y867.082
N12960 X453.226 Y866.874
N12965 X454.503 Y866.68
N12970 X455.783 Y866.503
N12975 X457.065 Y866.34
N12980 X458.349 Y866.193
N12985 X459.634 Y866.062
N12990 X460.921 Y865.946
N12995 X462.209 Y865.845
N13000 X463.498 Y865.76
N13005 X464.788 Y865.691
N13010 X466.079 Y865.637
N13015 X467.371 Y865.599
N13020 X468.663 Y865.576
N13025 X469.955 Y865.569
N13030 X471.247 Y865.578
N13035 X472.539 Y865.602
N13040 X473.83 Y865.641
N13045 X475.121 Y865.697
N13050 X476.411 Y865.767
N13055 X477.7 Y865.854
N13060 X478.988 Y865.955
N13065 X480.275 Y866.073
N13070 X481.56 Y866.205
N13075 X482.844 Y866.353
N13080 X484.125 Y866.517
N13085 X485.405 Y866.696
N13090 X486.682 Y866.89
N13095 X487.957 Y867.1
N13100 X489.229 Y867.325
N13105 X490.499 Y867.566
N13110 X491.765 Y867.821
N13115 X493.029 Y868.092
N13120 X494.289 Y868.379
N13125 X495.545 Y868.68
N13130 X496.798 Y868.997
N13135 X498.047 Y869.328
N13140 X499.291 Y869.675
N13145 X500.532 Y870.037
N13150 X501.768 Y870.413
N13155 X502.999 Y870.805
N13160 X504.225 Y871.211
N13165 X505.447 Y871.632
N13170 X506.663 Y872.067
N13175 X507.875 Y872.517
N13180 X509.08 Y872.982
N13185 X510.28 Y873.461
N13190 X511.474 Y873.955
N13195 X512.662 Y874.463
N13200 X513.844 Y874.985
N13205 X515.019 Y875.521
N13210 X516.188 Y876.072
N13215 X517.35 Y876.637
N13220 X518.506 Y877.215
N13225 X519.654 Y877.808
N13230 X520.795 Y878.414
N13235 X521.928 Y879.034
N13240 X523.054 Y879.668
N13245 X524.173 Y880.315
N13250 X525.283 Y880.976
N13255 X526.385 Y881.649
N13260 X527.48 Y882.337
N13265 X528.566 Y883.037
N13270 X529.643 Y883.75
N13275 X530.712 Y884.476
N13280 X531.771 Y885.215
N13285 X532.822 Y885.967
N13290 X533.864 Y886.731
N13295 X534.897 Y887.508
N13300 X535.92 Y888.297
N13305 X536.933 Y889.098
N13310 X537.937 Y889.912
N13315 X538.931 Y890.737
N13320 X539.915 Y891.575
N13325 X540.889 Y892.424
N13330 X541.852 Y893.285
N13335 X542.805 Y894.158
N13340 X543.747 Y895.042
N13345 X544.679 Y895.937
N13350 X545.599 Y896.844
N13355 X546.509 Y897.761
N13360 X547.408 Y898.69
N13365 X548.295 Y899.629
N13370 X549.171 Y900.578
N13375 X550.036 Y901.539
N13380 X550.888 Y902.509
N13385 X551.73 Y903.49
N13390 X552.559 Y904.481
N13395 X553.376 Y905.481
N13400 X554.181 Y906.492
N13405 X554.974 Y907.512
N13410 X555.755 Y908.542
N13415 X556.523 Y909.58
N13420 X557.279 Y910.629
N13425 X558.021 Y911.686
N13430 X558.751 Y912.752
N13435 X559.469 Y913.827
N13440 X560.173 Y914.91
N13445 X560.864 Y916.002
N13450 X561.542 Y917.102
N13455 X562.206 Y918.21
N13460 X562.857 Y919.326
N13465 X563.495 Y920.449
N13470 X564.119 Y921.581
N13475 X564.729 Y922.72
N13480 X565.326 Y923.866
N13485 X565.909 Y925.019
N13490 X566.478 Y926.179
N13495 X567.033 Y927.346
N13500 X567.574 Y928.519
N13505 X568.101 Y929.699
N13510 X568.613 Y930.885
N13515 X569.111 Y932.077
N13520 X569.595 Y933.275
N13525 X570.064 Y934.479
N13530 X570.518 Y935.688
N13535 X570.958 Y936.903
N13540 X571.384 Y938.123
N13545 X571.794 Y939.349
N13550 X572.19 Y940.578
N13555 X572.571 Y941.813
N13560 X572.937 Y943.052
N13565 X573.288 Y944.296
N13570 X573.624 Y945.543
N13575 X573.945 Y946.795
N13580 X574.251 Y948.05
N13585 X574.542 Y949.309
N13590 X574.817 Y950.571
N13595 X575.078 Y951.837
N13600 X575.323 Y953.105
N13605 X575.553 Y954.377
N13610 X575.768 Y955.651
N13615 X575.967 Y956.927
N13620 X576.151 Y958.206
N13625 X576.319 Y959.487
N13630 X576.472 Y960.77
N13635 X576.609 Y962.055
N13640 X576.731 Y963.341
N13645 X576.838 Y964.629
N13650 X576.928 Y965.918
N13655 X577.004 Y967.208
N13660 X577.063 Y968.499
N13665 X577.108 Y969.79
N13670 X577.136 Y971.082
N13675 X577.15 Y972.374
N13680 X577.147 Y973.666
N13685 X577.129 Y974.958
N13690 X577.096 Y976.249
N13695 X577.047 Y977.54
N13700 X576.982 Y978.831
N13705 X576.902 Y980.12
N13710 X576.807 Y981.409
N13715 X576.695 Y982.696
N13720 X576.569 Y983.982
N13725 X576.427 Y985.266
N13730 X576.269 Y986.548
N13735 X576.096 Y987.829
N13740 X575.907 Y989.107
N13745 X575.703 Y990.383
N13750 X575.484 Y991.656
N13755 X575.249 Y992.927
N13760 X575. Y994.195
N13765 X574.734 Y995.459
N13770 X574.454 Y996.72
N13775 X574.158 Y997.978
N13780 X573.848 Y999.232
N13785 X573.522 Y1000.483
N13790 X573.181 Y1001.729
N13795 X572.826 Y1002.971
N13800 X572.455 Y1004.209
N13805 X572.069 Y1005.442
N13810 X571.669 Y1006.67
N13815 X571.254 Y1007.894
N13820 X570.824 Y1009.112
N13825 X570.379 Y1010.326
N13830 X569.92 Y1011.533
N13835 X569.447 Y1012.735
N13840 X568.958 Y1013.932
N13845 X568.456 Y1015.122
N13850 X567.939 Y1016.306
N13855 X567.408 Y1017.484
N13860 X566.863 Y1018.655
N13865 X566.304 Y1019.82
N13870 X565.73 Y1020.978
N13875 X565.143 Y1022.129
N13880 X564.542 Y1023.273
N13885 X563.927 Y1024.409
N13890 X563.299 Y1025.538
N13895 X562.657 Y1026.66
N13900 X562.002 Y1027.773
N13905 X561.333 Y1028.879
N13910 X560.652 Y1029.976
N13915 X559.957 Y1031.066
N13920 X559.249 Y1032.146
N13925 X558.527 Y1033.218
N13930 X557.793 Y1034.282
N13935 X557.047 Y1035.336
N13940 X556.287 Y1036.381
N13945 X555.515 Y1037.417
N13950 X554.731 Y1038.444
N13955 X553.934 Y1039.461
N13960 X553.125 Y1040.469
N13965 X552.304 Y1041.466
N13970 X551.471 Y1042.454
N13975 X550.626 Y1043.432
N13980 X549.77 Y1044.399
N13985 X548.902 Y1045.356
N13990 X548.022 Y1046.302
N13995 X547.131 Y1047.238
N14000 X546.229 Y1048.163
N14005 X545.316 Y1049.078
N14010 X544.392 Y1049.981
N14015 X543.457 Y1050.873
N14020 X542.512 Y1051.753
N14025 X541.555 Y1052.622
N14030 X540.589 Y1053.479
N14035 X539.612 Y1054.325
N14040 X538.625 Y1055.159
N14045 X537.628 Y1055.981
N14050 X536.621 Y1056.79
N14055 X535.605 Y1057.588
N14060 X534.578 Y1058.373
N14065 X533.543 Y1059.146
N14070 X532.498 Y1059.906
N14075 X531.445 Y1060.654
N14080 X530.382 Y1061.389
N14085 X529.31 Y1062.111
N14090 X528.23 Y1062.82
N14095 X527.142 Y1063.516
N14100 X526.045 Y1064.199
N14105 X524.94 Y1064.869
N14110 X523.827 Y1065.525
N14115 X522.706 Y1066.168
N14120 X521.578 Y1066.797
N14125 X520.442 Y1067.413
N14130 X519.299 Y1068.015
N14135 X518.148 Y1068.603
N14140 X516.991 Y1069.178
N14145 X515.827 Y1069.738
N14150 X514.656 Y1070.284
N14155 X513.479 Y1070.817
N14160 X512.295 Y1071.334
N14165 X511.105 Y1071.838
N14170 X509.909 Y1072.328
N14175 X508.708 Y1072.803
N14180 X507.501 Y1073.263
N14185 X506.288 Y1073.709
N14190 X505.07 Y1074.14
N14195 X503.847 Y1074.557
N14200 X502.619 Y1074.959
N14205 X501.386 Y1075.346
N14210 X500.149 Y1075.718
N14215 X498.907 Y1076.075
N14220 X497.661 Y1076.417
N14225 X496.411 Y1076.744
N14230 X495.157 Y1077.056
N14235 X493.9 Y1077.353
N14240 X492.639 Y1077.635
N14245 X491.375 Y1077.901
N14250 X490.107 Y1078.152
N14255 X488.837 Y1078.387
N14260 X487.564 Y1078.608
N14265 X486.288 Y1078.813
N14270 X485.01 Y1079.002
N14275 X483.73 Y1079.176
N14280 X482.447 Y1079.335
N14285 X481.163 Y1079.478
N14290 X479.878 Y1079.606
N14295 X478.59 Y1079.718
N14300 X477.302 Y1079.815
N14305 X476.012 Y1079.897
N14310 X474.722 Y1079.963
N14315 X473.431 Y1080.013
N14320 X472.139 Y1080.048
N14325 X470.847 Y1080.067
N14330 X469.555 Y1080.071
N14335 X468.263 Y1080.059
N14340 X466.972 Y1080.031
N14345 X465.68 Y1079.989
N14350 X464.39 Y1079.93
N14355 X463.1 Y1079.856
N14360 X461.811 Y1079.766
N14365 X460.523 Y1079.661
N14370 X459.237 Y1079.541
N14375 X457.952 Y1079.405
N14380 X456.669 Y1079.253
N14385 X455.387 Y1079.086
N14390 X454.108 Y1078.903
N14395 X452.831 Y1078.706
N14400 X451.557 Y1078.492
N14405 X450.285 Y1078.264
N14410 X449.017 Y1078.02
N14415 X447.751 Y1077.76
N14420 X446.488 Y1077.486
N14425 X445.229 Y1077.196
N14430 X443.974 Y1076.891
N14435 X442.722 Y1076.571
N14440 X441.474 Y1076.236
N14445 X440.23 Y1075.886
N14450 X438.991 Y1075.521
N14455 X437.756 Y1075.141
N14460 X436.526 Y1074.746
N14465 X435.3 Y1074.336
N14470 X434.08 Y1073.912
N14475 X432.865 Y1073.473
N14480 X431.655 Y1073.019
N14485 X430.451 Y1072.551
N14490 X429.252 Y1072.068
N14495 X428.06 Y1071.571
N14500 X426.873 Y1071.059
N14505 X425.693 Y1070.534
N14510 X424.519 Y1069.994
N14515 X423.352 Y1069.441
N14520 X422.191 Y1068.873
N14525 X421.037 Y1068.291
N14530 X419.89 Y1067.696
N14535 X418.751 Y1067.087
N14540 X417.619 Y1066.464
N14545 X416.495 Y1065.827
N14550 X415.378 Y1065.177
N14555 X414.269 Y1064.514
N14560 X413.169 Y1063.837
N14565 X412.076 Y1063.147
N14570 X410.992 Y1062.444
N14575 X409.917 Y1061.728
N14580 X408.85 Y1060.999
N14585 X407.792 Y1060.257
N14590 X406.743 Y1059.502
N14595 X405.704 Y1058.735
N14600 X404.673 Y1057.956
N14605 X403.652 Y1057.164
N14610 X402.641 Y1056.36
N14615 X401.639 Y1055.544
N14620 X400.648 Y1054.715
N14625 X399.666 Y1053.875
N14630 X398.694 Y1053.024
N14635 X397.733 Y1052.16
N14640 X396.783 Y1051.285
N14645 X395.843 Y1050.398
N14650 X394.914 Y1049.501
N14655 X393.995 Y1048.592
N14660 X393.088 Y1047.672
N14665 X392.192 Y1046.741
N14670 X391.307 Y1045.799
N14675 X390.434 Y1044.847
N14680 X389.572 Y1043.885
N14685 X388.722 Y1042.912
N14690 X387.883 Y1041.929
N14695 X387.057 Y1040.935
N14700 X386.242 Y1039.932
N14705 X385.44 Y1038.92
N14710 X384.65 Y1037.897
N14715 X383.872 Y1036.866
N14720 X383.107 Y1035.825
N14725 X382.354 Y1034.775
N14730 X381.614 Y1033.715
N14735 X380.887 Y1032.647
N14740 X380.172 Y1031.571
N14745 X379.471 Y1030.486
N14750 X378.783 Y1029.392
N14755 X378.108 Y1028.29
N14760 X377.448 Y1027.18
N14765 X376.803 Y1026.06
N14770 X376.178 Y1024.929
N14775 X375.577 Y1023.785
N14780 X375.005 Y1022.627
N14785 X374.465 Y1021.453
N14790 X373.961 Y1020.263
N14795 X373.494 Y1019.059
N14800 X373.064 Y1017.84
N14805 X372.67 Y1016.61
N14810 X372.309 Y1015.369
N14815 X371.979 Y1014.12
N14820 X371.677 Y1012.864
N14825 X371.401 Y1011.602
N14830 X371.146 Y1010.335
N14835 X370.911 Y1009.064
N14840 X370.693 Y1007.791
N14845 X370.488 Y1006.515
N14850 X370.295 Y1005.237
N14855 X370.113 Y1003.958
N14860 X369.938 Y1002.678
N14865 X369.771 Y1001.397
N14870 X369.61 Y1000.115
N14875 X369.454 Y998.832
N14880 X369.304 Y997.549
N14885 X369.158 Y996.265
N14890 X369.017 Y994.981
N14895 X368.881 Y993.696
N14900 X368.749 Y992.411
N14905 X368.624 Y991.125
N14910 X368.504 Y989.838
N14915 X368.391 Y988.551
N14920 X368.284 Y987.264
N14925 X368.186 Y985.975
N14930 X368.095 Y984.686
N14935 X368.014 Y983.397
N14940 X367.942 Y982.107
N14945 X367.881 Y980.816
N14950 X367.83 Y979.525
N14955 X367.79 Y978.234
N14960 X367.762 Y976.942
N14965 X367.746 Y975.65
N14970 X367.743 Y974.358
N14975 X367.754 Y973.066
N14980 X367.777 Y971.774
N14985 X367.815 Y970.483
N14990 X367.867 Y969.192
N14995 X367.933 Y967.901
N15000 X368.013 Y966.612
N15005 X368.109 Y965.323
N15010 X368.22 Y964.036
N15015 X368.345 Y962.75
N15020 X368.486 Y961.466
N15025 X368.643 Y960.183
N15030 X368.815 Y958.903
N15035 X369.002 Y957.624
N15040 X369.206 Y956.348
N15045 X369.425 Y955.075
N15050 X369.659 Y953.804
N15055 X369.91 Y952.537
N15060 X370.176 Y951.273
N15065 X370.459 Y950.012
N15070 X370.756 Y948.754
N15075 X371.07 Y947.501
N15080 X371.399 Y946.252
N15085 X371.744 Y945.007
N15090 X372.105 Y943.766
N15095 X372.481 Y942.53
N15100 X372.873 Y941.299
N15105 X373.28 Y940.072
N15110 X373.703 Y938.851
N15115 X374.141 Y937.636
N15120 X374.594 Y936.426
N15125 X375.063 Y935.222
N15130 X375.547 Y934.024
N15135 X376.046 Y932.832
N15140 X376.56 Y931.647
N15145 X377.089 Y930.468
N15150 X377.633 Y929.296
N15155 X378.191 Y928.131
N15160 X378.765 Y926.973
N15165 X379.353 Y925.822
N15170 X379.955 Y924.679
N15175 X380.572 Y923.544
N15180 X381.204 Y922.417
N15185 X381.849 Y921.298
N15190 X382.509 Y920.187
N15195 X383.182 Y919.084
N15200 X383.87 Y917.99
N15205 X384.571 Y916.905
N15210 X385.286 Y915.829
N15215 X386.015 Y914.762
N15220 X386.756 Y913.704
N15225 X387.512 Y912.655
N15230 X388.28 Y911.617
N15235 X389.062 Y910.588
N15240 X389.856 Y909.569
N15245 X390.664 Y908.561
N15250 X391.484 Y907.562
N15255 X392.317 Y906.574
N15260 X393.162 Y905.597
N15265 X394.02 Y904.631
N15270 X394.889 Y903.675
N15275 X395.771 Y902.731
N15280 X396.665 Y901.798
N15285 X397.57 Y900.876
N15290 X398.487 Y899.966
N15295 X399.416 Y899.067
N15300 X400.355 Y898.18
N15305 X401.306 Y897.305
N15310 X402.268 Y896.443
N15315 X403.241 Y895.592
N15320 X404.224 Y894.754
N15325 X405.218 Y893.929
N15330 X406.222 Y893.116
N15335 X407.237 Y892.316
N15340 X408.261 Y891.529
N15345 X409.296 Y890.754
N15350 X410.34 Y889.994
N15355 X411.394 Y889.246
N15360 X412.457 Y888.512
N15365 X413.53 Y887.791
N15370 X414.611 Y887.084
N15375 X415.701 Y886.391
N15380 X416.8 Y885.711
N15385 X417.908 Y885.046
N15390 X419.024 Y884.394
N15395 X420.148 Y883.757
N15400 X421.28 Y883.134
N15405 X422.419 Y882.526
N15410 X423.567 Y881.931
N15415 X424.721 Y881.352
N15420 X425.883 Y880.787
N15425 X427.052 Y880.237
N15430 X428.228 Y879.701
N15435 X429.411 Y879.181
N15440 X430.6 Y878.676
N15445 X431.796 Y878.186
N15450 X432.997 Y877.711
N15455 X434.205 Y877.251
N15460 X435.418 Y876.807
N15465 X436.637 Y876.378
N15470 X437.861 Y875.964
N15475 X439.09 Y875.566
N15480 X440.324 Y875.184
N15485 X441.563 Y874.817
N15490 X442.807 Y874.466
N15495 X444.055 Y874.131
N15500 X445.307 Y873.812
N15505 X446.562 Y873.508
N15510 X447.822 Y873.22
N15515 X449.085 Y872.949
N15520 X450.352 Y872.693
N15525 X451.621 Y872.453
N15530 X452.894 Y872.23
N15535 X454.169 Y872.023
N15540 X455.447 Y871.831
N15545 X456.727 Y871.656
N15550 X458.01 Y871.498
N15555 X459.294 Y871.355
N15560 X460.58 Y871.229
N15565 X461.867 Y871.12
N15570 X463.156 Y871.026
N15575 X464.445 Y870.949
N15580 X465.736 Y870.888
N15585 X467.027 Y870.843
N15590 X468.319 Y870.815
N15595 X469.611 Y870.803
N15600 X470.903 Y870.808
N15605 X472.195 Y870.829
N15610 X473.486 Y870.866
N15615 X474.777 Y870.919
N15620 X476.068 Y870.989
N15625 X477.357 Y871.075
N15630 X478.645 Y871.178
N15635 X479.931 Y871.297
N15640 X481.216 Y871.432
N15645 X482.499 Y871.584
N15650 X483.781 Y871.751
N15655 X485.059 Y871.935
N15660 X486.336 Y872.135
N15665 X487.61 Y872.352
N15670 X488.881 Y872.584
N15675 X490.149 Y872.833
N15680 X491.413 Y873.097
N15685 X492.675 Y873.378
N15690 X493.932 Y873.674
N15695 X495.186 Y873.986
N15700 X496.436 Y874.314
N15705 X497.681 Y874.658
N15710 X498.922 Y875.018
N15715 X500.158 Y875.393
N15720 X501.39 Y875.784
N15725 X502.616 Y876.191
N15730 X503.837 Y876.613
N15735 X505.053 Y877.05
N15740 X506.263 Y877.503
N15745 X507.467 Y877.971
N15750 X508.666 Y878.455
N15755 X509.858 Y878.953
N15760 X511.043 Y879.467
N15765 X512.222 Y879.996
N15770 X513.394 Y880.539
N15775 X514.56 Y881.098
N15780 X515.718 Y881.671
N15785 X516.868 Y882.258
N15790 X518.012 Y882.86
N15795 X519.147 Y883.477
N15800 X520.275 Y884.108
N15805 X521.394 Y884.753
N15810 X522.505 Y885.412
N15815 X523.608 Y886.085
N15820 X524.703 Y886.772
N15825 X525.788 Y887.473
N15830 X526.864 Y888.188
N15835 X527.932 Y888.916
N15840 X528.99 Y889.657
N15845 X530.038 Y890.412
N15850 X531.077 Y891.181
N15855 X532.106 Y891.962
N15860 X533.125 Y892.756
N15865 X534.134 Y893.564
N15870 X535.132 Y894.383
N15875 X536.121 Y895.216
N15880 X537.098 Y896.061
N15885 X538.065 Y896.918
N15890 X539.021 Y897.787
N15895 X539.966 Y898.669
N15900 X540.899 Y899.562
N15905 X541.821 Y900.467
N15910 X542.732 Y901.384
N15915 X543.631 Y902.312
N15920 X544.518 Y903.251
N15925 X545.393 Y904.202
N15930 X546.256 Y905.163
N15935 X547.107 Y906.136
N15940 X547.945 Y907.119
N15945 X548.771 Y908.113
N15950 X549.584 Y909.117
N15955 X550.384 Y910.131
N15960 X551.171 Y911.156
N15965 X551.946 Y912.19
N15970 X552.707 Y913.234
N15975 X553.455 Y914.287
N15980 X554.19 Y915.35
N15985 X554.911 Y916.423
N15990 X555.618 Y917.504
N15995 X556.312 Y918.594
N16000 X556.992 Y919.692
N16005 X557.658 Y920.799
N16010 X558.31 Y921.915
N16015 X558.947 Y923.039
N16020 X559.571 Y924.171
N16025 X560.18 Y925.31
N16030 X560.774 Y926.457
N16035 X561.354 Y927.612
N16040 X561.919 Y928.774
N16045 X562.469 Y929.943
N16050 X563.005 Y931.119
N16055 X563.526 Y932.301
N16060 X564.031 Y933.49
N16065 X564.522 Y934.686
N16070 X564.997 Y935.887
N16075 X565.457 Y937.094
N16080 X565.902 Y938.307
N16085 X566.331 Y939.526
N16090 X566.745 Y940.75
N16095 X567.144 Y941.979
N16100 X567.527 Y943.213
N16105 X567.894 Y944.452
N16110 X568.246 Y945.695
N16115 X568.581 Y946.943
N16120 X568.901 Y948.195
N16125 X569.205 Y949.451
N16130 X569.493 Y950.71
N16135 X569.765 Y951.973
N16140 X570.021 Y953.24
N16145 X570.26 Y954.509
N16150 X570.484 Y955.782
N16155 X570.692 Y957.057
N16160 X570.883 Y958.335
N16165 X571.059 Y959.615
N16170 X571.218 Y960.897
N16175 X571.361 Y962.181
N16180 X571.487 Y963.467
N16185 X571.598 Y964.754
N16190 X571.692 Y966.043
N16195 X571.77 Y967.333
N16200 X571.831 Y968.623
N16205 X571.876 Y969.915
N16210 X571.905 Y971.206
N16215 X571.917 Y972.498
N16220 X571.913 Y973.79
N16225 X571.892 Y975.082
N16230 X571.856 Y976.374
N16235 X571.802 Y977.665
N16240 X571.733 Y978.955
N16245 X571.647 Y980.244
N16250 X571.545 Y981.532
N16255 X571.426 Y982.819
N16260 X571.291 Y984.104
N16265 X571.14 Y985.387
N16270 X570.973 Y986.668
N16275 X570.79 Y987.947
N16280 X570.59 Y989.224
N16285 X570.374 Y990.498
N16290 X570.142 Y991.769
N16295 X569.895 Y993.037
N16300 X569.631 Y994.302
N16305 X569.351 Y995.563
N16310 X569.055 Y996.821
N16315 X568.743 Y998.074
N16320 X568.415 Y999.324
N16325 X568.071 Y1000.57
N16330 X567.712 Y1001.811
N16335 X567.337 Y1003.047
N16340 X566.946 Y1004.279
N16345 X566.54 Y1005.505
N16350 X566.118 Y1006.726
N16355 X565.681 Y1007.942
N16360 X565.228 Y1009.152
N16365 X564.76 Y1010.357
N16370 X564.277 Y1011.555
N16375 X563.779 Y1012.747
N16380 X563.266 Y1013.933
N16385 X562.738 Y1015.112
N16390 X562.195 Y1016.285
N16395 X561.637 Y1017.45
N16400 X561.064 Y1018.609
N16405 X560.477 Y1019.759
N16410 X559.875 Y1020.903
N16415 X559.259 Y1022.038
N16420 X558.629 Y1023.166
N16425 X557.984 Y1024.286
N16430 X557.325 Y1025.397
N16435 X556.652 Y1026.5
N16440 X555.965 Y1027.595
N16445 X555.265 Y1028.68
N16450 X554.55 Y1029.757
N16455 X553.822 Y1030.824
N16460 X553.081 Y1031.883
N16465 X552.326 Y1032.931
N16470 X551.559 Y1033.97
N16475 X550.778 Y1035.
N16480 X549.984 Y1036.019
N16485 X549.177 Y1037.028
N16490 X548.358 Y1038.027
N16495 X547.526 Y1039.016
N16500 X546.681 Y1039.994
N16505 X545.824 Y1040.961
N16510 X544.955 Y1041.917
N16515 X544.074 Y1042.862
N16520 X543.181 Y1043.796
N16525 X542.276 Y1044.718
N16530 X541.36 Y1045.629
N16535 X540.432 Y1046.528
N16540 X539.493 Y1047.415
N16545 X538.542 Y1048.291
N16550 X537.581 Y1049.154
N16555 X536.609 Y1050.005
N16560 X535.626 Y1050.843
N16565 X534.632 Y1051.669
N16570 X533.628 Y1052.483
N16575 X532.614 Y1053.283
N16580 X531.59 Y1054.071
N16585 X530.556 Y1054.846
N16590 X529.512 Y1055.608
N16595 X528.459 Y1056.356
N16600 X527.396 Y1057.091
N16605 X526.324 Y1057.812
N16610 X525.243 Y1058.52
N16615 X524.153 Y1059.214
N16620 X523.055 Y1059.894
N16625 X521.948 Y1060.56
N16630 X520.832 Y1061.212
N16635 X519.708 Y1061.85
N16640 X518.577 Y1062.473
N16645 X517.438 Y1063.082
N16650 X516.291 Y1063.677
N16655 X515.136 Y1064.258
N16660 X513.974 Y1064.823
N16665 X512.806 Y1065.374
N16670 X511.63 Y1065.91
N16675 X510.448 Y1066.432
N16680 X509.259 Y1066.938
N16685 X508.064 Y1067.429
N16690 X506.863 Y1067.905
N16695 X505.656 Y1068.366
N16700 X504.443 Y1068.812
N16705 X503.225 Y1069.242
N16710 X502.001 Y1069.656
N16715 X500.772 Y1070.055
N16720 X499.538 Y1070.438
N16725 X498.299 Y1070.806
N16730 X497.056 Y1071.158
N16735 X495.809 Y1071.494
N16740 X494.557 Y1071.814
N16745 X493.301 Y1072.118
N16750 X492.042 Y1072.407
N16755 X490.779 Y1072.679
N16760 X489.512 Y1072.935
N16765 X488.243 Y1073.176
N16770 X486.97 Y1073.4
N16775 X485.695 Y1073.608
N16780 X484.418 Y1073.8
N16785 X483.138 Y1073.976
N16790 X481.855 Y1074.135
N16795 X480.571 Y1074.279
N16800 X479.285 Y1074.406
N16805 X477.998 Y1074.516
N16810 X476.71 Y1074.61
N16815 X475.42 Y1074.688
N16820 X474.129 Y1074.75
N16825 X472.838 Y1074.795
N16830 X471.546 Y1074.824
N16835 X470.254 Y1074.837
N16840 X468.962 Y1074.833
N16845 X467.67 Y1074.813
N16850 X466.379 Y1074.777
N16855 X465.088 Y1074.724
N16860 X463.798 Y1074.655
N16865 X462.508 Y1074.57
N16870 X461.22 Y1074.469
N16875 X459.934 Y1074.351
N16880 X458.649 Y1074.217
N16885 X457.365 Y1074.066
N16890 X456.084 Y1073.899
N16895 X454.805 Y1073.716
N16900 X453.528 Y1073.517
N16905 X452.254 Y1073.302
N16910 X450.983 Y1073.07
N16915 X449.715 Y1072.822
N16920 X448.45 Y1072.558
N16925 X447.189 Y1072.278
N16930 X445.931 Y1071.983
N16935 X444.677 Y1071.671
N16940 X443.428 Y1071.343
N16945 X442.182 Y1071.
N16950 X440.941 Y1070.641
N16955 X439.704 Y1070.266
N16960 X438.473 Y1069.875
N16965 X437.246 Y1069.47
N16970 X436.025 Y1069.048
N16975 X434.809 Y1068.611
N16980 X433.598 Y1068.159
N16985 X432.394 Y1067.692
N16990 X431.195 Y1067.209
N16995 X430.003 Y1066.711
N17000 X428.817 Y1066.198
N17005 X427.638 Y1065.67
N17010 X426.465 Y1065.127
N17015 X425.3 Y1064.57
N17020 X424.141 Y1063.998
N17025 X422.99 Y1063.411
N17030 X421.847 Y1062.809
N17035 X420.711 Y1062.194
N17040 X419.583 Y1061.563
N17045 X418.463 Y1060.919
N17050 X417.351 Y1060.261
N17055 X416.248 Y1059.588
N17060 X415.153 Y1058.902
N17065 X414.067 Y1058.202
N17070 X412.99 Y1057.488
N17075 X411.922 Y1056.761
N17080 X410.864 Y1056.02
N17085 X409.815 Y1055.266
N17090 X408.775 Y1054.498
N17095 X407.746 Y1053.718
N17100 X406.726 Y1052.924
N17105 X405.717 Y1052.117
N17110 X404.718 Y1051.298
N17115 X403.729 Y1050.466
N17120 X402.751 Y1049.622
N17125 X401.784 Y1048.766
N17130 X400.827 Y1047.897
N17135 X399.882 Y1047.016
N17140 X398.948 Y1046.123
N17145 X398.025 Y1045.219
N17150 X397.114 Y1044.303
N17155 X396.215 Y1043.375
N17160 X395.327 Y1042.436
N17165 X394.451 Y1041.486
N17170 X393.588 Y1040.525
N17175 X392.736 Y1039.553
N17180 X391.897 Y1038.571
N17185 X391.071 Y1037.578
N17190 X390.257 Y1036.574
N17195 X389.456 Y1035.56
N17200 X388.668 Y1034.536
N17205 X387.893 Y1033.503
N17210 X387.131 Y1032.459
N17215 X386.383 Y1031.406
N17220 X385.647 Y1030.343
N17225 X384.926 Y1029.272
N17230 X384.218 Y1028.191
N17235 X383.526 Y1027.1
N17240 X382.85 Y1025.998
N17245 X382.194 Y1024.885
N17250 X381.562 Y1023.759
N17255 X380.956 Y1022.617
N17260 X380.38 Y1021.461
N17265 X379.836 Y1020.289
N17270 X379.325 Y1019.102
N17275 X378.849 Y1017.901
N17280 X378.406 Y1016.687
N17285 X377.996 Y1015.462
N17290 X377.616 Y1014.227
N17295 X377.266 Y1012.983
N17300 X376.943 Y1011.732
N17305 X376.644 Y1010.475
N17310 X376.367 Y1009.213
N17315 X376.11 Y1007.947
N17320 X375.87 Y1006.677
N17325 X375.645 Y1005.405
N17330 X375.433 Y1004.13
N17335 X375.233 Y1002.854
N17340 X375.044 Y1001.576
N17345 X374.863 Y1000.296
N17350 X374.691 Y999.016
N17355 X374.527 Y997.734
N17360 X374.37 Y996.452
N17365 X374.22 Y995.169
N17370 X374.076 Y993.885
N17375 X373.94 Y992.6
N17380 X373.81 Y991.314
N17385 X373.687 Y990.028
N17390 X373.572 Y988.741
N17395 X373.464 Y987.453
N17400 X373.365 Y986.165
N17405 X373.275 Y984.876
N17410 X373.194 Y983.587
N17415 X373.124 Y982.297
N17420 X373.063 Y981.006
N17425 X373.014 Y979.715
N17430 X372.976 Y978.423
N17435 X372.95 Y977.132
N17440 X372.937 Y975.84
N17445 X372.936 Y974.548
N17450 X372.949 Y973.256
N17455 X372.976 Y971.964
N17460 X373.017 Y970.672
N17465 X373.072 Y969.382
N17470 X373.143 Y968.091
N17475 X373.228 Y966.802
N17480 X373.329 Y965.514
N17485 X373.446 Y964.227
N17490 X373.578 Y962.942
N17495 X373.726 Y961.659
N17500 X373.89 Y960.377
N17505 X374.071 Y959.098
N17510 X374.267 Y957.82
N17515 X374.48 Y956.546
N17520 X374.709 Y955.275
N17525 X374.955 Y954.006
N17530 X375.217 Y952.741
N17535 X375.495 Y951.479
N17540 X375.79 Y950.221
N17545 X376.102 Y948.967
N17550 X376.43 Y947.718
N17555 X376.774 Y946.472
N17560 X377.135 Y945.232
N17565 X377.512 Y943.996
N17570 X377.906 Y942.765
N17575 X378.316 Y941.54
N17580 X378.742 Y940.32
N17585 X379.185 Y939.106
N17590 X379.643 Y937.898
N17595 X380.118 Y936.697
N17600 X380.608 Y935.501
N17605 X381.115 Y934.313
N17610 X381.637 Y933.131
N17615 X382.175 Y931.956
N17620 X382.728 Y930.789
N17625 X383.297 Y929.628
N17630 X383.882 Y928.476
N17635 X384.481 Y927.332
N17640 X385.096 Y926.195
N17645 X385.726 Y925.067
N17650 X386.371 Y923.948
N17655 X387.031 Y922.837
N17660 X387.706 Y921.735
N17665 X388.395 Y920.642
N17670 X389.099 Y919.559
N17675 X389.817 Y918.485
N17680 X390.55 Y917.42
N17685 X391.297 Y916.366
N17690 X392.058 Y915.322
N17695 X392.832 Y914.288
N17700 X393.62 Y913.264
N17705 X394.422 Y912.251
N17710 X395.238 Y911.249
N17715 X396.066 Y910.257
N17720 X396.908 Y909.277
N17725 X397.763 Y908.308
N17730 X398.631 Y907.351
N17735 X399.511 Y906.405
N17740 X400.404 Y905.471
N17745 X401.309 Y904.549
N17750 X402.227 Y903.64
N17755 X403.156 Y902.742
N17760 X404.098 Y901.858
N17765 X405.051 Y900.985
N17770 X406.016 Y900.126
N17775 X406.992 Y899.28
N17780 X407.98 Y898.447
N17785 X408.978 Y897.627
N17790 X409.988 Y896.82
N17795 X411.008 Y896.027
N17800 X412.038 Y895.247
N17805 X413.079 Y894.482
N17810 X414.13 Y893.73
N17815 X415.191 Y892.993
N17820 X416.261 Y892.269
N17825 X417.342 Y891.56
N17830 X418.431 Y890.866
N17835 X419.53 Y890.186
N17840 X420.638 Y889.521
N17845 X421.754 Y888.87
N17850 X422.879 Y888.235
N17855 X424.013 Y887.615
N17860 X425.154 Y887.01
N17865 X426.304 Y886.42
N17870 X427.461 Y885.846
N17875 X428.626 Y885.287
N17880 X429.799 Y884.744
N17885 X430.978 Y884.217
N17890 X432.165 Y883.705
N17895 X433.358 Y883.209
N17900 X434.557 Y882.729
N17905 X435.763 Y882.265
N17910 X436.975 Y881.818
N17915 X438.193 Y881.386
N17920 X439.417 Y880.971
N17925 X440.646 Y880.572
N17930 X441.88 Y880.189
N17935 X443.119 Y879.824
N17940 X444.363 Y879.474
N17945 X445.611 Y879.142
N17950 X446.864 Y878.826
N17955 X448.121 Y878.527
N17960 X449.382 Y878.245
N17965 X450.647 Y877.979
N17970 X451.914 Y877.731
N17975 X453.186 Y877.499
N17980 X454.46 Y877.284
N17985 X455.737 Y877.087
N17990 X457.016 Y876.906
N17995 X458.298 Y876.743
N18000 X459.581 Y876.596
N18005 X460.867 Y876.467
N18010 X462.154 Y876.355
N18015 X463.443 Y876.26
N18020 X464.732 Y876.182
N18025 X466.023 Y876.122
N18030 X467.314 Y876.079
N18035 X468.606 Y876.053
N18040 X469.898 Y876.044
N18045 X471.19 Y876.053
N18050 X472.482 Y876.079
N18055 X473.773 Y876.122
N18060 X475.064 Y876.183
N18065 X476.354 Y876.26
N18070 X477.642 Y876.355
N18075 X478.929 Y876.467
N18080 X480.215 Y876.596
N18085 X481.499 Y876.742
N18090 X482.78 Y876.906
N18095 X484.06 Y877.086
N18100 X485.337 Y877.284
N18105 X486.611 Y877.498
N18110 X487.882 Y877.729
N18115 X489.15 Y877.978
N18120 X490.414 Y878.244
N18125 X491.675 Y878.526
N18130 X492.932 Y878.825
N18135 X494.185 Y879.141
N18140 X495.434 Y879.474
N18145 X496.677 Y879.823
N18150 X497.917 Y880.189
N18155 X499.151 Y880.571
N18160 X500.38 Y880.97
N18165 X501.603 Y881.385
N18170 X502.821 Y881.817
N18175 X504.033 Y882.264
N18180 X505.239 Y882.728
N18185 X506.439 Y883.208
N18190 X507.632 Y883.703
N18195 X508.819 Y884.215
N18200 X509.998 Y884.742
N18205 X511.17 Y885.285
N18210 X512.335 Y885.844
N18215 X513.493 Y886.419
N18220 X514.642 Y887.008
N18225 X515.784 Y887.613
N18230 X516.917 Y888.234
N18235 X518.043 Y888.869
N18240 X519.159 Y889.519
N18245 X520.267 Y890.184
N18250 X521.365 Y890.864
N18255 X522.455 Y891.559
N18260 X523.535 Y892.267
N18265 X524.606 Y892.991
N18270 X525.667 Y893.728
N18275 X526.718 Y894.48
N18280 X527.759 Y895.245
N18285 X528.789 Y896.024
N18290 X529.81 Y896.817
N18295 X530.819 Y897.624
N18300 X531.818 Y898.444
N18305 X532.805 Y899.277
N18310 X533.781 Y900.123
N18315 X534.746 Y900.983
N18320 X535.699 Y901.855
N18325 X536.641 Y902.74
N18330 X537.57 Y903.637
N18335 X538.488 Y904.547
N18340 X539.393 Y905.469
N18345 X540.286 Y906.403
N18350 X541.167 Y907.348
N18355 X542.034 Y908.306
N18360 X542.889 Y909.274
N18365 X543.731 Y910.254
N18370 X544.56 Y911.246
N18375 X545.375 Y912.248
N18380 X546.177 Y913.261
N18385 X546.966 Y914.284
N18390 X547.741 Y915.318
N18395 X548.501 Y916.363
N18400 X549.248 Y917.417
N18405 X549.98 Y918.482
N18410 X550.699 Y919.556
N18415 X551.403 Y920.639
N18420 X552.092 Y921.732
N18425 X552.767 Y922.834
N18430 X553.426 Y923.945
N18435 X554.071 Y925.064
N18440 X554.702 Y926.192
N18445 X555.316 Y927.329
N18450 X555.916 Y928.473
N18455 X556.501 Y929.625
N18460 X557.07 Y930.785
N18465 X557.623 Y931.953
N18470 X558.161 Y933.128
N18475 X558.683 Y934.309
N18480 X559.19 Y935.498
N18485 X559.68 Y936.694
N18490 X560.154 Y937.895
N18495 X560.612 Y939.104
N18500 X561.054 Y940.318
N18505 X561.48 Y941.538
N18510 X561.89 Y942.763
N18515 X562.283 Y943.994
N18520 X562.659 Y945.23
N18525 X563.019 Y946.471
N18530 X563.363 Y947.716
N18535 X563.689 Y948.966
N18540 X563.999 Y950.221
N18545 X564.293 Y951.479
N18550 X564.569 Y952.741
N18555 X564.829 Y954.007
N18560 X565.072 Y955.276
N18565 X565.298 Y956.548
N18570 X565.507 Y957.823
N18575 X565.698 Y959.101
N18580 X565.873 Y960.381
N18585 X566.03 Y961.663
N18590 X566.171 Y962.948
N18595 X566.294 Y964.234
N18600 X566.4 Y965.522
N18605 X566.489 Y966.811
N18610 X566.56 Y968.101
N18615 X566.615 Y969.392
N18620 X566.652 Y970.683
N18625 X566.672 Y971.975
N18630 X566.674 Y973.267
N18635 X566.66 Y974.559
N18640 X566.628 Y975.851
N18645 X566.579 Y977.142
N18650 X566.513 Y978.432
N18655 X566.429 Y979.722
N18660 X566.329 Y981.01
N18665 X566.211 Y982.296
N18670 X566.076 Y983.581
N18675 X565.923 Y984.864
N18680 X565.754 Y986.145
N18685 X565.568 Y987.424
N18690 X565.364 Y988.7
N18695 X565.143 Y989.973
N18700 X564.906 Y991.243
N18705 X564.651 Y992.51
N18710 X564.38 Y993.773
N18715 X564.092 Y995.032
N18720 X563.787 Y996.288
N18725 X563.465 Y997.539
N18730 X563.127 Y998.786
N18735 X562.772 Y1000.029
N18740 X562.4 Y1001.266
N18745 X562.012 Y1002.498
N18750 X561.608 Y1003.726
N18755 X561.187 Y1004.947
N18760 X560.75 Y1006.163
N18765 X560.297 Y1007.373
N18770 X559.828 Y1008.577
N18775 X559.342 Y1009.774
N18780 X558.841 Y1010.965
N18785 X558.323 Y1012.149
N18790 X557.79 Y1013.326
N18795 X557.242 Y1014.496
N18800 X556.677 Y1015.658
N18805 X556.098 Y1016.813
N18810 X555.503 Y1017.96
N18815 X554.892 Y1019.099
N18820 X554.267 Y1020.229
N18825 X553.627 Y1021.351
N18830 X552.971 Y1022.465
N18835 X552.301 Y1023.57
N18840 X551.616 Y1024.665
N18845 X550.917 Y1025.752
N18850 X550.203 Y1026.829
N18855 X549.475 Y1027.896
N18860 X548.733 Y1028.953
N18865 X547.976 Y1030.001
N18870 X547.206 Y1031.038
N18875 X546.422 Y1032.065
N18880 X545.624 Y1033.081
N18885 X544.813 Y1034.087
N18890 X543.988 Y1035.082
N18895 X543.15 Y1036.065
N18900 X542.299 Y1037.037
N18905 X541.435 Y1037.998
N18910 X540.559 Y1038.948
N18915 X539.67 Y1039.885
N18920 X538.768 Y1040.811
N18925 X537.854 Y1041.724
N18930 X536.928 Y1042.625
N18935 X535.99 Y1043.514
N18940 X535.041 Y1044.39
N18945 X534.079 Y1045.253
N18950 X533.107 Y1046.104
N18955 X532.122 Y1046.941
N18960 X531.127 Y1047.765
N18965 X530.121 Y1048.575
N18970 X529.104 Y1049.372
N18975 X528.077 Y1050.156
N18980 X527.039 Y1050.925
N18985 X525.991 Y1051.681
N18990 X524.933 Y1052.423
N18995 X523.865 Y1053.15
N19000 X522.788 Y1053.864
N19005 X521.701 Y1054.562
N19010 X520.605 Y1055.247
N19015 X519.5 Y1055.916
N19020 X518.386 Y1056.571
N19025 X517.264 Y1057.211
N19030 X516.133 Y1057.836
N19035 X514.994 Y1058.446
N19040 X513.847 Y1059.04
N19045 X512.692 Y1059.619
N19050 X511.529 Y1060.183
N19055 X510.359 Y1060.731
N19060 X509.182 Y1061.263
N19065 X507.998 Y1061.78
N19070 X506.806 Y1062.281
N19075 X505.609 Y1062.766
N19080 X504.405 Y1063.235
N19085 X503.195 Y1063.688
N19090 X501.979 Y1064.124
N19095 X500.757 Y1064.544
N19100 X499.53 Y1064.948
N19105 X498.297 Y1065.336
N19110 X497.059 Y1065.707
N19115 X495.817 Y1066.062
N19120 X494.57 Y1066.4
N19125 X493.318 Y1066.721
N19130 X492.063 Y1067.025
N19135 X490.803 Y1067.313
N19140 X489.54 Y1067.583
N19145 X488.273 Y1067.837
N19150 X487.003 Y1068.073
N19155 X485.729 Y1068.293
N19160 X484.453 Y1068.496
N19165 X483.175 Y1068.682
N19170 X481.894 Y1068.85
N19175 X480.61 Y1069.001
N19180 X479.325 Y1069.136
N19185 X478.039 Y1069.253
N19190 X476.75 Y1069.353
N19195 X475.461 Y1069.436
N19200 X474.171 Y1069.502
N19205 X472.88 Y1069.55
N19210 X471.588 Y1069.582
N19215 X470.296 Y1069.596
N19220 X469.004 Y1069.592
N19225 X467.712 Y1069.572
N19230 X466.42 Y1069.534
N19235 X465.13 Y1069.479
N19240 X463.84 Y1069.407
N19245 X462.551 Y1069.317
N19250 X461.263 Y1069.211
N19255 X459.977 Y1069.087
N19260 X458.693 Y1068.946
N19265 X457.41 Y1068.787
N19270 X456.13 Y1068.612
N19275 X454.852 Y1068.42
N19280 X453.578 Y1068.21
N19285 X452.305 Y1067.984
N19290 X451.037 Y1067.74
N19295 X449.771 Y1067.48
N19300 X448.509 Y1067.203
N19305 X447.251 Y1066.909
N19310 X445.997 Y1066.598
N19315 X444.747 Y1066.27
N19320 X443.502 Y1065.926
N19325 X442.261 Y1065.565
N19330 X441.025 Y1065.188
N19335 X439.795 Y1064.793
N19340 X438.57 Y1064.383
N19345 X437.35 Y1063.956
N19350 X436.136 Y1063.514
N19355 X434.929 Y1063.054
N19360 X433.727 Y1062.579
N19365 X432.532 Y1062.088
N19370 X431.343 Y1061.581
N19375 X430.162 Y1061.059
N19380 X428.987 Y1060.52
N19385 X427.82 Y1059.966
N19390 X426.66 Y1059.397
N19395 X425.508 Y1058.812
N19400 X424.364 Y1058.212
N19405 X423.228 Y1057.596
N19410 X422.1 Y1056.966
N19415 X420.981 Y1056.32
N19420 X419.871 Y1055.66
N19425 X418.769 Y1054.984
N19430 X417.677 Y1054.294
N19435 X416.594 Y1053.59
N19440 X415.52 Y1052.871
N19445 X414.456 Y1052.138
N19450 X413.402 Y1051.391
N19455 X412.358 Y1050.629
N19460 X411.324 Y1049.854
N19465 X410.301 Y1049.065
N19470 X409.288 Y1048.263
N19475 X408.286 Y1047.447
N19480 X407.295 Y1046.618
N19485 X406.316 Y1045.776
N19490 X405.347 Y1044.921
N19495 X404.39 Y1044.052
N19500 X403.445 Y1043.171
N19505 X402.512 Y1042.278
N19510 X401.59 Y1041.372
N19515 X400.681 Y1040.454
N19520 X399.785 Y1039.524
N19525 X398.9 Y1038.582
N19530 X398.029 Y1037.628
N19535 X397.17 Y1036.662
N19540 X396.324 Y1035.686
N19545 X395.492 Y1034.698
N19550 X394.672 Y1033.699
N19555 X393.866 Y1032.689
N19560 X393.074 Y1031.668
N19565 X392.295 Y1030.637
N19570 X391.53 Y1029.596
N19575 X390.779 Y1028.545
N19580 X390.044 Y1027.482
N19585 X389.325 Y1026.409
N19590 X388.624 Y1025.323
N19595 X387.944 Y1024.225
N19600 X387.287 Y1023.112
N19605 X386.657 Y1021.984
N19610 X386.055 Y1020.841
N19615 X385.483 Y1019.682
N19620 X384.943 Y1018.508
N19625 X384.435 Y1017.32
N19630 X383.961 Y1016.119
N19635 X383.517 Y1014.905
N19640 X383.105 Y1013.68
N19645 X382.721 Y1012.447
N19650 X382.365 Y1011.205
N19655 X382.034 Y1009.956
N19660 X381.726 Y1008.701
N19665 X381.439 Y1007.441
N19670 X381.171 Y1006.177
N19675 X380.92 Y1004.91
N19680 X380.685 Y1003.639
N19685 X380.464 Y1002.366
N19690 X380.256 Y1001.091
N19695 X380.059 Y999.814
N19700 X379.873 Y998.536
N19705 X379.697 Y997.255
N19710 X379.53 Y995.974
N19715 X379.372 Y994.692
N19720 X379.222 Y993.409
N19725 X379.081 Y992.124
N19730 X378.949 Y990.839
N19735 X378.825 Y989.553
N19740 X378.71 Y988.266
N19745 X378.604 Y986.978
N19750 X378.507 Y985.69
N19755 X378.421 Y984.401
N19760 X378.344 Y983.111
N19765 X378.279 Y981.82
N19770 X378.225 Y980.53
N19775 X378.182 Y979.238
N19780 X378.152 Y977.947
N19785 X378.134 Y976.655
N19790 X378.13 Y975.363
N19795 X378.139 Y974.071
N19800 X378.163 Y972.779
N19805 X378.2 Y971.487
N19810 X378.253 Y970.196
N19815 X378.321 Y968.906
N19820 X378.404 Y967.617
N19825 X378.503 Y966.328
N19830 X378.618 Y965.041
N19835 X378.749 Y963.756
N19840 X378.897 Y962.472
N19845 X379.061 Y961.191
N19850 X379.242 Y959.912
N19855 X379.44 Y958.635
N19860 X379.655 Y957.361
N19865 X379.888 Y956.09
N19870 X380.137 Y954.822
N19875 X380.404 Y953.558
N19880 X380.688 Y952.297
N19885 X380.989 Y951.041
N19890 X381.308 Y949.789
N19895 X381.644 Y948.541
N19900 X381.997 Y947.298
N19905 X382.367 Y946.06
N19910 X382.755 Y944.828
N19915 X383.16 Y943.601
N19920 X383.582 Y942.38
N19925 X384.021 Y941.164
N19930 X384.476 Y939.956
N19935 X384.949 Y938.753
N19940 X385.439 Y937.557
N19945 X385.945 Y936.369
N19950 X386.469 Y935.187
N19955 X387.009 Y934.013
N19960 X387.565 Y932.847
N19965 X388.138 Y931.689
N19970 X388.726 Y930.539
N19975 X389.332 Y929.398
N19980 X389.953 Y928.265
N19985 X390.59 Y927.141
N19990 X391.243 Y926.026
N19995 X391.911 Y924.92
N20000 X392.595 Y923.824
N20005 X393.294 Y922.737
N20010 X394.009 Y921.661
N20015 X394.739 Y920.594
N20020 X395.483 Y919.539
N20025 X396.243 Y918.493
N20030 X397.017 Y917.459
N20035 X397.806 Y916.436
N20040 X398.609 Y915.424
N20045 X399.426 Y914.423
N20050 X400.258 Y913.434
N20055 X401.103 Y912.457
N20060 X401.962 Y911.492
N20065 X402.835 Y910.539
N20070 X403.721 Y909.598
N20075 X404.62 Y908.67
N20080 X405.532 Y907.755
N20085 X406.457 Y906.853
N20090 X407.394 Y905.964
N20095 X408.344 Y905.088
N20100 X409.307 Y904.226
N20105 X410.281 Y903.377
N20110 X411.267 Y902.542
N20115 X412.265 Y901.722
N20120 X413.274 Y900.915
N20125 X414.295 Y900.123
N20130 X415.327 Y899.345
N20135 X416.37 Y898.582
N20140 X417.423 Y897.834
N20145 X418.487 Y897.101
N20150 X419.561 Y896.383
N20155 X420.645 Y895.68
N20160 X421.739 Y894.992
N20165 X422.842 Y894.32
N20170 X423.955 Y893.664
N20175 X425.077 Y893.023
N20180 X426.208 Y892.398
N20185 X427.348 Y891.789
N20190 X428.496 Y891.197
N20195 X429.652 Y890.62
N20200 X430.817 Y890.06
N20205 X431.989 Y889.517
N20210 X433.168 Y888.99
N20215 X434.356 Y888.48
N20220 X435.55 Y887.986
N20225 X436.751 Y887.51
N20230 X437.958 Y887.05
N20235 X439.172 Y886.608
N20240 X440.393 Y886.183
N20245 X441.619 Y885.775
N20250 X442.85 Y885.385
N20255 X444.087 Y885.012
N20260 X445.329 Y884.656
N20265 X446.576 Y884.318
N20270 X447.828 Y883.997
N20275 X449.084 Y883.694
N20280 X450.344 Y883.409
N20285 X451.608 Y883.142
N20290 X452.876 Y882.893
N20295 X454.147 Y882.661
N20300 X455.422 Y882.448
N20305 X456.699 Y882.253
N20310 X457.979 Y882.075
N20315 X459.261 Y881.916
N20320 X460.545 Y881.775
N20325 X461.831 Y881.652
N20330 X463.119 Y881.548
N20335 X464.408 Y881.461
N20340 X465.699 Y881.393
N20345 X466.99 Y881.342
N20350 X468.281 Y881.31
