%
(4-ENDS-10-MIDDLE)
(MACHINE)
(  VENDOR AUTODESK)
(  MODEL GENERIC 3-AXIS ROUTER)
(  DESCRIPTION THIS MACHINE HAS XYZ AXIS ON THE HEAD)
(T1 D=5. CR=0. TAPER=118DEG - ZMIN=-15.502 - DRILL)
(T20 D=6.35 CR=0. - ZMIN=-13.5 - FLAT END MILL)
(T21 D=12.7 CR=0. - ZMIN=-6.65 - FLAT END MILL)
(T25 D=6.35 CR=3.175 - ZMIN=-6.65 - BALL END MILL)
N10 G90 G94 G17 G91.1
N15 G21
N20 G53 G0 Z0.
(DRILL4)
N25 G4 P2.0
N30 T1 M6
N35 T21
N40 M3
N45 G4 P4.0
N50 G17 G90 G94
N55 G54
N60 G0 X317.5 Y431.8
N65 G43 Z17. H1
N70 G0 Z7.
N75 G98 G81 X317.5 Y431.8 Z-15.502 R5. F1000.
N80 X254. Y368.3
N85 Y330.2
N90 X317.5 Y266.7
N95 X254. Y203.2
N100 Y165.1
N105 X190.5 Y266.7
N110 X153.162 Y266.446
N115 X89.662 Y329.946
N120 X88.9 Y367.03
N125 X25.4 Y430.53
N130 X88.9 Y494.03
N135 Y533.4
N140 X152.4 Y430.53
N145 X190.5 Y431.8
N150 X254. Y495.3
N155 Y533.4
N160 X317.5 Y596.9
N165 X254. Y660.4
N170 X190.5 Y596.9
N175 X152.4
N180 X25.4
N185 X88.9 Y660.4
N190 G80
N195 G0 X174.608 Y734.091 Z7.
N200 G81 X174.608 Y734.091 Z-10.422 R5. F1000.
N205 X111.108 Y797.591
N210 X174.608 Y861.091
N215 X238.108 Y797.591
N220 G80
N225 G0 X355.6 Y850.9 Z7.
N230 G81 X355.6 Y850.9 Z-15.502 R5. F1000.
N235 X292.1 Y914.4
N240 X355.6 Y977.9
N245 X419.1 Y914.4
N250 X457.2
N255 X520.7 Y977.9
N260 X584.2 Y914.4
N265 X520.7 Y850.9
N270 G80
N275 G0 X469.9 Y762. Z7.
N280 G81 X469.9 Y762. Z-10.422 R5. F1000.
N285 X533.4 Y698.5
N290 X406.4
N295 X469.9 Y635.
N300 Y482.6
N305 X406.4 Y419.1
N310 X533.4
N315 X469.9 Y355.6
N320 Y203.2
N325 X533.4 Y139.7
N330 X469.9 Y76.2
N335 X406.4 Y139.7
N340 G80
N345 G0 X317.5 Y101.6 Z7.
N350 G81 X317.5 Y101.6 Z-15.502 R5. F1000.
N355 X254. Y38.1
N360 X190.5 Y101.6
N365 X152.4
N370 X88.9 Y38.1
N375 X25.4 Y101.6
N380 X88.9 Y165.1
N385 X89.662 Y202.946
N390 X26.162 Y266.446
N395 G80
N400 G0 Z17.
N405 M5
N410 G53 G0 Z0.
(2D ADAPTIVE1)
N415 G53 G0 X-200 Y0
N420 M1
N425 T21 M6
N430 T20
N435 S18500 M3
N440 G4 P4.0
N445 G17 G90 G94
N450 G54
N455 G0 X342.9 Y459.638
N460 G43 Z15. H21
N465 G0 Z5.
N470 Z2.5
N475 G1 Z-6.65 F1500.
N480 Y459.315 F3500.
N485 X342.935 Y458.994
N490 X343.215 Y457.733
N495 X343.267 Y457.647
N500 X343.482 Y457.284
N505 X343.704 Y456.826
N510 X343.929 Y456.252
N515 X344.144 Y455.534
N520 X344.338 Y454.631
N525 X344.492 Y453.47
N530 X344.557 Y452.18
N535 X344.552 Y450.888
N540 X344.494 Y449.597
N545 X344.393 Y448.309
N550 X344.26 Y447.023
N555 X344.102 Y445.741
N560 X343.935 Y444.46
N565 X343.765 Y443.179
N570 X343.593 Y441.898
N575 X343.42 Y440.618
N580 X343.245 Y439.338
N585 X343.072 Y438.058
N590 X342.913 Y436.775
N595 X342.764 Y435.492
N600 X342.623 Y434.208
N605 X342.489 Y432.922
N610 X342.36 Y431.637
N615 X342.246 Y430.35
N620 X342.148 Y429.062
N625 X342.062 Y427.772
N630 X341.987 Y426.482
N635 X341.919 Y425.192
N640 X341.861 Y423.901
N645 X341.821 Y422.61
N650 X341.798 Y421.318
N655 X341.786 Y420.026
N660 X341.785 Y418.734
N665 X341.791 Y417.442
N670 X341.812 Y416.15
N675 X341.851 Y414.859
N680 X341.904 Y413.568
N685 X341.969 Y412.277
N690 X342.043 Y410.987
N695 X342.124 Y409.698
N700 X342.226 Y408.41
N705 X342.344 Y407.123
N710 X342.475 Y405.838
N715 X342.616 Y404.553
N720 X342.765 Y403.27
N725 X342.928 Y401.988
N730 X343.109 Y400.709
N735 X343.304 Y399.432
N740 X343.512 Y398.156
N745 X343.728 Y396.883
N750 X343.952 Y395.61
N755 X344.195 Y394.341
N760 X344.454 Y393.075
N765 X344.727 Y391.812
N770 X345.009 Y390.552
N775 X345.301 Y389.293
N780 X345.603 Y388.037
N785 X345.924 Y386.785
N790 X346.26 Y385.537
N795 X346.607 Y384.293
N800 X346.964 Y383.051
N805 X347.328 Y381.812
N810 X347.709 Y380.577
N815 X348.107 Y379.347
N820 X348.517 Y378.122
N825 X348.938 Y376.901
N830 X349.367 Y375.682
N835 X349.806 Y374.467
N840 X350.263 Y373.258
N845 X350.735 Y372.055
N850 X351.218 Y370.857
N855 X351.711 Y369.663
N860 X352.211 Y368.471
N865 X352.725 Y367.286
N870 X353.256 Y366.108
N875 X353.8 Y364.936
N880 X354.354 Y363.769
N885 X354.916 Y362.605
N890 X355.485 Y361.446
N895 X356.073 Y360.295
N900 X356.675 Y359.152
N905 X357.288 Y358.015
N910 X357.911 Y356.882
N915 X358.54 Y355.754
N920 X359.182 Y354.632
N925 X359.839 Y353.52
N930 X360.509 Y352.415
N935 X361.189 Y351.317
N940 X361.877 Y350.223
N945 X362.572 Y349.133
N950 X363.282 Y348.055
N955 X364.007 Y346.985
N960 X364.743 Y345.923
N965 X365.487 Y344.867
N970 X366.238 Y343.815
N975 X366.999 Y342.771
N980 X367.775 Y341.738
N985 X368.564 Y340.714
N990 X369.361 Y339.698
N995 X370.167 Y338.688
N1000 X370.978 Y337.682
N1005 X371.803 Y336.688
N1010 X372.641 Y335.705
N1015 X373.49 Y334.73
N1020 X374.347 Y333.763
N1025 X375.21 Y332.802
N1030 X376.081 Y331.848
N1035 X376.967 Y330.907
N1040 X377.864 Y329.977
N1045 X378.769 Y329.055
N1050 X379.682 Y328.141
N1055 X380.6 Y327.232
N1060 X381.53 Y326.334
N1065 X382.472 Y325.45
N1070 X383.423 Y324.576
N1075 X384.382 Y323.71
N1080 X385.347 Y322.85
N1085 X386.318 Y321.998
N1090 X387.302 Y321.16
N1095 X388.296 Y320.335
N1100 X389.298 Y319.52
N1105 X390.307 Y318.712
N1110 X391.32 Y317.911
N1115 X392.343 Y317.122
N1120 X393.377 Y316.347
N1125 X394.419 Y315.583
N1130 X395.468 Y314.829
N1135 X396.523 Y314.082
N1140 X397.581 Y313.341
N1145 X398.652 Y312.618
N1150 X399.731 Y311.908
N1155 X400.818 Y311.208
N1160 X401.91 Y310.518
N1165 X403.006 Y309.835
N1170 X404.11 Y309.162
N1175 X405.223 Y308.506
N1180 X406.343 Y307.863
N1185 X407.47 Y307.23
N1190 X408.6 Y306.605
N1195 X409.735 Y305.986
N1200 X410.878 Y305.385
N1205 X412.03 Y304.798
N1210 X413.187 Y304.224
N1215 X414.349 Y303.659
N1220 X415.514 Y303.101
N1225 X416.685 Y302.554
N1230 X417.864 Y302.025
N1235 X419.048 Y301.509
N1240 X420.238 Y301.005
N1245 X421.431 Y300.51
N1250 X422.628 Y300.022
N1255 X423.83 Y299.55
N1260 X425.039 Y299.094
N1265 X426.253 Y298.651
N1270 X427.471 Y298.219
N1275 X428.691 Y297.794
N1280 X429.915 Y297.38
N1285 X431.145 Y296.983
N1290 X432.379 Y296.602
N1295 X433.617 Y296.233
N1300 X434.858 Y295.873
N1305 X436.102 Y295.521
N1310 X437.349 Y295.184
N1315 X438.601 Y294.865
N1320 X439.856 Y294.559
N1325 X441.114 Y294.264
N1330 X442.374 Y293.978
N1335 X443.636 Y293.7
N1340 X444.902 Y293.442
N1345 X446.171 Y293.2
N1350 X447.443 Y292.971
N1355 X448.716 Y292.751
N1360 X449.991 Y292.54
N1365 X451.267 Y292.342
N1370 X452.547 Y292.163
N1375 X453.829 Y291.998
N1380 X455.111 Y291.845
N1385 X456.395 Y291.701
N1390 X457.68 Y291.564
N1395 X458.967 Y291.447
N1400 X460.255 Y291.347
N1405 X461.544 Y291.26
N1410 X462.834 Y291.183
N1415 X464.124 Y291.115
N1420 X465.415 Y291.059
N1425 X466.707 Y291.022
N1430 X467.999 Y291.
N1435 X469.291 Y290.99
N1440 X470.583 Y290.989
N1445 X471.875 Y290.996
N1450 X473.166 Y291.022
N1455 X474.458 Y291.064
N1460 X475.749 Y291.121
N1465 X477.039 Y291.188
N1470 X478.329 Y291.263
N1475 X479.618 Y291.349
N1480 X480.906 Y291.455
N1485 X482.192 Y291.576
N1490 X483.477 Y291.71
N1495 X484.761 Y291.853
N1500 X486.045 Y292.004
N1505 X487.326 Y292.171
N1510 X488.604 Y292.356
N1515 X489.881 Y292.554
N1520 X491.156 Y292.764
N1525 X492.43 Y292.982
N1530 X493.701 Y293.21
N1535 X494.97 Y293.457
N1540 X496.235 Y293.72
N1545 X497.497 Y293.995
N1550 X498.757 Y294.28
N1555 X500.016 Y294.573
N1560 X501.271 Y294.88
N1565 X502.521 Y295.205
N1570 X503.768 Y295.544
N1575 X505.012 Y295.894
N1580 X506.253 Y296.253
N1585 X507.492 Y296.619
N1590 X508.725 Y297.004
N1595 X509.954 Y297.405
N1600 X511.178 Y297.819
N1605 X512.398 Y298.242
N1610 X513.617 Y298.673
N1615 X514.83 Y299.117
N1620 X516.037 Y299.578
N1625 X517.239 Y300.052
N1630 X518.436 Y300.538
N1635 X519.63 Y301.033
N1640 X520.82 Y301.534
N1645 X522.004 Y302.053
N1650 X523.18 Y302.588
N1655 X524.351 Y303.134
N1660 X525.517 Y303.69
N1665 X526.68 Y304.254
N1670 X527.837 Y304.829
N1675 X528.986 Y305.42
N1680 X530.127 Y306.025
N1685 X531.263 Y306.64
N1690 X532.395 Y307.265
N1695 X533.522 Y307.895
N1700 X534.641 Y308.541
N1705 X535.751 Y309.202
N1710 X536.854 Y309.875
N1715 X537.952 Y310.557
N1720 X539.044 Y311.247
N1725 X540.132 Y311.945
N1730 X541.208 Y312.659
N1735 X542.276 Y313.387
N1740 X543.337 Y314.125
N1745 X544.392 Y314.871
N1750 X545.442 Y315.623
N1755 X546.483 Y316.388
N1760 X547.514 Y317.168
N1765 X548.535 Y317.959
N1770 X549.55 Y318.758
N1775 X550.559 Y319.565
N1780 X551.563 Y320.378
N1785 X552.555 Y321.207
N1790 X553.535 Y322.048
N1795 X554.508 Y322.899
N1800 X555.473 Y323.758
N1805 X556.433 Y324.623
N1810 X557.384 Y325.498
N1815 X558.322 Y326.386
N1820 X559.25 Y327.285
N1825 X560.169 Y328.193
N1830 X561.083 Y329.107
N1835 X561.991 Y330.026
N1840 X562.884 Y330.959
N1845 X563.766 Y331.904
N1850 X564.638 Y332.857
N1855 X565.502 Y333.818
N1860 X566.36 Y334.784
N1865 X567.208 Y335.758
N1870 X568.043 Y336.745
N1875 X568.865 Y337.741
N1880 X569.679 Y338.745
N1885 X570.484 Y339.755
N1890 X571.284 Y340.77
N1895 X572.07 Y341.796
N1900 X572.842 Y342.832
N1905 X573.603 Y343.876
N1910 X574.355 Y344.926
N1915 X575.1 Y345.982
N1920 X575.837 Y347.044
N1925 X576.557 Y348.116
N1930 X577.264 Y349.197
N1935 X577.961 Y350.285
N1940 X578.65 Y351.379
N1945 X579.332 Y352.476
N1950 X580. Y353.582
N1955 X580.653 Y354.697
N1960 X581.293 Y355.819
N1965 X581.924 Y356.947
N1970 X582.548 Y358.078
N1975 X583.163 Y359.215
N1980 X583.76 Y360.36
N1985 X584.344 Y361.513
N1990 X584.916 Y362.671
N1995 X585.479 Y363.834
N2000 X586.035 Y365.001
N2005 X586.577 Y366.174
N2010 X587.103 Y367.354
N2015 X587.615 Y368.54
N2020 X588.117 Y369.73
N2025 X588.61 Y370.925
N2030 X589.097 Y372.122
N2035 X589.564 Y373.326
N2040 X590.016 Y374.536
N2045 X590.456 Y375.751
N2050 X590.887 Y376.97
N2055 X591.309 Y378.191
N2060 X591.719 Y379.416
N2065 X592.111 Y380.647
N2070 X592.489 Y381.883
N2075 X592.856 Y383.122
N2080 X593.213 Y384.363
N2085 X593.564 Y385.607
N2090 X593.896 Y386.855
N2095 X594.212 Y388.108
N2100 X594.515 Y389.364
N2105 X594.807 Y390.623
N2110 X595.091 Y391.883
N2115 X595.364 Y393.146
N2120 X595.618 Y394.413
N2125 X595.857 Y395.683
N2130 X596.084 Y396.955
N2135 X596.301 Y398.229
N2140 X596.511 Y399.503
N2145 X596.703 Y400.781
N2150 X596.879 Y402.061
N2155 X597.04 Y403.343
N2160 X597.191 Y404.626
N2165 X597.333 Y405.91
N2170 X597.466 Y407.196
N2175 X597.578 Y408.483
N2180 X597.675 Y409.771
N2185 X597.76 Y411.061
N2190 X597.834 Y412.35
N2195 X597.901 Y413.641
N2200 X597.952 Y414.932
N2205 X597.985 Y416.223
N2210 X598.004 Y417.515
N2215 X598.011 Y418.807
N2220 X598.01 Y420.099
N2225 X598. Y421.392
N2230 X597.97 Y422.683
N2235 X597.923 Y423.974
N2240 X597.864 Y425.265
N2245 X597.795 Y426.555
N2250 X597.717 Y427.845
N2255 X597.626 Y429.134
N2260 X597.516 Y430.421
N2265 X597.392 Y431.707
N2270 X597.256 Y432.992
N2275 X597.111 Y434.276
N2280 X596.958 Y435.559
N2285 X596.786 Y436.84
N2290 X596.598 Y438.118
N2295 X596.396 Y439.394
N2300 X596.184 Y440.669
N2305 X595.963 Y441.942
N2310 X595.731 Y443.213
N2315 X595.479 Y444.48
N2320 X595.213 Y445.744
N2325 X594.936 Y447.006
N2330 X594.648 Y448.266
N2335 X594.354 Y449.524
N2340 X594.042 Y450.778
N2345 X593.713 Y452.027
N2350 X593.371 Y453.273
N2355 X593.019 Y454.516
N2360 X592.658 Y455.757
N2365 X592.287 Y456.995
N2370 X591.898 Y458.227
N2375 X591.494 Y459.454
N2380 X591.078 Y460.677
N2385 X590.652 Y461.897
N2390 X590.22 Y463.115
N2395 X589.772 Y464.327
N2400 X589.307 Y465.532
N2405 X588.829 Y466.733
N2410 X588.341 Y467.929
N2415 X587.845 Y469.122
N2420 X587.34 Y470.311
N2425 X586.817 Y471.493
N2430 X586.279 Y472.668
N2435 X585.73 Y473.837
N2440 X585.172 Y475.002
N2445 X584.606 Y476.164
N2450 X584.028 Y477.319
N2455 X583.433 Y478.466
N2460 X582.825 Y479.606
N2465 X582.207 Y480.741
N2470 X581.581 Y481.872
N2475 X580.949 Y482.998
N2480 X580.299 Y484.115
N2485 X579.634 Y485.223
N2490 X578.959 Y486.324
N2495 X578.275 Y487.42
N2500 X577.583 Y488.512
N2505 X576.881 Y489.596
N2510 X576.163 Y490.671
N2515 X575.433 Y491.737
N2520 X574.693 Y492.796
N2525 X573.945 Y493.85
N2530 X573.191 Y494.899
N2535 X572.422 Y495.937
N2540 X571.64 Y496.965
N2545 X570.846 Y497.985
N2550 X570.045 Y498.998
N2555 X569.236 Y500.006
N2560 X568.419 Y501.007
N2565 X567.587 Y501.996
N2570 X566.743 Y502.974
N2575 X565.89 Y503.945
N2580 X565.03 Y504.909
N2585 X564.164 Y505.868
N2590 X563.286 Y506.815
N2595 X562.394 Y507.75
N2600 X561.493 Y508.676
N2605 X560.584 Y509.594
N2610 X559.668 Y510.506
N2615 X558.746 Y511.411
N2620 X557.81 Y512.301
N2625 X556.863 Y513.18
N2630 X555.908 Y514.05
N2635 X554.946 Y514.913
N2640 X553.978 Y515.769
N2645 X553.001 Y516.614
N2650 X552.011 Y517.445
N2655 X551.013 Y518.266
N2660 X550.008 Y519.077
N2665 X548.996 Y519.881
N2670 X547.98 Y520.679
N2675 X546.952 Y521.461
N2680 X545.913 Y522.23
N2685 X544.867 Y522.988
N2690 X543.815 Y523.739
N2695 X542.759 Y524.482
N2700 X541.694 Y525.214
N2705 X540.619 Y525.931
N2710 X539.536 Y526.636
N2715 X538.447 Y527.331
N2720 X537.353 Y528.018
N2725 X536.254 Y528.698
N2730 X535.146 Y529.362
N2735 X534.029 Y530.011
N2740 X532.905 Y530.649
N2745 X531.776 Y531.278
N2750 X530.644 Y531.9
N2755 X529.505 Y532.51
N2760 X528.358 Y533.104
N2765 X527.203 Y533.685
N2770 X526.044 Y534.254
N2775 X524.88 Y534.815
N2780 X523.713 Y535.37
N2785 X522.538 Y535.908
N2790 X521.356 Y536.43
N2795 X520.169 Y536.939
N2800 X518.977 Y537.439
N2805 X517.782 Y537.93
N2810 X516.583 Y538.412
N2815 X515.377 Y538.876
N2820 X514.166 Y539.325
N2825 X512.95 Y539.762
N2830 X511.731 Y540.19
N2835 X510.509 Y540.611
N2840 X509.282 Y541.016
N2845 X508.05 Y541.405
N2850 X506.814 Y541.78
N2855 X505.574 Y542.144
N2860 X504.332 Y542.5
N2865 X503.087 Y542.847
N2870 X501.838 Y543.175
N2875 X500.584 Y543.487
N2880 X499.327 Y543.787
N2885 X498.068 Y544.077
N2890 X496.807 Y544.36
N2895 X495.543 Y544.627
N2900 X494.276 Y544.877
N2905 X493.005 Y545.113
N2910 X491.733 Y545.338
N2915 X490.459 Y545.553
N2920 X489.184 Y545.761
N2925 X487.905 Y545.949
N2930 X486.625 Y546.12
N2935 X485.342 Y546.279
N2940 X484.059 Y546.427
N2945 X482.775 Y546.567
N2950 X481.489 Y546.695
N2955 X480.201 Y546.803
N2960 X478.913 Y546.897
N2965 X477.623 Y546.979
N2970 X476.333 Y547.051
N2975 X475.043 Y547.116
N2980 X473.751 Y547.162
N2985 X472.46 Y547.191
N2990 X471.168 Y547.207
N2995 X469.876 Y547.212
N3000 X468.584 Y547.208
N3005 X467.292 Y547.193
N3010 X466. Y547.159
N3015 X464.709 Y547.109
N3020 X463.418 Y547.048
N3025 X462.128 Y546.976
N3030 X460.839 Y546.897
N3035 X459.55 Y546.801
N3040 X458.263 Y546.687
N3045 X456.977 Y546.56
N3050 X455.693 Y546.421
N3055 X454.409 Y546.274
N3060 X453.127 Y546.117
N3065 X451.847 Y545.941
N3070 X450.569 Y545.749
N3075 X449.293 Y545.544
N3080 X448.019 Y545.33
N3085 X446.746 Y545.108
N3090 X445.476 Y544.87
N3095 X444.21 Y544.615
N3100 X442.946 Y544.346
N3105 X441.685 Y544.066
N3110 X440.425 Y543.777
N3115 X439.168 Y543.48
N3120 X437.915 Y543.163
N3125 X436.667 Y542.831
N3130 X435.421 Y542.486
N3135 X434.179 Y542.131
N3140 X432.939 Y541.769
N3145 X431.703 Y541.393
N3150 X430.472 Y541.
N3155 X429.246 Y540.592
N3160 X428.023 Y540.174
N3165 X426.804 Y539.747
N3170 X425.587 Y539.313
N3175 X424.377 Y538.86
N3180 X423.173 Y538.392
N3185 X421.973 Y537.911
N3190 X420.778 Y537.421
N3195 X419.586 Y536.922
N3200 X418.398 Y536.413
N3205 X417.219 Y535.886
N3210 X416.045 Y535.345
N3215 X414.877 Y534.794
N3220 X413.712 Y534.234
N3225 X412.551 Y533.667
N3230 X411.399 Y533.083
N3235 X410.253 Y532.485
N3240 X409.115 Y531.875
N3245 X407.981 Y531.254
N3250 X406.852 Y530.627
N3255 X405.728 Y529.99
N3260 X404.613 Y529.336
N3265 X403.507 Y528.669
N3270 X402.407 Y527.991
N3275 X401.312 Y527.305
N3280 X400.221 Y526.613
N3285 X399.139 Y525.906
N3290 X398.067 Y525.185
N3295 X397.003 Y524.452
N3300 X395.945 Y523.71
N3305 X394.893 Y522.961
N3310 X393.845 Y522.204
N3315 X392.81 Y521.431
N3320 X391.784 Y520.646
N3325 X390.766 Y519.85
N3330 X389.754 Y519.047
N3335 X388.747 Y518.237
N3340 X387.75 Y517.416
N3345 X386.764 Y516.581
N3350 X385.787 Y515.735
N3355 X384.818 Y514.88
N3360 X383.856 Y514.018
N3365 X382.898 Y513.151
N3370 X381.954 Y512.269
N3375 X381.021 Y511.375
N3380 X380.098 Y510.471
N3385 X379.181 Y509.56
N3390 X378.271 Y508.643
N3395 X377.37 Y507.717
N3400 X376.482 Y506.778
N3405 X375.606 Y505.829
N3410 X374.738 Y504.872
N3415 X373.877 Y503.909
N3420 X373.021 Y502.94
N3425 X372.18 Y501.96
N3430 X371.352 Y500.968
N3435 X370.534 Y499.967
N3440 X369.725 Y498.96
N3445 X368.922 Y497.948
N3450 X368.129 Y496.928
N3455 X367.35 Y495.897
N3460 X366.584 Y494.857
N3465 X365.827 Y493.81
N3470 X365.079 Y492.756
N3475 X364.336 Y491.699
N3480 X363.608 Y490.631
N3485 X362.895 Y489.554
N3490 X362.193 Y488.47
N3495 X361.5 Y487.379
N3500 X360.815 Y486.284
N3505 X360.138 Y485.183
N3510 X359.478 Y484.072
N3515 X358.831 Y482.954
N3520 X358.196 Y481.829
N3525 X357.569 Y480.699
N3530 X356.949 Y479.565
N3535 X356.343 Y478.424
N3540 X355.752 Y477.275
N3545 X355.175 Y476.119
N3550 X354.607 Y474.958
N3555 X354.048 Y473.794
N3560 X353.496 Y472.626
N3565 X352.963 Y471.449
N3570 X352.444 Y470.265
N3575 X351.937 Y469.077
N3580 X351.44 Y467.884
N3585 X350.95 Y466.689
N3590 X350.473 Y465.488
N3595 X350.042 Y464.27
N3600 X349.787 Y463.003
N3605 X349.65 Y461.719
N3610 X349.591 Y460.428
N3615 X349.579 Y459.136
N3620 X349.585 Y457.844
N3625 X349.595 Y456.552
N3630 X349.599 Y455.26
N3635 X349.589 Y453.968
N3640 X349.559 Y452.676
N3645 X349.508 Y451.385
N3650 X349.434 Y450.095
N3655 X349.341 Y448.806
N3660 X349.232 Y447.519
N3665 X349.109 Y446.233
N3670 X348.976 Y444.947
N3675 X348.835 Y443.663
N3680 X348.686 Y442.38
N3685 X348.385 Y439.813
N3690 X348.237 Y438.53
N3695 X348.091 Y437.246
N3700 X347.95 Y435.962
N3705 X347.814 Y434.677
N3710 X347.687 Y433.391
N3715 X347.569 Y432.104
N3720 X347.46 Y430.817
N3725 X347.36 Y429.529
N3730 X347.27 Y428.24
N3735 X347.192 Y426.95
N3740 X347.126 Y425.66
N3745 X347.072 Y424.369
N3750 X347.03 Y423.077
N3755 X346.999 Y421.786
N3760 X346.981 Y420.494
N3765 X346.977 Y419.202
N3770 X346.986 Y417.91
N3775 X347.008 Y416.618
N3780 X347.042 Y415.326
N3785 X347.089 Y414.035
N3790 X347.15 Y412.744
N3795 X347.225 Y411.454
N3800 X347.314 Y410.165
N3805 X347.415 Y408.877
N3810 X347.528 Y407.59
N3815 X347.656 Y406.305
N3820 X347.798 Y405.02
N3825 X347.954 Y403.738
N3830 X348.123 Y402.457
N3835 X348.304 Y401.177
N3840 X348.499 Y399.9
N3845 X348.708 Y398.625
N3850 X348.93 Y397.352
N3855 X349.166 Y396.082
N3860 X349.415 Y394.814
N3865 X349.676 Y393.549
N3870 X349.951 Y392.286
N3875 X350.241 Y391.027
N3880 X350.543 Y389.771
N3885 X350.858 Y388.518
N3890 X351.185 Y387.268
N3895 X351.526 Y386.022
N3900 X351.881 Y384.779
N3905 X352.249 Y383.541
N3910 X352.629 Y382.306
N3915 X353.021 Y381.075
N3920 X353.427 Y379.848
N3925 X353.846 Y378.626
N3930 X354.278 Y377.408
N3935 X354.724 Y376.195
N3940 X355.18 Y374.987
N3945 X355.65 Y373.783
N3950 X356.133 Y372.585
N3955 X356.629 Y371.391
N3960 X357.137 Y370.204
N3965 X357.657 Y369.021
N3970 X358.189 Y367.843
N3975 X358.734 Y366.672
N3980 X359.291 Y365.506
N3985 X359.862 Y364.347
N3990 X360.444 Y363.193
N3995 X361.037 Y362.045
N4000 X361.642 Y360.904
N4005 X362.26 Y359.769
N4010 X362.89 Y358.641
N4015 X363.532 Y357.52
N4020 X364.185 Y356.405
N4025 X364.849 Y355.296
N4030 X365.525 Y354.196
N4035 X366.214 Y353.102
N4040 X366.914 Y352.016
N4045 X367.624 Y350.937
N4050 X368.346 Y349.865
N4055 X369.079 Y348.801
N4060 X369.824 Y347.746
N4065 X370.58 Y346.698
N4070 X371.347 Y345.658
N4075 X372.124 Y344.626
N4080 X372.912 Y343.602
N4085 X373.711 Y342.586
N4090 X374.521 Y341.58
N4095 X375.342 Y340.582
N4100 X376.172 Y339.592
N4105 X377.012 Y338.611
N4110 X377.863 Y337.639
N4115 X378.725 Y336.676
N4120 X379.597 Y335.723
N4125 X380.479 Y334.778
N4130 X381.369 Y333.842
N4135 X382.27 Y332.916
N4140 X383.181 Y332.
N4145 X384.102 Y331.093
N4150 X385.032 Y330.196
N4155 X385.971 Y329.308
N4160 X386.919 Y328.43
N4165 X387.876 Y327.563
N4170 X388.844 Y326.707
N4175 X389.82 Y325.86
N4180 X390.804 Y325.023
N4185 X391.797 Y324.196
N4190 X392.799 Y323.381
N4195 X393.81 Y322.576
N4200 X394.83 Y321.782
N4205 X395.857 Y320.998
N4210 X396.891 Y320.225
N4215 X397.935 Y319.462
N4220 X398.986 Y318.712
N4225 X400.046 Y317.972
N4230 X401.113 Y317.244
N4235 X402.187 Y316.526
N4240 X403.269 Y315.819
N4245 X404.358 Y315.125
N4250 X405.456 Y314.442
N4255 X406.56 Y313.771
N4260 X407.67 Y313.11
N4265 X408.787 Y312.461
N4270 X409.911 Y311.824
N4275 X411.042 Y311.2
N4280 X412.18 Y310.588
N4285 X413.324 Y309.987
N4290 X414.474 Y309.397
N4295 X415.63 Y308.82
N4300 X416.792 Y308.257
N4305 X417.961 Y307.705
N4310 X419.135 Y307.166
N4315 X420.314 Y306.638
N4320 X421.499 Y306.122
N4325 X422.689 Y305.62
N4330 X423.885 Y305.131
N4335 X425.086 Y304.654
N4340 X426.292 Y304.189
N4345 X427.502 Y303.736
N4350 X428.717 Y303.296
N4355 X429.936 Y302.87
N4360 X431.161 Y302.457
N4365 X432.389 Y302.056
N4370 X433.621 Y301.668
N4375 X434.858 Y301.292
N4380 X436.098 Y300.931
N4385 X437.342 Y300.583
N4390 X438.59 Y300.247
N4395 X439.841 Y299.923
N4400 X441.095 Y299.613
N4405 X442.353 Y299.317
N4410 X443.614 Y299.035
N4415 X444.877 Y298.766
N4420 X446.144 Y298.509
N4425 X447.412 Y298.265
N4430 X448.684 Y298.036
N4435 X449.958 Y297.82
N4440 X451.234 Y297.618
N4445 X452.512 Y297.428
N4450 X453.792 Y297.251
N4455 X455.074 Y297.088
N4460 X456.357 Y296.94
N4465 X457.642 Y296.805
N4470 X458.928 Y296.683
N4475 X460.216 Y296.574
N4480 X461.504 Y296.478
N4485 X462.794 Y296.397
N4490 X464.084 Y296.33
N4495 X465.375 Y296.276
N4500 X466.667 Y296.234
N4505 X467.958 Y296.206
N4510 X469.25 Y296.192
N4515 X470.542 Y296.193
N4520 X471.834 Y296.207
N4525 X473.126 Y296.234
N4530 X474.417 Y296.274
N4535 X475.708 Y296.328
N4540 X476.999 Y296.396
N4545 X478.288 Y296.478
N4550 X479.577 Y296.574
N4555 X480.864 Y296.682
N4560 X482.151 Y296.803
N4565 X483.435 Y296.939
N4570 X484.719 Y297.089
N4575 X486. Y297.252
N4580 X487.281 Y297.427
N4585 X488.559 Y297.616
N4590 X489.835 Y297.818
N4595 X491.109 Y298.035
N4600 X492.38 Y298.266
N4605 X493.649 Y298.508
N4610 X494.915 Y298.764
N4615 X496.179 Y299.033
N4620 X497.44 Y299.316
N4625 X498.697 Y299.613
N4630 X499.952 Y299.923
N4635 X501.203 Y300.244
N4640 X502.451 Y300.579
N4645 X503.695 Y300.928
N4650 X504.935 Y301.29
N4655 X506.172 Y301.666
N4660 X507.404 Y302.053
N4665 X508.633 Y302.453
N4670 X509.857 Y302.867
N4675 X511.076 Y303.294
N4680 X512.291 Y303.734
N4685 X513.502 Y304.186
N4690 X514.707 Y304.65
N4695 X515.908 Y305.127
N4700 X517.104 Y305.617
N4705 X518.294 Y306.12
N4710 X519.479 Y306.636
N4715 X520.658 Y307.162
N4720 X521.832 Y307.702
N4725 X523.001 Y308.254
N4730 X524.163 Y308.819
N4735 X525.319 Y309.396
N4740 X526.469 Y309.984
N4745 X527.614 Y310.584
N4750 X528.751 Y311.196
N4755 X529.882 Y311.821
N4760 X531.006 Y312.458
N4765 X532.124 Y313.106
N4770 X533.235 Y313.766
N4775 X534.339 Y314.437
N4780 X535.435 Y315.121
N4785 X536.524 Y315.816
N4790 X537.606 Y316.522
N4795 X538.681 Y317.239
N4800 X539.748 Y317.967
N4805 X540.808 Y318.707
N4810 X541.859 Y319.459
N4815 X542.902 Y320.221
N4820 X543.937 Y320.994
N4825 X544.965 Y321.777
N4830 X545.984 Y322.571
N4835 X546.995 Y323.377
N4840 X547.996 Y324.193
N4845 X548.99 Y325.019
N4850 X549.975 Y325.855
N4855 X550.951 Y326.701
N4860 X551.918 Y327.559
N4865 X552.875 Y328.426
N4870 X553.823 Y329.304
N4875 X554.763 Y330.19
N4880 X555.694 Y331.087
N4885 X556.614 Y331.993
N4890 X557.525 Y332.91
N4895 X558.425 Y333.837
N4900 X559.317 Y334.772
N4905 X560.199 Y335.716
N4910 X561.07 Y336.67
N4915 X561.931 Y337.633
N4920 X562.782 Y338.606
N4925 X563.623 Y339.587
N4930 X564.454 Y340.576
N4935 X565.275 Y341.574
N4940 X566.084 Y342.581
N4945 X566.883 Y343.597
N4950 X567.671 Y344.621
N4955 X568.449 Y345.652
N4960 X569.216 Y346.692
N4965 X569.972 Y347.74
N4970 X570.716 Y348.796
N4975 X571.449 Y349.86
N4980 X572.172 Y350.931
N4985 X572.883 Y352.009
N4990 X573.583 Y353.096
N4995 X574.271 Y354.19
N5000 X574.946 Y355.291
N5005 X575.611 Y356.399
N5010 X576.266 Y357.513
N5015 X576.907 Y358.634
N5020 X577.537 Y359.762
N5025 X578.154 Y360.898
N5030 X578.759 Y362.039
N5035 X579.354 Y363.186
N5040 X579.936 Y364.34
N5045 X580.505 Y365.5
N5050 X581.062 Y366.666
N5055 X581.607 Y367.837
N5060 X582.14 Y369.014
N5065 X582.661 Y370.196
N5070 X583.169 Y371.384
N5075 X583.664 Y372.578
N5080 X584.146 Y373.777
N5085 X584.616 Y374.98
N5090 X585.075 Y376.188
N5095 X585.52 Y377.401
N5100 X585.951 Y378.619
N5105 X586.37 Y379.841
N5110 X586.776 Y381.068
N5115 X587.17 Y382.298
N5120 X587.551 Y383.533
N5125 X587.918 Y384.772
N5130 X588.272 Y386.014
N5135 X588.613 Y387.261
N5140 X588.941 Y388.51
N5145 X589.257 Y389.763
N5150 X589.559 Y391.02
N5155 X589.846 Y392.279
N5160 X590.121 Y393.542
N5165 X590.383 Y394.807
N5170 X590.633 Y396.075
N5175 X590.868 Y397.345
N5180 X591.09 Y398.618
N5185 X591.298 Y399.893
N5190 X591.492 Y401.17
N5195 X591.675 Y402.45
N5200 X591.844 Y403.73
N5205 X591.999 Y405.013
N5210 X592.14 Y406.298
N5215 X592.267 Y407.583
N5220 X592.382 Y408.87
N5225 X592.484 Y410.158
N5230 X592.571 Y411.447
N5235 X592.644 Y412.737
N5240 X592.703 Y414.028
N5245 X592.75 Y415.319
N5250 X592.784 Y416.611
N5255 X592.804 Y417.903
N5260 X592.809 Y419.195
N5265 X592.8 Y420.487
N5270 X592.779 Y421.779
N5275 X592.744 Y423.07
N5280 X592.696 Y424.362
N5285 X592.634 Y425.652
N5290 X592.557 Y426.942
N5295 X592.468 Y428.231
N5300 X592.365 Y429.519
N5305 X592.25 Y430.806
N5310 X592.121 Y432.091
N5315 X591.977 Y433.375
N5320 X591.819 Y434.658
N5325 X591.649 Y435.939
N5330 X591.466 Y437.218
N5335 X591.27 Y438.495
N5340 X591.059 Y439.769
N5345 X590.834 Y441.042
N5350 X590.597 Y442.312
N5355 X590.347 Y443.579
N5360 X590.083 Y444.844
N5365 X589.806 Y446.106
N5370 X589.514 Y447.365
N5375 X589.21 Y448.621
N5380 X588.893 Y449.873
N5385 X588.564 Y451.123
N5390 X588.221 Y452.368
N5395 X587.864 Y453.61
N5400 X587.494 Y454.848
N5405 X587.112 Y456.082
N5410 X586.717 Y457.313
N5415 X586.309 Y458.539
N5420 X585.888 Y459.76
N5425 X585.454 Y460.977
N5430 X585.007 Y462.189
N5435 X584.548 Y463.397
N5440 X584.077 Y464.6
N5445 X583.593 Y465.798
N5450 X583.095 Y466.99
N5455 X582.585 Y468.177
N5460 X582.063 Y469.359
N5465 X581.529 Y470.536
N5470 X580.982 Y471.707
N5475 X580.423 Y472.871
N5480 X579.85 Y474.03
N5485 X579.267 Y475.182
N5490 X578.672 Y476.33
N5495 X578.065 Y477.47
N5500 X577.445 Y478.604
N5505 X576.813 Y479.731
N5510 X576.169 Y480.851
N5515 X575.515 Y481.965
N5520 X574.849 Y483.072
N5525 X574.17 Y484.171
N5530 X573.48 Y485.264
N5535 X572.778 Y486.348
N5540 X572.066 Y487.426
N5545 X571.343 Y488.497
N5550 X570.608 Y489.56
N5555 X569.861 Y490.614
N5560 X569.103 Y491.661
N5565 X568.335 Y492.7
N5570 X567.557 Y493.731
N5575 X566.767 Y494.754
N5580 X565.967 Y495.768
N5585 X565.155 Y496.773
N5590 X564.333 Y497.77
N5595 X563.501 Y498.759
N5600 X562.659 Y499.739
N5605 X561.806 Y500.709
N5610 X560.943 Y501.67
N5615 X560.069 Y502.622
N5620 X559.186 Y503.566
N5625 X558.294 Y504.5
N5630 X557.391 Y505.425
N5635 X556.479 Y506.339
N5640 X555.556 Y507.244
N5645 X554.625 Y508.14
N5650 X553.685 Y509.026
N5655 X552.735 Y509.902
N5660 X551.776 Y510.768
N5665 X550.807 Y511.623
N5670 X549.83 Y512.468
N5675 X548.844 Y513.303
N5680 X547.85 Y514.129
N5685 X546.847 Y514.943
N5690 X545.835 Y515.746
N5695 X544.815 Y516.539
N5700 X543.786 Y517.321
N5705 X542.75 Y518.093
N5710 X541.706 Y518.853
N5715 X540.653 Y519.602
N5720 X539.592 Y520.34
N5725 X538.524 Y521.067
N5730 X537.448 Y521.783
N5735 X536.365 Y522.488
N5740 X535.275 Y523.181
N5745 X534.177 Y523.861
N5750 X533.072 Y524.531
N5755 X531.96 Y525.189
N5760 X530.842 Y525.837
N5765 X529.716 Y526.471
N5770 X528.584 Y527.093
N5775 X527.445 Y527.704
N5780 X526.3 Y528.303
N5785 X525.15 Y528.891
N5790 X523.993 Y529.466
N5795 X522.829 Y530.028
N5800 X521.66 Y530.578
N5805 X520.485 Y531.116
N5810 X519.305 Y531.642
N5815 X518.12 Y532.156
N5820 X516.929 Y532.656
N5825 X515.732 Y533.144
N5830 X514.53 Y533.619
N5835 X513.324 Y534.082
N5840 X512.113 Y534.533
N5845 X510.898 Y534.97
N5850 X509.677 Y535.394
N5855 X508.452 Y535.805
N5860 X507.223 Y536.204
N5865 X505.99 Y536.59
N5870 X504.753 Y536.964
N5875 X503.512 Y537.323
N5880 X502.268 Y537.669
N5885 X501.019 Y538.003
N5890 X499.768 Y538.324
N5895 X498.513 Y538.632
N5900 X497.255 Y538.926
N5905 X495.993 Y539.206
N5910 X494.729 Y539.473
N5915 X493.463 Y539.729
N5920 X492.194 Y539.971
N5925 X490.922 Y540.199
N5930 X489.648 Y540.412
N5935 X488.371 Y540.613
N5940 X487.093 Y540.8
N5945 X485.813 Y540.975
N5950 X484.531 Y541.136
N5955 X483.247 Y541.282
N5960 X481.962 Y541.415
N5965 X480.675 Y541.535
N5970 X479.388 Y541.642
N5975 X478.099 Y541.736
N5980 X476.809 Y541.815
N5985 X475.519 Y541.88
N5990 X474.228 Y541.931
N5995 X472.936 Y541.971
N6000 X471.645 Y541.996
N6005 X470.353 Y542.008
N6010 X469.061 Y542.005
N6015 X467.769 Y541.989
N6020 X466.477 Y541.96
N6025 X465.185 Y541.918
N6030 X463.895 Y541.862
N6035 X462.604 Y541.792
N6040 X461.315 Y541.708
N6045 X460.027 Y541.611
N6050 X458.739 Y541.501
N6055 X457.453 Y541.378
N6060 X456.169 Y541.24
N6065 X454.885 Y541.088
N6070 X453.604 Y540.923
N6075 X452.324 Y540.746
N6080 X451.046 Y540.555
N6085 X449.771 Y540.35
N6090 X448.497 Y540.131
N6095 X447.226 Y539.898
N6100 X445.958 Y539.653
N6105 X444.691 Y539.396
N6110 X443.428 Y539.125
N6115 X442.168 Y538.839
N6120 X440.911 Y538.54
N6125 X439.657 Y538.229
N6130 X438.406 Y537.905
N6135 X437.159 Y537.568
N6140 X435.916 Y537.217
N6145 X434.676 Y536.852
N6150 X433.44 Y536.475
N6155 X432.208 Y536.086
N6160 X430.98 Y535.685
N6165 X429.757 Y535.269
N6170 X428.538 Y534.84
N6175 X427.324 Y534.399
N6180 X426.114 Y533.945
N6185 X424.909 Y533.479
N6190 X423.709 Y533.
N6195 X422.514 Y532.507
N6200 X421.325 Y532.002
N6205 X420.141 Y531.485
N6210 X418.962 Y530.956
N6215 X417.789 Y530.415
N6220 X416.622 Y529.861
N6225 X415.461 Y529.294
N6230 X414.305 Y528.715
N6235 X413.156 Y528.125
N6240 X412.013 Y527.523
N6245 X410.876 Y526.909
N6250 X409.746 Y526.282
N6255 X408.623 Y525.643
N6260 X407.507 Y524.993
N6265 X406.396 Y524.332
N6270 X405.293 Y523.659
N6275 X404.198 Y522.974
N6280 X403.11 Y522.277
N6285 X402.029 Y521.569
N6290 X400.955 Y520.851
N6295 X399.889 Y520.121
N6300 X398.831 Y519.379
N6305 X397.781 Y518.626
N6310 X396.739 Y517.862
N6315 X395.705 Y517.088
N6320 X394.678 Y516.303
N6325 X393.661 Y515.507
N6330 X392.652 Y514.7
N6335 X391.652 Y513.882
N6340 X390.66 Y513.054
N6345 X389.676 Y512.217
N6350 X388.701 Y511.369
N6355 X387.736 Y510.51
N6360 X386.78 Y509.64
N6365 X385.833 Y508.761
N6370 X384.894 Y507.873
N6375 X383.965 Y506.975
N6380 X383.047 Y506.067
N6385 X382.138 Y505.148
N6390 X381.238 Y504.221
N6395 X380.348 Y503.285
N6400 X379.467 Y502.339
N6405 X378.597 Y501.384
N6410 X377.738 Y500.419
N6415 X376.888 Y499.446
N6420 X376.049 Y498.463
N6425 X375.219 Y497.473
N6430 X374.401 Y496.473
N6435 X373.593 Y495.465
N6440 X372.796 Y494.448
N6445 X372.01 Y493.423
N6450 X371.233 Y492.39
N6455 X370.468 Y491.349
N6460 X369.714 Y490.299
N6465 X368.972 Y489.242
N6470 X368.241 Y488.177
N6475 X367.52 Y487.104
N6480 X366.81 Y486.025
N6485 X366.112 Y484.938
N6490 X365.426 Y483.842
N6495 X364.752 Y482.74
N6500 X364.088 Y481.632
N6505 X363.436 Y480.516
N6510 X362.796 Y479.394
N6515 X362.168 Y478.265
N6520 X361.553 Y477.129
N6525 X360.949 Y475.986
N6530 X360.356 Y474.838
N6535 X359.775 Y473.684
N6540 X359.208 Y472.523
N6545 X358.653 Y471.356
N6550 X358.111 Y470.184
N6555 X357.579 Y469.006
N6560 X357.063 Y467.822
N6565 X356.6 Y466.616
N6570 X356.212 Y465.383
N6575 X355.897 Y464.13
N6580 X355.646 Y462.862
N6585 X355.448 Y461.586
N6590 X355.29 Y460.303
N6595 X355.162 Y459.018
N6600 X355.055 Y457.73
N6605 X354.96 Y456.441
N6610 X354.782 Y453.863
N6615 X354.691 Y452.575
N6620 X354.594 Y451.286
N6625 X354.491 Y449.998
N6630 X354.381 Y448.711
N6635 X354.264 Y447.424
N6640 X354.14 Y446.138
N6645 X354.01 Y444.853
N6650 X353.876 Y443.567
N6655 X353.74 Y442.283
N6660 X353.464 Y439.713
N6665 X353.327 Y438.429
N6670 X353.193 Y437.143
N6675 X353.064 Y435.858
N6680 X352.94 Y434.572
N6685 X352.822 Y433.285
N6690 X352.711 Y431.998
N6695 X352.609 Y430.71
N6700 X352.516 Y429.421
N6705 X352.434 Y428.132
N6710 X352.361 Y426.842
N6715 X352.299 Y425.551
N6720 X352.249 Y424.26
N6725 X352.211 Y422.969
N6730 X352.186 Y421.677
N6735 X352.172 Y420.385
N6740 Y419.093
N6745 X352.185 Y417.801
N6750 X352.211 Y416.509
N6755 X352.25 Y415.217
N6760 X352.303 Y413.926
N6765 X352.369 Y412.636
N6770 X352.45 Y411.347
N6775 X352.544 Y410.058
N6780 X352.652 Y408.77
N6785 X352.773 Y407.484
N6790 X352.909 Y406.199
N6795 X353.058 Y404.916
N6800 X353.222 Y403.634
N6805 X353.399 Y402.354
N6810 X353.591 Y401.076
N6815 X353.796 Y399.801
N6820 X354.015 Y398.527
N6825 X354.248 Y397.257
N6830 X354.495 Y395.988
N6835 X354.756 Y394.723
N6840 X355.03 Y393.46
N6845 X355.319 Y392.201
N6850 X355.621 Y390.945
N6855 X355.937 Y389.692
N6860 X356.267 Y388.443
N6865 X356.61 Y387.197
N6870 X356.967 Y385.955
N6875 X357.338 Y384.718
N6880 X357.722 Y383.484
N6885 X358.12 Y382.255
N6890 X358.531 Y381.03
N6895 X358.956 Y379.81
N6900 X359.394 Y378.594
N6905 X359.846 Y377.383
N6910 X360.31 Y376.178
N6915 X360.788 Y374.977
N6920 X361.279 Y373.782
N6925 X361.783 Y372.593
N6930 X362.3 Y371.408
N6935 X362.83 Y370.23
N6940 X363.373 Y369.058
N6945 X363.929 Y367.891
N6950 X364.497 Y366.731
N6955 X365.078 Y365.577
N6960 X365.672 Y364.43
N6965 X366.279 Y363.289
N6970 X366.897 Y362.154
N6975 X367.529 Y361.027
N6980 X368.172 Y359.907
N6985 X368.828 Y358.794
N6990 X369.497 Y357.688
N6995 X370.177 Y356.589
N7000 X370.869 Y355.498
N7005 X371.573 Y354.415
N7010 X372.289 Y353.34
N7015 X373.017 Y352.272
N7020 X373.757 Y351.212
N7025 X374.508 Y350.161
N7030 X375.27 Y349.118
N7035 X376.044 Y348.083
N7040 X376.829 Y347.057
N7045 X377.626 Y346.04
N7050 X378.433 Y345.031
N7055 X379.252 Y344.032
N7060 X380.081 Y343.041
N7065 X380.922 Y342.06
N7070 X381.773 Y341.087
N7075 X382.634 Y340.124
N7080 X383.506 Y339.171
N7085 X384.389 Y338.228
N7090 X385.282 Y337.294
N7095 X386.185 Y336.37
N7100 X387.098 Y335.456
N7105 X388.022 Y334.552
N7110 X388.955 Y333.658
N7115 X389.898 Y332.775
N7120 X390.85 Y331.902
N7125 X391.812 Y331.039
N7130 X392.784 Y330.188
N7135 X393.765 Y329.347
N7140 X394.755 Y328.516
N7145 X395.754 Y327.697
N7150 X396.761 Y326.888
N7155 X397.778 Y326.091
N7160 X398.803 Y325.305
N7165 X399.837 Y324.53
N7170 X400.88 Y323.766
N7175 X401.93 Y323.014
N7180 X402.989 Y322.274
N7185 X404.056 Y321.545
N7190 X405.131 Y320.828
N7195 X406.214 Y320.123
N7200 X407.304 Y319.43
N7205 X408.402 Y318.749
N7210 X409.507 Y318.08
N7215 X410.62 Y317.423
N7220 X411.74 Y316.779
N7225 X412.867 Y316.146
N7230 X414. Y315.526
N7235 X415.141 Y314.919
N7240 X416.288 Y314.324
N7245 X417.441 Y313.742
N7250 X418.601 Y313.172
N7255 X419.767 Y312.616
N7260 X420.939 Y312.072
N7265 X422.117 Y311.541
N7270 X423.3 Y311.023
N7275 X424.49 Y310.518
N7280 X425.684 Y310.026
N7285 X426.884 Y309.547
N7290 X428.09 Y309.081
N7295 X429.3 Y308.629
N7300 X430.515 Y308.19
N7305 X431.735 Y307.764
N7310 X432.959 Y307.352
N7315 X434.188 Y306.953
N7320 X435.422 Y306.568
N7325 X436.659 Y306.196
N7330 X437.9 Y305.838
N7335 X439.146 Y305.493
N7340 X440.395 Y305.162
N7345 X441.647 Y304.846
N7350 X442.903 Y304.542
N7355 X444.163 Y304.253
N7360 X445.425 Y303.977
N7365 X446.69 Y303.716
N7370 X447.958 Y303.468
N7375 X449.229 Y303.234
N7380 X450.502 Y303.014
N7385 X451.778 Y302.808
N7390 X453.055 Y302.616
N7395 X454.335 Y302.438
N7400 X455.617 Y302.274
N7405 X456.9 Y302.124
N7410 X458.185 Y301.988
N7415 X459.471 Y301.867
N7420 X460.759 Y301.76
N7425 X462.048 Y301.666
N7430 X463.337 Y301.587
N7435 X464.628 Y301.522
N7440 X465.919 Y301.471
N7445 X467.21 Y301.435
N7450 X468.502 Y301.413
N7455 X469.794 Y301.404
N7460 X471.086 Y301.41
N7465 X472.378 Y301.43
N7470 X473.67 Y301.465
N7475 X474.961 Y301.514
N7480 X476.251 Y301.576
N7485 X477.541 Y301.653
N7490 X478.83 Y301.744
N7495 X480.118 Y301.849
N7500 X481.404 Y301.968
N7505 X482.689 Y302.101
N7510 X483.973 Y302.249
N7515 X485.255 Y302.41
N7520 X486.535 Y302.586
N7525 X487.813 Y302.775
N7530 X489.089 Y302.979
N7535 X490.363 Y303.196
N7540 X491.634 Y303.428
N7545 X492.902 Y303.674
N7550 X494.168 Y303.933
N7555 X495.431 Y304.207
N7560 X496.69 Y304.494
N7565 X497.947 Y304.795
N7570 X499.2 Y305.11
N7575 X500.45 Y305.438
N7580 X501.696 Y305.78
N7585 X502.938 Y306.136
N7590 X504.176 Y306.506
N7595 X505.41 Y306.889
N7600 X506.639 Y307.286
N7605 X507.865 Y307.696
N7610 X509.085 Y308.119
N7615 X510.301 Y308.556
N7620 X511.512 Y309.006
N7625 X512.719 Y309.469
N7630 X513.919 Y309.946
N7635 X515.115 Y310.436
N7640 X516.305 Y310.938
N7645 X517.49 Y311.454
N7650 X518.669 Y311.984
N7655 X519.842 Y312.525
N7660 X521.009 Y313.08
N7665 X522.169 Y313.647
N7670 X523.324 Y314.228
N7675 X524.472 Y314.821
N7680 X525.613 Y315.426
N7685 X526.748 Y316.044
N7690 X527.876 Y316.674
N7695 X528.997 Y317.317
N7700 X530.11 Y317.972
N7705 X531.217 Y318.639
N7710 X532.316 Y319.318
N7715 X533.408 Y320.009
N7720 X534.492 Y320.712
N7725 X535.568 Y321.427
N7730 X536.636 Y322.154
N7735 X537.697 Y322.892
N7740 X538.749 Y323.642
N7745 X539.793 Y324.404
N7750 X540.828 Y325.177
N7755 X541.855 Y325.961
N7760 X542.873 Y326.756
N7765 X543.882 Y327.563
N7770 X544.883 Y328.381
N7775 X545.874 Y329.209
N7780 X546.856 Y330.049
N7785 X547.829 Y330.899
N7790 X548.793 Y331.76
N7795 X549.747 Y332.631
N7800 X550.691 Y333.513
N7805 X551.626 Y334.405
N7810 X552.551 Y335.307
N7815 X553.466 Y336.219
N7820 X554.37 Y337.142
N7825 X555.265 Y338.074
N7830 X556.149 Y339.016
N7835 X557.023 Y339.968
N7840 X557.887 Y340.929
N7845 X558.74 Y341.9
N7850 X559.582 Y342.879
N7855 X560.413 Y343.869
N7860 X561.233 Y344.867
N7865 X562.043 Y345.874
N7870 X562.841 Y346.89
N7875 X563.628 Y347.914
N7880 X564.404 Y348.948
N7885 X565.168 Y349.989
N7890 X565.921 Y351.039
N7895 X566.663 Y352.098
N7900 X567.392 Y353.164
N7905 X568.11 Y354.238
N7910 X568.816 Y355.32
N7915 X569.51 Y356.41
N7920 X570.193 Y357.507
N7925 X570.863 Y358.612
N7930 X571.52 Y359.724
N7935 X572.166 Y360.843
N7940 X572.799 Y361.969
N7945 X573.421 Y363.102
N7950 X574.029 Y364.242
N7955 X574.625 Y365.389
N7960 X575.208 Y366.541
N7965 X575.779 Y367.701
N7970 X576.337 Y368.866
N7975 X576.882 Y370.037
N7980 X577.414 Y371.215
N7985 X577.934 Y372.398
N7990 X578.44 Y373.587
N7995 X578.933 Y374.781
N8000 X579.413 Y375.98
N8005 X579.879 Y377.185
N8010 X580.333 Y378.395
N8015 X580.773 Y379.61
N8020 X581.2 Y380.829
N8025 X581.613 Y382.054
N8030 X582.013 Y383.282
N8035 X582.4 Y384.515
N8040 X582.772 Y385.752
N8045 X583.132 Y386.993
N8050 X583.477 Y388.238
N8055 X583.809 Y389.487
N8060 X584.127 Y390.739
N8065 X584.432 Y391.995
N8070 X584.723 Y393.254
N8075 X585. Y394.516
N8080 X585.263 Y395.781
N8085 X585.512 Y397.049
N8090 X585.747 Y398.319
N8095 X585.968 Y399.592
N8100 X586.175 Y400.867
N8105 X586.368 Y402.145
N8110 X586.547 Y403.425
N8115 X586.712 Y404.706
N8120 X586.863 Y405.989
N8125 X587. Y407.274
N8130 X587.123 Y408.56
N8135 X587.231 Y409.848
N8140 X587.326 Y411.136
N8145 X587.406 Y412.426
N8150 X587.472 Y413.716
N8155 X587.524 Y415.007
N8160 X587.562 Y416.299
N8165 X587.586 Y417.591
N8170 X587.595 Y418.883
N8175 X587.591 Y420.175
N8180 X587.572 Y421.467
N8185 X587.539 Y422.758
N8190 X587.491 Y424.049
N8195 X587.43 Y425.34
N8200 X587.355 Y426.63
N8205 X587.265 Y427.919
N8210 X587.161 Y429.207
N8215 X587.043 Y430.493
N8220 X586.911 Y431.779
N8225 X586.765 Y433.062
N8230 X586.605 Y434.345
N8235 X586.43 Y435.625
N8240 X586.242 Y436.903
N8245 X586.039 Y438.179
N8250 X585.823 Y439.453
N8255 X585.592 Y440.724
N8260 X585.348 Y441.993
N8265 X585.089 Y443.259
N8270 X584.817 Y444.522
N8275 X584.531 Y445.782
N8280 X584.231 Y447.039
N8285 X583.918 Y448.292
N8290 X583.59 Y449.542
N8295 X583.249 Y450.788
N8300 X582.895 Y452.031
N8305 X582.527 Y453.269
N8310 X582.145 Y454.504
N8315 X581.749 Y455.734
N8320 X581.34 Y456.959
N8325 X580.918 Y458.18
N8330 X580.483 Y459.397
N8335 X580.034 Y460.608
N8340 X579.571 Y461.815
N8345 X579.096 Y463.016
N8350 X578.607 Y464.212
N8355 X578.105 Y465.403
N8360 X577.59 Y466.588
N8365 X577.062 Y467.767
N8370 X576.521 Y468.941
N8375 X575.968 Y470.108
N8380 X575.402 Y471.269
N8385 X574.823 Y472.424
N8390 X574.231 Y473.573
N8395 X573.627 Y474.715
N8400 X573.01 Y475.85
N8405 X572.381 Y476.979
N8410 X571.739 Y478.1
N8415 X571.085 Y479.215
N8420 X570.419 Y480.322
N8425 X569.741 Y481.422
N8430 X569.051 Y482.514
N8435 X568.349 Y483.599
N8440 X567.635 Y484.676
N8445 X566.909 Y485.745
N8450 X566.172 Y486.806
N8455 X565.423 Y487.858
N8460 X564.662 Y488.903
N8465 X563.89 Y489.939
N8470 X563.107 Y490.966
N8475 X562.313 Y491.985
N8480 X561.507 Y492.995
N8485 X560.69 Y493.997
N8490 X559.862 Y494.989
N8495 X559.024 Y495.972
N8500 X558.174 Y496.945
N8505 X557.315 Y497.91
N8510 X556.444 Y498.865
N8515 X555.563 Y499.81
N8520 X554.672 Y500.745
N8525 X553.771 Y501.671
N8530 X552.86 Y502.587
N8535 X551.938 Y503.493
N8540 X551.007 Y504.388
N8545 X550.065 Y505.273
N8550 X549.115 Y506.148
N8555 X548.154 Y507.013
N8560 X547.185 Y507.867
N8565 X546.205 Y508.71
N8570 X545.217 Y509.542
N8575 X544.22 Y510.363
N8580 X543.213 Y511.173
N8585 X542.198 Y511.973
N8590 X541.174 Y512.761
N8595 X540.142 Y513.537
N8600 X539.101 Y514.303
N8605 X538.051 Y515.057
N8610 X536.994 Y515.799
N8615 X535.928 Y516.53
N8620 X534.855 Y517.248
N8625 X533.773 Y517.956
N8630 X532.684 Y518.651
N8635 X531.588 Y519.334
N8640 X530.484 Y520.005
N8645 X529.372 Y520.664
N8650 X528.254 Y521.311
N8655 X527.128 Y521.946
N8660 X525.996 Y522.568
N8665 X524.857 Y523.178
N8670 X523.711 Y523.774
N8675 X522.558 Y524.359
N8680 X521.4 Y524.931
N8685 X520.235 Y525.49
N8690 X519.064 Y526.036
N8695 X517.887 Y526.569
N8700 X516.704 Y527.089
N8705 X515.516 Y527.596
N8710 X514.322 Y528.091
N8715 X513.123 Y528.572
N8720 X511.919 Y529.039
N8725 X510.709 Y529.494
N8730 X509.495 Y529.935
N8735 X508.276 Y530.363
N8740 X507.052 Y530.778
N8745 X505.824 Y531.179
N8750 X504.591 Y531.567
N8755 X503.355 Y531.941
N8760 X502.114 Y532.302
N8765 X500.869 Y532.649
N8770 X499.621 Y532.982
N8775 X498.369 Y533.301
N8780 X497.113 Y533.607
N8785 X495.855 Y533.898
N8790 X494.593 Y534.177
N8795 X493.328 Y534.441
N8800 X492.061 Y534.691
N8805 X490.79 Y534.927
N8810 X489.518 Y535.15
N8815 X488.243 Y535.358
N8820 X486.965 Y535.552
N8825 X485.686 Y535.732
N8830 X484.404 Y535.898
N8835 X483.121 Y536.051
N8840 X481.837 Y536.189
N8845 X480.551 Y536.313
N8850 X479.263 Y536.422
N8855 X477.975 Y536.518
N8860 X476.685 Y536.6
N8865 X475.395 Y536.667
N8870 X474.104 Y536.721
N8875 X472.813 Y536.76
N8880 X471.521 Y536.785
N8885 X470.229 Y536.795
N8890 X468.937 Y536.792
N8895 X467.645 Y536.774
N8900 X466.353 Y536.742
N8905 X465.062 Y536.696
N8910 X463.771 Y536.636
N8915 X462.481 Y536.562
N8920 X461.192 Y536.473
N8925 X459.904 Y536.37
N8930 X458.618 Y536.254
N8935 X457.332 Y536.123
N8940 X456.048 Y535.978
N8945 X454.766 Y535.819
N8950 X453.486 Y535.645
N8955 X452.207 Y535.458
N8960 X450.931 Y535.257
N8965 X449.657 Y535.042
N8970 X448.385 Y534.813
N8975 X447.116 Y534.569
N8980 X445.85 Y534.312
N8985 X444.587 Y534.042
N8990 X443.326 Y533.757
N8995 X442.069 Y533.458
N9000 X440.816 Y533.146
N9005 X439.566 Y532.819
N9010 X438.319 Y532.48
N9015 X437.076 Y532.126
N9020 X435.837 Y531.759
N9025 X434.603 Y531.378
N9030 X433.372 Y530.984
N9035 X432.146 Y530.576
N9040 X430.925 Y530.155
N9045 X429.708 Y529.721
N9050 X428.496 Y529.273
N9055 X427.289 Y528.811
N9060 X426.087 Y528.337
N9065 X424.891 Y527.849
N9070 X423.7 Y527.349
N9075 X422.514 Y526.835
N9080 X421.334 Y526.308
N9085 X420.16 Y525.769
N9090 X418.992 Y525.216
N9095 X417.83 Y524.651
N9100 X416.675 Y524.073
N9105 X415.526 Y523.483
N9110 X414.383 Y522.879
N9115 X413.247 Y522.264
N9120 X412.118 Y521.636
N9125 X410.996 Y520.995
N9130 X409.881 Y520.342
N9135 X408.773 Y519.677
N9140 X407.673 Y519.
N9145 X406.58 Y518.311
N9150 X405.494 Y517.61
N9155 X404.417 Y516.897
N9160 X403.347 Y516.172
N9165 X402.286 Y515.436
N9170 X401.232 Y514.688
N9175 X400.187 Y513.928
N9180 X399.15 Y513.157
N9185 X398.122 Y512.375
N9190 X397.102 Y511.581
N9195 X396.091 Y510.777
N9200 X395.089 Y509.961
N9205 X394.096 Y509.134
N9210 X393.112 Y508.297
N9215 X392.138 Y507.449
N9220 X391.172 Y506.59
N9225 X390.217 Y505.72
N9230 X389.271 Y504.84
N9235 X388.335 Y503.95
N9240 X387.408 Y503.049
N9245 X386.491 Y502.139
N9250 X385.585 Y501.218
N9255 X384.688 Y500.288
N9260 X383.802 Y499.347
N9265 X382.927 Y498.397
N9270 X382.061 Y497.438
N9275 X381.207 Y496.469
N9280 X380.363 Y495.49
N9285 X379.53 Y494.502
N9290 X378.708 Y493.506
N9295 X377.896 Y492.5
N9300 X377.096 Y491.486
N9305 X376.307 Y490.463
N9310 X375.529 Y489.431
N9315 X374.763 Y488.391
N9320 X374.008 Y487.342
N9325 X373.264 Y486.286
N9330 X372.533 Y485.221
N9335 X371.813 Y484.148
N9340 X371.105 Y483.067
N9345 X370.408 Y481.979
N9350 X369.724 Y480.883
N9355 X369.052 Y479.779
N9360 X368.392 Y478.668
N9365 X367.744 Y477.55
N9370 X367.109 Y476.425
N9375 X366.485 Y475.294
N9380 X365.875 Y474.155
N9385 X365.277 Y473.01
N9390 X364.691 Y471.858
N9395 X364.119 Y470.7
N9400 X363.566 Y469.532
N9405 X363.049 Y468.348
N9410 X362.578 Y467.144
N9415 X362.159 Y465.922
N9420 X361.79 Y464.684
N9425 X361.47 Y463.432
N9430 X361.193 Y462.17
N9435 X360.952 Y460.901
N9440 X360.742 Y459.626
N9445 X360.557 Y458.347
N9450 X360.391 Y457.066
N9455 X360.239 Y455.783
N9460 X360.097 Y454.499
N9465 X359.962 Y453.214
N9470 X359.83 Y451.928
N9475 X359.44 Y448.072
N9480 X359.308 Y446.786
N9485 X359.175 Y445.501
N9490 X358.772 Y441.646
N9495 X358.639 Y440.361
N9500 X358.507 Y439.076
N9505 X358.378 Y437.79
N9510 X358.253 Y436.504
N9515 X358.133 Y435.218
N9520 X358.018 Y433.931
N9525 X357.91 Y432.643
N9530 X357.81 Y431.355
N9535 X357.719 Y430.066
N9540 X357.636 Y428.777
N9545 X357.563 Y427.487
N9550 X357.501 Y426.196
N9555 X357.449 Y424.905
N9560 X357.409 Y423.614
N9565 X357.381 Y422.322
N9570 X357.366 Y421.03
N9575 X357.363 Y419.738
N9580 X357.373 Y418.446
N9585 X357.397 Y417.154
N9590 X357.434 Y415.863
N9595 X357.484 Y414.572
N9600 X357.549 Y413.281
N9605 X357.627 Y411.991
N9610 X357.72 Y410.703
N9615 X357.826 Y409.415
N9620 X357.947 Y408.129
N9625 X358.083 Y406.844
N9630 X358.232 Y405.56
N9635 X358.397 Y404.279
N9640 X358.575 Y402.999
N9645 X358.769 Y401.722
N9650 X358.977 Y400.446
N9655 X359.199 Y399.174
N9660 X359.436 Y397.903
N9665 X359.687 Y396.636
N9670 X359.953 Y395.372
N9675 X360.233 Y394.11
N9680 X360.528 Y392.852
N9685 X360.837 Y391.598
N9690 X361.16 Y390.347
N9695 X361.498 Y389.1
N9700 X361.85 Y387.856
N9705 X362.216 Y386.617
N9710 X362.596 Y385.383
N9715 X362.99 Y384.152
N9720 X363.399 Y382.926
N9725 X363.821 Y381.705
N9730 X364.258 Y380.489
N9735 X364.708 Y379.278
N9740 X365.173 Y378.073
N9745 X365.651 Y376.872
N9750 X366.143 Y375.678
N9755 X366.648 Y374.489
N9760 X367.168 Y373.305
N9765 X367.701 Y372.128
N9770 X368.247 Y370.958
N9775 X368.807 Y369.793
N9780 X369.38 Y368.635
N9785 X369.966 Y367.484
N9790 X370.566 Y366.339
N9795 X371.179 Y365.202
N9800 X371.804 Y364.071
N9805 X372.443 Y362.948
N9810 X373.094 Y361.832
N9815 X373.758 Y360.724
N9820 X374.435 Y359.623
N9825 X375.125 Y358.531
N9830 X375.827 Y357.446
N9835 X376.541 Y356.369
N9840 X377.268 Y355.301
N9845 X378.007 Y354.241
N9850 X378.758 Y353.19
N9855 X379.521 Y352.147
N9860 X380.296 Y351.113
N9865 X381.083 Y350.088
N9870 X381.881 Y349.073
N9875 X382.692 Y348.066
N9880 X383.513 Y347.069
N9885 X384.346 Y346.082
N9890 X385.191 Y345.104
N9895 X386.047 Y344.136
N9900 X386.913 Y343.177
N9905 X387.791 Y342.229
N9910 X388.679 Y341.291
N9915 X389.579 Y340.363
N9920 X390.488 Y339.446
N9925 X391.409 Y338.539
N9930 X392.339 Y337.642
N9935 X393.28 Y336.757
N9940 X394.231 Y335.882
N9945 X395.192 Y335.018
N9950 X396.162 Y334.166
N9955 X397.143 Y333.324
N9960 X398.133 Y332.494
N9965 X399.133 Y331.675
N9970 X400.142 Y330.868
N9975 X401.16 Y330.073
N9980 X402.187 Y329.289
N9985 X403.223 Y328.517
N9990 X404.268 Y327.757
N9995 X405.322 Y327.009
N10000 X406.384 Y326.274
N10005 X407.454 Y325.55
N10010 X408.533 Y324.839
N10015 X409.62 Y324.141
N10020 X410.715 Y323.454
N10025 X411.817 Y322.781
N10030 X412.928 Y322.12
N10035 X414.045 Y321.472
N10040 X415.171 Y320.837
N10045 X416.303 Y320.214
N10050 X417.442 Y319.605
N10055 X418.589 Y319.009
N10060 X419.742 Y318.426
N10065 X420.901 Y317.857
N10070 X422.068 Y317.3
N10075 X423.24 Y316.758
N10080 X424.419 Y316.229
N10085 X425.604 Y315.713
N10090 X426.794 Y315.211
N10095 X427.991 Y314.723
N10100 X429.192 Y314.248
N10105 X430.399 Y313.788
N10110 X431.612 Y313.341
N10115 X432.829 Y312.908
N10120 X434.052 Y312.489
N10125 X435.279 Y312.085
N10130 X436.51 Y311.694
N10135 X437.746 Y311.317
N10140 X438.986 Y310.955
N10145 X440.231 Y310.607
N10150 X441.479 Y310.273
N10155 X442.731 Y309.954
N10160 X443.986 Y309.649
N10165 X445.245 Y309.358
N10170 X446.508 Y309.082
N10175 X447.773 Y308.821
N10180 X449.041 Y308.574
N10185 X450.312 Y308.342
N10190 X451.586 Y308.124
N10195 X452.862 Y307.921
N10200 X454.14 Y307.733
N10205 X455.42 Y307.559
N10210 X456.703 Y307.4
N10215 X457.987 Y307.256
N10220 X459.272 Y307.127
N10225 X460.559 Y307.012
N10230 X461.847 Y306.912
N10235 X463.136 Y306.827
N10240 X464.427 Y306.757
N10245 X465.717 Y306.701
N10250 X467.009 Y306.661
N10255 X468.301 Y306.635
N10260 X469.593 Y306.624
N10265 X470.885 Y306.628
N10270 X472.177 Y306.646
N10275 X473.468 Y306.68
N10280 X474.759 Y306.728
N10285 X476.05 Y306.791
N10290 X477.34 Y306.869
N10295 X478.628 Y306.962
N10300 X479.916 Y307.07
N10305 X481.202 Y307.193
N10310 X482.487 Y307.33
N10315 X483.77 Y307.482
N10320 X485.051 Y307.649
N10325 X486.33 Y307.83
N10330 X487.608 Y308.026
N10335 X488.882 Y308.237
N10340 X490.155 Y308.462
N10345 X491.424 Y308.702
N10350 X492.691 Y308.957
N10355 X493.955 Y309.226
N10360 X495.215 Y309.509
N10365 X496.472 Y309.807
N10370 X497.726 Y310.12
N10375 X498.976 Y310.446
N10380 X500.222 Y310.787
N10385 X501.465 Y311.143
N10390 X502.703 Y311.512
N10395 X503.936 Y311.896
N10400 X505.166 Y312.294
N10405 X506.39 Y312.707
N10410 X507.61 Y313.133
N10415 X508.825 Y313.573
N10420 X510.034 Y314.027
N10425 X511.238 Y314.495
N10430 X512.437 Y314.977
N10435 X513.631 Y315.473
N10440 X514.818 Y315.982
N10445 X516. Y316.505
N10450 X517.175 Y317.041
N10455 X518.344 Y317.591
N10460 X519.507 Y318.154
N10465 X520.663 Y318.731
N10470 X521.813 Y319.32
N10475 X522.956 Y319.923
N10480 X524.092 Y320.539
N10485 X525.22 Y321.168
N10490 X526.342 Y321.81
N10495 X527.456 Y322.465
N10500 X528.562 Y323.132
N10505 X529.66 Y323.812
N10510 X530.751 Y324.505
N10515 X531.834 Y325.21
N10520 X532.908 Y325.928
N10525 X533.974 Y326.658
N10530 X535.032 Y327.4
N10535 X536.081 Y328.154
N10540 X537.121 Y328.921
N10545 X538.153 Y329.699
N10550 X539.175 Y330.489
N10555 X540.188 Y331.29
N10560 X541.192 Y332.103
N10565 X542.187 Y332.928
N10570 X543.172 Y333.764
N10575 X544.148 Y334.611
N10580 X545.113 Y335.47
N10585 X546.069 Y336.339
N10590 X547.015 Y337.219
N10595 X547.951 Y338.111
N10600 X548.876 Y339.012
N10605 X549.791 Y339.925
N10610 X550.695 Y340.848
N10615 X551.588 Y341.781
N10620 X552.471 Y342.725
N10625 X553.343 Y343.678
N10630 X554.204 Y344.642
N10635 X555.053 Y345.615
N10640 X555.892 Y346.598
N10645 X556.719 Y347.591
N10650 X557.534 Y348.593
N10655 X558.338 Y349.604
N10660 X559.131 Y350.625
N10665 X559.911 Y351.654
N10670 X560.68 Y352.693
N10675 X561.437 Y353.74
N10680 X562.182 Y354.796
N10685 X562.914 Y355.86
N10690 X563.635 Y356.933
N10695 X564.343 Y358.014
N10700 X565.038 Y359.103
N10705 X565.721 Y360.199
N10710 X566.392 Y361.304
N10715 X567.049 Y362.416
N10720 X567.694 Y363.536
N10725 X568.326 Y364.663
N10730 X568.945 Y365.797
N10735 X569.55 Y366.938
N10740 X570.143 Y368.086
N10745 X570.722 Y369.241
N10750 X571.288 Y370.403
N10755 X571.841 Y371.571
N10760 X572.38 Y372.745
N10765 X572.906 Y373.925
N10770 X573.418 Y375.111
N10775 X573.916 Y376.303
N10780 X574.401 Y377.501
N10785 X574.872 Y378.704
N10790 X575.329 Y379.913
N10795 X575.773 Y381.126
N10800 X576.202 Y382.345
N10805 X576.617 Y383.569
N10810 X577.018 Y384.797
N10815 X577.405 Y386.029
N10820 X577.778 Y387.267
N10825 X578.137 Y388.508
N10830 X578.481 Y389.753
N10835 X578.811 Y391.002
N10840 X579.126 Y392.255
N10845 X579.427 Y393.512
N10850 X579.714 Y394.772
N10855 X579.986 Y396.035
N10860 X580.244 Y397.301
N10865 X580.487 Y398.57
N10870 X580.715 Y399.842
N10875 X580.929 Y401.116
N10880 X581.129 Y402.392
N10885 X581.313 Y403.671
N10890 X581.483 Y404.952
N10895 X581.638 Y406.235
N10900 X581.779 Y407.519
N10905 X581.904 Y408.805
N10910 X582.015 Y410.092
N10915 X582.112 Y411.381
N10920 X582.193 Y412.67
N10925 X582.259 Y413.961
N10930 X582.311 Y415.252
N10935 X582.348 Y416.543
N10940 X582.37 Y417.835
N10945 X582.377 Y419.127
N10950 X582.369 Y420.419
N10955 X582.346 Y421.711
N10960 X582.309 Y423.002
N10965 X582.257 Y424.293
N10970 X582.19 Y425.584
N10975 X582.108 Y426.873
N10980 X582.011 Y428.162
N10985 X581.899 Y429.449
N10990 X581.773 Y430.735
N10995 X581.632 Y432.019
N11000 X581.476 Y433.302
N11005 X581.306 Y434.582
N11010 X581.121 Y435.861
N11015 X580.921 Y437.138
N11020 X580.706 Y438.412
N11025 X580.477 Y439.683
N11030 X580.234 Y440.952
N11035 X579.976 Y442.218
N11040 X579.703 Y443.481
N11045 X579.415 Y444.741
N11050 X579.113 Y445.997
N11055 X578.797 Y447.25
N11060 X578.467 Y448.499
N11065 X578.122 Y449.744
N11070 X577.762 Y450.985
N11075 X577.389 Y452.222
N11080 X577.001 Y453.455
N11085 X576.6 Y454.683
N11090 X576.184 Y455.906
N11095 X575.754 Y457.125
N11100 X575.31 Y458.338
N11105 X574.853 Y459.546
N11110 X574.381 Y460.749
N11115 X573.896 Y461.947
N11120 X573.397 Y463.138
N11125 X572.884 Y464.324
N11130 X572.358 Y465.505
N11135 X571.818 Y466.678
N11140 X571.265 Y467.846
N11145 X570.698 Y469.007
N11150 X570.119 Y470.162
N11155 X569.525 Y471.31
N11160 X568.919 Y472.451
N11165 X568.3 Y473.585
N11170 X567.667 Y474.711
N11175 X567.022 Y475.831
N11180 X566.364 Y476.943
N11185 X565.693 Y478.047
N11190 X565.009 Y479.143
N11195 X564.313 Y480.232
N11200 X563.605 Y481.312
N11205 X562.884 Y482.385
N11210 X562.151 Y483.449
N11215 X561.406 Y484.504
N11220 X560.648 Y485.551
N11225 X559.879 Y486.589
N11230 X559.098 Y487.618
N11235 X558.305 Y488.638
N11240 X557.501 Y489.649
N11245 X556.685 Y490.651
N11250 X555.857 Y491.643
N11255 X555.018 Y492.626
N11260 X554.168 Y493.599
N11265 X553.306 Y494.562
N11270 X552.434 Y495.515
N11275 X551.551 Y496.458
N11280 X550.657 Y497.391
N11285 X549.752 Y498.313
N11290 X548.837 Y499.225
N11295 X547.911 Y500.127
N11300 X546.975 Y501.017
N11305 X546.029 Y501.897
N11310 X545.073 Y502.766
N11315 X544.107 Y503.624
N11320 X543.131 Y504.471
N11325 X542.146 Y505.307
N11330 X541.151 Y506.131
N11335 X540.146 Y506.944
N11340 X539.132 Y507.745
N11345 X538.11 Y508.534
N11350 X537.078 Y509.312
N11355 X536.037 Y510.078
N11360 X534.988 Y510.832
N11365 X533.93 Y511.573
N11370 X532.863 Y512.302
N11375 X531.788 Y513.02
N11380 X530.705 Y513.724
N11385 X529.614 Y514.416
N11390 X528.516 Y515.096
N11395 X527.409 Y515.763
N11400 X526.295 Y516.417
N11405 X525.173 Y517.058
N11410 X524.044 Y517.687
N11415 X522.908 Y518.302
N11420 X521.765 Y518.905
N11425 X520.615 Y519.494
N11430 X519.459 Y520.07
N11435 X518.295 Y520.632
N11440 X517.126 Y521.182
N11445 X515.95 Y521.718
N11450 X514.768 Y522.24
N11455 X513.581 Y522.748
N11460 X512.387 Y523.244
N11465 X511.188 Y523.725
N11470 X509.984 Y524.192
N11475 X508.774 Y524.646
N11480 X507.559 Y525.085
N11485 X506.339 Y525.511
N11490 X505.114 Y525.922
N11495 X503.885 Y526.32
N11500 X502.651 Y526.703
N11505 X501.413 Y527.072
N11510 X500.17 Y527.427
N11515 X498.924 Y527.767
N11520 X497.674 Y528.094
N11525 X496.42 Y528.405
N11530 X495.162 Y528.703
N11535 X493.902 Y528.986
N11540 X492.638 Y529.254
N11545 X491.371 Y529.508
N11550 X490.101 Y529.748
N11555 X488.829 Y529.972
N11560 X487.554 Y530.183
N11565 X486.277 Y530.378
N11570 X484.998 Y530.559
N11575 X483.716 Y530.725
N11580 X482.433 Y530.877
N11585 X481.148 Y531.013
N11590 X479.862 Y531.135
N11595 X478.574 Y531.242
N11600 X477.286 Y531.334
N11605 X475.996 Y531.411
N11610 X474.705 Y531.474
N11615 X473.414 Y531.522
N11620 X472.123 Y531.555
N11625 X470.831 Y531.573
N11630 X469.539 Y531.576
N11635 X468.247 Y531.564
N11640 X466.955 Y531.538
N11645 X465.663 Y531.497
N11650 X464.373 Y531.44
N11655 X463.082 Y531.37
N11660 X461.793 Y531.284
N11665 X460.505 Y531.184
N11670 X459.218 Y531.068
N11675 X457.933 Y530.938
N11680 X456.649 Y530.794
N11685 X455.367 Y530.634
N11690 X454.086 Y530.46
N11695 X452.808 Y530.271
N11700 X451.532 Y530.067
N11705 X450.259 Y529.849
N11710 X448.988 Y529.616
N11715 X447.72 Y529.368
N11720 X446.455 Y529.106
N11725 X445.193 Y528.829
N11730 X443.934 Y528.538
N11735 X442.678 Y528.233
N11740 X441.426 Y527.913
N11745 X440.178 Y527.578
N11750 X438.934 Y527.23
N11755 X437.694 Y526.867
N11760 X436.458 Y526.49
N11765 X435.227 Y526.099
N11770 X434. Y525.694
N11775 X432.778 Y525.274
N11780 X431.561 Y524.841
N11785 X430.349 Y524.394
N11790 X429.142 Y523.932
N11795 X427.94 Y523.457
N11800 X426.744 Y522.968
N11805 X425.554 Y522.466
N11810 X424.37 Y521.949
N11815 X423.191 Y521.42
N11820 X422.019 Y520.876
N11825 X420.853 Y520.319
N11830 X419.693 Y519.749
N11835 X418.541 Y519.166
N11840 X417.395 Y518.569
N11845 X416.255 Y517.959
N11850 X415.123 Y517.337
N11855 X413.999 Y516.701
N11860 X412.881 Y516.052
N11865 X411.771 Y515.391
N11870 X410.669 Y514.717
N11875 X409.574 Y514.03
N11880 X408.488 Y513.331
N11885 X407.409 Y512.62
N11890 X406.339 Y511.896
N11895 X405.277 Y511.16
N11900 X404.224 Y510.411
N11905 X403.179 Y509.651
N11910 X402.144 Y508.878
N11915 X401.117 Y508.094
N11920 X400.099 Y507.298
N11925 X399.091 Y506.491
N11930 X398.091 Y505.671
N11935 X397.102 Y504.841
N11940 X396.122 Y503.999
N11945 X395.151 Y503.146
N11950 X394.191 Y502.282
N11955 X393.24 Y501.406
N11960 X392.3 Y500.52
N11965 X391.37 Y499.624
N11970 X390.45 Y498.716
N11975 X389.54 Y497.798
N11980 X388.642 Y496.87
N11985 X387.754 Y495.932
N11990 X386.877 Y494.983
N11995 X386.01 Y494.024
N12000 X385.155 Y493.056
N12005 X384.311 Y492.077
N12010 X383.479 Y491.089
N12015 X382.657 Y490.092
N12020 X381.848 Y489.085
N12025 X381.05 Y488.069
N12030 X380.263 Y487.043
N12035 X379.489 Y486.009
N12040 X378.726 Y484.966
N12045 X377.976 Y483.915
N12050 X377.237 Y482.854
N12055 X376.511 Y481.786
N12060 X375.797 Y480.709
N12065 X375.096 Y479.624
N12070 X374.407 Y478.531
N12075 X373.731 Y477.43
N12080 X373.067 Y476.321
N12085 X372.416 Y475.205
N12090 X371.778 Y474.082
N12095 X371.152 Y472.951
N12100 X370.542 Y471.812
N12105 X369.952 Y470.663
N12110 X369.389 Y469.5
N12115 X368.861 Y468.32
N12120 X368.372 Y467.125
N12125 X367.923 Y465.913
N12130 X367.518 Y464.686
N12135 X367.152 Y463.447
N12140 X366.824 Y462.197
N12145 X366.529 Y460.939
N12150 X366.264 Y459.675
N12155 X366.025 Y458.405
N12160 X365.807 Y457.132
N12165 X365.606 Y455.855
N12170 X365.421 Y454.576
N12175 X365.246 Y453.296
N12180 X365.081 Y452.015
N12185 X364.923 Y450.732
N12190 X364.769 Y449.449
N12195 X364.62 Y448.166
N12200 X364.474 Y446.882
N12205 X364.33 Y445.598
N12210 X364.188 Y444.314
N12215 X364.049 Y443.03
N12220 X363.912 Y441.745
N12225 X363.778 Y440.46
N12230 X363.647 Y439.174
N12235 X363.521 Y437.888
N12240 X363.398 Y436.602
N12245 X363.282 Y435.315
N12250 X363.171 Y434.028
N12255 X363.067 Y432.74
N12260 X362.971 Y431.452
N12265 X362.883 Y430.163
N12270 X362.804 Y428.873
N12275 X362.735 Y427.583
N12280 X362.676 Y426.292
N12285 X362.628 Y425.001
N12290 X362.591 Y423.709
N12295 X362.566 Y422.418
N12300 X362.554 Y421.126
N12305 X362.555 Y419.834
N12310 X362.568 Y418.542
N12315 X362.595 Y417.25
N12320 X362.636 Y415.958
N12325 X362.691 Y414.668
N12330 X362.76 Y413.377
N12335 X362.843 Y412.088
N12340 X362.941 Y410.8
N12345 X363.053 Y409.512
N12350 X363.181 Y408.227
N12355 X363.323 Y406.942
N12360 X363.48 Y405.66
N12365 X363.652 Y404.379
N12370 X363.839 Y403.101
N12375 X364.041 Y401.825
N12380 X364.258 Y400.551
N12385 X364.491 Y399.28
N12390 X364.738 Y398.012
N12395 X365.001 Y396.747
N12400 X365.278 Y395.485
N12405 X365.571 Y394.227
N12410 X365.878 Y392.972
N12415 X366.201 Y391.72
N12420 X366.538 Y390.473
N12425 X366.891 Y389.23
N12430 X367.258 Y387.992
N12435 X367.641 Y386.757
N12440 X368.038 Y385.528
N12445 X368.45 Y384.303
N12450 X368.877 Y383.084
N12455 X369.318 Y381.869
N12460 X369.774 Y380.661
N12465 X370.245 Y379.457
N12470 X370.729 Y378.26
N12475 X371.229 Y377.068
N12480 X371.742 Y375.882
N12485 X372.27 Y374.703
N12490 X372.812 Y373.53
N12495 X373.368 Y372.364
N12500 X373.938 Y371.204
N12505 X374.522 Y370.052
N12510 X375.12 Y368.906
N12515 X375.731 Y367.768
N12520 X376.356 Y366.637
N12525 X376.995 Y365.514
N12530 X377.647 Y364.399
N12535 X378.313 Y363.291
N12540 X378.992 Y362.192
N12545 X379.684 Y361.101
N12550 X380.389 Y360.018
N12555 X381.108 Y358.944
N12560 X381.839 Y357.879
N12565 X382.583 Y356.823
N12570 X383.339 Y355.775
N12575 X384.109 Y354.737
N12580 X384.89 Y353.708
N12585 X385.684 Y352.689
N12590 X386.49 Y351.679
N12595 X387.309 Y350.679
N12600 X388.139 Y349.689
N12605 X388.981 Y348.709
N12610 X389.834 Y347.74
N12615 X390.7 Y346.78
N12620 X391.577 Y345.831
N12625 X392.465 Y344.893
N12630 X393.365 Y343.965
N12635 X394.275 Y343.049
N12640 X395.197 Y342.143
N12645 X396.129 Y341.249
N12650 X397.073 Y340.366
N12655 X398.027 Y339.495
N12660 X398.991 Y338.635
N12665 X399.965 Y337.786
N12670 X400.95 Y336.95
N12675 X401.945 Y336.125
N12680 X402.949 Y335.313
N12685 X403.964 Y334.512
N12690 X404.987 Y333.724
N12695 X406.021 Y332.948
N12700 X407.063 Y332.185
N12705 X408.115 Y331.434
N12710 X409.175 Y330.696
N12715 X410.245 Y329.971
N12720 X411.323 Y329.259
N12725 X412.409 Y328.559
N12730 X413.504 Y327.873
N12735 X414.607 Y327.201
N12740 X415.718 Y326.541
N12745 X416.837 Y325.895
N12750 X417.964 Y325.263
N12755 X419.098 Y324.644
N12760 X420.24 Y324.039
N12765 X421.388 Y323.448
N12770 X422.544 Y322.87
N12775 X423.707 Y322.307
N12780 X424.877 Y321.757
N12785 X426.052 Y321.222
N12790 X427.235 Y320.701
N12795 X428.423 Y320.194
N12800 X429.618 Y319.702
N12805 X430.818 Y319.224
N12810 X432.024 Y318.76
N12815 X433.236 Y318.311
N12820 X434.452 Y317.876
N12825 X435.674 Y317.457
N12830 X436.901 Y317.052
N12835 X438.133 Y316.661
N12840 X439.369 Y316.286
N12845 X440.61 Y315.926
N12850 X441.855 Y315.581
N12855 X443.104 Y315.25
N12860 X444.357 Y314.935
N12865 X445.614 Y314.635
N12870 X446.874 Y314.35
N12875 X448.138 Y314.08
N12880 X449.405 Y313.826
N12885 X450.674 Y313.587
N12890 X451.947 Y313.363
N12895 X453.222 Y313.154
N12900 X454.5 Y312.961
N12905 X455.779 Y312.783
N12910 X457.061 Y312.621
N12915 X458.345 Y312.474
N12920 X459.63 Y312.342
N12925 X460.917 Y312.226
N12930 X462.205 Y312.125
N12935 X463.494 Y312.04
N12940 X464.785 Y311.971
N12945 X466.075 Y311.917
N12950 X467.367 Y311.879
N12955 X468.659 Y311.856
N12960 X469.951 Y311.849
N12965 X471.243 Y311.858
N12970 X472.535 Y311.882
N12975 X473.826 Y311.921
N12980 X475.117 Y311.976
N12985 X476.407 Y312.047
N12990 X477.696 Y312.133
N12995 X478.984 Y312.235
N13000 X480.271 Y312.352
N13005 X481.556 Y312.485
N13010 X482.84 Y312.633
N13015 X484.122 Y312.797
N13020 X485.401 Y312.975
N13025 X486.678 Y313.17
N13030 X487.953 Y313.379
N13035 X489.226 Y313.604
N13040 X490.495 Y313.845
N13045 X491.762 Y314.101
N13050 X493.025 Y314.372
N13055 X494.285 Y314.658
N13060 X495.541 Y314.959
N13065 X496.794 Y315.276
N13070 X498.043 Y315.607
N13075 X499.288 Y315.954
N13080 X500.528 Y316.316
N13085 X501.764 Y316.692
N13090 X502.995 Y317.083
N13095 X504.222 Y317.489
N13100 X505.443 Y317.91
N13105 X506.66 Y318.346
N13110 X507.871 Y318.796
N13115 X509.077 Y319.261
N13120 X510.277 Y319.74
N13125 X511.471 Y320.233
N13130 X512.659 Y320.741
N13135 X513.841 Y321.263
N13140 X515.016 Y321.8
N13145 X516.185 Y322.35
N13150 X517.347 Y322.915
N13155 X518.502 Y323.494
N13160 X519.651 Y324.086
N13165 X520.791 Y324.692
N13170 X521.925 Y325.312
N13175 X523.051 Y325.946
N13180 X524.169 Y326.593
N13185 X525.28 Y327.254
N13190 X526.382 Y327.927
N13195 X527.477 Y328.615
N13200 X528.562 Y329.315
N13205 X529.64 Y330.028
N13210 X530.708 Y330.754
N13215 X531.768 Y331.493
N13220 X532.819 Y332.245
N13225 X533.861 Y333.009
N13230 X534.894 Y333.785
N13235 X535.917 Y334.574
N13240 X536.931 Y335.376
N13245 X537.934 Y336.189
N13250 X538.928 Y337.015
N13255 X539.912 Y337.852
N13260 X540.886 Y338.702
N13265 X541.849 Y339.563
N13270 X542.802 Y340.435
N13275 X543.744 Y341.319
N13280 X544.676 Y342.214
N13285 X545.597 Y343.121
N13290 X546.506 Y344.038
N13295 X547.405 Y344.967
N13300 X548.292 Y345.906
N13305 X549.168 Y346.856
N13310 X550.033 Y347.816
N13315 X550.886 Y348.786
N13320 X551.727 Y349.767
N13325 X552.556 Y350.758
N13330 X553.374 Y351.758
N13335 X554.179 Y352.769
N13340 X554.972 Y353.789
N13345 X555.753 Y354.818
N13350 X556.521 Y355.857
N13355 X557.276 Y356.906
N13360 X558.019 Y357.963
N13365 X558.749 Y359.029
N13370 X559.467 Y360.103
N13375 X560.171 Y361.187
N13380 X560.862 Y362.278
N13385 X561.54 Y363.378
N13390 X562.204 Y364.486
N13395 X562.855 Y365.602
N13400 X563.493 Y366.726
N13405 X564.117 Y367.857
N13410 X564.728 Y368.996
N13415 X565.324 Y370.142
N13420 X565.907 Y371.295
N13425 X566.476 Y372.455
N13430 X567.031 Y373.622
N13435 X567.572 Y374.795
N13440 X568.099 Y375.975
N13445 X568.612 Y377.161
N13450 X569.11 Y378.354
N13455 X569.593 Y379.552
N13460 X570.062 Y380.756
N13465 X570.517 Y381.965
N13470 X570.957 Y383.18
N13475 X571.382 Y384.4
N13480 X571.793 Y385.625
N13485 X572.189 Y386.855
N13490 X572.57 Y388.089
N13495 X572.936 Y389.329
N13500 X573.287 Y390.572
N13505 X573.623 Y391.82
N13510 X573.944 Y393.071
N13515 X574.25 Y394.326
N13520 X574.541 Y395.585
N13525 X574.817 Y396.848
N13530 X575.077 Y398.113
N13535 X575.323 Y399.382
N13540 X575.553 Y400.653
N13545 X575.767 Y401.927
N13550 X575.966 Y403.204
N13555 X576.15 Y404.483
N13560 X576.319 Y405.764
N13565 X576.471 Y407.047
N13570 X576.609 Y408.331
N13575 X576.731 Y409.618
N13580 X576.837 Y410.905
N13585 X576.928 Y412.194
N13590 X577.004 Y413.484
N13595 X577.063 Y414.775
N13600 X577.108 Y416.066
N13605 X577.136 Y417.358
N13610 X577.149 Y418.65
N13615 X577.147 Y419.942
N13620 X577.129 Y421.234
N13625 X577.096 Y422.525
N13630 X577.047 Y423.816
N13635 X576.982 Y425.107
N13640 X576.902 Y426.396
N13645 X576.807 Y427.685
N13650 X576.696 Y428.972
N13655 X576.569 Y430.258
N13660 X576.427 Y431.542
N13665 X576.269 Y432.825
N13670 X576.096 Y434.105
N13675 X575.908 Y435.383
N13680 X575.704 Y436.659
N13685 X575.484 Y437.933
N13690 X575.25 Y439.203
N13695 X575. Y440.471
N13700 X574.735 Y441.735
N13705 X574.454 Y442.997
N13710 X574.159 Y444.254
N13715 X573.848 Y445.509
N13720 X573.523 Y446.759
N13725 X573.182 Y448.005
N13730 X572.826 Y449.247
N13735 X572.456 Y450.485
N13740 X572.07 Y451.718
N13745 X571.67 Y452.947
N13750 X571.255 Y454.17
N13755 X570.825 Y455.389
N13760 X570.381 Y456.602
N13765 X569.922 Y457.81
N13770 X569.448 Y459.012
N13775 X568.96 Y460.208
N13780 X568.458 Y461.399
N13785 X567.941 Y462.583
N13790 X567.41 Y463.761
N13795 X566.865 Y464.932
N13800 X566.305 Y466.097
N13805 X565.732 Y467.255
N13810 X565.145 Y468.406
N13815 X564.544 Y469.55
N13820 X563.93 Y470.686
N13825 X563.301 Y471.815
N13830 X562.659 Y472.937
N13835 X562.004 Y474.05
N13840 X561.336 Y475.156
N13845 X560.654 Y476.253
N13850 X559.959 Y477.343
N13855 X559.251 Y478.423
N13860 X558.53 Y479.495
N13865 X557.796 Y480.559
N13870 X557.049 Y481.613
N13875 X556.29 Y482.658
N13880 X555.518 Y483.695
N13885 X554.733 Y484.721
N13890 X553.936 Y485.738
N13895 X553.128 Y486.746
N13900 X552.307 Y487.744
N13905 X551.474 Y488.731
N13910 X550.629 Y489.709
N13915 X549.772 Y490.676
N13920 X548.904 Y491.633
N13925 X548.025 Y492.58
N13930 X547.134 Y493.516
N13935 X546.232 Y494.441
N13940 X545.319 Y495.355
N13945 X544.395 Y496.258
N13950 X543.46 Y497.15
N13955 X542.514 Y498.03
N13960 X541.558 Y498.899
N13965 X540.592 Y499.757
N13970 X539.615 Y500.603
N13975 X538.628 Y501.436
N13980 X537.631 Y502.258
N13985 X536.624 Y503.068
N13990 X535.608 Y503.866
N13995 X534.582 Y504.651
N14000 X533.547 Y505.424
N14005 X532.502 Y506.185
N14010 X531.448 Y506.932
N14015 X530.386 Y507.667
N14020 X529.314 Y508.39
N14025 X528.234 Y509.099
N14030 X527.146 Y509.795
N14035 X526.049 Y510.478
N14040 X524.944 Y511.148
N14045 X523.831 Y511.805
N14050 X522.711 Y512.448
N14055 X521.582 Y513.077
N14060 X520.447 Y513.693
N14065 X519.303 Y514.295
N14070 X518.153 Y514.883
N14075 X516.996 Y515.458
N14080 X515.831 Y516.018
N14085 X514.66 Y516.564
N14090 X513.483 Y517.096
N14095 X512.299 Y517.614
N14100 X511.109 Y518.118
N14105 X509.914 Y518.607
N14110 X508.712 Y519.082
N14115 X507.505 Y519.542
N14120 X506.292 Y519.988
N14125 X505.074 Y520.419
N14130 X503.851 Y520.835
N14135 X502.623 Y521.237
N14140 X501.39 Y521.623
N14145 X500.153 Y521.995
N14150 X498.911 Y522.353
N14155 X497.665 Y522.695
N14160 X496.415 Y523.022
N14165 X495.161 Y523.334
N14170 X493.904 Y523.631
N14175 X492.643 Y523.912
N14180 X491.378 Y524.178
N14185 X490.111 Y524.43
N14190 X488.84 Y524.665
N14195 X487.567 Y524.886
N14200 X486.292 Y525.091
N14205 X485.014 Y525.281
N14210 X483.733 Y525.455
N14215 X482.451 Y525.614
N14220 X481.167 Y525.757
N14225 X479.881 Y525.885
N14230 X478.594 Y525.998
N14235 X477.306 Y526.095
N14240 X476.016 Y526.176
N14245 X474.726 Y526.242
N14250 X473.435 Y526.292
N14255 X472.143 Y526.327
N14260 X470.851 Y526.347
N14265 X469.559 Y526.35
N14270 X468.267 Y526.339
N14275 X466.976 Y526.311
N14280 X465.684 Y526.268
N14285 X464.394 Y526.21
N14290 X463.104 Y526.135
N14295 X461.815 Y526.046
N14300 X460.527 Y525.94
N14305 X459.24 Y525.82
N14310 X457.956 Y525.683
N14315 X456.673 Y525.532
N14320 X455.391 Y525.365
N14325 X454.112 Y525.182
N14330 X452.835 Y524.984
N14335 X451.561 Y524.771
N14340 X450.289 Y524.542
N14345 X449.021 Y524.299
N14350 X447.755 Y524.039
N14355 X446.492 Y523.765
N14360 X445.233 Y523.476
N14365 X443.977 Y523.171
N14370 X442.725 Y522.851
N14375 X441.478 Y522.516
N14380 X440.234 Y522.167
N14385 X438.994 Y521.802
N14390 X437.759 Y521.422
N14395 X436.529 Y521.027
N14400 X435.304 Y520.618
N14405 X434.083 Y520.194
N14410 X432.868 Y519.755
N14415 X431.658 Y519.301
N14420 X430.454 Y518.833
N14425 X429.255 Y518.351
N14430 X428.063 Y517.854
N14435 X426.876 Y517.342
N14440 X425.695 Y516.817
N14445 X424.522 Y516.277
N14450 X423.354 Y515.724
N14455 X422.193 Y515.156
N14460 X421.04 Y514.575
N14465 X419.893 Y513.979
N14470 X418.754 Y513.37
N14475 X417.622 Y512.747
N14480 X416.497 Y512.11
N14485 X415.381 Y511.46
N14490 X414.272 Y510.797
N14495 X413.171 Y510.12
N14500 X412.079 Y509.43
N14505 X410.995 Y508.727
N14510 X409.92 Y508.011
N14515 X408.853 Y507.282
N14520 X407.795 Y506.54
N14525 X406.746 Y505.785
N14530 X405.707 Y505.018
N14535 X404.676 Y504.239
N14540 X403.655 Y503.447
N14545 X402.644 Y502.643
N14550 X401.642 Y501.826
N14555 X400.651 Y500.998
N14560 X399.669 Y500.158
N14565 X398.697 Y499.306
N14570 X397.736 Y498.443
N14575 X396.786 Y497.568
N14580 X395.846 Y496.681
N14585 X394.916 Y495.783
N14590 X393.998 Y494.875
N14595 X393.091 Y493.955
N14600 X392.195 Y493.024
N14605 X391.31 Y492.082
N14610 X390.436 Y491.13
N14615 X389.575 Y490.168
N14620 X388.724 Y489.195
N14625 X387.886 Y488.212
N14630 X387.059 Y487.219
N14635 X386.245 Y486.216
N14640 X385.442 Y485.203
N14645 X384.652 Y484.181
N14650 X383.874 Y483.149
N14655 X383.109 Y482.108
N14660 X382.356 Y481.058
N14665 X381.616 Y479.999
N14670 X380.889 Y478.931
N14675 X380.174 Y477.854
N14680 X379.473 Y476.769
N14685 X378.785 Y475.676
N14690 X378.11 Y474.574
N14695 X377.449 Y473.464
N14700 X376.805 Y472.344
N14705 X376.18 Y471.213
N14710 X375.579 Y470.069
N14715 X375.006 Y468.911
N14720 X374.466 Y467.737
N14725 X373.962 Y466.547
N14730 X373.495 Y465.343
N14735 X373.065 Y464.124
N14740 X372.671 Y462.894
N14745 X372.31 Y461.653
N14750 X371.98 Y460.404
N14755 X371.678 Y459.148
N14760 X371.402 Y457.886
N14765 X371.147 Y456.619
N14770 X370.912 Y455.348
N14775 X370.693 Y454.075
N14780 X370.489 Y452.799
N14785 X370.296 Y451.522
N14790 X370.113 Y450.242
N14795 X369.939 Y448.962
N14800 X369.772 Y447.681
N14805 X369.611 Y446.399
N14810 X369.455 Y445.116
N14815 X369.304 Y443.833
N14820 X369.158 Y442.549
N14825 X369.017 Y441.265
N14830 X368.881 Y439.98
N14835 X368.75 Y438.695
N14840 X368.624 Y437.409
N14845 X368.504 Y436.122
N14850 X368.391 Y434.835
N14855 X368.285 Y433.548
N14860 X368.186 Y432.259
N14865 X368.096 Y430.971
N14870 X368.014 Y429.681
N14875 X367.942 Y428.391
N14880 X367.881 Y427.1
N14885 X367.83 Y425.809
N14890 X367.79 Y424.518
N14895 X367.762 Y423.226
N14900 X367.746 Y421.934
N14905 X367.743 Y420.642
N14910 X367.754 Y419.35
N14915 X367.777 Y418.058
N14920 X367.815 Y416.767
N14925 X367.866 Y415.476
N14930 X367.932 Y414.185
N14935 X368.013 Y412.896
N14940 X368.109 Y411.607
N14945 X368.219 Y410.32
N14950 X368.345 Y409.034
N14955 X368.486 Y407.75
N14960 X368.642 Y406.467
N14965 X368.814 Y405.187
N14970 X369.002 Y403.908
N14975 X369.205 Y402.632
N14980 X369.424 Y401.359
N14985 X369.659 Y400.088
N14990 X369.909 Y398.821
N14995 X370.176 Y397.557
N15000 X370.458 Y396.296
N15005 X370.755 Y395.038
N15010 X371.069 Y393.785
N15015 X371.398 Y392.536
N15020 X371.743 Y391.29
N15025 X372.104 Y390.05
N15030 X372.48 Y388.814
N15035 X372.872 Y387.582
N15040 X373.279 Y386.356
N15045 X373.702 Y385.135
N15050 X374.14 Y383.92
N15055 X374.593 Y382.71
N15060 X375.061 Y381.506
N15065 X375.545 Y380.308
N15070 X376.044 Y379.116
N15075 X376.558 Y377.93
N15080 X377.087 Y376.751
N15085 X377.631 Y375.579
N15090 X378.19 Y374.414
N15095 X378.763 Y373.257
N15100 X379.351 Y372.106
N15105 X379.953 Y370.963
N15110 X380.57 Y369.828
N15115 X381.202 Y368.7
N15120 X381.847 Y367.581
N15125 X382.507 Y366.47
N15130 X383.18 Y365.368
N15135 X383.868 Y364.274
N15140 X384.569 Y363.188
N15145 X385.284 Y362.112
N15150 X386.012 Y361.045
N15155 X386.754 Y359.987
N15160 X387.509 Y358.939
N15165 X388.278 Y357.9
N15170 X389.059 Y356.871
N15175 X389.854 Y355.852
N15180 X390.661 Y354.844
N15185 X391.482 Y353.845
N15190 X392.314 Y352.857
N15195 X393.159 Y351.88
N15200 X394.017 Y350.914
N15205 X394.887 Y349.958
N15210 X395.768 Y349.014
N15215 X396.662 Y348.081
N15220 X397.567 Y347.159
N15225 X398.484 Y346.248
N15230 X399.413 Y345.35
N15235 X400.352 Y344.463
N15240 X401.303 Y343.588
N15245 X402.265 Y342.725
N15250 X403.238 Y341.875
N15255 X404.221 Y341.037
N15260 X405.215 Y340.211
N15265 X406.219 Y339.398
N15270 X407.234 Y338.598
N15275 X408.258 Y337.811
N15280 X409.293 Y337.037
N15285 X410.337 Y336.276
N15290 X411.391 Y335.528
N15295 X412.454 Y334.794
N15300 X413.526 Y334.073
N15305 X414.608 Y333.366
N15310 X415.698 Y332.673
N15315 X416.797 Y331.993
N15320 X417.904 Y331.328
N15325 X419.02 Y330.676
N15330 X420.144 Y330.039
N15335 X421.276 Y329.416
N15340 X422.416 Y328.807
N15345 X423.563 Y328.213
N15350 X424.718 Y327.634
N15355 X425.88 Y327.069
N15360 X427.049 Y326.518
N15365 X428.225 Y325.983
N15370 X429.407 Y325.463
N15375 X430.597 Y324.958
N15380 X431.792 Y324.467
N15385 X432.994 Y323.992
N15390 X434.201 Y323.533
N15395 X435.414 Y323.088
N15400 X436.633 Y322.659
N15405 X437.857 Y322.246
N15410 X439.086 Y321.848
N15415 X440.32 Y321.465
N15420 X441.559 Y321.099
N15425 X442.803 Y320.747
N15430 X444.051 Y320.412
N15435 X445.303 Y320.093
N15440 X446.558 Y319.789
N15445 X447.818 Y319.501
N15450 X449.081 Y319.229
N15455 X450.348 Y318.974
N15460 X451.617 Y318.734
N15465 X452.89 Y318.51
N15470 X454.165 Y318.303
N15475 X455.443 Y318.112
N15480 X456.723 Y317.937
N15485 X458.005 Y317.778
N15490 X459.29 Y317.636
N15495 X460.576 Y317.51
N15500 X461.863 Y317.4
N15505 X463.152 Y317.306
N15510 X464.441 Y317.229
N15515 X465.732 Y317.168
N15520 X467.023 Y317.124
N15525 X468.315 Y317.095
N15530 X469.607 Y317.083
N15535 X470.899 Y317.088
N15540 X472.191 Y317.109
N15545 X473.482 Y317.146
N15550 X474.773 Y317.199
N15555 X476.064 Y317.269
N15560 X477.353 Y317.355
N15565 X478.641 Y317.458
N15570 X479.927 Y317.576
N15575 X481.212 Y317.712
N15580 X482.495 Y317.863
N15585 X483.776 Y318.031
N15590 X485.055 Y318.215
N15595 X486.332 Y318.415
N15600 X487.606 Y318.631
N15605 X488.877 Y318.863
N15610 X490.145 Y319.112
N15615 X491.409 Y319.376
N15620 X492.671 Y319.657
N15625 X493.928 Y319.953
N15630 X495.182 Y320.265
N15635 X496.432 Y320.593
N15640 X497.677 Y320.937
N15645 X498.918 Y321.297
N15650 X500.155 Y321.672
N15655 X501.386 Y322.063
N15660 X502.612 Y322.469
N15665 X503.834 Y322.891
N15670 X505.049 Y323.329
N15675 X506.259 Y323.782
N15680 X507.464 Y324.25
N15685 X508.662 Y324.733
N15690 X509.854 Y325.232
N15695 X511.039 Y325.746
N15700 X512.218 Y326.274
N15705 X513.391 Y326.818
N15710 X514.556 Y327.376
N15715 X515.714 Y327.949
N15720 X516.865 Y328.536
N15725 X518.008 Y329.138
N15730 X519.143 Y329.755
N15735 X520.271 Y330.386
N15740 X521.391 Y331.03
N15745 X522.502 Y331.689
N15750 X523.605 Y332.363
N15755 X524.699 Y333.05
N15760 X525.784 Y333.751
N15765 X526.861 Y334.465
N15770 X527.928 Y335.193
N15775 X528.986 Y335.935
N15780 X530.035 Y336.69
N15785 X531.074 Y337.458
N15790 X532.103 Y338.24
N15795 X533.122 Y339.034
N15800 X534.131 Y339.841
N15805 X535.129 Y340.661
N15810 X536.117 Y341.493
N15815 X537.095 Y342.338
N15820 X538.062 Y343.195
N15825 X539.018 Y344.065
N15830 X539.963 Y344.946
N15835 X540.896 Y345.839
N15840 X541.818 Y346.744
N15845 X542.729 Y347.661
N15850 X543.628 Y348.589
N15855 X544.515 Y349.528
N15860 X545.39 Y350.479
N15865 X546.253 Y351.44
N15870 X547.104 Y352.413
N15875 X547.942 Y353.396
N15880 X548.768 Y354.39
N15885 X549.581 Y355.394
N15890 X550.381 Y356.408
N15895 X551.169 Y357.432
N15900 X551.943 Y358.467
N15905 X552.705 Y359.511
N15910 X553.453 Y360.564
N15915 X554.187 Y361.627
N15920 X554.908 Y362.699
N15925 X555.616 Y363.78
N15930 X556.31 Y364.87
N15935 X556.99 Y365.969
N15940 X557.656 Y367.076
N15945 X558.308 Y368.191
N15950 X558.945 Y369.315
N15955 X559.569 Y370.447
N15960 X560.178 Y371.587
N15965 X560.772 Y372.734
N15970 X561.352 Y373.888
N15975 X561.917 Y375.05
N15980 X562.468 Y376.219
N15985 X563.003 Y377.395
N15990 X563.524 Y378.577
N15995 X564.03 Y379.766
N16000 X564.52 Y380.962
N16005 X564.996 Y382.163
N16010 X565.456 Y383.371
N16015 X565.901 Y384.584
N16020 X566.33 Y385.802
N16025 X566.744 Y387.026
N16030 X567.143 Y388.255
N16035 X567.526 Y389.489
N16040 X567.893 Y390.728
N16045 X568.244 Y391.971
N16050 X568.58 Y393.219
N16055 X568.9 Y394.471
N16060 X569.204 Y395.727
N16065 X569.492 Y396.986
N16070 X569.764 Y398.249
N16075 X570.02 Y399.516
N16080 X570.26 Y400.785
N16085 X570.484 Y402.058
N16090 X570.691 Y403.333
N16095 X570.883 Y404.611
N16100 X571.058 Y405.891
N16105 X571.217 Y407.173
N16110 X571.36 Y408.457
N16115 X571.487 Y409.743
N16120 X571.597 Y411.03
N16125 X571.692 Y412.319
N16130 X571.769 Y413.609
N16135 X571.831 Y414.899
N16140 X571.876 Y416.19
N16145 X571.905 Y417.482
N16150 X571.917 Y418.774
N16155 X571.913 Y420.066
N16160 X571.893 Y421.358
N16165 X571.856 Y422.65
N16170 X571.802 Y423.941
N16175 X571.733 Y425.231
N16180 X571.647 Y426.52
N16185 X571.545 Y427.808
N16190 X571.426 Y429.095
N16195 X571.292 Y430.38
N16200 X571.141 Y431.663
N16205 X570.973 Y432.944
N16210 X570.79 Y434.223
N16215 X570.59 Y435.5
N16220 X570.375 Y436.773
N16225 X570.143 Y438.045
N16230 X569.895 Y439.313
N16235 X569.631 Y440.577
N16240 X569.351 Y441.839
N16245 X569.055 Y443.096
N16250 X568.743 Y444.35
N16255 X568.416 Y445.6
N16260 X568.072 Y446.846
N16265 X567.713 Y448.087
N16270 X567.338 Y449.323
N16275 X566.947 Y450.555
N16280 X566.541 Y451.781
N16285 X566.119 Y453.003
N16290 X565.682 Y454.218
N16295 X565.229 Y455.429
N16300 X564.762 Y456.633
N16305 X564.279 Y457.832
N16310 X563.781 Y459.024
N16315 X563.268 Y460.21
N16320 X562.74 Y461.389
N16325 X562.197 Y462.561
N16330 X561.639 Y463.727
N16335 X561.066 Y464.885
N16340 X560.479 Y466.036
N16345 X559.878 Y467.179
N16350 X559.261 Y468.315
N16355 X558.631 Y469.443
N16360 X557.986 Y470.563
N16365 X557.327 Y471.674
N16370 X556.654 Y472.777
N16375 X555.968 Y473.871
N16380 X555.267 Y474.957
N16385 X554.553 Y476.034
N16390 X553.825 Y477.101
N16395 X553.084 Y478.159
N16400 X552.329 Y479.208
N16405 X551.561 Y480.247
N16410 X550.78 Y481.277
N16415 X549.986 Y482.296
N16420 X549.18 Y483.305
N16425 X548.36 Y484.304
N16430 X547.528 Y485.293
N16435 X546.684 Y486.271
N16440 X545.827 Y487.238
N16445 X544.958 Y488.194
N16450 X544.077 Y489.139
N16455 X543.184 Y490.073
N16460 X542.279 Y490.995
N16465 X541.363 Y491.906
N16470 X540.435 Y492.805
N16475 X539.496 Y493.692
N16480 X538.545 Y494.568
N16485 X537.584 Y495.431
N16490 X536.612 Y496.282
N16495 X535.629 Y497.121
N16500 X534.635 Y497.947
N16505 X533.632 Y498.761
N16510 X532.618 Y499.561
N16515 X531.594 Y500.349
N16520 X530.56 Y501.124
N16525 X529.516 Y501.886
N16530 X528.463 Y502.634
N16535 X527.4 Y503.369
N16540 X526.328 Y504.091
N16545 X525.248 Y504.799
N16550 X524.158 Y505.493
N16555 X523.059 Y506.173
N16560 X521.952 Y506.839
N16565 X520.837 Y507.491
N16570 X519.713 Y508.129
N16575 X518.582 Y508.753
N16580 X517.442 Y509.362
N16585 X516.295 Y509.957
N16590 X515.141 Y510.537
N16595 X513.979 Y511.103
N16600 X512.81 Y511.654
N16605 X511.635 Y512.19
N16610 X510.453 Y512.711
N16615 X509.264 Y513.217
N16620 X508.069 Y513.708
N16625 X506.867 Y514.184
N16630 X505.66 Y514.645
N16635 X504.447 Y515.09
N16640 X503.229 Y515.52
N16645 X502.005 Y515.934
N16650 X500.776 Y516.333
N16655 X499.542 Y516.716
N16660 X498.303 Y517.084
N16665 X497.06 Y517.435
N16670 X495.813 Y517.771
N16675 X494.561 Y518.092
N16680 X493.305 Y518.396
N16685 X492.046 Y518.684
N16690 X490.783 Y518.957
N16695 X489.516 Y519.213
N16700 X488.247 Y519.454
N16705 X486.975 Y519.678
N16710 X485.699 Y519.886
N16715 X484.422 Y520.079
N16720 X483.142 Y520.255
N16725 X481.86 Y520.414
N16730 X480.575 Y520.558
N16735 X479.29 Y520.685
N16740 X478.002 Y520.795
N16745 X476.714 Y520.89
N16750 X475.424 Y520.968
N16755 X474.133 Y521.029
N16760 X472.842 Y521.075
N16765 X471.55 Y521.104
N16770 X470.258 Y521.117
N16775 X468.966 Y521.113
N16780 X467.675 Y521.093
N16785 X466.383 Y521.056
N16790 X465.092 Y521.004
N16795 X463.802 Y520.935
N16800 X462.513 Y520.849
N16805 X461.225 Y520.748
N16810 X459.938 Y520.63
N16815 X458.653 Y520.496
N16820 X457.37 Y520.345
N16825 X456.088 Y520.178
N16830 X454.809 Y519.995
N16835 X453.533 Y519.796
N16840 X452.259 Y519.581
N16845 X450.988 Y519.349
N16850 X449.719 Y519.101
N16855 X448.455 Y518.838
N16860 X447.193 Y518.558
N16865 X445.935 Y518.263
N16870 X444.681 Y517.951
N16875 X443.432 Y517.624
N16880 X442.186 Y517.281
N16885 X440.945 Y516.922
N16890 X439.708 Y516.547
N16895 X438.476 Y516.157
N16900 X437.25 Y515.751
N16905 X436.028 Y515.33
N16910 X434.812 Y514.893
N16915 X433.602 Y514.442
N16920 X432.397 Y513.974
N16925 X431.199 Y513.492
N16930 X430.006 Y512.994
N16935 X428.82 Y512.481
N16940 X427.641 Y511.953
N16945 X426.468 Y511.411
N16950 X425.303 Y510.853
N16955 X424.144 Y510.281
N16960 X422.993 Y509.694
N16965 X421.85 Y509.093
N16970 X420.714 Y508.477
N16975 X419.586 Y507.847
N16980 X418.466 Y507.202
N16985 X417.354 Y506.544
N16990 X416.251 Y505.871
N16995 X415.156 Y505.185
N17000 X414.07 Y504.485
N17005 X412.993 Y503.771
N17010 X411.926 Y503.044
N17015 X410.867 Y502.303
N17020 X409.818 Y501.549
N17025 X408.779 Y500.781
N17030 X407.749 Y500.
N17035 X406.729 Y499.207
N17040 X405.72 Y498.4
N17045 X404.721 Y497.581
N17050 X403.732 Y496.749
N17055 X402.754 Y495.905
N17060 X401.787 Y495.049
N17065 X400.83 Y494.18
N17070 X399.885 Y493.299
N17075 X398.951 Y492.406
N17080 X398.028 Y491.502
N17085 X397.117 Y490.586
N17090 X396.218 Y489.658
N17095 X395.33 Y488.719
N17100 X394.454 Y487.77
N17105 X393.59 Y486.809
N17110 X392.739 Y485.837
N17115 X391.9 Y484.854
N17120 X391.073 Y483.861
N17125 X390.26 Y482.858
N17130 X389.459 Y481.844
N17135 X388.67 Y480.82
N17140 X387.895 Y479.786
N17145 X387.133 Y478.743
N17150 X386.385 Y477.69
N17155 X385.649 Y476.627
N17160 X384.928 Y475.555
N17165 X384.22 Y474.474
N17170 X383.528 Y473.383
N17175 X382.852 Y472.282
N17180 X382.196 Y471.169
N17185 X381.563 Y470.043
N17190 X380.957 Y468.901
N17195 X380.381 Y467.745
N17200 X379.837 Y466.573
N17205 X379.327 Y465.386
N17210 X378.85 Y464.185
N17215 X378.407 Y462.971
N17220 X377.997 Y461.746
N17225 X377.618 Y460.511
N17230 X377.267 Y459.267
N17235 X376.944 Y458.016
N17240 X376.645 Y456.759
N17245 X376.368 Y455.497
N17250 X376.111 Y454.231
N17255 X375.87 Y452.962
N17260 X375.645 Y451.689
N17265 X375.434 Y450.415
N17270 X375.234 Y449.138
N17275 X375.044 Y447.86
N17280 X374.864 Y446.581
N17285 X374.692 Y445.3
N17290 X374.528 Y444.019
N17295 X374.371 Y442.736
N17300 X374.22 Y441.453
N17305 X374.077 Y440.169
N17310 X373.94 Y438.884
N17315 X373.81 Y437.599
N17320 X373.687 Y436.312
N17325 X373.572 Y435.025
N17330 X373.465 Y433.738
N17335 X373.366 Y432.45
N17340 X373.276 Y431.161
N17345 X373.195 Y429.871
N17350 X373.124 Y428.581
N17355 X373.063 Y427.29
N17360 X373.014 Y425.999
N17365 X372.976 Y424.708
N17370 X372.95 Y423.416
N17375 X372.937 Y422.124
N17380 X372.936 Y420.832
N17385 X372.949 Y419.54
N17390 X372.976 Y418.248
N17395 X373.017 Y416.957
N17400 X373.072 Y415.666
N17405 X373.143 Y414.376
N17410 X373.228 Y413.087
N17415 X373.329 Y411.798
N17420 X373.445 Y410.512
N17425 X373.578 Y409.226
N17430 X373.726 Y407.943
N17435 X373.89 Y406.661
N17440 X374.07 Y405.382
N17445 X374.266 Y404.105
N17450 X374.479 Y402.83
N17455 X374.708 Y401.559
N17460 X374.954 Y400.29
N17465 X375.216 Y399.025
N17470 X375.494 Y397.763
N17475 X375.789 Y396.505
N17480 X376.101 Y395.252
N17485 X376.428 Y394.002
N17490 X376.773 Y392.756
N17495 X377.134 Y391.516
N17500 X377.511 Y390.28
N17505 X377.905 Y389.049
N17510 X378.315 Y387.824
N17515 X378.741 Y386.604
N17520 X379.183 Y385.39
N17525 X379.642 Y384.182
N17530 X380.116 Y382.981
N17535 X380.607 Y381.785
N17540 X381.113 Y380.597
N17545 X381.635 Y379.415
N17550 X382.173 Y378.24
N17555 X382.726 Y377.073
N17560 X383.295 Y375.912
N17565 X383.88 Y374.76
N17570 X384.479 Y373.616
N17575 X385.094 Y372.479
N17580 X385.724 Y371.351
N17585 X386.369 Y370.231
N17590 X387.029 Y369.121
N17595 X387.703 Y368.019
N17600 X388.393 Y366.926
N17605 X389.097 Y365.842
N17610 X389.815 Y364.768
N17615 X390.547 Y363.704
N17620 X391.294 Y362.65
N17625 X392.055 Y361.605
N17630 X392.829 Y360.571
N17635 X393.618 Y359.547
N17640 X394.42 Y358.534
N17645 X395.235 Y357.532
N17650 X396.064 Y356.541
N17655 X396.905 Y355.56
N17660 X397.76 Y354.591
N17665 X398.628 Y353.634
N17670 X399.508 Y352.688
N17675 X400.401 Y351.754
N17680 X401.306 Y350.832
N17685 X402.224 Y349.923
N17690 X403.153 Y349.025
N17695 X404.095 Y348.141
N17700 X405.048 Y347.268
N17705 X406.013 Y346.409
N17710 X406.989 Y345.563
N17715 X407.977 Y344.729
N17720 X408.975 Y343.909
N17725 X409.984 Y343.103
N17730 X411.004 Y342.31
N17735 X412.035 Y341.53
N17740 X413.076 Y340.764
N17745 X414.126 Y340.013
N17750 X415.187 Y339.275
N17755 X416.258 Y338.552
N17760 X417.338 Y337.843
N17765 X418.427 Y337.148
N17770 X419.526 Y336.468
N17775 X420.634 Y335.803
N17780 X421.75 Y335.153
N17785 X422.875 Y334.517
N17790 X424.009 Y333.897
N17795 X425.15 Y333.292
N17800 X426.3 Y332.702
N17805 X427.457 Y332.128
N17810 X428.622 Y331.569
N17815 X429.795 Y331.026
N17820 X430.974 Y330.499
N17825 X432.161 Y329.987
N17830 X433.354 Y329.491
N17835 X434.553 Y329.011
N17840 X435.759 Y328.547
N17845 X436.971 Y328.099
N17850 X438.189 Y327.667
N17855 X439.412 Y327.252
N17860 X440.641 Y326.853
N17865 X441.875 Y326.471
N17870 X443.115 Y326.105
N17875 X444.359 Y325.756
N17880 X445.607 Y325.423
N17885 X446.86 Y325.107
N17890 X448.117 Y324.808
N17895 X449.378 Y324.526
N17900 X450.642 Y324.26
N17905 X451.91 Y324.012
N17910 X453.181 Y323.78
N17915 X454.455 Y323.565
N17920 X455.732 Y323.367
N17925 X457.012 Y323.187
N17930 X458.293 Y323.023
N17935 X459.577 Y322.877
N17940 X460.862 Y322.747
N17945 X462.15 Y322.635
N17950 X463.438 Y322.54
N17955 X464.728 Y322.463
N17960 X466.019 Y322.402
N17965 X467.31 Y322.359
N17970 X468.602 Y322.333
N17975 X469.894 Y322.324
N17980 X471.186 Y322.333
N17985 X472.478 Y322.359
N17990 X473.769 Y322.402
N17995 X475.06 Y322.462
N18000 X476.349 Y322.54
N18005 X477.638 Y322.635
N18010 X478.925 Y322.747
N18015 X480.211 Y322.876
N18020 X481.494 Y323.022
N18025 X482.776 Y323.185
N18030 X484.055 Y323.366
N18035 X485.332 Y323.563
N18040 X486.607 Y323.777
N18045 X487.878 Y324.009
N18050 X489.146 Y324.257
N18055 X490.41 Y324.523
N18060 X491.671 Y324.805
N18065 X492.928 Y325.104
N18070 X494.181 Y325.42
N18075 X495.429 Y325.752
N18080 X496.673 Y326.102
N18085 X497.912 Y326.467
N18090 X499.147 Y326.85
N18095 X500.376 Y327.249
N18100 X501.599 Y327.664
N18105 X502.817 Y328.095
N18110 X504.029 Y328.543
N18115 X505.235 Y329.006
N18120 X506.435 Y329.486
N18125 X507.628 Y329.982
N18130 X508.815 Y330.493
N18135 X509.994 Y331.02
N18140 X511.166 Y331.564
N18145 X512.331 Y332.122
N18150 X513.489 Y332.697
N18155 X514.638 Y333.286
N18160 X515.78 Y333.891
N18165 X516.914 Y334.512
N18170 X518.039 Y335.147
N18175 X519.155 Y335.797
N18180 X520.263 Y336.462
N18185 X521.362 Y337.142
N18190 X522.451 Y337.836
N18195 X523.532 Y338.545
N18200 X524.602 Y339.268
N18205 X525.663 Y340.006
N18210 X526.714 Y340.757
N18215 X527.755 Y341.522
N18220 X528.786 Y342.302
N18225 X529.806 Y343.094
N18230 X530.816 Y343.901
N18235 X531.814 Y344.721
N18240 X532.802 Y345.554
N18245 X533.778 Y346.401
N18250 X534.743 Y347.26
N18255 X535.696 Y348.132
N18260 X536.638 Y349.017
N18265 X537.567 Y349.914
N18270 X538.485 Y350.824
N18275 X539.39 Y351.746
N18280 X540.283 Y352.679
N18285 X541.164 Y353.625
N18290 X542.031 Y354.582
N18295 X542.886 Y355.551
N18300 X543.728 Y356.531
N18305 X544.557 Y357.522
N18310 X545.373 Y358.524
N18315 X546.175 Y359.537
N18320 X546.963 Y360.561
N18325 X547.738 Y361.595
N18330 X548.499 Y362.639
N18335 X549.245 Y363.694
N18340 X549.978 Y364.758
N18345 X550.696 Y365.832
N18350 X551.4 Y366.915
N18355 X552.09 Y368.008
N18360 X552.764 Y369.11
N18365 X553.424 Y370.221
N18370 X554.069 Y371.34
N18375 X554.699 Y372.468
N18380 X555.314 Y373.605
N18385 X555.914 Y374.749
N18390 X556.499 Y375.901
N18395 X557.068 Y377.061
N18400 X557.621 Y378.229
N18405 X558.159 Y379.404
N18410 X558.682 Y380.585
N18415 X559.188 Y381.774
N18420 X559.678 Y382.969
N18425 X560.153 Y384.171
N18430 X560.611 Y385.379
N18435 X561.053 Y386.594
N18440 X561.479 Y387.813
N18445 X561.888 Y389.039
N18450 X562.281 Y390.27
N18455 X562.658 Y391.506
N18460 X563.018 Y392.746
N18465 X563.361 Y393.992
N18470 X563.688 Y395.242
N18475 X563.998 Y396.496
N18480 X564.292 Y397.755
N18485 X564.568 Y399.017
N18490 X564.828 Y400.282
N18495 X565.071 Y401.551
N18500 X565.297 Y402.824
N18505 X565.506 Y404.099
N18510 X565.698 Y405.376
N18515 X565.872 Y406.657
N18520 X566.03 Y407.939
N18525 X566.17 Y409.223
N18530 X566.293 Y410.51
N18535 X566.4 Y411.797
N18540 X566.488 Y413.086
N18545 X566.56 Y414.376
N18550 X566.614 Y415.667
N18555 X566.651 Y416.959
N18560 X566.671 Y418.251
N18565 X566.674 Y419.543
N18570 X566.66 Y420.835
N18575 X566.628 Y422.126
N18580 X566.579 Y423.417
N18585 X566.513 Y424.708
N18590 X566.43 Y425.997
N18595 X566.329 Y427.285
N18600 X566.211 Y428.572
N18605 X566.076 Y429.857
N18610 X565.924 Y431.14
N18615 X565.755 Y432.421
N18620 X565.568 Y433.699
N18625 X565.365 Y434.975
N18630 X565.144 Y436.248
N18635 X564.906 Y437.518
N18640 X564.652 Y438.785
N18645 X564.381 Y440.048
N18650 X564.093 Y441.308
N18655 X563.788 Y442.564
N18660 X563.466 Y443.815
N18665 X563.128 Y445.062
N18670 X562.773 Y446.304
N18675 X562.401 Y447.542
N18680 X562.014 Y448.774
N18685 X561.609 Y450.002
N18690 X561.189 Y451.223
N18695 X560.752 Y452.439
N18700 X560.299 Y453.649
N18705 X559.829 Y454.853
N18710 X559.344 Y456.05
N18715 X558.842 Y457.241
N18720 X558.325 Y458.425
N18725 X557.792 Y459.602
N18730 X557.244 Y460.772
N18735 X556.68 Y461.934
N18740 X556.1 Y463.089
N18745 X555.505 Y464.236
N18750 X554.895 Y465.375
N18755 X554.269 Y466.505
N18760 X553.629 Y467.628
N18765 X552.974 Y468.741
N18770 X552.304 Y469.846
N18775 X551.619 Y470.942
N18780 X550.92 Y472.028
N18785 X550.206 Y473.105
N18790 X549.478 Y474.172
N18795 X548.735 Y475.23
N18800 X547.979 Y476.277
N18805 X547.208 Y477.315
N18810 X546.424 Y478.342
N18815 X545.627 Y479.358
N18820 X544.815 Y480.364
N18825 X543.991 Y481.358
N18830 X543.153 Y482.342
N18835 X542.302 Y483.314
N18840 X541.438 Y484.275
N18845 X540.562 Y485.224
N18850 X539.673 Y486.162
N18855 X538.771 Y487.087
N18860 X537.857 Y488.001
N18865 X536.932 Y488.902
N18870 X535.994 Y489.791
N18875 X535.044 Y490.667
N18880 X534.083 Y491.53
N18885 X533.11 Y492.381
N18890 X532.126 Y493.218
N18895 X531.131 Y494.042
N18900 X530.125 Y494.853
N18905 X529.108 Y495.65
N18910 X528.081 Y496.434
N18915 X527.043 Y497.204
N18920 X525.995 Y497.959
N18925 X524.937 Y498.701
N18930 X523.87 Y499.429
N18935 X522.792 Y500.142
N18940 X521.706 Y500.841
N18945 X520.61 Y501.526
N18950 X519.505 Y502.195
N18955 X518.391 Y502.85
N18960 X517.269 Y503.49
N18965 X516.138 Y504.115
N18970 X514.999 Y504.725
N18975 X513.852 Y505.32
N18980 X512.697 Y505.899
N18985 X511.534 Y506.462
N18990 X510.364 Y507.01
N18995 X509.186 Y507.542
N19000 X508.002 Y508.059
N19005 X506.811 Y508.56
N19010 X505.613 Y509.044
N19015 X504.409 Y509.513
N19020 X503.199 Y509.966
N19025 X501.983 Y510.402
N19030 X500.761 Y510.822
N19035 X499.534 Y511.226
N19040 X498.301 Y511.614
N19045 X497.064 Y511.985
N19050 X495.821 Y512.339
N19055 X494.574 Y512.677
N19060 X493.323 Y512.999
N19065 X492.067 Y513.303
N19070 X490.807 Y513.59
N19075 X489.544 Y513.861
N19080 X488.277 Y514.115
N19085 X487.007 Y514.352
N19090 X485.734 Y514.571
N19095 X484.458 Y514.774
N19100 X483.179 Y514.96
N19105 X481.898 Y515.129
N19110 X480.615 Y515.28
N19115 X479.33 Y515.415
N19120 X478.043 Y515.532
N19125 X476.755 Y515.632
N19130 X475.466 Y515.715
N19135 X474.175 Y515.781
N19140 X472.884 Y515.829
N19145 X471.592 Y515.861
N19150 X470.3 Y515.875
N19155 X469.008 Y515.872
N19160 X467.716 Y515.851
N19165 X466.425 Y515.813
N19170 X465.134 Y515.758
N19175 X463.844 Y515.686
N19180 X462.555 Y515.596
N19185 X461.267 Y515.49
N19190 X459.981 Y515.366
N19195 X458.697 Y515.225
N19200 X457.415 Y515.066
N19205 X456.135 Y514.891
N19210 X454.857 Y514.699
N19215 X453.582 Y514.49
N19220 X452.31 Y514.263
N19225 X451.041 Y514.02
N19230 X449.775 Y513.76
N19235 X448.513 Y513.483
N19240 X447.255 Y513.189
N19245 X446.001 Y512.878
N19250 X444.751 Y512.551
N19255 X443.506 Y512.207
N19260 X442.265 Y511.846
N19265 X441.029 Y511.469
N19270 X439.799 Y511.075
N19275 X438.573 Y510.665
N19280 X437.354 Y510.238
N19285 X436.14 Y509.796
N19290 X434.932 Y509.337
N19295 X433.731 Y508.862
N19300 X432.535 Y508.371
N19305 X431.347 Y507.864
N19310 X430.165 Y507.342
N19315 X428.991 Y506.803
N19320 X427.823 Y506.249
N19325 X426.664 Y505.68
N19330 X425.511 Y505.095
N19335 X424.367 Y504.495
N19340 X423.231 Y503.88
N19345 X422.103 Y503.249
N19350 X420.984 Y502.603
N19355 X419.874 Y501.943
N19360 X418.772 Y501.267
N19365 X417.68 Y500.577
N19370 X416.597 Y499.873
N19375 X415.523 Y499.154
N19380 X414.459 Y498.421
N19385 X413.405 Y497.674
N19390 X412.361 Y496.912
N19395 X411.328 Y496.137
N19400 X410.304 Y495.349
N19405 X409.292 Y494.546
N19410 X408.29 Y493.73
N19415 X407.299 Y492.901
N19420 X406.319 Y492.059
N19425 X405.35 Y491.204
N19430 X404.393 Y490.336
N19435 X403.448 Y489.455
N19440 X402.515 Y488.561
N19445 X401.594 Y487.655
N19450 X400.684 Y486.737
N19455 X399.788 Y485.807
N19460 X398.903 Y484.865
N19465 X398.032 Y483.911
N19470 X397.173 Y482.946
N19475 X396.327 Y481.969
N19480 X395.494 Y480.981
N19485 X394.675 Y479.982
N19490 X393.869 Y478.973
N19495 X393.076 Y477.952
N19500 X392.297 Y476.921
N19505 X391.532 Y475.88
N19510 X390.782 Y474.828
N19515 X390.046 Y473.766
N19520 X389.327 Y472.693
N19525 X388.626 Y471.607
N19530 X387.946 Y470.509
N19535 X387.289 Y469.396
N19540 X386.659 Y468.268
N19545 X386.057 Y467.125
N19550 X385.485 Y465.966
N19555 X384.945 Y464.793
N19560 X384.437 Y463.605
N19565 X383.962 Y462.403
N19570 X383.519 Y461.189
N19575 X383.106 Y459.965
N19580 X382.723 Y458.731
N19585 X382.366 Y457.489
N19590 X382.035 Y456.24
N19595 X381.727 Y454.986
N19600 X381.44 Y453.726
N19605 X381.172 Y452.462
N19610 X380.921 Y451.194
N19615 X380.686 Y449.924
N19620 X380.465 Y448.651
N19625 X380.257 Y447.376
N19630 X380.06 Y446.099
N19635 X379.874 Y444.82
N19640 X379.698 Y443.54
N19645 X379.531 Y442.259
N19650 X379.373 Y440.977
N19655 X379.223 Y439.693
N19660 X379.082 Y438.409
N19665 X378.949 Y437.124
N19670 X378.825 Y435.838
N19675 X378.71 Y434.551
N19680 X378.604 Y433.263
N19685 X378.508 Y431.975
N19690 X378.421 Y430.685
N19695 X378.345 Y429.396
N19700 X378.279 Y428.105
N19705 X378.225 Y426.814
N19710 X378.182 Y425.523
N19715 X378.152 Y424.231
N19720 X378.134 Y422.939
N19725 X378.13 Y421.647
N19730 X378.139 Y420.355
N19735 X378.162 Y419.063
N19740 X378.2 Y417.772
N19745 X378.253 Y416.481
N19750 X378.32 Y415.191
N19755 X378.404 Y413.901
N19760 X378.503 Y412.613
N19765 X378.618 Y411.326
N19770 X378.749 Y410.041
N19775 X378.896 Y408.757
N19780 X379.06 Y407.475
N19785 X379.241 Y406.196
N19790 X379.439 Y404.919
N19795 X379.655 Y403.645
N19800 X379.887 Y402.374
N19805 X380.136 Y401.107
N19810 X380.403 Y399.842
N19815 X380.687 Y398.582
N19820 X380.988 Y397.325
N19825 X381.307 Y396.073
N19830 X381.643 Y394.826
N19835 X381.996 Y393.583
N19840 X382.366 Y392.345
N19845 X382.754 Y391.112
N19850 X383.158 Y389.885
N19855 X383.58 Y388.664
N19860 X384.019 Y387.449
N19865 X384.475 Y386.24
N19870 X384.947 Y385.037
N19875 X385.437 Y383.842
N19880 X385.944 Y382.653
N19885 X386.467 Y381.472
N19890 X387.007 Y380.298
N19895 X387.563 Y379.132
N19900 X388.135 Y377.973
N19905 X388.724 Y376.823
N19910 X389.329 Y375.682
N19915 X389.95 Y374.549
N19920 X390.587 Y373.425
N19925 X391.24 Y372.31
N19930 X391.909 Y371.204
N19935 X392.593 Y370.108
N19940 X393.292 Y369.021
N19945 X394.006 Y367.945
N19950 X394.736 Y366.878
N19955 X395.481 Y365.822
N19960 X396.24 Y364.777
N19965 X397.014 Y363.743
N19970 X397.803 Y362.719
N19975 X398.606 Y361.707
N19980 X399.423 Y360.706
N19985 X400.255 Y359.717
N19990 X401.1 Y358.74
N19995 X401.959 Y357.775
N20000 X402.832 Y356.822
N20005 X403.717 Y355.882
N20010 X404.617 Y354.954
N20015 X405.529 Y354.038
N20020 X406.453 Y353.136
N20025 X407.391 Y352.247
N20030 X408.341 Y351.371
N20035 X409.303 Y350.509
N20040 X410.277 Y349.66
N20045 X411.263 Y348.825
N20050 X412.261 Y348.005
N20055 X413.271 Y347.198
N20060 X414.291 Y346.406
N20065 X415.323 Y345.628
N20070 X416.366 Y344.865
N20075 X417.419 Y344.117
N20080 X418.483 Y343.384
N20085 X419.557 Y342.665
N20090 X420.641 Y341.962
N20095 X421.735 Y341.275
N20100 X422.838 Y340.603
N20105 X423.951 Y339.946
N20110 X425.073 Y339.305
N20115 X426.204 Y338.68
N20120 X427.344 Y338.072
N20125 X428.492 Y337.479
N20130 X429.648 Y336.902
N20135 X430.812 Y336.342
N20140 X431.984 Y335.798
N20145 X433.164 Y335.272
N20150 X434.351 Y334.761
N20155 X435.545 Y334.268
N20160 X436.746 Y333.792
N20165 X437.954 Y333.332
N20170 X439.168 Y332.89
N20175 X440.388 Y332.465
N20180 X441.614 Y332.057
N20185 X442.846 Y331.666
N20190 X444.083 Y331.293
N20195 X445.325 Y330.937
N20200 X446.572 Y330.599
N20205 X447.823 Y330.278
N20210 X449.079 Y329.975
N20215 X450.34 Y329.69
N20220 X451.604 Y329.423
N20225 X452.872 Y329.174
N20230 X454.143 Y328.942
N20235 X455.417 Y328.729
N20240 X456.694 Y328.533
N20245 X457.974 Y328.356
N20250 X459.256 Y328.197
N20255 X460.541 Y328.056
N20260 X461.827 Y327.933
N20265 X463.115 Y327.828
N20270 X464.404 Y327.741
N20275 X465.694 Y327.673
N20280 X466.985 Y327.623
N20285 X468.277 Y327.59
N20290 X469.569 Y327.577
N20295 X470.861 Y327.581
N20300 X472.153 Y327.604
N20305 X473.444 Y327.644
N20310 X474.735 Y327.703
N20315 X476.024 Y327.781
N20320 X477.313 Y327.876
N20325 X478.6 Y327.99
N20330 X479.885 Y328.122
N20335 X481.169 Y328.272
N20340 X482.45 Y328.44
N20345 X483.728 Y328.627
N20350 X485.004 Y328.831
N20355 X486.277 Y329.053
N20360 X487.546 Y329.293
N20365 X488.812 Y329.551
N20370 X490.075 Y329.827
N20375 X491.333 Y330.121
N20380 X492.587 Y330.432
N20385 X493.836 Y330.761
N20390 X495.081 Y331.108
N20395 X496.321 Y331.472
N20400 X497.555 Y331.854
N20405 X498.784 Y332.253
N20410 X500.007 Y332.669
N20415 X501.224 Y333.103
N20420 X502.435 Y333.554
N20425 X503.639 Y334.022
N20430 X504.837 Y334.506
N20435 X506.028 Y335.008
N20440 X507.211 Y335.527
N20445 X508.387 Y336.062
N20450 X509.556 Y336.613
N20455 X510.716 Y337.181
N20460 X511.868 Y337.766
N20465 X513.012 Y338.366
N20470 X514.148 Y338.983
N20475 X515.275 Y339.615
N20480 X516.392 Y340.263
N20485 X517.501 Y340.928
N20490 X518.599 Y341.607
N20495 X519.688 Y342.302
N20500 X520.768 Y343.013
N20505 X521.837 Y343.739
N20510 X522.895 Y344.479
N20515 X523.943 Y345.235
N20520 X524.981 Y346.005
N20525 X526.007 Y346.79
N20530 X527.022 Y347.59
N20535 X528.026 Y348.403
N20540 X529.018 Y349.231
N20545 X529.999 Y350.072
N20550 X530.967 Y350.927
N20555 X531.923 Y351.796
N20560 X532.867 Y352.678
N20565 X533.799 Y353.574
N20570 X534.718 Y354.482
N20575 X535.623 Y355.404
N20580 X536.516 Y356.338
N20585 X537.395 Y357.285
N20590 X538.261 Y358.244
N20595 X539.113 Y359.215
N20600 X539.952 Y360.198
N20605 X540.776 Y361.193
N20610 X541.586 Y362.199
N20615 X542.383 Y363.217
N20620 X543.164 Y364.246
N20625 X543.931 Y365.285
N20630 X544.683 Y366.336
N20635 X545.421 Y367.397
N20640 X546.143 Y368.468
N20645 X546.851 Y369.549
N20650 X547.543 Y370.64
N20655 X548.219 Y371.741
