%
(INNERWIREREEL)
(MACHINE)
(  VENDOR AUTODESK)
(  MODEL GENERIC 3-AXIS ROUTER)
(  DESCRIPTION THIS MACHINE HAS XYZ AXIS ON THE HEAD)
(T20 D=6.35 CR=0. - ZMIN=-13. - FLAT END MILL)
(T23 D=6.35 CR=0. TAPER=30DEG - ZMIN=-1. - CHAMFER MILL)
N10 G90 G94 G17 G91.1
N15 G21
N20 G53 G0 Z0.
(DRILL1)
N25 G53 G0 X-200 Y0
N30 T23 M6
N35 T20
N40 S18000 M3
N45 G4 P2.0
N50 G17 G90 G94
N55 G54
N60 G0 X88.9 Y139.7
N65 G43 Z15. H23
N70 G0 Z5.
N75 G98 G81 X88.9 Y139.7 Z-1. R5. F1500.
N80 X139.7 Y88.9
N85 X88.9 Y38.1
N90 X38.1 Y88.9
N95 G80
N100 G0 Z15.
N105 M5
N110 G53 G0 Z0.
(2D CONTOUR1)
N115 G53 G0 X-200 Y0
N120 M1
N125 T20 M6
N130 T23
N135 S18000 M3
N140 G4 P2.0
N145 G17 G90 G94
N150 G54
N155 G0 X33.412 Y74.134
N160 G43 Z15. H20
N165 G0 Z5.
N170 G1 Z2.5 F1500.
N175 G2 X41.807 Y79.275 Z2.071 I8.395 J-4.284
N180 G1 X63.5 Z1.173
N185 G2 X79.275 Y63.5 Z0.146 I0. J-15.775
N190 G1 Y41.807 Z-0.752
N195 G2 X66.316 Y33.07 Z-1.515 I-9.425 J0.
N200 X33.07 Y66.316 Z-3.516 I22.584 J55.83
N205 X41.807 Y79.275 Z-4.279 I8.737 J3.534
N210 G1 X63.5 Z-5.177
N215 G2 X79.275 Y63.5 Z-6.204 I0. J-15.775
N220 G1 Y59.967 Z-6.35
N225 Y41.807 F3000.
N230 G2 X66.316 Y33.07 I-9.425 J0.
N235 X33.07 Y66.316 I22.584 J55.83
N240 X41.807 Y79.275 I8.737 J3.534
N245 G1 X63.5
N250 G2 X79.275 Y63.5 I0. J-15.775
N255 G1 Y59.967
N260 Y41.807 Z-7.102 F1500.
N265 G2 X66.316 Y33.07 Z-7.865 I-9.425 J0.
N270 X34.959 Y62.116 Z-9.675 I22.584 J55.83
N275 X33.07 Y66.316 I53.941 J26.784 F3000.
N280 X41.807 Y79.275 I8.737 J3.534
N285 G1 X63.5
N290 G2 X79.275 Y63.5 I0. J-15.775
N295 G1 Y41.807
N300 G2 X66.316 Y33.07 I-9.425 J0.
N305 X34.959 Y62.116 I22.584 J55.83
N310 X33.07 Y66.316 Z-9.866 I53.941 J26.784 F1500.
N315 X41.807 Y79.275 Z-10.629 I8.737 J3.534
N320 G1 X63.5 Z-11.527
N325 G2 X79.275 Y63.5 Z-12.554 I0. J-15.775
N330 G1 Y56.299 Z-12.852
N335 Z-11.113
N340 Y52.724
N345 Y43.599 F3000.
N350 Z-13. F1500.
N355 Y41.807 F3000.
N360 G2 X66.316 Y33.07 I-9.425 J0.
N365 X34.81 Y62.417 I22.584 J55.83
N370 G1 Z-11.113
N375 G2 X33.07 Y66.316 I54.09 J26.483
N380 X34.002 Y75.133 I8.737 J3.534
N385 G1 Z-13. F1500.
N390 G2 X41.807 Y79.275 I7.805 J-5.283 F3000.
N395 G1 X63.5
N400 G2 X79.275 Y63.5 I0. J-15.775
N405 G1 Y56.299
N410 Z-11.113
N415 Y52.724
N420 G0 Z5.
N425 X118.208 Y79.275
N430 G1 Z2.5 F1500.
N435 X135.993 Z1.763
N440 G2 X144.73 Y66.316 Z1. I0. J-9.425
N445 X111.485 Y33.07 Z-1. I-55.83 J22.584
N450 X98.525 Y41.807 Z-1.763 I-3.535 J8.737
N455 G1 Y63.5 Z-2.662
N460 G2 X114.3 Y79.275 Z-3.688 I15.775 J0.
N465 G1 X135.993 Z-4.587
N470 G2 X144.73 Y66.316 Z-5.35 I0. J-9.425
N475 X131.486 Y46.315 Z-6.35 I-55.83 J22.584
N480 X111.485 Y33.07 I-42.586 J42.585 F3000.
N485 X98.525 Y41.807 I-3.535 J8.737
N490 G1 Y63.5
N495 G2 X114.3 Y79.275 I15.775 J0.
N500 G1 X135.993
N505 G2 X144.73 Y66.316 I0. J-9.425
N510 X131.486 Y46.315 I-55.83 J22.584
N515 X111.485 Y33.07 Z-7.35 I-42.586 J42.585 F1500.
N520 X98.525 Y41.807 Z-8.113 I-3.535 J8.737
N525 G1 Y63.5 Z-9.012
N530 G2 X105.976 Y76.9 Z-9.675 I15.775 J0.
N535 X114.3 Y79.275 I8.324 J-13.4 F3000.
N540 G1 X135.993
N545 G2 X144.73 Y66.316 I0. J-9.425
N550 X111.485 Y33.07 I-55.83 J22.584
N555 X98.525 Y41.807 I-3.535 J8.737
N560 G1 Y63.5
N565 G2 X105.976 Y76.9 I15.775 J0.
N570 X114.3 Y79.275 Z-10.038 I8.324 J-13.4 F1500.
N575 G1 X135.993 Z-10.937
N580 G2 X144.73 Y66.316 Z-11.7 I0. J-9.425
N585 X139.527 Y56.281 Z-12.169 I-55.83 J22.584
N590 G1 Z-11.113
N595 G2 X131.561 Y46.39 I-50.627 J32.619
N600 G1 Z-12.696
N605 G2 X126.068 Y41.513 Z-13. I-42.661 J42.51
N610 X111.485 Y33.07 I-37.169 J47.387 F3000.
N615 X98.525 Y41.807 I-3.535 J8.737
N620 G1 Y63.5
N625 X98.526 Y63.707
N630 Z-11.113
N635 G2 X103.791 Y75.265 I15.774 J-0.207
N640 G1 Z-13. F1500.
N645 G2 X114.3 Y79.275 I10.509 J-11.765 F3000.
N650 G1 X135.993
N655 G2 X144.73 Y66.316 I0. J-9.425
N660 X139.527 Y56.281 I-55.83 J22.584
N665 G1 Z-11.113
N670 G2 X131.561 Y46.39 I-50.627 J32.619
N675 G1 Z-13. F1500.
N680 G2 X126.068 Y41.513 I-42.661 J42.51 F3000.
N685 G0 Z5.
N690 X131.75 Y131.219
N695 G1 Z2.5 F1500.
N700 G2 X144.73 Y111.484 Z1.515 I-42.85 J-42.319
N705 X135.993 Y98.525 Z0.752 I-8.737 J-3.534
N710 G1 X114.3 Z-0.146
N715 G2 X98.525 Y114.3 Z-1.173 I0. J15.775
N720 G1 Y135.993 Z-2.071
N725 G2 X111.485 Y144.73 Z-2.834 I9.425 J0.
N730 X144.73 Y111.484 Z-4.835 I-22.585 J-55.83
N735 X135.993 Y98.525 Z-5.598 I-8.737 J-3.534
N740 G1 X117.833 Z-6.35
N745 X114.3 F3000.
N750 G2 X98.525 Y114.3 I0. J15.775
N755 G1 Y135.993
N760 G2 X111.485 Y144.73 I9.425 J0.
N765 X144.73 Y111.484 I-22.585 J-55.83
N770 X135.993 Y98.525 I-8.737 J-3.534
N775 G1 X117.833
N780 X114.3 Z-6.496 F1500.
N785 G2 X98.525 Y114.3 Z-7.523 I0. J15.775
N790 G1 Y135.993 Z-8.421
N795 G2 X111.485 Y144.73 Z-9.184 I9.425 J0.
N800 X121.963 Y139.238 Z-9.675 I-22.585 J-55.83
N805 X144.73 Y111.484 I-33.063 J-50.338 F3000.
N810 X135.993 Y98.525 I-8.737 J-3.534
N815 G1 X117.833
N820 X114.3
N825 G2 X98.525 Y114.3 I0. J15.775
N830 G1 Y135.993
N835 G2 X111.485 Y144.73 I9.425 J0.
N840 X121.963 Y139.238 I-22.585 J-55.83
N845 X144.73 Y111.484 Z-11.185 I-33.063 J-50.338 F1500.
N850 X135.993 Y98.525 Z-11.948 I-8.737 J-3.534
N855 G1 X123.699 Z-12.457
N860 Z-11.113
N865 X114.3
N870 G2 X110.999 Y98.874 I0. J15.775
N875 G1 Z-12.984
N880 G2 X110.623 Y98.959 Z-13. I3.301 J15.426
N885 X98.525 Y114.3 I3.677 J15.341 F3000.
N890 G1 Y135.993
N895 G2 X111.485 Y144.73 I9.425 J0.
N900 X112.138 Y144.461 I-22.585 J-55.83
N905 G1 Z-11.113
N910 G2 X123.273 Y138.353 I-23.239 J-55.561
N915 G1 Z-13. F1500.
N920 G2 X144.73 Y111.484 I-34.373 J-49.452 F3000.
N925 X135.993 Y98.525 I-8.737 J-3.534
N930 G1 X123.699
N935 Z-11.113
N940 X114.3
N945 G2 X110.999 Y98.874 I0. J15.775
N950 G1 Z-13. F1500.
N955 G2 X110.623 Y98.959 I3.301 J15.426 F3000.
N960 G0 Z5.
N965 X74.134 Y144.388
N970 G1 Z2.5 F1500.
N975 G2 X79.275 Y135.993 Z2.071 I-4.284 J-8.395
N980 G1 Y114.3 Z1.173
N985 G2 X63.5 Y98.525 Z0.146 I-15.775 J0.
N990 G1 X41.807 Z-0.752
N995 G2 X33.07 Y111.484 Z-1.515 I0. J9.425
N1000 X66.316 Y144.73 Z-3.516 I55.83 J-22.584
N1005 X79.275 Y135.993 Z-4.279 I3.534 J-8.737
N1010 G1 Y114.3 Z-5.177
N1015 G2 X63.5 Y98.525 Z-6.204 I-15.775 J0.
N1020 G1 X59.967 Z-6.35
N1025 X41.807 F3000.
N1030 G2 X33.07 Y111.484 I0. J9.425
N1035 X66.316 Y144.73 I55.83 J-22.584
N1040 X79.275 Y135.993 I3.534 J-8.737
N1045 G1 Y114.3
N1050 G2 X63.5 Y98.525 I-15.775 J0.
N1055 G1 X59.967
N1060 X41.807 Z-7.102 F1500.
N1065 G2 X33.07 Y111.484 Z-7.865 I0. J9.425
N1070 X62.116 Y142.841 Z-9.675 I55.83 J-22.584
N1075 X66.316 Y144.73 I26.784 J-53.941 F3000.
N1080 X79.275 Y135.993 I3.534 J-8.737
N1085 G1 Y114.3
N1090 G2 X63.5 Y98.525 I-15.775 J0.
N1095 G1 X41.807
N1100 G2 X33.07 Y111.484 I0. J9.425
N1105 X62.116 Y142.841 I55.83 J-22.584
N1110 X66.316 Y144.73 Z-9.866 I26.784 J-53.941 F1500.
N1115 X79.275 Y135.993 Z-10.629 I3.534 J-8.737
N1120 G1 Y123.699 Z-11.138
N1125 Z-11.113
N1130 Y114.3
N1135 G2 X78.926 Y110.999 I-15.775 J0.
N1140 G1 Z-11.665
N1145 G2 X63.5 Y98.525 Z-12.554 I-15.426 J3.301
N1150 G1 X52.724 Z-13.
N1155 X41.807 F3000.
N1160 G2 X33.07 Y111.484 I0. J9.425
N1165 X33.339 Y112.138 I55.83 J-22.584
N1170 G1 Z-11.113
N1175 G2 X39.447 Y123.273 I55.561 J-23.238
N1180 G1 Z-13. F1500.
N1185 G2 X66.316 Y144.73 I49.453 J-34.373 F3000.
N1190 X79.275 Y135.993 I3.534 J-8.737
N1195 G1 Y123.699
N1200 Z-11.113
N1205 Y114.3
N1210 G2 X78.926 Y110.999 I-15.775 J0.
N1215 G1 Z-13. F1500.
N1220 G2 X63.5 Y98.525 I-15.426 J3.301 F3000.
N1225 G1 X52.724
N1230 G0 Z5.
N1235 X95.059 Y87.839
N1240 G1 Z2.5 F1500.
N1245 G2 X82.741 Y89.961 Z1.127 I-6.159 J1.061
N1250 X95.059 Y87.839 Z-0.246 I6.159 J-1.061
N1255 X82.741 Y89.961 Z-1.619 I-6.159 J1.061
N1260 X95.059 Y87.839 Z-2.992 I6.159 J-1.061
N1265 X82.741 Y89.961 Z-4.365 I-6.159 J1.061
N1270 X95.059 Y87.839 Z-5.738 I6.159 J-1.061
N1275 X88.9 Y82.65 Z-6.35 I-6.159 J1.061
N1280 Y95.15 I0. J6.25 F3000.
N1285 Y82.65 I0. J-6.25
N1290 Y95.15 Z-7.723 I0. J6.25 F1500.
N1295 Y82.65 Z-9.096 I0. J-6.25
N1300 X82.838 Y87.378 Z-9.675 I0. J6.25
N1305 X94.962 Y90.422 I6.062 J1.522 F3000.
N1310 X82.838 Y87.378 I-6.062 J-1.522
N1315 X94.962 Y90.422 Z-11.048 I6.062 J1.522 F1500.
N1320 X82.838 Y87.378 Z-12.421 I-6.062 J-1.522
N1325 X85.947 Y94.409 Z-13. I6.062 J1.522
N1330 X91.853 Y83.391 I2.953 J-5.509 F3000.
N1335 X85.947 Y94.409 I-2.953 J5.509
N1340 G0 Z5.
N1345 X26.502 Y39.678
N1350 G1 Z2.5 F1500.
N1355 G3 X151.298 Y138.122 Z-0.675 I62.398 J49.222
N1360 X26.502 Y39.678 Z-3.85 I-62.398 J-49.222
N1365 X168.375 Y88.9 Z-6.35 I62.398 J49.222
N1370 X9.425 I-79.475 J0. F3000.
N1375 X168.375 I79.475 J0.
N1380 X83.008 Y168.156 Z-8.013 I-79.475 J0. F1500.
N1385 X10.299 Y77.147 Z-9.675 I5.892 J-79.256
N1390 X167.501 Y100.653 I78.601 J11.753 F3000.
N1395 X10.299 Y77.147 I-78.601 J-11.753
N1400 X88.9 Y9.425 Z-11.113 I78.601 J11.753 F1500.
N1405 X95.25 Y9.679 I0. J79.475
N1410 G1 Z-11.193
N1415 G3 X154.333 Y43.791 Z-12.09 I-6.35 J79.221
N1420 G1 Z-11.113
N1425 G3 X160.683 Y54.789 I-65.433 J45.109
N1430 G1 Z-12.252
N1435 G3 X164.899 Y112.147 Z-13. I-71.783 J34.111
N1440 X160.682 Y123.012 I-75.999 J-23.247 F3000.
N1445 G1 Z-11.113
N1450 G3 X154.332 Y134.01 I-71.782 J-34.112
N1455 G1 Z-13. F1500.
N1460 G3 X95.25 Y168.121 I-65.432 J-45.11 F3000.
N1465 G1 Z-11.113
N1470 G3 X82.55 I-6.35 J-79.221
N1475 G1 Z-13. F1500.
N1480 G3 X23.467 Y134.009 I6.35 J-79.221 F3000.
N1485 G1 Z-11.113
N1490 G3 X17.117 Y123.011 I65.433 J-45.109
N1495 G1 Z-13. F1500.
N1500 G3 Y54.789 I71.783 J-34.111 F3000.
N1505 G1 Z-11.113
N1510 G3 X23.467 Y43.791 I71.783 J34.111
N1515 G1 Z-13. F1500.
N1520 G3 X82.55 Y9.679 I65.433 J45.109 F3000.
N1525 G1 Z-11.113
N1530 G3 X95.25 I6.35 J79.221
N1535 G1 Z-13. F1500.
N1540 G3 X154.333 Y43.791 I-6.35 J79.221 F3000.
N1545 G1 Z-11.113
N1550 G3 X160.683 Y54.789 I-65.433 J45.109
N1555 G1 Z-13. F1500.
N1560 G3 X164.899 Y112.147 I-71.783 J34.111 F3000.
N1565 G0 Z15.
N1570 G53 G0 Z0.
N1575 G53 G0 X-200 Y-150
N1580 M30
%
