%
(REALPARTS)
(MACHINE)
(  VENDOR AUTODESK)
(  MODEL GENERIC 3-AXIS ROUTER)
(  DESCRIPTION THIS MACHINE HAS XYZ AXIS ON THE HEAD)
(T20 D=6.35 CR=0. - ZMIN=-13.2 - FLAT END MILL)
(T21 D=12.7 CR=0. - ZMIN=-6.65 - FLAT END MILL)
(T23 D=6.35 CR=0. TAPER=30DEG - ZMIN=-1.69 - CHAMFER MILL)
N10 G90 G94 G17 G91.1
N15 G21
N20 G53 G0 Z0.
(DRILL2)
N25 G53 G0 X-200 Y0
N30 T23 M6
N35 T21
N40 S18000 M3
N45 G4 P2.0
N50 G17 G90 G94
N55 G54
N60 G0 X38.1 Y88.9
N65 G43 Z18. H23
N70 G0 Z8.
N75 G98 G81 X38.1 Y88.9 Z-1.69 R5. F1000.
N80 X88.9 Y139.7
N85 Y38.1
N90 X139.7 Y88.9
N95 G80
N100 G0 X215.9 Z8.
N105 G81 X215.9 Y88.9 Z-1.69 R5.31 F1000.
N110 X266.7 Y38.1
N115 X317.5 Y88.9
N120 G80
N125 G0 X393.7 Z8.
N130 G81 X393.7 Y88.9 Z-1.69 R5.01 F1000.
N135 X444.5 Y38.1
N140 X495.3 Y88.9
N145 X444.5 Y139.7
N150 G80
N155 G0 X266.7 Z8.
N160 G81 X266.7 Y139.7 Z-1.69 R5.31 F1000.
N165 G80
N170 G0 X88.9 Y444.5 Z8.
N175 G81 X88.9 Y444.5 Z-1.69 R5. F1000.
N180 X139.7 Y495.3
N185 X88.9 Y546.1
N190 X38.1 Y495.3
N195 G80
N200 G0 Z18.
N205 M5
N210 G53 G0 Z0.
(2D ADAPTIVE1)
N215 G53 G0 X-200 Y0
N220 M1
N225 T21 M6
N230 T20
N235 S18500 M3
N240 G4 P2.0
N245 G17 G90 G94
N250 G54
N255 G0 X164.787 Y285.922
N260 G43 Z15. H21
N265 G0 Z5.
N270 Z2.5
N275 G2 X159.231 Y294.055 Z2.102 I0.313 J6.178 F1500.
N280 X168.543 Y297.227 Z1.704 I5.862 J-1.953
N285 X169.107 Y287.417 Z1.307 I-3.447 J-5.12
N290 X159.514 Y289.497 Z0.909 I-4.006 J4.686
N295 X164.082 Y298.173 Z0.511 I5.581 J2.602
N300 X171.21 Y291.458 Z0.113 I1.012 J-6.067
N305 X162.841 Y286.393 Z-0.285 I-6.11 J0.648
N310 X160.204 Y295.802 Z-0.683 I2.257 J5.707
N315 X169.964 Y295.824 Z-1.08 I4.889 J-3.698
N320 X167.376 Y286.424 Z-1.478 I-4.866 J-3.716
N325 X159.022 Y291.429 Z-1.876 I-2.275 J5.677
N330 X166.072 Y298.131 Z-2.274 I6.072 J0.672
N335 X170.637 Y289.554 Z-2.672 I-0.977 J-6.023
N340 X161.162 Y287.453 Z-3.07 I-5.536 J2.551
N345 X161.674 Y297.134 Z-3.467 I3.935 J4.646
N350 X170.854 Y294.053 Z-3.865 I3.419 J-5.029
N355 X165.434 Y286.042 Z-4.263 I-5.754 J-1.946
N360 X159.173 Y293.4 Z-4.661 I-0.334 J6.058
N365 X167.928 Y297.458 Z-5.059 I5.92 J-1.298
N370 X169.493 Y287.947 Z-5.457 I-2.832 J-5.35
N375 X159.921 Y288.984 Z-5.854 I-4.392 J4.156
N380 X163.479 Y297.919 Z-6.252 I5.174 J3.115
N385 X171.126 Y292.106 Z-6.65 I1.615 J-5.813
N390 X159.061 I-6.033 J0.
N395 X171.126 I6.033 J0.
N400 G1 X171.13 Y291.783 F3500.
N405 X171.169 Y291.462
N410 X171.463 Y290.204
N415 X171.506 Y290.12
N420 X171.588 Y289.936
N425 X171.662 Y289.726
N430 X171.725 Y289.488
N435 X171.773 Y289.224
N440 X171.802 Y288.933
N445 X171.808 Y288.618
N450 X171.787 Y288.28
N455 X171.736 Y287.922
N460 X171.651 Y287.546
N465 X171.529 Y287.156
N470 X171.368 Y286.755
N475 X171.165 Y286.349
N480 X170.919 Y285.941
N485 X170.628 Y285.537
N490 X170.291 Y285.141
N495 X169.91 Y284.759
N500 X169.484 Y284.396
N505 X169.016 Y284.058
N510 X168.506 Y283.749
N515 X167.959 Y283.474
N520 X167.377 Y283.239
N525 X166.763 Y283.046
N530 X166.124 Y282.901
N535 X165.462 Y282.805
N540 X164.783 Y282.762
N545 X164.093 Y282.774
N550 X163.396 Y282.842
N555 X162.699 Y282.968
N560 X162.006 Y283.15
N565 X161.324 Y283.391
N570 X160.658 Y283.687
N575 X160.013 Y284.039
N580 X159.394 Y284.444
N585 X158.806 Y284.901
N590 X158.254 Y285.405
N595 X157.742 Y285.955
N600 X157.274 Y286.546
N605 X156.853 Y287.176
N610 X156.483 Y287.839
N615 X156.166 Y288.531
N620 X155.905 Y289.249
N625 X155.703 Y289.986
N630 X155.56 Y290.739
N635 X155.478 Y291.502
N640 X155.457 Y292.27
N645 X155.498 Y293.039
N650 X155.6 Y293.802
N655 X155.764 Y294.555
N660 X155.988 Y295.294
N665 X156.271 Y296.013
N670 X156.61 Y296.707
N675 X157.005 Y297.371
N680 X157.451 Y298.003
N685 X157.947 Y298.597
N690 X158.49 Y299.149
N695 X159.075 Y299.656
N700 X159.699 Y300.115
N705 X160.358 Y300.522
N710 X161.048 Y300.875
N715 X161.764 Y301.171
N720 X162.501 Y301.409
N725 X163.256 Y301.588
N730 X164.022 Y301.705
N735 X164.795 Y301.76
N740 X165.571 Y301.753
N745 X166.343 Y301.684
N750 X167.108 Y301.553
N755 X167.859 Y301.361
N760 X168.593 Y301.109
N765 X169.304 Y300.8
N770 X169.988 Y300.434
N775 X170.641 Y300.014
N780 X171.257 Y299.544
N785 X171.834 Y299.025
N790 X172.368 Y298.462
N795 X172.854 Y297.858
N800 X173.291 Y297.216
N805 X173.93 Y296.093
N810 X174.512 Y294.94
N815 X174.987 Y293.816
N820 X175.318 Y292.817
N825 X175.55 Y291.87
N830 X175.695 Y290.969
N835 X175.764 Y290.096
N840 X175.763 Y289.24
N845 X175.694 Y288.399
N850 X175.559 Y287.573
N855 X175.359 Y286.764
N860 X175.095 Y285.972
N865 X174.766 Y285.201
N870 X174.374 Y284.454
N875 X173.919 Y283.733
N880 X173.401 Y283.044
N885 X172.823 Y282.391
N890 X172.186 Y281.778
N895 X171.494 Y281.211
N900 X170.749 Y280.696
N905 X169.956 Y280.236
N910 X169.118 Y279.837
N915 X168.24 Y279.502
N920 X167.328 Y279.236
N925 X166.387 Y279.041
N930 X165.422 Y278.922
N935 X164.439 Y278.879
N940 X163.445 Y278.916
N945 X162.447 Y279.034
N950 X161.453 Y279.234
N955 X160.47 Y279.515
N960 X159.505 Y279.877
N965 X158.565 Y280.318
N970 X157.659 Y280.836
N975 X156.792 Y281.429
N980 X155.971 Y282.092
N985 X155.203 Y282.823
N990 X154.493 Y283.617
N995 X153.846 Y284.468
N1000 X153.268 Y285.371
N1005 X152.763 Y286.32
N1010 X152.334 Y287.31
N1015 X151.985 Y288.333
N1020 X151.72 Y289.383
N1025 X151.538 Y290.453
N1030 X151.444 Y291.536
N1035 X151.436 Y292.625
N1040 X151.516 Y293.712
N1045 X151.683 Y294.791
N1050 X151.936 Y295.854
N1055 X152.275 Y296.894
N1060 X152.695 Y297.904
N1065 X153.196 Y298.878
N1070 X153.774 Y299.809
N1075 X154.425 Y300.692
N1080 X155.146 Y301.519
N1085 X155.93 Y302.287
N1090 X156.774 Y302.989
N1095 X157.672 Y303.621
N1100 X158.618 Y304.18
N1105 X159.606 Y304.661
N1110 X160.63 Y305.061
N1115 X161.683 Y305.378
N1120 X162.758 Y305.609
N1125 X163.848 Y305.754
N1130 X164.947 Y305.81
N1135 X166.047 Y305.778
N1140 X167.14 Y305.658
N1145 X168.221 Y305.45
N1150 X169.281 Y305.157
N1155 X170.315 Y304.779
N1160 X171.315 Y304.319
N1165 X172.275 Y303.781
N1170 X173.189 Y303.167
N1175 X174.103 Y302.44
N1180 X175.047 Y301.557
N1185 X175.917 Y300.602
N1190 X176.713 Y299.585
N1195 X177.435 Y298.513
N1200 X178.077 Y297.391
N1205 X178.635 Y296.226
N1210 X179.102 Y295.022
N1215 X179.475 Y293.784
N1220 X179.744 Y292.539
N1225 X179.909 Y291.3
N1230 X179.974 Y290.071
N1235 X179.939 Y288.854
N1240 X179.808 Y287.653
N1245 X179.582 Y286.472
N1250 X179.263 Y285.315
N1255 X178.852 Y284.188
N1260 X178.351 Y283.095
N1265 X177.762 Y282.043
N1270 X177.088 Y281.037
N1275 X176.331 Y280.084
N1280 X175.495 Y279.189
N1285 X174.585 Y278.359
N1290 X173.604 Y277.6
N1295 X172.557 Y276.916
N1300 X171.45 Y276.314
N1305 X170.289 Y275.799
N1310 X169.079 Y275.374
N1315 X167.83 Y275.046
N1320 X166.558 Y274.819
N1325 X165.272 Y274.693
N1330 X163.98 Y274.67
N1335 X162.69 Y274.747
N1340 X161.41 Y274.924
N1345 X160.148 Y275.199
N1350 X158.91 Y275.569
N1355 X157.704 Y276.032
N1360 X156.536 Y276.585
N1365 X155.413 Y277.224
N1370 X154.341 Y277.945
N1375 X153.325 Y278.744
N1380 X152.373 Y279.617
N1385 X151.488 Y280.558
N1390 X150.676 Y281.563
N1395 X149.94 Y282.625
N1400 X149.284 Y283.738
N1405 X148.711 Y284.896
N1410 X148.223 Y286.093
N1415 X147.824 Y287.322
N1420 X147.515 Y288.576
N1425 X147.297 Y289.85
N1430 X147.173 Y291.136
N1435 X147.143 Y292.427
N1440 X147.208 Y293.718
N1445 X147.366 Y295.
N1450 X147.617 Y296.268
N1455 X147.958 Y297.514
N1460 X148.388 Y298.732
N1465 X148.904 Y299.917
N1470 X149.503 Y301.061
N1475 X150.183 Y302.16
N1480 X150.941 Y303.207
N1485 X151.773 Y304.195
N1490 X152.674 Y305.121
N1495 X153.64 Y305.979
N1500 X154.665 Y306.765
N1505 X155.744 Y307.477
N1510 X156.871 Y308.109
N1515 X158.039 Y308.659
N1520 X159.245 Y309.125
N1525 X160.48 Y309.503
N1530 X161.74 Y309.79
N1535 X163.017 Y309.985
N1540 X164.305 Y310.088
N1545 X165.597 Y310.097
N1550 X166.887 Y310.014
N1555 X168.167 Y309.839
N1560 X169.431 Y309.574
N1565 X170.674 Y309.219
N1570 X171.888 Y308.777
N1575 X173.066 Y308.248
N1580 X174.204 Y307.635
N1585 X175.297 Y306.946
N1590 X176.342 Y306.186
N1595 X177.336 Y305.361
N1600 X178.276 Y304.474
N1605 X179.157 Y303.529
N1610 X179.978 Y302.532
N1615 X180.738 Y301.486
N1620 X181.434 Y300.398
N1625 X182.062 Y299.268
N1630 X182.617 Y298.102
N1635 X183.099 Y296.903
N1640 X183.505 Y295.677
N1645 X183.836 Y294.428
N1650 X184.085 Y293.16
N1655 X184.25 Y291.878
N1660 X184.332 Y290.589
N1665 X184.329 Y289.297
N1670 X184.242 Y288.008
N1675 X184.072 Y286.727
N1680 X183.818 Y285.46
N1685 X183.477 Y284.214
N1690 X183.055 Y282.993
N1695 X182.552 Y281.802
N1700 X181.973 Y280.647
N1705 X181.32 Y279.533
N1710 X180.593 Y278.464
N1715 X179.796 Y277.447
N1720 X178.934 Y276.485
N1725 X178.011 Y275.581
N1730 X177.033 Y274.737
N1735 X176.001 Y273.959
N1740 X174.92 Y273.252
N1745 X173.795 Y272.616
N1750 X172.632 Y272.053
N1755 X171.436 Y271.563
N1760 X170.212 Y271.152
N1765 X168.963 Y270.82
N1770 X167.696 Y270.568
N1775 X166.415 Y270.394
N1780 X165.127 Y270.3
N1785 X163.835 Y270.287
N1790 X162.544 Y270.355
N1795 X161.261 Y270.502
N1800 X159.988 Y270.725
N1805 X158.731 Y271.025
N1810 X157.496 Y271.402
N1815 X156.285 Y271.854
N1820 X155.104 Y272.378
N1825 X153.956 Y272.97
N1830 X152.845 Y273.63
N1835 X151.776 Y274.356
N1840 X150.753 Y275.146
N1845 X149.779 Y275.994
N1850 X148.856 Y276.899
N1855 X147.988 Y277.855
N1860 X147.179 Y278.863
N1865 X146.431 Y279.917
N1870 X145.747 Y281.012
N1875 X145.126 Y282.146
N1880 X144.572 Y283.313
N1885 X144.089 Y284.511
N1890 X143.677 Y285.736
N1895 X143.337 Y286.982
N1900 X143.069 Y288.246
N1905 X142.874 Y289.524
N1910 X142.757 Y290.81
N1915 X142.715 Y292.102
N1920 X142.748 Y293.393
N1925 X142.854 Y294.681
N1930 X143.034 Y295.96
N1935 X143.29 Y297.227
N1940 X143.619 Y298.476
N1945 X144.02 Y299.705
N1950 X144.489 Y300.909
N1955 X145.026 Y302.084
N1960 X145.632 Y303.225
N1965 X146.304 Y304.328
N1970 X147.038 Y305.391
N1975 X147.832 Y306.411
N1980 X148.683 Y307.384
N1985 X149.589 Y308.304
N1990 X150.548 Y309.17
N1995 X151.555 Y309.98
N2000 X152.606 Y310.732
N2005 X153.698 Y311.422
N2010 X154.828 Y312.048
N2015 X155.993 Y312.606
N2020 X157.189 Y313.096
N2025 X158.41 Y313.518
N2030 X159.654 Y313.869
N2035 X160.915 Y314.147
N2040 X162.191 Y314.35
N2045 X163.477 Y314.479
N2050 X164.768 Y314.536
N2055 X166.06 Y314.519
N2060 X167.349 Y314.427
N2065 X168.63 Y314.26
N2070 X169.899 Y314.019
N2075 X171.153 Y313.707
N2080 X172.387 Y313.325
N2085 X173.597 Y312.872
N2090 X174.779 Y312.35
N2095 X175.93 Y311.763
N2100 X177.048 Y311.115
N2105 X178.129 Y310.408
N2110 X179.171 Y309.644
N2115 X180.17 Y308.824
N2120 X181.125 Y307.953
N2125 X182.032 Y307.034
N2130 X182.892 Y306.07
N2135 X183.703 Y305.063
N2140 X184.46 Y304.017
N2145 X185.162 Y302.932
N2150 X185.807 Y301.812
N2155 X186.394 Y300.661
N2160 X186.922 Y299.482
N2165 X187.39 Y298.278
N2170 X187.793 Y297.05
N2175 X188.131 Y295.803
N2180 X188.402 Y294.54
N2185 X188.608 Y293.264
N2190 X188.748 Y291.98
N2195 X188.819 Y290.69
N2200 X188.82 Y289.398
N2205 X188.752 Y288.107
N2210 X188.616 Y286.822
N2215 X188.411 Y285.547
N2220 X188.139 Y284.284
N2225 X187.798 Y283.037
N2230 X187.391 Y281.811
N2235 X186.918 Y280.609
N2240 X186.382 Y279.433
N2245 X185.784 Y278.288
N2250 X185.125 Y277.177
N2255 X184.406 Y276.103
N2260 X183.63 Y275.07
N2265 X182.801 Y274.079
N2270 X181.921 Y273.133
N2275 X180.992 Y272.235
N2280 X180.015 Y271.389
N2285 X178.995 Y270.596
N2290 X177.934 Y269.859
N2295 X176.836 Y269.177
N2300 X175.705 Y268.553
N2305 X174.542 Y267.99
N2310 X173.351 Y267.49
N2315 X172.135 Y267.053
N2320 X170.898 Y266.679
N2325 X169.644 Y266.368
N2330 X168.375 Y266.122
N2335 X167.096 Y265.944
N2340 X165.809 Y265.832
N2345 X164.517 Y265.786
N2350 X163.225 Y265.804
N2355 X161.936 Y265.887
N2360 X160.653 Y266.035
N2365 X159.378 Y266.249
N2370 X158.117 Y266.528
N2375 X156.871 Y266.87
N2380 X155.643 Y267.272
N2385 X154.436 Y267.734
N2390 X153.254 Y268.256
N2395 X152.101 Y268.838
N2400 X150.977 Y269.476
N2405 X149.887 Y270.169
N2410 X148.832 Y270.915
N2415 X147.814 Y271.71
N2420 X146.837 Y272.556
N2425 X145.904 Y273.45
N2430 X145.016 Y274.389
N2435 X144.175 Y275.369
N2440 X143.381 Y276.389
N2445 X142.638 Y277.446
N2450 X141.948 Y278.539
N2455 X141.314 Y279.664
N2460 X140.734 Y280.819
N2465 X140.212 Y282.
N2470 X139.746 Y283.206
N2475 X139.338 Y284.432
N2480 X138.991 Y285.676
N2485 X138.707 Y286.937
N2490 X138.484 Y288.209
N2495 X138.322 Y289.491
N2500 X138.221 Y290.779
N2505 X138.182 Y292.071
N2510 X138.207 Y293.363
N2515 X138.295 Y294.652
N2520 X138.445 Y295.935
N2525 X138.656 Y297.21
N2530 X138.927 Y298.473
N2535 X139.258 Y299.722
N2540 X139.65 Y300.953
N2545 X140.101 Y302.164
N2550 X140.61 Y303.351
N2555 X141.176 Y304.513
N2560 X141.795 Y305.647
N2565 X142.468 Y306.75
N2570 X143.195 Y307.818
N2575 X143.972 Y308.85
N2580 X144.798 Y309.843
N2585 X145.671 Y310.796
N2590 X146.587 Y311.707
N2595 X147.546 Y312.573
N2600 X148.546 Y313.391
N2605 X149.585 Y314.16
N2610 X150.659 Y314.878
N2615 X151.766 Y315.544
N2620 X152.903 Y316.158
N2625 X154.068 Y316.716
N2630 X155.26 Y317.216
N2635 X156.474 Y317.658
N2640 X157.708 Y318.042
N2645 X158.958 Y318.366
N2650 X160.223 Y318.631
N2655 X161.499 Y318.835
N2660 X162.783 Y318.977
N2665 X164.073 Y319.056
N2670 X165.365 Y319.074
N2675 X166.656 Y319.03
N2680 X167.944 Y318.926
N2685 X169.225 Y318.76
N2690 X170.497 Y318.532
N2695 X171.756 Y318.243
N2700 X173.001 Y317.895
N2705 X174.227 Y317.489
N2710 X175.434 Y317.027
N2715 X176.617 Y316.509
N2720 X177.775 Y315.936
N2725 X178.906 Y315.31
N2730 X180.006 Y314.633
N2735 X181.075 Y313.907
N2740 X182.111 Y313.135
N2745 X183.111 Y312.317
N2750 X184.074 Y311.455
N2755 X184.997 Y310.552
N2760 X185.88 Y309.608
N2765 X186.72 Y308.626
N2770 X187.517 Y307.61
N2775 X188.27 Y306.559
N2780 X188.976 Y305.477
N2785 X189.633 Y304.365
N2790 X190.241 Y303.225
N2795 X190.799 Y302.059
N2800 X191.305 Y300.87
N2805 X191.759 Y299.661
N2810 X192.16 Y298.433
N2815 X192.506 Y297.188
N2820 X192.796 Y295.928
N2825 X193.029 Y294.658
N2830 X193.206 Y293.378
N2835 X193.327 Y292.092
N2840 X193.391 Y290.801
N2845 X193.397 Y289.509
N2850 X193.344 Y288.218
N2855 X193.233 Y286.931
N2860 X193.064 Y285.65
N2865 X192.838 Y284.378
N2870 X192.556 Y283.117
N2875 X192.217 Y281.87
N2880 X191.822 Y280.64
N2885 X191.371 Y279.429
N2890 X190.866 Y278.24
N2895 X190.308 Y277.074
N2900 X189.699 Y275.935
N2905 X189.039 Y274.824
N2910 X188.329 Y273.744
N2915 X187.571 Y272.698
N2920 X186.767 Y271.687
N2925 X185.918 Y270.713
N2930 X185.027 Y269.777
N2935 X184.095 Y268.882
N2940 X183.124 Y268.03
N2945 X182.115 Y267.223
N2950 X181.071 Y266.461
N2955 X179.995 Y265.747
N2960 X178.888 Y265.081
N2965 X177.753 Y264.463
N2970 X176.591 Y263.897
N2975 X175.406 Y263.383
N2980 X174.199 Y262.923
N2985 X172.972 Y262.515
N2990 X171.73 Y262.162
N2995 X170.473 Y261.862
N3000 X169.204 Y261.617
N3005 X167.926 Y261.429
N3010 X166.641 Y261.296
N3015 X165.351 Y261.22
N3020 X164.059 Y261.199
N3025 X162.767 Y261.233
N3030 X161.478 Y261.322
N3035 X160.195 Y261.466
N3040 X158.918 Y261.667
N3045 X157.651 Y261.922
N3050 X156.397 Y262.23
N3055 X155.156 Y262.592
N3060 X153.932 Y263.005
N3065 X152.726 Y263.469
N3070 X151.542 Y263.985
N3075 X150.38 Y264.551
N3080 X149.244 Y265.166
N3085 X148.134 Y265.828
N3090 X147.053 Y266.535
N3095 X146.003 Y267.288
N3100 X144.984 Y268.083
N3105 X144.001 Y268.921
N3110 X143.054 Y269.8
N3115 X142.145 Y270.718
N3120 X141.274 Y271.673
N3125 X140.444 Y272.662
N3130 X139.655 Y273.686
N3135 X138.909 Y274.741
N3140 X138.209 Y275.827
N3145 X137.555 Y276.941
N3150 X136.948 Y278.082
N3155 X136.388 Y279.246
N3160 X135.876 Y280.432
N3165 X135.413 Y281.639
N3170 X135.001 Y282.863
N3175 X134.641 Y284.104
N3180 X134.333 Y285.359
N3185 X134.077 Y286.625
N3190 X133.873 Y287.901
N3195 X133.721 Y289.184
N3200 X133.622 Y290.473
N3205 X133.577 Y291.764
N3210 X133.586 Y293.056
N3215 X133.648 Y294.346
N3220 X133.763 Y295.633
N3225 X133.93 Y296.915
N3230 X134.149 Y298.188
N3235 X134.42 Y299.451
N3240 X134.743 Y300.702
N3245 X135.119 Y301.939
N3250 X135.545 Y303.158
N3255 X136.02 Y304.36
N3260 X136.544 Y305.541
N3265 X137.115 Y306.7
N3270 X137.733 Y307.834
N3275 X138.399 Y308.942
N3280 X139.109 Y310.021
N3285 X139.864 Y311.07
N3290 X140.66 Y312.087
N3295 X141.497 Y313.072
N3300 X142.373 Y314.021
N3305 X143.288 Y314.934
N3310 X144.239 Y315.808
N3315 X145.226 Y316.642
N3320 X146.247 Y317.435
N3325 X147.298 Y318.185
N3330 X148.38 Y318.893
N3335 X149.488 Y319.556
N3340 X150.624 Y320.173
N3345 X151.784 Y320.741
N3350 X152.966 Y321.262
N3355 X154.169 Y321.733
N3360 X155.39 Y322.156
N3365 X156.628 Y322.528
N3370 X157.879 Y322.851
N3375 X159.142 Y323.121
N3380 X160.416 Y323.339
N3385 X161.697 Y323.503
N3390 X162.984 Y323.616
N3395 X164.275 Y323.676
N3400 X165.567 Y323.684
N3405 X166.858 Y323.64
N3410 X168.147 Y323.542
N3415 X169.43 Y323.392
N3420 X170.706 Y323.188
N3425 X171.973 Y322.933
N3430 X173.228 Y322.628
N3435 X174.47 Y322.273
N3440 X175.698 Y321.868
N3445 X176.907 Y321.415
N3450 X178.098 Y320.912
N3455 X179.267 Y320.362
N3460 X180.414 Y319.767
N3465 X181.536 Y319.127
N3470 X182.633 Y318.445
N3475 X183.704 Y317.721
N3480 X184.745 Y316.956
N3485 X185.755 Y316.15
N3490 X186.733 Y315.306
N3495 X187.678 Y314.425
N3500 X188.589 Y313.509
N3505 X189.465 Y312.559
N3510 X190.305 Y311.577
N3515 X191.107 Y310.564
N3520 X191.869 Y309.521
N3525 X192.591 Y308.449
N3530 X193.271 Y307.351
N3535 X193.91 Y306.227
N3540 X194.505 Y305.081
N3545 X195.058 Y303.913
N3550 X195.567 Y302.725
N3555 X196.029 Y301.519
N3560 X196.445 Y300.295
N3565 X196.813 Y299.057
N3570 X197.134 Y297.805
N3575 X197.407 Y296.542
N3580 X197.632 Y295.27
N3585 X197.809 Y293.99
N3590 X197.937 Y292.705
N3595 X198.014 Y291.415
N3600 X198.04 Y290.123
N3605 X198.017 Y288.831
N3610 X197.945 Y287.541
N3615 X197.823 Y286.255
N3620 X197.652 Y284.974
N3625 X197.432 Y283.701
N3630 X197.162 Y282.437
N3635 X196.843 Y281.186
N3640 X196.475 Y279.947
N3645 X196.059 Y278.724
N3650 X195.597 Y277.517
N3655 X195.089 Y276.329
N3660 X194.536 Y275.161
N3665 X193.937 Y274.016
N3670 X193.293 Y272.896
N3675 X192.607 Y271.802
N3680 X191.878 Y270.734
N3685 X191.11 Y269.696
N3690 X190.302 Y268.688
N3695 X189.456 Y267.711
N3700 X188.573 Y266.768
N3705 X187.653 Y265.86
N3710 X186.699 Y264.989
N3715 X185.712 Y264.155
N3720 X184.694 Y263.36
N3725 X183.647 Y262.603
N3730 X182.571 Y261.886
N3735 X181.469 Y261.212
N3740 X180.342 Y260.581
N3745 X179.191 Y259.994
N3750 X178.018 Y259.451
N3755 X176.826 Y258.953
N3760 X175.616 Y258.5
N3765 X174.39 Y258.093
N3770 X173.149 Y257.732
N3775 X171.896 Y257.419
N3780 X170.631 Y257.154
N3785 X169.357 Y256.937
N3790 X168.076 Y256.769
N3795 X166.79 Y256.647
N3800 X165.5 Y256.574
N3805 X164.208 Y256.548
N3810 X162.916 Y256.571
N3815 X161.626 Y256.643
N3820 X160.34 Y256.763
N3825 X159.059 Y256.931
N3830 X157.785 Y257.146
N3835 X156.52 Y257.408
N3840 X155.265 Y257.715
N3845 X154.022 Y258.069
N3850 X152.793 Y258.469
N3855 X151.581 Y258.914
N3860 X150.385 Y259.404
N3865 X149.208 Y259.938
N3870 X148.052 Y260.514
N3875 X146.917 Y261.132
N3880 X145.805 Y261.79
N3885 X144.718 Y262.488
N3890 X143.658 Y263.227
N3895 X142.626 Y264.004
N3900 X141.623 Y264.819
N3905 X140.65 Y265.669
N3910 X139.708 Y266.554
N3915 X138.799 Y267.472
N3920 X137.923 Y268.422
N3925 X137.083 Y269.403
N3930 X136.28 Y270.415
N3935 X135.514 Y271.456
N3940 X134.786 Y272.523
N3945 X134.097 Y273.616
N3950 X133.447 Y274.733
N3955 X132.838 Y275.872
N3960 X132.27 Y277.033
N3965 X131.745 Y278.214
N3970 X131.263 Y279.413
N3975 X130.826 Y280.628
N3980 X130.432 Y281.859
N3985 X130.082 Y283.103
N3990 X129.777 Y284.358
N3995 X129.516 Y285.624
N4000 X129.302 Y286.898
N4005 X129.134 Y288.179
N4010 X129.013 Y289.465
N4015 X128.938 Y290.755
N4020 X128.909 Y292.047
N4025 X128.926 Y293.339
N4030 X128.989 Y294.629
N4035 X129.098 Y295.917
N4040 X129.253 Y297.199
N4045 X129.455 Y298.476
N4050 X129.702 Y299.744
N4055 X129.995 Y301.002
N4060 X130.333 Y302.249
N4065 X130.714 Y303.484
N4070 X131.139 Y304.704
N4075 X131.607 Y305.908
N4080 X132.118 Y307.095
N4085 X132.672 Y308.262
N4090 X133.268 Y309.409
N4095 X133.905 Y310.533
N4100 X134.581 Y311.634
N4105 X135.295 Y312.711
N4110 X136.047 Y313.762
N4115 X136.835 Y314.785
N4120 X137.661 Y315.779
N4125 X138.522 Y316.743
N4130 X139.416 Y317.675
N4135 X140.344 Y318.574
N4140 X141.303 Y319.44
N4145 X142.291 Y320.272
N4150 X143.309 Y321.069
N4155 X144.354 Y321.828
N4160 X145.426 Y322.549
N4165 X146.523 Y323.231
N4170 X147.645 Y323.873
N4175 X148.788 Y324.475
N4180 X149.952 Y325.036
N4185 X151.135 Y325.556
N4190 X152.335 Y326.034
N4195 X153.552 Y326.468
N4200 X154.784 Y326.858
N4205 X156.029 Y327.203
N4210 X157.286 Y327.504
N4215 X158.552 Y327.759
N4220 X159.827 Y327.97
N4225 X161.108 Y328.136
N4230 X162.395 Y328.257
N4235 X163.685 Y328.331
N4240 X164.976 Y328.358
N4245 X166.268 Y328.339
N4250 X167.559 Y328.274
N4255 X168.846 Y328.164
N4260 X170.129 Y328.008
N4265 X171.405 Y327.808
N4270 X172.674 Y327.563
N4275 X173.933 Y327.273
N4280 X175.181 Y326.938
N4285 X176.416 Y326.559
N4290 X177.637 Y326.138
N4295 X178.843 Y325.674
N4300 X180.032 Y325.169
N4305 X181.204 Y324.623
N4310 X182.355 Y324.038
N4315 X183.486 Y323.413
N4320 X184.595 Y322.749
N4325 X185.679 Y322.047
N4330 X186.74 Y321.308
N4335 X187.774 Y320.535
N4340 X188.782 Y319.726
N4345 X189.763 Y318.885
N4350 X190.715 Y318.011
N4355 X191.637 Y317.106
N4360 X192.527 Y316.17
N4365 X193.386 Y315.204
N4370 X194.211 Y314.21
N4375 X195.003 Y313.189
N4380 X195.761 Y312.143
N4385 X196.483 Y311.072
N4390 X197.17 Y309.977
N4395 X197.82 Y308.861
N4400 X198.432 Y307.723
N4405 X199.006 Y306.565
N4410 X199.54 Y305.388
N4415 X200.034 Y304.195
N4420 X200.489 Y302.985
N4425 X200.903 Y301.761
N4430 X201.276 Y300.524
N4435 X201.608 Y299.276
N4440 X201.898 Y298.016
N4445 X202.144 Y296.748
N4450 X202.347 Y295.472
N4455 X202.508 Y294.19
N4460 X202.625 Y292.903
N4465 X202.699 Y291.613
N4470 X202.73 Y290.322
N4475 X202.718 Y289.03
N4480 X202.661 Y287.739
N4485 X202.56 Y286.451
N4490 X202.416 Y285.167
N4495 X202.227 Y283.889
N4500 X201.996 Y282.617
N4505 X201.722 Y281.355
N4510 X201.406 Y280.102
N4515 X201.048 Y278.861
N4520 X200.647 Y277.632
N4525 X200.205 Y276.418
N4530 X199.721 Y275.22
N4535 X199.197 Y274.039
N4540 X198.633 Y272.877
N4545 X198.03 Y271.734
N4550 X197.389 Y270.612
N4555 X196.71 Y269.513
N4560 X195.995 Y268.437
N4565 X195.243 Y267.386
N4570 X194.455 Y266.362
N4575 X193.633 Y265.365
N4580 X192.778 Y264.396
N4585 X191.891 Y263.457
N4590 X190.973 Y262.548
N4595 X190.025 Y261.67
N4600 X189.048 Y260.825
N4605 X188.042 Y260.014
N4610 X187.009 Y259.237
N4615 X185.951 Y258.495
N4620 X184.869 Y257.79
N4625 X183.763 Y257.121
N4630 X182.636 Y256.489
N4635 X181.489 Y255.895
N4640 X180.322 Y255.34
N4645 X179.138 Y254.824
N4650 X177.936 Y254.349
N4655 X176.72 Y253.914
N4660 X175.489 Y253.52
N4665 X174.246 Y253.167
N4670 X172.992 Y252.855
N4675 X171.729 Y252.584
N4680 X170.457 Y252.355
N4685 X169.179 Y252.169
N4690 X167.895 Y252.025
N4695 X166.607 Y251.925
N4700 X165.316 Y251.866
N4705 X164.024 Y251.85
N4710 X162.732 Y251.877
N4715 X161.442 Y251.945
N4720 X160.155 Y252.055
N4725 X158.872 Y252.208
N4730 X157.594 Y252.403
N4735 X156.324 Y252.64
N4740 X155.062 Y252.918
N4745 X153.81 Y253.237
N4750 X152.569 Y253.597
N4755 X151.341 Y253.996
N4760 X150.125 Y254.435
N4765 X148.925 Y254.913
N4770 X147.741 Y255.43
N4775 X146.574 Y255.986
N4780 X145.427 Y256.579
N4785 X144.298 Y257.209
N4790 X143.191 Y257.875
N4795 X142.106 Y258.576
N4800 X141.044 Y259.311
N4805 X140.006 Y260.081
N4810 X138.993 Y260.883
N4815 X138.007 Y261.718
N4820 X137.048 Y262.584
N4825 X136.118 Y263.481
N4830 X135.217 Y264.407
N4835 X134.346 Y265.361
N4840 X133.506 Y266.343
N4845 X132.697 Y267.35
N4850 X131.921 Y268.384
N4855 X131.179 Y269.441
N4860 X130.471 Y270.522
N4865 X129.799 Y271.625
N4870 X129.161 Y272.749
N4875 X128.56 Y273.893
N4880 X127.996 Y275.055
N4885 X127.469 Y276.235
N4890 X126.979 Y277.431
N4895 X126.528 Y278.641
N4900 X126.116 Y279.866
N4905 X125.743 Y281.103
N4910 X125.41 Y282.351
N4915 X125.117 Y283.61
N4920 X124.864 Y284.877
N4925 X124.651 Y286.151
N4930 X124.478 Y287.432
N4935 X124.346 Y288.717
N4940 X124.255 Y290.006
N4945 X124.205 Y291.297
N4950 X124.197 Y292.589
N4955 X124.229 Y293.881
N4960 X124.303 Y295.171
N4965 X124.417 Y296.458
N4970 X124.571 Y297.74
N4975 X124.766 Y299.018
N4980 X125.001 Y300.288
N4985 X125.277 Y301.55
N4990 X125.593 Y302.803
N4995 X125.948 Y304.045
N5000 X126.342 Y305.276
N5005 X126.776 Y306.493
N5010 X127.247 Y307.696
N5015 X127.756 Y308.884
N5020 X128.302 Y310.055
N5025 X128.885 Y311.208
N5030 X129.504 Y312.342
N5035 X130.159 Y313.455
N5040 X130.849 Y314.548
N5045 X131.574 Y315.618
N5050 X132.331 Y316.664
N5055 X133.121 Y317.687
N5060 X133.943 Y318.684
N5065 X134.796 Y319.655
N5070 X135.679 Y320.597
N5075 X136.592 Y321.512
N5080 X137.533 Y322.397
N5085 X138.502 Y323.252
N5090 X139.497 Y324.076
N5095 X140.518 Y324.868
N5100 X141.563 Y325.628
N5105 X142.631 Y326.354
N5110 X143.722 Y327.047
N5115 X144.835 Y327.704
N5120 X145.967 Y328.326
N5125 X147.119 Y328.911
N5130 X148.289 Y329.46
N5135 X149.475 Y329.972
N5140 X150.677 Y330.446
N5145 X151.893 Y330.883
N5150 X153.122 Y331.281
N5155 X154.363 Y331.639
N5160 X155.616 Y331.958
N5165 X156.877 Y332.238
N5170 X158.147 Y332.477
N5175 X159.423 Y332.676
N5180 X160.706 Y332.835
N5185 X161.992 Y332.954
N5190 X163.282 Y333.032
N5195 X164.573 Y333.07
N5200 X165.865 Y333.067
N5205 X167.157 Y333.022
N5210 X168.446 Y332.937
N5215 X169.732 Y332.812
N5220 X171.013 Y332.647
N5225 X172.289 Y332.442
N5230 X173.558 Y332.197
N5235 X174.818 Y331.913
N5240 X176.069 Y331.59
N5245 X177.309 Y331.227
N5250 X178.538 Y330.826
N5255 X179.753 Y330.387
N5260 X180.954 Y329.911
N5265 X182.14 Y329.399
N5270 X183.31 Y328.85
N5275 X184.462 Y328.266
N5280 X185.597 Y327.647
N5285 X186.711 Y326.994
N5290 X187.805 Y326.307
N5295 X188.878 Y325.587
N5300 X189.928 Y324.834
N5305 X190.956 Y324.05
N5310 X191.959 Y323.236
N5315 X192.937 Y322.392
N5320 X193.89 Y321.52
N5325 X194.816 Y320.619
N5330 X195.715 Y319.691
N5335 X196.586 Y318.736
N5340 X197.427 Y317.755
N5345 X198.239 Y316.75
N5350 X199.02 Y315.721
N5355 X199.771 Y314.669
N5360 X200.49 Y313.596
N5365 X201.177 Y312.501
N5370 X201.831 Y311.387
N5375 X202.452 Y310.254
N5380 X203.038 Y309.103
N5385 X203.59 Y307.934
N5390 X204.106 Y306.75
N5395 X204.587 Y305.551
N5400 X205.032 Y304.338
N5405 X205.441 Y303.112
N5410 X205.814 Y301.875
N5415 X206.149 Y300.628
N5420 X206.448 Y299.37
N5425 X206.708 Y298.105
N5430 X206.929 Y296.832
N5435 X207.113 Y295.553
N5440 X207.258 Y294.269
N5445 X207.364 Y292.981
N5450 X207.432 Y291.691
N5455 X207.461 Y290.399
N5460 X207.452 Y289.107
N5465 X207.404 Y287.816
N5470 X207.317 Y286.527
N5475 X207.191 Y285.241
N5480 X207.025 Y283.96
N5485 X206.821 Y282.684
N5490 X206.579 Y281.415
N5495 X206.299 Y280.153
N5500 X205.982 Y278.901
N5505 X205.626 Y277.659
N5510 X205.234 Y276.428
N5515 X204.804 Y275.209
N5520 X204.337 Y274.004
N5525 X203.834 Y272.814
N5530 X203.295 Y271.64
N5535 X202.721 Y270.483
N5540 X202.113 Y269.343
N5545 X201.47 Y268.222
N5550 X200.794 Y267.12
N5555 X200.086 Y266.04
N5560 X199.345 Y264.982
N5565 X198.572 Y263.946
N5570 X197.768 Y262.935
N5575 X196.933 Y261.948
N5580 X196.07 Y260.987
N5585 X195.178 Y260.052
N5590 X194.259 Y259.144
N5595 X193.313 Y258.264
N5600 X192.341 Y257.413
N5605 X191.344 Y256.591
N5610 X190.322 Y255.801
N5615 X189.277 Y255.041
N5620 X188.209 Y254.313
N5625 X187.121 Y253.617
N5630 X186.012 Y252.954
N5635 X184.884 Y252.324
N5640 X183.738 Y251.727
N5645 X182.574 Y251.165
N5650 X181.395 Y250.638
N5655 X180.2 Y250.147
N5660 X178.99 Y249.692
N5665 X177.768 Y249.273
N5670 X176.534 Y248.89
N5675 X175.289 Y248.544
N5680 X174.035 Y248.235
N5685 X172.772 Y247.962
N5690 X171.501 Y247.727
N5695 X170.224 Y247.529
N5700 X168.942 Y247.37
N5705 X167.656 Y247.249
N5710 X166.367 Y247.166
N5715 X165.075 Y247.121
N5720 X163.783 Y247.113
N5725 X162.492 Y247.143
N5730 X161.201 Y247.211
N5735 X159.913 Y247.316
N5740 X158.629 Y247.459
N5745 X157.35 Y247.64
N5750 X156.076 Y247.858
N5755 X154.81 Y248.114
N5760 X153.551 Y248.406
N5765 X152.302 Y248.735
N5770 X151.062 Y249.099
N5775 X149.834 Y249.5
N5780 X148.618 Y249.935
N5785 X147.414 Y250.406
N5790 X146.225 Y250.911
N5795 X145.051 Y251.451
N5800 X143.894 Y252.026
N5805 X142.754 Y252.633
N5810 X141.631 Y253.273
N5815 X140.528 Y253.945
N5820 X139.444 Y254.649
N5825 X138.381 Y255.383
N5830 X137.339 Y256.147
N5835 X136.32 Y256.941
N5840 X135.324 Y257.765
N5845 X134.353 Y258.617
N5850 X133.406 Y259.496
N5855 X132.486 Y260.403
N5860 X131.591 Y261.335
N5865 X130.724 Y262.293
N5870 X129.884 Y263.275
N5875 X129.072 Y264.28
N5880 X128.29 Y265.308
N5885 X127.537 Y266.358
N5890 X126.815 Y267.43
N5895 X126.125 Y268.522
N5900 X125.465 Y269.633
N5905 X124.838 Y270.763
N5910 X124.243 Y271.91
N5915 X123.682 Y273.073
N5920 X123.153 Y274.252
N5925 X122.658 Y275.445
N5930 X122.197 Y276.652
N5935 X121.771 Y277.872
N5940 X121.38 Y279.104
N5945 X121.025 Y280.346
N5950 X120.705 Y281.598
N5955 X120.421 Y282.859
N5960 X120.173 Y284.127
N5965 X119.961 Y285.401
N5970 X119.785 Y286.681
N5975 X119.645 Y287.965
N5980 X119.542 Y289.253
N5985 X119.476 Y290.544
N5990 X119.447 Y291.836
N5995 X119.454 Y293.128
N6000 X119.499 Y294.419
N6005 X119.58 Y295.708
N6010 X119.697 Y296.995
N6015 X119.85 Y298.278
N6020 X120.04 Y299.556
N6025 X120.266 Y300.828
N6030 X120.528 Y302.093
N6035 X120.826 Y303.351
N6040 X121.16 Y304.599
N6045 X121.529 Y305.837
N6050 X121.934 Y307.064
N6055 X122.372 Y308.279
N6060 X122.845 Y309.482
N6065 X123.351 Y310.671
N6070 X123.891 Y311.845
N6075 X124.463 Y313.003
N6080 X125.069 Y314.144
N6085 X125.707 Y315.268
N6090 X126.377 Y316.372
N6095 X127.078 Y317.458
N6100 X127.809 Y318.523
N6105 X128.57 Y319.568
N6110 X129.36 Y320.59
N6115 X130.178 Y321.59
N6120 X131.024 Y322.566
N6125 X131.898 Y323.518
N6130 X132.799 Y324.445
N6135 X133.725 Y325.345
N6140 X134.677 Y326.219
N6145 X135.653 Y327.065
N6150 X136.653 Y327.884
N6155 X137.675 Y328.674
N6160 X138.719 Y329.436
N6165 X139.784 Y330.167
N6170 X140.869 Y330.869
N6175 X141.974 Y331.539
N6180 X143.097 Y332.177
N6185 X144.238 Y332.782
N6190 X145.396 Y333.356
N6195 X146.57 Y333.896
N6200 X147.758 Y334.403
N6205 X148.96 Y334.877
N6210 X150.175 Y335.317
N6215 X151.402 Y335.722
N6220 X152.64 Y336.092
N6225 X153.888 Y336.427
N6230 X155.145 Y336.726
N6235 X156.41 Y336.989
N6240 X157.682 Y337.217
N6245 X158.96 Y337.408
N6250 X160.242 Y337.564
N6255 X161.529 Y337.684
N6260 X162.818 Y337.767
N6265 X164.109 Y337.815
N6270 X165.401 Y337.825
N6275 X166.693 Y337.799
N6280 X167.984 Y337.736
N6285 X169.272 Y337.636
N6290 X170.557 Y337.501
N6295 X171.837 Y337.33
N6300 X173.113 Y337.123
N6305 X174.382 Y336.881
N6310 X175.644 Y336.603
N6315 X176.898 Y336.291
N6320 X178.142 Y335.943
N6325 X179.376 Y335.561
N6330 X180.599 Y335.144
N6335 X181.81 Y334.693
N6340 X183.008 Y334.209
N6345 X184.192 Y333.692
N6350 X185.362 Y333.143
N6355 X186.516 Y332.563
N6360 X187.654 Y331.95
N6365 X188.774 Y331.307
N6370 X189.877 Y330.634
N6375 X190.96 Y329.93
N6380 X192.024 Y329.196
N6385 X193.067 Y328.434
N6390 X194.09 Y327.644
N6395 X195.09 Y326.827
N6400 X196.069 Y325.983
N6405 X197.024 Y325.113
N6410 X197.955 Y324.217
N6415 X198.863 Y323.297
N6420 X199.744 Y322.353
N6425 X200.6 Y321.384
N6430 X201.429 Y320.393
N6435 X202.231 Y319.38
N6440 X203.006 Y318.346
N6445 X203.752 Y317.292
N6450 X204.471 Y316.218
N6455 X205.16 Y315.125
N6460 X205.82 Y314.015
N6465 X206.451 Y312.887
N6470 X207.05 Y311.742
N6475 X207.618 Y310.582
N6480 X208.154 Y309.406
N6485 X208.659 Y308.217
N6490 X209.131 Y307.014
N6495 X209.572 Y305.799
N6500 X209.979 Y304.573
N6505 X210.354 Y303.337
N6510 X210.696 Y302.091
N6515 X211.004 Y300.836
N6520 X211.277 Y299.573
N6525 X211.517 Y298.304
N6530 X211.721 Y297.028
N6535 X211.891 Y295.747
N6540 X212.027 Y294.462
N6545 X212.128 Y293.174
N6550 X212.194 Y291.884
N6555 X212.226 Y290.592
N6560 X212.222 Y289.3
N6565 X212.184 Y288.008
N6570 X212.111 Y286.718
N6575 X212.002 Y285.431
N6580 X211.858 Y284.147
N6585 X211.68 Y282.867
N6590 X211.466 Y281.593
N6595 X211.219 Y280.325
N6600 X210.937 Y279.064
N6605 X210.622 Y277.811
N6610 X210.273 Y276.567
N6615 X209.89 Y275.333
N6620 X209.473 Y274.11
N6625 X209.023 Y272.899
N6630 X208.54 Y271.7
N6635 X208.025 Y270.516
N6640 X207.477 Y269.345
N6645 X206.899 Y268.19
N6650 X206.289 Y267.051
N6655 X205.649 Y265.928
N6660 X204.979 Y264.824
N6665 X204.279 Y263.738
N6670 X203.549 Y262.671
N6675 X202.791 Y261.625
N6680 X202.004 Y260.601
N6685 X201.189 Y259.597
N6690 X200.348 Y258.617
N6695 X199.481 Y257.659
N6700 X198.588 Y256.725
N6705 X197.671 Y255.815
N6710 X196.729 Y254.93
N6715 X195.764 Y254.071
N6720 X194.776 Y253.239
N6725 X193.766 Y252.434
N6730 X192.733 Y251.656
N6735 X191.681 Y250.907
N6740 X190.608 Y250.187
N6745 X189.517 Y249.495
N6750 X188.407 Y248.833
N6755 X187.281 Y248.201
N6760 X186.137 Y247.599
N6765 X184.978 Y247.027
N6770 X183.804 Y246.488
N6775 X182.616 Y245.981
N6780 X181.415 Y245.505
N6785 X180.201 Y245.063
N6790 X178.976 Y244.652
N6795 X177.74 Y244.275
N6800 X176.495 Y243.93
N6805 X175.241 Y243.619
N6810 X173.979 Y243.341
N6815 X172.71 Y243.096
N6820 X171.436 Y242.885
N6825 X170.156 Y242.709
N6830 X168.871 Y242.568
N6835 X167.584 Y242.46
N6840 X166.294 Y242.387
N6845 X165.002 Y242.348
N6850 X163.71 Y242.343
N6855 X162.418 Y242.371
N6860 X161.128 Y242.434
N6865 X159.839 Y242.53
N6870 X158.554 Y242.661
N6875 X157.273 Y242.826
N6880 X155.996 Y243.025
N6885 X154.725 Y243.258
N6890 X153.461 Y243.524
N6895 X152.204 Y243.823
N6900 X150.955 Y244.155
N6905 X149.715 Y244.519
N6910 X148.486 Y244.916
N6915 X147.267 Y245.344
N6920 X146.059 Y245.804
N6925 X144.865 Y246.296
N6930 X143.683 Y246.82
N6935 X142.516 Y247.374
N6940 X141.364 Y247.959
N6945 X140.228 Y248.574
N6950 X139.108 Y249.218
N6955 X138.005 Y249.89
N6960 X136.919 Y250.592
N6965 X135.852 Y251.32
N6970 X134.805 Y252.077
N6975 X133.778 Y252.86
N6980 X132.771 Y253.671
N6985 X131.787 Y254.508
N6990 X130.824 Y255.37
N6995 X129.885 Y256.256
N7000 X128.968 Y257.167
N7005 X128.075 Y258.101
N7010 X127.207 Y259.057
N7015 X126.363 Y260.036
N7020 X125.545 Y261.036
N7025 X124.753 Y262.057
N7030 X123.988 Y263.099
N7035 X123.251 Y264.16
N7040 X122.542 Y265.24
N7045 X121.861 Y266.338
N7050 X121.208 Y267.453
N7055 X120.585 Y268.584
N7060 X119.99 Y269.731
N7065 X119.425 Y270.893
N7070 X118.89 Y272.07
N7075 X118.386 Y273.259
N7080 X117.912 Y274.461
N7085 X117.471 Y275.675
N7090 X117.061 Y276.901
N7095 X116.682 Y278.136
N7100 X116.336 Y279.381
N7105 X116.022 Y280.634
N7110 X115.74 Y281.895
N7115 X115.49 Y283.163
N7120 X115.273 Y284.437
N7125 X115.088 Y285.715
N7130 X114.937 Y286.999
N7135 X114.819 Y288.285
N7140 X114.734 Y289.574
N7145 X114.683 Y290.865
N7150 X114.665 Y292.157
N7155 X114.681 Y293.449
N7160 X114.729 Y294.741
N7165 X114.81 Y296.03
N7170 X114.924 Y297.317
N7175 X115.071 Y298.601
N7180 X115.25 Y299.88
N7185 X115.463 Y301.155
N7190 X115.709 Y302.423
N7195 X115.988 Y303.685
N7200 X116.299 Y304.939
N7205 X116.642 Y306.185
N7210 X117.017 Y307.421
N7215 X117.423 Y308.648
N7220 X117.86 Y309.863
N7225 X118.328 Y311.068
N7230 X118.827 Y312.26
N7235 X119.356 Y313.438
N7240 X119.915 Y314.603
N7245 X120.505 Y315.753
N7250 X121.124 Y316.887
N7255 X121.772 Y318.005
N7260 X122.449 Y319.105
N7265 X123.153 Y320.189
N7270 X123.884 Y321.254
N7275 X124.643 Y322.3
N7280 X125.427 Y323.326
N7285 X126.238 Y324.332
N7290 X127.074 Y325.317
N7295 X127.936 Y326.28
N7300 X128.822 Y327.22
N7305 X129.733 Y328.137
N7310 X130.666 Y329.03
N7315 X131.622 Y329.9
N7320 X132.6 Y330.744
N7325 X133.598 Y331.564
N7330 X134.618 Y332.358
N7335 X135.657 Y333.126
N7340 X136.715 Y333.867
N7345 X137.793 Y334.58
N7350 X138.888 Y335.265
N7355 X140.001 Y335.921
N7360 X141.131 Y336.549
N7365 X142.275 Y337.148
N7370 X143.435 Y337.717
N7375 X144.609 Y338.257
N7380 X145.797 Y338.767
N7385 X146.996 Y339.246
N7390 X148.208 Y339.695
N7395 X149.431 Y340.112
N7400 X150.664 Y340.497
N7405 X151.907 Y340.851
N7410 X153.158 Y341.172
N7415 X154.418 Y341.461
N7420 X155.684 Y341.718
N7425 X156.956 Y341.943
N7430 X158.234 Y342.135
N7435 X159.516 Y342.295
N7440 X160.802 Y342.423
N7445 X162.09 Y342.517
N7450 X163.381 Y342.579
N7455 X164.673 Y342.606
N7460 X165.965 Y342.601
N7465 X167.256 Y342.562
N7470 X168.546 Y342.491
N7475 X169.834 Y342.387
N7480 X171.119 Y342.251
N7485 X172.4 Y342.082
N7490 X173.676 Y341.881
N7495 X174.947 Y341.648
N7500 X176.212 Y341.382
N7505 X177.469 Y341.085
N7510 X178.718 Y340.755
N7515 X179.959 Y340.393
N7520 X181.19 Y340.001
N7525 X182.41 Y339.577
N7530 X183.62 Y339.124
N7535 X184.818 Y338.64
N7540 X186.004 Y338.126
N7545 X187.176 Y337.584
N7550 X188.335 Y337.012
N7555 X189.479 Y336.412
N7560 X190.608 Y335.782
N7565 X191.72 Y335.125
N7570 X192.815 Y334.44
N7575 X193.894 Y333.728
N7580 X194.954 Y332.99
N7585 X195.996 Y332.225
N7590 X197.019 Y331.436
N7595 X198.022 Y330.622
N7600 X199.005 Y329.783
N7605 X199.967 Y328.921
N7610 X200.907 Y328.035
N7615 X201.826 Y327.126
N7620 X202.721 Y326.194
N7625 X203.593 Y325.241
N7630 X204.441 Y324.267
N7635 X205.266 Y323.272
N7640 X206.066 Y322.257
N7645 X206.841 Y321.223
N7650 X207.591 Y320.171
N7655 X208.315 Y319.101
N7660 X209.013 Y318.014
N7665 X209.684 Y316.91
N7670 X210.327 Y315.789
N7675 X210.943 Y314.653
N7680 X211.53 Y313.502
N7685 X212.089 Y312.338
N7690 X212.62 Y311.159
N7695 X213.122 Y309.969
N7700 X213.595 Y308.766
N7705 X214.038 Y307.553
N7710 X214.452 Y306.329
N7715 X214.836 Y305.095
N7720 X215.19 Y303.853
N7725 X215.512 Y302.601
N7730 X215.804 Y301.343
N7735 X216.064 Y300.077
N7740 X216.294 Y298.806
N7745 X216.492 Y297.529
N7750 X216.659 Y296.248
N7755 X216.794 Y294.963
N7760 X216.899 Y293.675
N7765 X216.971 Y292.385
N7770 X217.013 Y291.093
N7775 X217.022 Y289.801
N7780 X216.999 Y288.51
N7785 X216.945 Y287.219
N7790 X216.858 Y285.93
N7795 X216.739 Y284.643
N7800 X216.589 Y283.36
N7805 X216.407 Y282.08
N7810 X216.194 Y280.806
N7815 X215.95 Y279.537
N7820 X215.675 Y278.275
N7825 X215.37 Y277.019
N7830 X215.033 Y275.772
N7835 X214.665 Y274.533
N7840 X214.266 Y273.304
N7845 X213.837 Y272.086
N7850 X213.378 Y270.878
N7855 X212.889 Y269.682
N7860 X212.371 Y268.498
N7865 X211.824 Y267.328
N7870 X211.249 Y266.171
N7875 X210.646 Y265.028
N7880 X210.015 Y263.901
N7885 X209.356 Y262.789
N7890 X208.669 Y261.695
N7895 X207.955 Y260.618
N7900 X207.215 Y259.559
N7905 X206.449 Y258.518
N7910 X205.658 Y257.497
N7915 X204.842 Y256.495
N7920 X204.001 Y255.514
N7925 X203.137 Y254.553
N7930 X202.25 Y253.614
N7935 X201.34 Y252.696
N7940 X200.408 Y251.802
N7945 X199.453 Y250.931
N7950 X198.478 Y250.084
N7955 X197.481 Y249.262
N7960 X196.465 Y248.464
N7965 X195.43 Y247.691
N7970 X194.376 Y246.943
N7975 X193.304 Y246.222
N7980 X192.215 Y245.527
N7985 X191.109 Y244.858
N7990 X189.988 Y244.216
N7995 X188.851 Y243.603
N8000 X187.699 Y243.017
N8005 X186.533 Y242.46
N8010 X185.354 Y241.932
N8015 X184.162 Y241.433
N8020 X182.958 Y240.963
N8025 X181.744 Y240.523
N8030 X180.519 Y240.112
N8035 X179.284 Y239.73
N8040 X178.041 Y239.378
N8045 X176.79 Y239.056
N8050 X175.531 Y238.765
N8055 X174.265 Y238.506
N8060 X172.994 Y238.277
N8065 X171.717 Y238.079
N8070 X170.436 Y237.912
N8075 X169.151 Y237.776
N8080 X167.863 Y237.671
N8085 X166.573 Y237.598
N8090 X165.282 Y237.554
N8095 X163.99 Y237.542
N8100 X162.698 Y237.561
N8105 X161.407 Y237.611
N8110 X160.117 Y237.692
N8115 X158.83 Y237.805
N8120 X157.546 Y237.949
N8125 X156.266 Y238.124
N8130 X154.99 Y238.329
N8135 X153.72 Y238.565
N8140 X152.456 Y238.831
N8145 X151.198 Y239.127
N8150 X149.948 Y239.453
N8155 X148.705 Y239.808
N8160 X147.472 Y240.193
N8165 X146.248 Y240.608
N8170 X145.035 Y241.052
N8175 X143.833 Y241.525
N8180 X142.642 Y242.027
N8185 X141.464 Y242.557
N8190 X140.299 Y243.116
N8195 X139.147 Y243.701
N8200 X138.009 Y244.314
N8205 X136.887 Y244.953
N8210 X135.779 Y245.619
N8215 X134.688 Y246.31
N8220 X133.613 Y247.028
N8225 X132.556 Y247.771
N8230 X131.518 Y248.539
N8235 X130.497 Y249.332
N8240 X129.497 Y250.149
N8245 X128.515 Y250.99
N8250 X127.554 Y251.853
N8255 X126.613 Y252.739
N8260 X125.694 Y253.647
N8265 X124.796 Y254.575
N8270 X123.919 Y255.525
N8275 X123.066 Y256.495
N8280 X122.236 Y257.486
N8285 X121.431 Y258.496
N8290 X120.649 Y259.525
N8295 X119.892 Y260.572
N8300 X119.16 Y261.636
N8305 X118.454 Y262.718
N8310 X117.772 Y263.816
N8315 X117.117 Y264.93
N8320 X116.488 Y266.058
N8325 X115.885 Y267.201
N8330 X115.31 Y268.358
N8335 X114.762 Y269.528
N8340 X114.242 Y270.711
N8345 X113.751 Y271.906
N8350 X113.288 Y273.112
N8355 X112.853 Y274.329
N8360 X112.447 Y275.556
N8365 X112.07 Y276.791
N8370 X111.722 Y278.036
N8375 X111.404 Y279.288
N8380 X111.114 Y280.547
N8385 X110.854 Y281.812
N8390 X110.623 Y283.084
N8395 X110.423 Y284.36
N8400 X110.254 Y285.641
N8405 X110.115 Y286.926
N8410 X110.006 Y288.213
N8415 X109.927 Y289.503
N8420 X109.879 Y290.794
N8425 X109.861 Y292.086
N8430 X109.872 Y293.378
N8435 X109.914 Y294.669
N8440 X109.986 Y295.959
N8445 X110.088 Y297.247
N8450 X110.22 Y298.533
N8455 X110.383 Y299.814
N8460 X110.577 Y301.092
N8465 X110.8 Y302.365
N8470 X111.053 Y303.632
N8475 X111.336 Y304.892
N8480 X111.648 Y306.146
N8485 X111.989 Y307.392
N8490 X112.359 Y308.63
N8495 X112.757 Y309.859
N8500 X113.184 Y311.079
N8505 X113.64 Y312.288
N8510 X114.124 Y313.486
N8515 X114.637 Y314.672
N8520 X115.177 Y315.845
N8525 X115.745 Y317.006
N8530 X116.339 Y318.153
N8535 X116.961 Y319.286
N8540 X117.608 Y320.404
N8545 X118.281 Y321.507
N8550 X118.98 Y322.594
N8555 X119.704 Y323.664
N8560 X120.452 Y324.717
N8565 X121.225 Y325.753
N8570 X122.023 Y326.769
N8575 X122.844 Y327.767
N8580 X123.688 Y328.745
N8585 X124.555 Y329.702
N8590 X125.445 Y330.64
N8595 X126.356 Y331.556
N8600 X127.288 Y332.451
N8605 X128.24 Y333.324
N8610 X129.212 Y334.175
N8615 X130.204 Y335.003
N8620 X131.215 Y335.808
N8625 X132.245 Y336.588
N8630 X133.293 Y337.344
N8635 X134.358 Y338.075
N8640 X135.441 Y338.78
N8645 X136.539 Y339.46
N8650 X137.653 Y340.115
N8655 X138.782 Y340.743
N8660 X139.926 Y341.345
N8665 X141.083 Y341.92
N8670 X142.252 Y342.469
N8675 X143.435 Y342.99
N8680 X144.629 Y343.483
N8685 X145.835 Y343.947
N8690 X147.051 Y344.383
N8695 X148.277 Y344.79
N8700 X149.513 Y345.169
N8705 X150.757 Y345.518
N8710 X152.008 Y345.838
N8715 X153.267 Y346.13
N8720 X154.532 Y346.392
N8725 X155.803 Y346.625
N8730 X157.079 Y346.828
N8735 X158.36 Y347.001
N8740 X159.644 Y347.144
N8745 X160.931 Y347.257
N8750 X162.22 Y347.339
N8755 X163.511 Y347.392
N8760 X164.803 Y347.414
N8765 X166.095 Y347.406
N8770 X167.387 Y347.368
N8775 X168.677 Y347.3
N8780 X169.965 Y347.203
N8785 X171.251 Y347.076
N8790 X172.534 Y346.92
N8795 X173.812 Y346.733
N8800 X175.086 Y346.516
N8805 X176.354 Y346.27
N8810 X177.617 Y345.994
N8815 X178.872 Y345.689
N8820 X180.12 Y345.356
N8825 X181.36 Y344.993
N8830 X182.592 Y344.603
N8835 X183.814 Y344.184
N8840 X185.027 Y343.737
N8845 X186.229 Y343.264
N8850 X187.42 Y342.762
N8855 X188.599 Y342.234
N8860 X189.765 Y341.678
N8865 X190.918 Y341.095
N8870 X192.058 Y340.486
N8875 X193.183 Y339.852
N8880 X194.294 Y339.191
N8885 X195.389 Y338.506
N8890 X196.469 Y337.797
N8895 X197.533 Y337.063
N8900 X198.579 Y336.306
N8905 X199.609 Y335.525
N8910 X200.621 Y334.721
N8915 X201.614 Y333.894
N8920 X202.587 Y333.045
N8925 X203.542 Y332.174
N8930 X204.476 Y331.282
N8935 X205.39 Y330.368
N8940 X206.283 Y329.435
N8945 X207.155 Y328.482
N8950 X208.006 Y327.509
N8955 X208.835 Y326.518
N8960 X209.641 Y325.508
N8965 X210.425 Y324.481
N8970 X211.186 Y323.437
N8975 X211.923 Y322.376
N8980 X212.635 Y321.298
N8985 X213.323 Y320.204
N8990 X213.987 Y319.095
N8995 X214.625 Y317.972
N9000 X215.238 Y316.835
N9005 X215.825 Y315.684
N9010 X216.387 Y314.52
N9015 X216.922 Y313.344
N9020 X217.432 Y312.157
N9025 X217.915 Y310.959
N9030 X218.371 Y309.75
N9035 X218.799 Y308.531
N9040 X219.2 Y307.302
N9045 X219.573 Y306.065
N9050 X219.918 Y304.82
N9055 X220.234 Y303.567
N9060 X220.523 Y302.308
N9065 X220.783 Y301.042
N9070 X221.015 Y299.771
N9075 X221.219 Y298.495
N9080 X221.394 Y297.215
N9085 X221.541 Y295.932
N9090 X221.658 Y294.645
N9095 X221.747 Y293.356
N9100 X221.806 Y292.065
N9105 X221.835 Y290.774
N9110 X221.836 Y289.481
N9115 X221.807 Y288.19
N9120 X221.749 Y286.899
N9125 X221.663 Y285.61
N9130 X221.547 Y284.323
N9135 X221.403 Y283.039
N9140 X221.23 Y281.759
N9145 X221.028 Y280.482
N9150 X220.798 Y279.211
N9155 X220.538 Y277.945
N9160 X220.25 Y276.686
N9165 X219.933 Y275.433
N9170 X219.588 Y274.188
N9175 X219.214 Y272.951
N9180 X218.813 Y271.723
N9185 X218.385 Y270.504
N9190 X217.929 Y269.295
N9195 X217.446 Y268.097
N9200 X216.937 Y266.909
N9205 X216.401 Y265.734
N9210 X215.838 Y264.57
N9215 X215.249 Y263.42
N9220 X214.634 Y262.284
N9225 X213.993 Y261.162
N9230 X213.327 Y260.055
N9235 X212.636 Y258.963
N9240 X211.921 Y257.887
N9245 X211.182 Y256.828
N9250 X210.419 Y255.785
N9255 X209.633 Y254.759
N9260 X208.824 Y253.752
N9265 X207.993 Y252.762
N9270 X207.14 Y251.792
N9275 X206.264 Y250.842
N9280 X205.368 Y249.911
N9285 X204.45 Y249.002
N9290 X203.512 Y248.113
N9295 X202.555 Y247.246
N9300 X201.578 Y246.4
N9305 X200.583 Y245.576
N9310 X199.569 Y244.775
N9315 X198.538 Y243.997
N9320 X197.489 Y243.241
N9325 X196.425 Y242.509
N9330 X195.343 Y241.802
N9335 X194.246 Y241.119
N9340 X193.134 Y240.461
N9345 X192.008 Y239.829
N9350 X190.867 Y239.222
N9355 X189.713 Y238.64
N9360 X188.547 Y238.085
N9365 X187.368 Y237.556
N9370 X186.178 Y237.053
N9375 X184.977 Y236.576
N9380 X183.766 Y236.126
N9385 X182.545 Y235.703
N9390 X181.315 Y235.308
N9395 X180.076 Y234.94
N9400 X178.83 Y234.6
N9405 X177.576 Y234.289
N9410 X176.315 Y234.005
N9415 X175.049 Y233.75
N9420 X173.777 Y233.522
N9425 X172.5 Y233.323
N9430 X171.219 Y233.152
N9435 X169.935 Y233.01
N9440 X168.648 Y232.895
N9445 X167.359 Y232.809
N9450 X166.068 Y232.752
N9455 X164.777 Y232.723
N9460 X163.485
N9465 X162.193 Y232.753
N9470 X160.902 Y232.81
N9475 X159.613 Y232.897
N9480 X158.326 Y233.011
N9485 X157.042 Y233.154
N9490 X155.761 Y233.325
N9495 X154.484 Y233.524
N9500 X153.213 Y233.751
N9505 X151.946 Y234.006
N9510 X150.685 Y234.288
N9515 X149.431 Y234.598
N9520 X148.184 Y234.936
N9525 X146.944 Y235.302
N9530 X145.714 Y235.695
N9535 X144.492 Y236.115
N9540 X143.279 Y236.561
N9545 X142.077 Y237.034
N9550 X140.885 Y237.533
N9555 X139.704 Y238.058
N9560 X138.535 Y238.608
N9565 X137.379 Y239.184
N9570 X136.235 Y239.785
N9575 X135.104 Y240.41
N9580 X133.988 Y241.061
N9585 X132.886 Y241.736
N9590 X131.8 Y242.435
N9595 X130.729 Y243.158
N9600 X129.674 Y243.904
N9605 X128.635 Y244.672
N9610 X127.613 Y245.463
N9615 X126.609 Y246.276
N9620 X125.623 Y247.111
N9625 X124.655 Y247.966
N9630 X123.705 Y248.843
N9635 X122.775 Y249.74
N9640 X121.865 Y250.657
N9645 X120.975 Y251.594
N9650 X120.106 Y252.55
N9655 X119.258 Y253.525
N9660 X118.432 Y254.518
N9665 X117.627 Y255.529
N9670 X116.844 Y256.557
N9675 X116.084 Y257.601
N9680 X115.346 Y258.662
N9685 X114.631 Y259.738
N9690 X113.94 Y260.83
N9695 X113.273 Y261.936
N9700 X112.629 Y263.057
N9705 X112.011 Y264.191
N9710 X111.417 Y265.339
N9715 X110.849 Y266.499
N9720 X110.306 Y267.671
N9725 X109.788 Y268.855
N9730 X109.296 Y270.05
N9735 X108.83 Y271.255
N9740 X108.39 Y272.47
N9745 X107.976 Y273.694
N9750 X107.589 Y274.926
N9755 X107.228 Y276.167
N9760 X106.894 Y277.415
N9765 X106.587 Y278.67
N9770 X106.308 Y279.932
N9775 X106.057 Y281.199
N9780 X105.833 Y282.472
N9785 X105.636 Y283.749
N9790 X105.467 Y285.03
N9795 X105.326 Y286.314
N9800 X105.212 Y287.601
N9805 X105.126 Y288.89
N9810 X105.067 Y290.181
N9815 X105.037 Y291.473
N9820 X105.034 Y292.765
N9825 X105.059 Y294.056
N9830 X105.112 Y295.347
N9835 X105.194 Y296.637
N9840 X105.303 Y297.924
N9845 X105.44 Y299.209
N9850 X105.605 Y300.491
N9855 X105.797 Y301.768
N9860 X106.017 Y303.042
N9865 X106.264 Y304.31
N9870 X106.537 Y305.572
N9875 X106.838 Y306.829
N9880 X107.166 Y308.079
N9885 X107.521 Y309.321
N9890 X107.903 Y310.556
N9895 X108.311 Y311.781
N9900 X108.746 Y312.998
N9905 X109.207 Y314.205
N9910 X109.694 Y315.402
N9915 X110.207 Y316.588
N9920 X110.744 Y317.763
N9925 X111.307 Y318.926
N9930 X111.895 Y320.076
N9935 X112.507 Y321.214
N9940 X113.143 Y322.339
N9945 X113.804 Y323.449
N9950 X114.488 Y324.545
N9955 X115.196 Y325.626
N9960 X115.928 Y326.691
N9965 X116.682 Y327.74
N9970 X117.458 Y328.773
N9975 X118.257 Y329.788
N9980 X119.077 Y330.787
N9985 X119.918 Y331.767
N9990 X120.781 Y332.73
N9995 X121.663 Y333.673
N10000 X122.565 Y334.598
N10005 X123.488 Y335.503
N10010 X124.429 Y336.388
N10015 X125.39 Y337.252
N10020 X126.369 Y338.095
N10025 X127.366 Y338.917
N10030 X128.38 Y339.718
N10035 X129.411 Y340.496
N10040 X130.459 Y341.252
N10045 X131.523 Y341.985
N10050 X132.602 Y342.695
N10055 X133.697 Y343.382
N10060 X134.805 Y344.046
N10065 X135.928 Y344.686
N10070 X137.064 Y345.301
N10075 X138.213 Y345.892
N10080 X139.375 Y346.457
N10085 X140.548 Y346.997
N10090 X141.734 Y347.512
N10095 X142.929 Y348.001
N10100 X144.135 Y348.465
N10105 X145.351 Y348.902
N10110 X146.576 Y349.314
N10115 X147.809 Y349.699
N10120 X149.051 Y350.057
N10125 X150.299 Y350.39
N10130 X151.555 Y350.695
N10135 X152.817 Y350.973
N10140 X154.084 Y351.223
N10145 X155.357 Y351.447
N10150 X156.634 Y351.642
N10155 X157.915 Y351.811
N10160 X159.199 Y351.951
N10165 X160.486 Y352.064
N10170 X161.776 Y352.15
N10175 X163.066 Y352.208
N10180 X164.358 Y352.238
N10185 X165.65 Y352.242
N10190 X166.942 Y352.217
N10195 X168.233 Y352.165
N10200 X169.522 Y352.085
N10205 X170.81 Y351.977
N10210 X172.095 Y351.841
N10215 X173.377 Y351.679
N10220 X174.655 Y351.488
N10225 X175.928 Y351.271
N10230 X177.197 Y351.026
N10235 X178.46 Y350.755
N10240 X179.717 Y350.457
N10245 X180.968 Y350.133
N10250 X182.212 Y349.782
N10255 X183.448 Y349.405
N10260 X184.675 Y349.002
N10265 X185.894 Y348.572
N10270 X187.103 Y348.117
N10275 X188.302 Y347.636
N10280 X189.491 Y347.13
N10285 X190.669 Y346.599
N10290 X191.835 Y346.044
N10295 X192.99 Y345.464
N10300 X194.132 Y344.859
N10305 X195.261 Y344.232
N10310 X196.377 Y343.58
N10315 X197.479 Y342.906
N10320 X198.567 Y342.209
N10325 X199.64 Y341.489
N10330 X200.697 Y340.746
N10335 X201.739 Y339.982
N10340 X202.764 Y339.196
N10345 X203.773 Y338.389
N10350 X204.765 Y337.56
N10355 X205.739 Y336.712
N10360 X206.696 Y335.843
N10365 X207.634 Y334.955
N10370 X208.554 Y334.047
N10375 X209.455 Y333.121
N10380 X210.336 Y332.177
N10385 X211.198 Y331.214
N10390 X212.04 Y330.234
N10395 X212.86 Y329.236
N10400 X213.66 Y328.221
N10405 X214.439 Y327.19
N10410 X215.196 Y326.143
N10415 X215.932 Y325.081
N10420 X216.645 Y324.003
N10425 X217.336 Y322.912
N10430 X218.004 Y321.806
N10435 X218.649 Y320.686
N10440 X219.272 Y319.554
N10445 X219.871 Y318.409
N10450 X220.445 Y317.252
N10455 X220.996 Y316.083
N10460 X221.523 Y314.903
N10465 X222.024 Y313.713
N10470 X222.501 Y312.512
N10475 X222.953 Y311.302
N10480 X223.38 Y310.082
N10485 X223.782 Y308.854
N10490 X224.158 Y307.618
N10495 X224.508 Y306.374
N10500 X224.833 Y305.124
N10505 X225.132 Y303.867
N10510 X225.405 Y302.604
N10515 X225.652 Y301.336
N10520 X225.872 Y300.062
N10525 X226.066 Y298.785
N10530 X226.233 Y297.504
N10535 X226.373 Y296.219
N10540 X226.487 Y294.932
N10545 X226.574 Y293.643
N10550 X226.634 Y292.353
N10555 X226.667 Y291.061
N10560 X226.674 Y289.769
N10565 X226.654 Y288.477
N10570 X226.607 Y287.186
N10575 X226.534 Y285.896
N10580 X226.434 Y284.608
N10585 X226.306 Y283.322
N10590 X226.152 Y282.039
N10595 X225.971 Y280.76
N10600 X225.764 Y279.484
N10605 X225.53 Y278.214
N10610 X225.269 Y276.948
N10615 X224.982 Y275.688
N10620 X224.669 Y274.435
N10625 X224.331 Y273.188
N10630 X223.966 Y271.948
N10635 X223.576 Y270.717
N10640 X223.161 Y269.493
N10645 X222.719 Y268.279
N10650 X222.253 Y267.074
N10655 X221.761 Y265.879
N10660 X221.245 Y264.695
N10665 X220.704 Y263.521
N10670 X220.138 Y262.36
N10675 X219.549 Y261.21
N10680 X218.936 Y260.073
N10685 X218.299 Y258.948
N10690 X217.639 Y257.838
N10695 X216.956 Y256.741
N10700 X216.251 Y255.658
N10705 X215.523 Y254.59
N10710 X214.773 Y253.538
N10715 X214.002 Y252.502
N10720 X213.208 Y251.482
N10725 X212.394 Y250.479
N10730 X211.559 Y249.493
N10735 X210.704 Y248.524
N10740 X209.829 Y247.574
N10745 X208.934 Y246.642
N10750 X208.02 Y245.729
N10755 X207.087 Y244.834
N10760 X206.136 Y243.96
N10765 X205.168 Y243.105
N10770 X204.181 Y242.27
N10775 X203.178 Y241.456
N10780 X202.158 Y240.663
N10785 X201.121 Y239.892
N10790 X200.069 Y239.142
N10795 X199.001 Y238.414
N10800 X197.919 Y237.709
N10805 X196.822 Y237.026
N10810 X195.712 Y236.365
N10815 X194.588 Y235.728
N10820 X193.451 Y235.114
N10825 X192.302 Y234.524
N10830 X191.14 Y233.957
N10835 X189.968 Y233.415
N10840 X188.784 Y232.896
N10845 X187.59 Y232.403
N10850 X186.386 Y231.934
N10855 X185.173 Y231.49
N10860 X183.95 Y231.072
N10865 X182.719 Y230.678
N10870 X181.481 Y230.31
N10875 X180.235 Y229.968
N10880 X178.982 Y229.651
N10885 X177.724 Y229.36
N10890 X176.459 Y229.094
N10895 X175.19 Y228.855
N10900 X173.915 Y228.641
N10905 X172.637 Y228.454
N10910 X171.355 Y228.294
N10915 X170.07 Y228.159
N10920 X168.782 Y228.051
N10925 X167.493 Y227.969
N10930 X166.202 Y227.914
N10935 X164.91 Y227.885
N10940 X163.618 Y227.883
N10945 X162.326 Y227.907
N10950 X161.035 Y227.957
N10955 X159.745 Y228.033
N10960 X158.457 Y228.136
N10965 X157.172 Y228.264
N10970 X155.889 Y228.419
N10975 X154.61 Y228.601
N10980 X153.334 Y228.808
N10985 X152.064 Y229.041
N10990 X150.798 Y229.3
N10995 X149.538 Y229.585
N11000 X148.283 Y229.895
N11005 X147.036 Y230.231
N11010 X145.795 Y230.592
N11015 X144.562 Y230.978
N11020 X143.337 Y231.389
N11025 X142.12 Y231.824
N11030 X140.913 Y232.284
N11035 X139.715 Y232.768
N11040 X138.527 Y233.277
N11045 X137.35 Y233.81
N11050 X136.184 Y234.366
N11055 X135.03 Y234.946
N11060 X133.887 Y235.549
N11065 X132.757 Y236.176
N11070 X131.64 Y236.824
N11075 X130.536 Y237.496
N11080 X129.445 Y238.189
N11085 X128.369 Y238.904
N11090 X127.308 Y239.641
N11095 X126.261 Y240.398
N11100 X125.23 Y241.177
N11105 X124.215 Y241.977
N11110 X123.217 Y242.797
N11115 X122.235 Y243.637
N11120 X121.27 Y244.496
N11125 X120.323 Y245.375
N11130 X119.394 Y246.273
N11135 X118.483 Y247.189
N11140 X117.59 Y248.123
N11145 X116.717 Y249.075
N11150 X115.862 Y250.044
N11155 X115.027 Y251.03
N11160 X114.213 Y252.033
N11165 X113.418 Y253.052
N11170 X112.644 Y254.087
N11175 X111.892 Y255.137
N11180 X111.16 Y256.202
N11185 X110.45 Y257.282
N11190 X109.762 Y258.375
N11195 X109.096 Y259.482
N11200 X108.452 Y260.603
N11205 X107.831 Y261.736
N11210 X107.233 Y262.881
N11215 X106.657 Y264.038
N11220 X106.105 Y265.206
N11225 X105.576 Y266.385
N11230 X105.071 Y267.574
N11235 X104.59 Y268.773
N11240 X104.134 Y269.982
N11245 X103.701 Y271.199
N11250 X103.293 Y272.425
N11255 X102.91 Y273.659
N11260 X102.551 Y274.9
N11265 X102.218 Y276.149
N11270 X101.909 Y277.403
N11275 X101.625 Y278.664
N11280 X101.367 Y279.93
N11285 X101.134 Y281.201
N11290 X100.926 Y282.476
N11295 X100.743 Y283.755
N11300 X100.587 Y285.037
N11305 X100.456 Y286.323
N11310 X100.351 Y287.611
N11315 X100.272 Y288.9
N11320 X100.218 Y290.191
N11325 X100.191 Y291.483
N11330 X100.189 Y292.775
N11335 X100.213 Y294.067
N11340 X100.262 Y295.358
N11345 X100.337 Y296.648
N11350 X100.438 Y297.936
N11355 X100.565 Y299.222
N11360 X100.717 Y300.505
N11365 X100.895 Y301.785
N11370 X101.098 Y303.061
N11375 X101.327 Y304.332
N11380 X101.581 Y305.599
N11385 X101.86 Y306.86
N11390 X102.165 Y308.116
N11395 X102.494 Y309.365
N11400 X102.849 Y310.608
N11405 X103.228 Y311.843
N11410 X103.631 Y313.071
N11415 X104.059 Y314.29
N11420 X104.511 Y315.5
N11425 X104.987 Y316.702
N11430 X105.487 Y317.893
N11435 X106.01 Y319.074
N11440 X106.557 Y320.245
N11445 X107.127 Y321.404
N11450 X107.721 Y322.552
N11455 X108.337 Y323.688
N11460 X108.975 Y324.811
N11465 X109.636 Y325.921
N11470 X110.319 Y327.018
N11475 X111.023 Y328.101
N11480 X111.749 Y329.17
N11485 X112.496 Y330.225
N11490 X113.263 Y331.264
N11495 X114.052 Y332.288
N11500 X114.86 Y333.295
N11505 X115.689 Y334.287
N11510 X116.537 Y335.262
N11515 X117.404 Y336.219
N11520 X118.29 Y337.159
N11525 X119.195 Y338.082
N11530 X120.118 Y338.986
N11535 X121.059 Y339.872
N11540 X122.017 Y340.738
N11545 X122.992 Y341.586
N11550 X123.984 Y342.414
N11555 X124.992 Y343.222
N11560 X126.016 Y344.01
N11565 X127.056 Y344.778
N11570 X128.11 Y345.524
N11575 X129.18 Y346.249
N11580 X130.263 Y346.953
N11585 X131.361 Y347.635
N11590 X132.471 Y348.295
N11595 X133.595 Y348.933
N11600 X134.731 Y349.549
N11605 X135.879 Y350.142
N11610 X137.039 Y350.711
N11615 X138.209 Y351.258
N11620 X139.39 Y351.782
N11625 X140.582 Y352.282
N11630 X141.783 Y352.758
N11635 X142.994 Y353.209
N11640 X144.213 Y353.637
N11645 X145.44 Y354.04
N11650 X146.676 Y354.419
N11655 X147.918 Y354.773
N11660 X149.167 Y355.103
N11665 X150.423 Y355.407
N11670 X151.685 Y355.687
N11675 X152.951 Y355.941
N11680 X154.223 Y356.17
N11685 X155.499 Y356.374
N11690 X156.778 Y356.553
N11695 X158.061 Y356.706
N11700 X159.347 Y356.834
N11705 X160.635 Y356.936
N11710 X161.925 Y357.012
N11715 X163.216 Y357.063
N11720 X164.508 Y357.088
N11725 X165.8
N11730 X167.092 Y357.062
N11735 X168.383 Y357.01
N11740 X169.672 Y356.933
N11745 X170.96 Y356.83
N11750 X172.246 Y356.702
N11755 X173.529 Y356.549
N11760 X174.809 Y356.371
N11765 X176.084 Y356.167
N11770 X177.356 Y355.937
N11775 X178.623 Y355.683
N11780 X179.884 Y355.404
N11785 X181.14 Y355.1
N11790 X182.39 Y354.771
N11795 X183.633 Y354.418
N11800 X184.868 Y354.041
N11805 X186.096 Y353.639
N11810 X187.316 Y353.214
N11815 X188.528 Y352.764
N11820 X189.73 Y352.291
N11825 X190.923 Y351.795
N11830 X192.106 Y351.276
N11835 X193.279 Y350.733
N11840 X194.44 Y350.168
N11845 X195.591 Y349.58
N11850 X196.73 Y348.969
N11855 X197.856 Y348.337
N11860 X198.971 Y347.682
N11865 X200.072 Y347.007
N11870 X201.16 Y346.31
N11875 X202.234 Y345.592
N11880 X203.294 Y344.853
N11885 X204.34 Y344.094
N11890 X205.371 Y343.316
N11895 X206.386 Y342.517
N11900 X207.386 Y341.699
N11905 X208.37 Y340.861
N11910 X209.338 Y340.005
N11915 X210.289 Y339.13
N11920 X211.222 Y338.237
N11925 X212.139 Y337.326
N11930 X213.037 Y336.398
N11935 X213.918 Y335.452
N11940 X214.78 Y334.49
N11945 X215.624 Y333.511
N11950 X216.449 Y332.517
N11955 X217.254 Y331.507
N11960 X218.04 Y330.481
N11965 X218.807 Y329.441
N11970 X219.553 Y328.386
N11975 X220.278 Y327.317
N11980 X220.983 Y326.234
N11985 X221.667 Y325.138
N11990 X222.329 Y324.029
N11995 X222.971 Y322.907
N12000 X223.59 Y321.773
N12005 X224.188 Y320.628
N12010 X224.764 Y319.471
N12015 X225.318 Y318.304
N12020 X225.849 Y317.126
N12025 X226.357 Y315.938
N12030 X226.843 Y314.741
N12035 X227.305 Y313.534
N12040 X227.745 Y312.319
N12045 X228.16 Y311.096
N12050 X228.552 Y309.865
N12055 X228.921 Y308.626
N12060 X229.265 Y307.381
N12065 X229.586 Y306.129
N12070 X229.882 Y304.872
N12075 X230.154 Y303.609
N12080 X230.402 Y302.341
N12085 X230.626 Y301.068
N12090 X230.825 Y299.791
N12095 X230.999 Y298.511
N12100 X231.149 Y297.228
N12105 X231.275 Y295.942
N12110 X231.375 Y294.654
N12115 X231.45 Y293.364
N12120 X231.501 Y292.073
N12125 X231.526 Y290.781
N12130 X231.527 Y289.489
N12135 X231.502 Y288.197
N12140 X231.453 Y286.906
N12145 X231.379 Y285.616
N12150 X231.28 Y284.328
N12155 X231.157 Y283.042
N12160 X231.009 Y281.758
N12165 X230.836 Y280.478
N12170 X230.638 Y279.201
N12175 X230.416 Y277.928
N12180 X230.169 Y276.66
N12185 X229.897 Y275.397
N12190 X229.602 Y274.139
N12195 X229.282 Y272.887
N12200 X228.937 Y271.642
N12205 X228.569 Y270.403
N12210 X228.177 Y269.172
N12215 X227.761 Y267.949
N12220 X227.322 Y266.734
N12225 X226.86 Y265.527
N12230 X226.374 Y264.33
N12235 X225.865 Y263.142
N12240 X225.334 Y261.964
N12245 X224.78 Y260.797
N12250 X224.203 Y259.641
N12255 X223.604 Y258.496
N12260 X222.983 Y257.363
N12265 X222.34 Y256.243
N12270 X221.676 Y255.134
N12275 X220.99 Y254.039
N12280 X220.283 Y252.958
N12285 X219.556 Y251.89
N12290 X218.808 Y250.836
N12295 X218.04 Y249.797
N12300 X217.252 Y248.773
N12305 X216.445 Y247.764
N12310 X215.619 Y246.771
N12315 X214.773 Y245.794
N12320 X213.909 Y244.834
N12325 X213.026 Y243.89
N12330 X212.125 Y242.964
N12335 X211.206 Y242.056
N12340 X210.27 Y241.165
N12345 X209.317 Y240.292
N12350 X208.348 Y239.438
N12355 X207.362 Y238.603
N12360 X206.361 Y237.787
N12365 X205.344 Y236.99
N12370 X204.312 Y236.212
N12375 X203.265 Y235.455
N12380 X202.204 Y234.718
N12385 X201.128 Y234.001
N12390 X200.04 Y233.306
N12395 X198.938 Y232.631
N12400 X197.823 Y231.978
N12405 X196.696 Y231.346
N12410 X195.557 Y230.736
N12415 X194.406 Y230.148
N12420 X193.245 Y229.582
N12425 X192.073 Y229.039
N12430 X190.89 Y228.518
N12435 X189.698 Y228.019
N12440 X188.497 Y227.543
N12445 X187.287 Y227.091
N12450 X186.068 Y226.661
N12455 X184.842 Y226.255
N12460 X183.607 Y225.873
N12465 X182.366 Y225.514
N12470 X181.118 Y225.179
N12475 X179.864 Y224.868
N12480 X178.604 Y224.581
N12485 X177.339 Y224.318
N12490 X176.07 Y224.079
N12495 X174.796 Y223.865
N12500 X173.518 Y223.674
N12505 X172.236 Y223.508
N12510 X170.952 Y223.366
N12515 X169.665 Y223.249
N12520 X168.377 Y223.155
N12525 X167.086 Y223.087
N12530 X165.795 Y223.043
N12535 X164.503 Y223.024
N12540 X163.211 Y223.029
N12545 X161.919 Y223.059
N12550 X160.629 Y223.114
N12555 X159.339 Y223.192
N12560 X158.051 Y223.296
N12565 X156.765 Y223.423
N12570 X155.482 Y223.575
N12575 X154.202 Y223.751
N12580 X152.926 Y223.951
N12585 X151.653 Y224.175
N12590 X150.385 Y224.422
N12595 X149.122 Y224.694
N12600 X147.864 Y224.99
N12605 X146.612 Y225.31
N12610 X145.367 Y225.654
N12615 X144.128 Y226.02
N12620 X142.896 Y226.41
N12625 X141.672 Y226.824
N12630 X140.456 Y227.26
N12635 X139.248 Y227.719
N12640 X138.049 Y228.2
N12645 X136.859 Y228.704
N12650 X135.679 Y229.23
N12655 X134.509 Y229.779
N12660 X133.35 Y230.349
N12665 X132.201 Y230.94
N12670 X131.064 Y231.554
N12675 X129.939 Y232.189
N12680 X128.825 Y232.845
N12685 X127.725 Y233.521
N12690 X126.637 Y234.218
N12695 X125.562 Y234.936
N12700 X124.501 Y235.673
N12705 X123.455 Y236.431
N12710 X122.422 Y237.207
N12715 X121.404 Y238.003
N12720 X120.401 Y238.818
N12725 X119.414 Y239.651
N12730 X118.442 Y240.502
N12735 X117.486 Y241.372
N12740 X116.547 Y242.26
N12745 X115.625 Y243.165
N12750 X114.72 Y244.087
N12755 X113.832 Y245.026
N12760 X112.963 Y245.981
N12765 X112.111 Y246.952
N12770 X111.277 Y247.939
N12775 X110.462 Y248.942
N12780 X109.666 Y249.959
N12785 X108.888 Y250.992
N12790 X108.13 Y252.038
N12795 X107.392 Y253.098
N12800 X106.674 Y254.172
N12805 X105.975 Y255.259
N12810 X105.298 Y256.359
N12815 X104.641 Y257.472
N12820 X104.005 Y258.597
N12825 X103.39 Y259.733
N12830 X102.796 Y260.881
N12835 X102.224 Y262.039
N12840 X101.674 Y263.208
N12845 X101.145 Y264.387
N12850 X100.638 Y265.576
N12855 X100.154 Y266.773
N12860 X99.692 Y267.98
N12865 X99.252 Y269.195
N12870 X98.835 Y270.418
N12875 X98.44 Y271.648
N12880 X98.069 Y272.886
N12885 X97.721 Y274.13
N12890 X97.396 Y275.38
N12895 X97.095 Y276.637
N12900 X96.817 Y277.899
N12905 X96.563 Y279.166
N12910 X96.332 Y280.437
N12915 X96.125 Y281.712
N12920 X95.941 Y282.991
N12925 X95.782 Y284.273
N12930 X95.646 Y285.558
N12935 X95.534 Y286.845
N12940 X95.445 Y288.134
N12945 X95.381 Y289.425
N12950 X95.34 Y290.716
N12955 X95.324 Y292.008
N12960 X95.332 Y293.3
N12965 X95.364 Y294.592
N12970 X95.42 Y295.883
N12975 X95.5 Y297.172
N12980 X95.604 Y298.46
N12985 X95.731 Y299.746
N12990 X95.883 Y301.029
N12995 X96.058 Y302.309
N13000 X96.257 Y303.586
N13005 X96.479 Y304.859
N13010 X96.725 Y306.127
N13015 X96.995 Y307.391
N13020 X97.287 Y308.649
N13025 X97.604 Y309.902
N13030 X97.943 Y311.149
N13035 X98.306 Y312.389
N13040 X98.691 Y313.622
N13045 X99.1 Y314.848
N13050 X99.531 Y316.066
N13055 X99.984 Y317.275
N13060 X100.46 Y318.477
N13065 X100.958 Y319.669
N13070 X101.478 Y320.852
N13075 X102.02 Y322.025
N13080 X102.583 Y323.188
N13085 X103.168 Y324.34
N13090 X103.774 Y325.481
N13095 X104.401 Y326.611
N13100 X105.049 Y327.728
N13105 X105.718 Y328.834
N13110 X106.407 Y329.927
N13115 X107.116 Y331.007
N13120 X107.845 Y332.073
N13125 X108.594 Y333.126
N13130 X109.362 Y334.165
N13135 X110.149 Y335.19
N13140 X110.955 Y336.2
N13145 X111.78 Y337.195
N13150 X112.623 Y338.174
N13155 X113.483 Y339.138
N13160 X114.362 Y340.085
N13165 X115.257 Y341.016
N13170 X116.17 Y341.931
N13175 X117.1 Y342.828
N13180 X118.047 Y343.707
N13185 X119.009 Y344.569
N13190 X119.987 Y345.413
N13195 X120.981 Y346.239
N13200 X121.99 Y347.047
N13205 X123.013 Y347.835
N13210 X124.051 Y348.604
N13215 X125.103 Y349.355
N13220 X126.169 Y350.085
N13225 X127.248 Y350.796
N13230 X128.34 Y351.487
N13235 X129.444 Y352.157
N13240 X130.561 Y352.807
N13245 X131.69 Y353.436
N13250 X132.83 Y354.044
N13255 X133.981 Y354.63
N13260 X135.143 Y355.195
N13265 X136.315 Y355.739
N13270 X137.497 Y356.26
N13275 X138.689 Y356.76
N13280 X139.889 Y357.238
N13285 X141.099 Y357.693
N13290 X142.316 Y358.126
N13295 X143.541 Y358.537
N13300 X144.773 Y358.925
N13305 X146.013 Y359.29
N13310 X147.259 Y359.632
N13315 X148.511 Y359.951
N13320 X149.769 Y360.246
N13325 X151.032 Y360.518
N13330 X152.3 Y360.767
N13335 X153.572 Y360.992
N13340 X154.848 Y361.194
N13345 X156.128 Y361.372
N13350 X157.411 Y361.526
N13355 X158.696 Y361.657
N13360 X159.984 Y361.764
N13365 X161.273 Y361.847
N13370 X162.564 Y361.907
N13375 X163.855 Y361.943
N13380 X165.147 Y361.955
N13385 X166.439 Y361.943
N13390 X167.731 Y361.907
N13395 X169.022 Y361.847
N13400 X170.311 Y361.763
N13405 X171.598 Y361.656
N13410 X172.884 Y361.525
N13415 X174.167 Y361.37
N13420 X175.446 Y361.192
N13425 X176.723 Y360.991
N13430 X177.995 Y360.766
N13435 X179.263 Y360.518
N13440 X180.526 Y360.246
N13445 X181.784 Y359.952
N13450 X183.037 Y359.635
N13455 X184.283 Y359.295
N13460 X185.523 Y358.931
N13465 X186.756 Y358.545
N13470 X187.982 Y358.137
N13475 X189.2 Y357.706
N13480 X190.41 Y357.253
N13485 X191.612 Y356.779
N13490 X192.805 Y356.282
N13495 X193.988 Y355.764
N13500 X195.162 Y355.224
N13505 X196.326 Y354.663
N13510 X197.48 Y354.081
N13515 X198.623 Y353.479
N13520 X199.755 Y352.856
N13525 X200.875 Y352.212
N13530 X201.983 Y351.548
N13535 X203.08 Y350.864
N13540 X204.163 Y350.16
N13545 X205.234 Y349.437
N13550 X206.291 Y348.695
N13555 X207.335 Y347.933
N13560 X208.365 Y347.153
N13565 X209.381 Y346.355
N13570 X210.382 Y345.538
N13575 X211.368 Y344.703
N13580 X212.34 Y343.851
N13585 X213.295 Y342.982
N13590 X214.236 Y342.096
N13595 X215.16 Y341.193
N13600 X216.067 Y340.273
N13605 X216.958 Y339.337
N13610 X217.832 Y338.385
N13615 X218.689 Y337.418
N13620 X219.528 Y336.436
N13625 X220.349 Y335.438
N13630 X221.152 Y334.426
N13635 X221.937 Y333.4
N13640 X222.704 Y332.36
N13645 X223.452 Y331.306
N13650 X224.181 Y330.24
N13655 X224.891 Y329.16
N13660 X225.581 Y328.068
N13665 X226.252 Y326.964
N13670 X226.903 Y325.848
N13675 X227.534 Y324.72
N13680 X228.144 Y323.581
N13685 X228.734 Y322.432
N13690 X229.303 Y321.272
N13695 X229.851 Y320.102
N13700 X230.378 Y318.922
N13705 X230.885 Y317.733
N13710 X231.369 Y316.536
N13715 X231.832 Y315.329
N13720 X232.274 Y314.115
N13725 X232.694 Y312.893
N13730 X233.092 Y311.664
N13735 X233.468 Y310.428
N13740 X233.822 Y309.185
N13745 X234.153 Y307.936
N13750 X234.462 Y306.682
N13755 X234.749 Y305.422
N13760 X235.012 Y304.157
N13765 X235.253 Y302.888
N13770 X235.471 Y301.614
N13775 X235.666 Y300.337
N13780 X235.838 Y299.056
N13785 X235.987 Y297.773
N13790 X236.114 Y296.487
N13795 X236.217 Y295.199
N13800 X236.297 Y293.909
N13805 X236.354 Y292.619
N13810 X236.388 Y291.327
N13815 X236.399 Y290.035
N13820 X236.386 Y288.743
N13825 X236.35 Y287.451
N13830 X236.291 Y286.161
N13835 X236.209 Y284.871
N13840 X236.103 Y283.584
N13845 X235.974 Y282.298
N13850 X235.822 Y281.015
N13855 X235.647 Y279.735
N13860 X235.449 Y278.458
N13865 X235.229 Y277.185
N13870 X234.985 Y275.916
N13875 X234.719 Y274.652
N13880 X234.43 Y273.392
N13885 X234.118 Y272.138
N13890 X233.784 Y270.89
N13895 X233.428 Y269.648
N13900 X233.049 Y268.413
N13905 X232.647 Y267.185
N13910 X232.224 Y265.964
N13915 X231.779 Y264.751
N13920 X231.312 Y263.547
N13925 X230.823 Y262.351
N13930 X230.313 Y261.163
N13935 X229.782 Y259.986
N13940 X229.229 Y258.818
N13945 X228.656 Y257.66
N13950 X228.062 Y256.512
N13955 X227.448 Y255.376
N13960 X226.813 Y254.25
N13965 X226.158 Y253.137
N13970 X225.483 Y252.035
N13975 X224.788 Y250.945
N13980 X224.074 Y249.869
N13985 X223.341 Y248.805
N13990 X222.588 Y247.755
N13995 X221.816 Y246.718
N14000 X221.027 Y245.696
N14005 X220.218 Y244.688
N14010 X219.392 Y243.694
N14015 X218.549 Y242.716
N14020 X217.687 Y241.753
N14025 X216.809 Y240.805
N14030 X215.914 Y239.873
N14035 X215.002 Y238.958
N14040 X214.074 Y238.059
N14045 X213.13 Y237.177
N14050 X212.17 Y236.312
N14055 X211.195 Y235.464
N14060 X210.205 Y234.634
N14065 X209.2 Y233.822
N14070 X208.18 Y233.029
N14075 X207.147 Y232.253
N14080 X206.1 Y231.496
N14085 X205.039 Y230.758
N14090 X203.965 Y230.04
N14095 X202.879 Y229.34
N14100 X201.78 Y228.66
N14105 X200.67 Y228.
N14110 X199.548 Y227.359
N14115 X198.414 Y226.739
N14120 X197.27 Y226.139
N14125 X196.115 Y225.56
N14130 X194.95 Y225.001
N14135 X193.775 Y224.464
N14140 X192.59 Y223.948
N14145 X191.397 Y223.452
N14150 X190.195 Y222.979
N14155 X188.985 Y222.526
N14160 X187.767 Y222.096
N14165 X186.541 Y221.687
N14170 X185.308 Y221.3
N14175 X184.069 Y220.934
N14180 X182.823 Y220.591
N14185 X181.572 Y220.27
N14190 X180.315 Y219.972
N14195 X179.052 Y219.696
N14200 X177.785 Y219.442
N14205 X176.514 Y219.211
N14210 X175.239 Y219.003
N14215 X173.96 Y218.818
N14220 X172.679 Y218.655
N14225 X171.394 Y218.515
N14230 X170.107 Y218.398
N14235 X168.819 Y218.303
N14240 X167.529 Y218.231
N14245 X166.238 Y218.183
N14250 X164.946 Y218.157
N14255 X163.654 Y218.153
N14260 X162.362 Y218.173
N14265 X161.07 Y218.215
N14270 X159.78 Y218.281
N14275 X158.491 Y218.369
N14280 X157.204 Y218.48
N14285 X155.919 Y218.614
N14290 X154.636 Y218.771
N14295 X153.357 Y218.95
N14300 X152.08 Y219.152
N14305 X150.808 Y219.376
N14310 X149.54 Y219.623
N14315 X148.276 Y219.892
N14320 X147.017 Y220.183
N14325 X145.764 Y220.496
N14330 X144.516 Y220.831
N14335 X143.274 Y221.188
N14340 X142.039 Y221.567
N14345 X140.81 Y221.967
N14350 X139.589 Y222.39
N14355 X138.376 Y222.834
N14360 X137.17 Y223.299
N14365 X135.973 Y223.785
N14370 X134.785 Y224.292
N14375 X133.606 Y224.82
N14380 X132.436 Y225.368
N14385 X131.276 Y225.937
N14390 X130.126 Y226.527
N14395 X128.986 Y227.136
N14400 X127.858 Y227.765
N14405 X126.74 Y228.414
N14410 X125.635 Y229.082
N14415 X124.54 Y229.769
N14420 X123.459 Y230.476
N14425 X122.39 Y231.201
N14430 X121.333 Y231.946
N14435 X120.291 Y232.708
N14440 X119.261 Y233.489
N14445 X118.245 Y234.288
N14450 X117.244 Y235.104
N14455 X116.257 Y235.938
N14460 X115.284 Y236.788
N14465 X114.327 Y237.656
N14470 X113.385 Y238.54
N14475 X112.458 Y239.441
N14480 X111.547 Y240.357
N14485 X110.653 Y241.289
N14490 X109.774 Y242.237
N14495 X108.913 Y243.2
N14500 X108.069 Y244.178
N14505 X107.241 Y245.17
N14510 X106.432 Y246.177
N14515 X105.64 Y247.198
N14520 X104.866 Y248.233
N14525 X104.11 Y249.28
N14530 X103.372 Y250.341
N14535 X102.653 Y251.415
N14540 X101.953 Y252.501
N14545 X101.272 Y253.598
N14550 X100.61 Y254.708
N14555 X99.967 Y255.829
N14560 X99.344 Y256.961
N14565 X98.74 Y258.103
N14570 X98.157 Y259.256
N14575 X97.594 Y260.419
N14580 X97.052 Y261.592
N14585 X96.53 Y262.774
N14590 X96.028 Y263.965
N14595 X95.548 Y265.164
N14600 X95.088 Y266.371
N14605 X94.649 Y267.587
N14610 X94.232 Y268.809
N14615 X93.836 Y270.039
N14620 X93.461 Y271.276
N14625 X93.108 Y272.519
N14630 X92.776 Y273.767
N14635 X92.466 Y275.022
N14640 X92.178 Y276.281
N14645 X91.912 Y277.546
N14650 X91.668 Y278.814
N14655 X91.446 Y280.087
N14660 X91.246 Y281.364
N14665 X91.069 Y282.644
N14670 X90.914 Y283.926
N14675 X90.781 Y285.211
N14680 X90.67 Y286.499
N14685 X90.582 Y287.788
N14690 X90.516 Y289.078
N14695 X90.472 Y290.37
N14700 X90.451 Y291.661
N14705 X90.452 Y292.953
N14710 X90.476 Y294.245
N14715 X90.522 Y295.537
N14720 X90.59 Y296.827
N14725 X90.681 Y298.116
N14730 X90.794 Y299.403
N14735 X90.93 Y300.688
N14740 X91.088 Y301.97
N14745 X91.268 Y303.249
N14750 X91.47 Y304.526
N14755 X91.694 Y305.798
N14760 X91.941 Y307.066
N14765 X92.209 Y308.33
N14770 X92.499 Y309.589
N14775 X92.811 Y310.843
N14780 X93.145 Y312.091
N14785 X93.5 Y313.334
N14790 X93.876 Y314.57
N14795 X94.274 Y315.799
N14800 X94.693 Y317.021
N14805 X95.133 Y318.236
N14810 X95.595 Y319.443
N14815 X96.077 Y320.641
N14820 X96.58 Y321.831
N14825 X97.104 Y323.013
N14830 X97.648 Y324.185
N14835 X98.212 Y325.347
N14840 X98.796 Y326.5
N14845 X99.4 Y327.642
N14850 X100.023 Y328.773
N14855 X100.666 Y329.894
N14860 X101.329 Y331.003
N14865 X102.01 Y332.101
N14870 X102.71 Y333.187
N14875 X103.429 Y334.261
N14880 X104.167 Y335.321
N14885 X104.923 Y336.369
N14890 X105.697 Y337.404
N14895 X106.489 Y338.425
N14900 X107.298 Y339.432
N14905 X108.125 Y340.425
N14910 X108.969 Y341.403
N14915 X109.829 Y342.367
N14920 X110.706 Y343.316
N14925 X111.6 Y344.249
N14930 X112.509 Y345.167
N14935 X113.434 Y346.069
N14940 X114.375 Y346.955
N14945 X115.33 Y347.825
N14950 X116.301 Y348.678
N14955 X117.286 Y349.514
N14960 X118.286 Y350.332
N14965 X119.299 Y351.133
N14970 X120.327 Y351.917
N14975 X121.368 Y352.682
N14980 X122.421 Y353.43
N14985 X123.488 Y354.159
N14990 X124.567 Y354.869
N14995 X125.658 Y355.561
N15000 X126.762 Y356.234
N15005 X127.876 Y356.888
N15010 X129.002 Y357.522
N15015 X130.138 Y358.137
N15020 X131.285 Y358.732
N15025 X132.442 Y359.308
N15030 X133.608 Y359.863
N15035 X134.785 Y360.397
N15040 X135.97 Y360.911
N15045 X137.164 Y361.405
N15050 X138.367 Y361.878
N15055 X139.577 Y362.33
N15060 X140.795 Y362.761
N15065 X142.02 Y363.17
N15070 X143.253 Y363.559
N15075 X144.491 Y363.926
N15080 X145.736 Y364.272
N15085 X146.987 Y364.597
N15090 X148.243 Y364.899
N15095 X149.504 Y365.181
N15100 X150.77 Y365.44
N15105 X152.04 Y365.677
N15110 X153.314 Y365.892
N15115 X154.592 Y366.085
N15120 X155.872 Y366.256
N15125 X157.156 Y366.405
N15130 X158.442 Y366.531
N15135 X159.729 Y366.636
N15140 X161.019 Y366.718
N15145 X162.31 Y366.778
N15150 X163.601 Y366.815
N15155 X164.893 Y366.831
N15160 X166.185 Y366.824
N15165 X167.477 Y366.795
N15170 X168.768 Y366.744
N15175 X170.058 Y366.67
N15180 X171.346 Y366.575
N15185 X172.633 Y366.457
N15190 X173.917 Y366.317
N15195 X175.199 Y366.154
N15200 X176.478 Y365.97
N15205 X177.754 Y365.764
N15210 X179.025 Y365.536
N15215 X180.293 Y365.286
N15220 X181.556 Y365.014
N15225 X182.815 Y364.721
N15230 X184.068 Y364.407
N15235 X185.315 Y364.071
N15240 X186.557 Y363.714
N15245 X187.792 Y363.335
N15250 X189.021 Y362.936
N15255 X190.243 Y362.516
N15260 X191.457 Y362.075
N15265 X192.664 Y361.613
N15270 X193.863 Y361.13
N15275 X195.053 Y360.627
N15280 X196.234 Y360.104
N15285 X197.407 Y359.561
N15290 X198.57 Y358.998
N15295 X199.723 Y358.415
N15300 X200.866 Y357.813
N15305 X201.999 Y357.192
N15310 X203.121 Y356.551
N15315 X204.232 Y355.892
N15320 X205.332 Y355.214
N15325 X206.42 Y354.517
N15330 X207.496 Y353.802
N15335 X208.56 Y353.069
N15340 X209.612 Y352.318
N15345 X210.65 Y351.55
N15350 X211.676 Y350.763
N15355 X212.687 Y349.96
N15360 X213.686 Y349.14
N15365 X214.67 Y348.302
N15370 X215.64 Y347.449
N15375 X216.595 Y346.579
N15380 X217.536 Y345.694
N15385 X218.462 Y344.792
N15390 X219.372 Y343.876
N15395 X220.267 Y342.944
N15400 X221.146 Y341.997
N15405 X222.01 Y341.035
N15410 X222.857 Y340.06
N15415 X223.687 Y339.07
N15420 X224.501 Y338.066
N15425 X225.297 Y337.049
N15430 X226.076 Y336.018
N15435 X226.838 Y334.975
N15440 X227.583 Y333.918
N15445 X228.309 Y332.85
N15450 X229.018 Y331.769
N15455 X229.708 Y330.677
N15460 X230.38 Y329.574
N15465 X231.033 Y328.459
N15470 X231.668 Y327.333
N15475 X232.283 Y326.198
N15480 X232.88 Y325.051
N15485 X233.457 Y323.896
N15490 X234.015 Y322.73
N15495 X234.553 Y321.556
N15500 X235.072 Y320.372
N15505 X235.57 Y319.18
N15510 X236.048 Y317.98
N15515 X236.506 Y316.771
N15520 X236.944 Y315.556
N15525 X237.361 Y314.333
N15530 X237.758 Y313.103
N15535 X238.134 Y311.867
N15540 X238.489 Y310.625
N15545 X238.823 Y309.377
N15550 X239.137 Y308.123
N15555 X239.429 Y306.865
N15560 X239.701 Y305.602
N15565 X239.951 Y304.334
N15570 X240.18 Y303.062
N15575 X240.387 Y301.787
N15580 X240.573 Y300.508
N15585 X240.737 Y299.227
N15590 X240.879 Y297.943
N15595 X241. Y296.656
N15600 X241.099 Y295.368
N15605 X241.177 Y294.078
N15610 X241.233 Y292.788
N15615 X241.267 Y291.496
N15620 X241.28 Y290.204
N15625 X241.271 Y288.912
N15630 X241.24 Y287.62
N15635 X241.188 Y286.329
N15640 X241.114 Y285.039
N15645 X241.018 Y283.751
N15650 X240.9 Y282.464
N15655 X240.761 Y281.18
N15660 X240.6 Y279.898
N15665 X240.417 Y278.618
N15670 X240.213 Y277.343
N15675 X239.987 Y276.071
N15680 X239.74 Y274.802
N15685 X239.472 Y273.538
N15690 X239.183 Y272.279
N15695 X238.872 Y271.025
N15700 X238.54 Y269.776
N15705 X238.187 Y268.533
N15710 X237.814 Y267.297
N15715 X237.419 Y266.066
N15720 X237.005 Y264.842
N15725 X236.569 Y263.626
N15730 X236.113 Y262.417
N15735 X235.637 Y261.216
N15740 X235.14 Y260.023
N15745 X234.623 Y258.839
N15750 X234.086 Y257.664
N15755 X233.53 Y256.498
N15760 X232.954 Y255.341
N15765 X232.359 Y254.194
N15770 X231.744 Y253.058
N15775 X231.11 Y251.932
N15780 X230.458 Y250.817
N15785 X229.787 Y249.713
N15790 X229.097 Y248.62
N15795 X228.389 Y247.539
N15800 X227.664 Y246.47
N15805 X226.92 Y245.414
N15810 X226.158 Y244.37
N15815 X225.379 Y243.339
N15820 X224.583 Y242.322
N15825 X223.769 Y241.318
N15830 X222.939 Y240.328
N15835 X222.092 Y239.352
N15840 X221.229 Y238.391
N15845 X220.35 Y237.444
N15850 X219.455 Y236.512
N15855 X218.544 Y235.595
N15860 X217.619 Y234.694
N15865 X216.678 Y233.808
N15870 X215.722 Y232.938
N15875 X214.753 Y232.085
N15880 X213.769 Y231.247
N15885 X212.771 Y230.427
N15890 X211.759 Y229.623
N15895 X210.734 Y228.837
N15900 X209.696 Y228.067
N15905 X208.645 Y227.316
N15910 X207.581 Y226.582
N15915 X206.505 Y225.866
N15920 X205.418 Y225.169
N15925 X204.319 Y224.489
N15930 X203.209 Y223.828
N15935 X202.088 Y223.186
N15940 X200.956 Y222.562
N15945 X199.814 Y221.958
N15950 X198.662 Y221.373
N15955 X197.501 Y220.807
N15960 X196.33 Y220.26
N15965 X195.15 Y219.733
N15970 X193.962 Y219.226
N15975 X192.765 Y218.739
N15980 X191.56 Y218.273
N15985 X190.348 Y217.826
N15990 X189.128 Y217.4
N15995 X187.901 Y216.994
N16000 X186.668 Y216.609
N16005 X185.429 Y216.244
N16010 X184.183 Y215.9
N16015 X182.932 Y215.577
N16020 X181.676 Y215.274
N16025 X180.415 Y214.993
N16030 X179.149 Y214.733
N16035 X177.88 Y214.493
N16040 X176.606 Y214.275
N16045 X175.329 Y214.078
N16050 X174.049 Y213.902
N16055 X172.766 Y213.748
N16060 X171.481 Y213.615
N16065 X170.194 Y213.504
N16070 X168.905 Y213.414
N16075 X167.615 Y213.346
N16080 X166.324 Y213.299
N16085 X165.032 Y213.273
N16090 X163.74 Y213.269
N16095 X162.448 Y213.286
N16100 X161.156 Y213.324
N16105 X159.866 Y213.384
N16110 X158.576 Y213.465
N16115 X157.288 Y213.568
N16120 X156.002 Y213.691
N16125 X154.718 Y213.836
N16130 X153.437 Y214.003
N16135 X152.159 Y214.191
N16140 X150.883 Y214.4
N16145 X149.612 Y214.63
N16150 X148.345 Y214.881
N16155 X147.082 Y215.153
N16160 X145.823 Y215.445
N16165 X144.57 Y215.759
N16170 X143.321 Y216.093
N16175 X142.079 Y216.447
N16180 X140.843 Y216.822
N16185 X139.613 Y217.218
N16190 X138.389 Y217.633
N16195 X137.173 Y218.069
N16200 X135.964 Y218.524
N16205 X134.762 Y219.
N16210 X133.569 Y219.495
N16215 X132.384 Y220.01
N16220 X131.208 Y220.545
N16225 X130.04 Y221.099
N16230 X128.882 Y221.672
N16235 X127.734 Y222.264
N16240 X126.595 Y222.874
N16245 X125.467 Y223.504
N16250 X124.349 Y224.152
N16255 X123.242 Y224.818
N16260 X122.146 Y225.502
N16265 X121.061 Y226.204
N16270 X119.988 Y226.924
N16275 X118.927 Y227.661
N16280 X117.878 Y228.415
N16285 X116.842 Y229.187
N16290 X115.818 Y229.975
N16295 X114.808 Y230.781
N16300 X113.811 Y231.603
N16305 X112.828 Y232.441
N16310 X111.859 Y233.295
N16315 X110.903 Y234.166
N16320 X109.962 Y235.051
N16325 X109.036 Y235.952
N16330 X108.125 Y236.868
N16335 X107.229 Y237.798
N16340 X106.348 Y238.744
N16345 X105.482 Y239.703
N16350 X104.633 Y240.676
N16355 X103.799 Y241.664
N16360 X102.982 Y242.664
N16365 X102.181 Y243.678
N16370 X101.397 Y244.705
N16375 X100.63 Y245.745
N16380 X99.88 Y246.797
N16385 X99.148 Y247.862
N16390 X98.433 Y248.938
N16395 X97.735 Y250.026
N16400 X97.056 Y251.125
N16405 X96.394 Y252.234
N16410 X95.751 Y253.355
N16415 X95.126 Y254.486
N16420 X94.52 Y255.627
N16425 X93.932 Y256.777
N16430 X93.363 Y257.938
N16435 X92.814 Y259.107
N16440 X92.283 Y260.285
N16445 X91.771 Y261.471
N16450 X91.279 Y262.666
N16455 X90.807 Y263.869
N16460 X90.355 Y265.079
N16465 X89.922 Y266.297
N16470 X89.51 Y267.521
N16475 X89.117 Y268.752
N16480 X88.745 Y269.989
N16485 X88.392 Y271.232
N16490 X88.06 Y272.481
N16495 X87.748 Y273.735
N16500 X87.457 Y274.994
N16505 X87.187 Y276.257
N16510 X86.937 Y277.525
N16515 X86.707 Y278.796
N16520 X86.498 Y280.071
N16525 X86.31 Y281.349
N16530 X86.143 Y282.631
N16535 X85.997 Y283.914
N16540 X85.872 Y285.2
N16545 X85.768 Y286.488
N16550 X85.686 Y287.778
N16555 X85.624 Y289.068
N16560 X85.583 Y290.36
N16565 X85.563 Y291.652
N16570 X85.564 Y292.944
N16575 X85.586 Y294.236
N16580 X85.629 Y295.527
N16585 X85.693 Y296.817
N16590 X85.778 Y298.107
N16595 X85.884 Y299.394
N16600 X86.011 Y300.68
N16605 X86.159 Y301.964
N16610 X86.327 Y303.245
N16615 X86.517 Y304.523
N16620 X86.727 Y305.798
N16625 X86.959 Y307.069
N16630 X87.211 Y308.336
N16635 X87.483 Y309.599
N16640 X87.776 Y310.857
N16645 X88.09 Y312.111
N16650 X88.423 Y313.359
N16655 X88.777 Y314.602
N16660 X89.151 Y315.838
N16665 X89.545 Y317.069
N16670 X89.959 Y318.293
N16675 X90.393 Y319.51
N16680 X90.847 Y320.72
N16685 X91.32 Y321.922
N16690 X91.812 Y323.116
N16695 X92.325 Y324.303
N16700 X92.856 Y325.48
N16705 X93.407 Y326.649
N16710 X93.976 Y327.809
N16715 X94.564 Y328.959
N16720 X95.171 Y330.1
N16725 X95.797 Y331.231
N16730 X96.44 Y332.351
N16735 X97.102 Y333.461
N16740 X97.781 Y334.56
N16745 X98.479 Y335.647
N16750 X99.194 Y336.724
N16755 X99.926 Y337.788
N16760 X100.675 Y338.841
N16765 X101.442 Y339.881
N16770 X102.225 Y340.909
N16775 X103.025 Y341.923
N16780 X103.841 Y342.925
N16785 X104.674 Y343.913
N16790 X105.522 Y344.887
N16795 X106.387 Y345.848
N16800 X107.266 Y346.794
N16805 X108.161 Y347.726
N16810 X109.071 Y348.643
N16815 X109.996 Y349.545
N16820 X110.935 Y350.433
N16825 X111.889 Y351.304
N16830 X112.856 Y352.161
N16835 X113.838 Y353.001
N16840 X114.832 Y353.826
N16845 X115.84 Y354.634
N16850 X116.861 Y355.426
N16855 X117.895 Y356.201
N16860 X118.941 Y356.959
N16865 X120. Y357.7
N16870 X121.07 Y358.424
N16875 X122.153 Y359.13
N16880 X123.246 Y359.818
N16885 X124.35 Y360.488
N16890 X125.466 Y361.141
N16895 X126.591 Y361.776
N16900 X127.727 Y362.392
N16905 X128.872 Y362.989
N16910 X130.027 Y363.568
N16915 X131.192 Y364.128
N16920 X132.365 Y364.67
N16925 X133.547 Y365.192
N16930 X134.737 Y365.695
N16935 X135.935 Y366.178
N16940 X137.141 Y366.642
N16945 X138.354 Y367.086
N16950 X139.575 Y367.51
N16955 X140.802 Y367.915
N16960 X142.035 Y368.299
N16965 X143.275 Y368.664
N16970 X144.52 Y369.008
N16975 X145.771 Y369.332
N16980 X147.027 Y369.636
N16985 X148.288 Y369.919
N16990 X149.553 Y370.182
N16995 X150.822 Y370.424
N17000 X152.095 Y370.646
N17005 X153.371 Y370.847
N17010 X154.65 Y371.028
N17015 X155.932 Y371.188
N17020 X157.217 Y371.327
N17025 X158.504 Y371.445
N17030 X159.792 Y371.542
N17035 X161.082 Y371.618
N17040 X162.373 Y371.673
N17045 X163.664 Y371.707
N17050 X164.956 Y371.72
N17055 X166.248 Y371.713
N17060 X167.54 Y371.684
N17065 X168.831 Y371.635
N17070 X170.121 Y371.565
N17075 X171.41 Y371.474
N17080 X172.697 Y371.363
N17085 X173.983 Y371.23
N17090 X175.266 Y371.077
N17095 X176.546 Y370.904
N17100 X177.823 Y370.709
N17105 X179.097 Y370.494
N17110 X180.368 Y370.258
N17115 X181.634 Y370.002
N17120 X182.896 Y369.726
N17125 X184.154 Y369.429
N17130 X185.406 Y369.112
N17135 X186.654 Y368.775
N17140 X187.895 Y368.418
N17145 X189.131 Y368.041
N17150 X190.361 Y367.644
N17155 X191.584 Y367.228
N17160 X192.8 Y366.792
N17165 X194.01 Y366.337
N17170 X195.211 Y365.862
N17175 X196.405 Y365.369
N17180 X197.591 Y364.856
N17185 X198.769 Y364.324
N17190 X199.938 Y363.774
N17195 X201.098 Y363.204
N17200 X202.248 Y362.616
N17205 X203.389 Y362.01
N17210 X204.521 Y361.386
N17215 X205.642 Y360.744
N17220 X206.753 Y360.084
N17225 X207.853 Y359.407
N17230 X208.942 Y358.712
N17235 X210.021 Y358.
N17240 X211.087 Y357.271
N17245 X212.142 Y356.525
N17250 X213.185 Y355.763
N17255 X214.216 Y354.984
N17260 X215.235 Y354.189
N17265 X216.24 Y353.378
N17270 X217.233 Y352.55
N17275 X218.212 Y351.707
N17280 X219.178 Y350.849
N17285 X220.13 Y349.975
N17290 X221.068 Y349.087
N17295 X221.992 Y348.184
N17300 X222.901 Y347.266
N17305 X223.796 Y346.334
N17310 X224.676 Y345.388
N17315 X225.541 Y344.428
N17320 X226.391 Y343.455
N17325 X227.226 Y342.469
N17330 X228.044 Y341.469
N17335 X228.847 Y340.457
N17340 X229.634 Y339.432
N17345 X230.405 Y338.395
N17350 X231.159 Y337.346
N17355 X231.896 Y336.285
N17360 X232.616 Y335.212
N17365 X233.32 Y334.128
N17370 X234.006 Y333.033
N17375 X234.674 Y331.928
N17380 X235.326 Y330.812
N17385 X235.959 Y329.686
N17390 X236.575 Y328.55
N17395 X237.173 Y327.405
N17400 X237.753 Y326.25
N17405 X238.315 Y325.086
N17410 X238.858 Y323.914
N17415 X239.382 Y322.733
N17420 X239.888 Y321.544
N17425 X240.376 Y320.348
N17430 X240.844 Y319.144
N17435 X241.293 Y317.932
N17440 X241.723 Y316.714
N17445 X242.134 Y315.489
N17450 X242.525 Y314.257
N17455 X242.896 Y313.02
N17460 X243.248 Y311.777
N17465 X243.581 Y310.528
N17470 X243.894 Y309.274
N17475 X244.187 Y308.016
N17480 X244.46 Y306.753
N17485 X244.713 Y305.486
N17490 X244.946 Y304.215
N17495 X245.159 Y302.941
N17500 X245.352 Y301.663
N17505 X245.525 Y300.383
N17510 X245.678 Y299.1
N17515 X245.81 Y297.815
N17520 X245.922 Y296.527
N17525 X246.013 Y295.239
N17530 X246.084 Y293.948
N17535 X246.134 Y292.657
N17540 X246.164 Y291.366
N17545 X246.174 Y290.074
N17550 X246.163 Y288.782
N17555 X246.132 Y287.49
N17560 X246.081 Y286.199
N17565 X246.009 Y284.909
N17570 X245.916 Y283.62
N17575 X245.804 Y282.333
N17580 X245.671 Y281.048
N17585 X245.517 Y279.765
N17590 X245.344 Y278.485
N17595 X245.15 Y277.207
N17600 X244.936 Y275.933
N17605 X244.702 Y274.662
N17610 X244.447 Y273.396
N17615 X244.173 Y272.133
N17620 X243.878 Y270.875
N17625 X243.564 Y269.622
N17630 X243.229 Y268.374
N17635 X242.876 Y267.131
N17640 X242.502 Y265.894
N17645 X242.109 Y264.663
N17650 X241.697 Y263.439
N17655 X241.265 Y262.221
N17660 X240.814 Y261.01
N17665 X240.344 Y259.807
N17670 X239.855 Y258.611
N17675 X239.347 Y257.423
N17680 X238.82 Y256.243
N17685 X238.275 Y255.072
N17690 X237.711 Y253.909
N17695 X237.129 Y252.756
N17700 X236.528 Y251.612
N17705 X235.909 Y250.478
N17710 X235.273 Y249.353
N17715 X234.618 Y248.239
N17720 X233.947 Y247.135
N17725 X233.257 Y246.042
N17730 X232.551 Y244.961
N17735 X231.828 Y243.89
N17740 X231.088 Y242.831
N17745 X230.331 Y241.784
N17750 X229.557 Y240.749
N17755 X228.768 Y239.726
N17760 X227.962 Y238.716
N17765 X227.141 Y237.718
N17770 X226.304 Y236.734
N17775 X225.451 Y235.764
N17780 X224.583 Y234.807
N17785 X223.699 Y233.864
N17790 X222.801 Y232.935
N17795 X221.889 Y232.02
N17800 X220.962 Y231.12
N17805 X220.021 Y230.234
N17810 X219.066 Y229.364
N17815 X218.098 Y228.509
N17820 X217.116 Y227.669
N17825 X216.121 Y226.844
N17830 X215.113 Y226.036
N17835 X214.093 Y225.243
N17840 X213.06 Y224.467
N17845 X212.016 Y223.706
N17850 X210.959 Y222.963
N17855 X209.89 Y222.236
N17860 X208.811 Y221.527
N17865 X207.72 Y220.835
N17870 X206.618 Y220.159
N17875 X205.506 Y219.502
N17880 X204.383 Y218.862
N17885 X203.251 Y218.239
N17890 X202.109 Y217.635
N17895 X200.958 Y217.048
N17900 X199.798 Y216.48
N17905 X198.629 Y215.93
N17910 X197.451 Y215.398
N17915 X196.265 Y214.885
N17920 X195.071 Y214.391
N17925 X193.87 Y213.916
N17930 X192.661 Y213.459
N17935 X191.446 Y213.021
N17940 X190.223 Y212.603
N17945 X188.994 Y212.204
N17950 X187.759 Y211.825
N17955 X186.518 Y211.465
N17960 X185.272 Y211.124
N17965 X184.02 Y210.803
N17970 X182.764 Y210.502
N17975 X181.503 Y210.22
N17980 X180.238 Y209.958
N17985 X178.969 Y209.716
N17990 X177.696 Y209.494
N17995 X176.42 Y209.291
N18000 X175.141 Y209.109
N18005 X173.859 Y208.947
N18010 X172.574 Y208.804
N18015 X171.288 Y208.682
N18020 X170. Y208.58
N18025 X168.711 Y208.498
N18030 X167.42 Y208.437
N18035 X166.129 Y208.395
N18040 X164.837 Y208.374
N18045 X163.545
N18050 X162.253 Y208.393
N18055 X160.961 Y208.432
N18060 X159.671 Y208.491
N18065 X158.381 Y208.571
N18070 X157.093 Y208.67
N18075 X155.806 Y208.79
N18080 X154.522 Y208.93
N18085 X153.24 Y209.089
N18090 X151.96 Y209.269
N18095 X150.684 Y209.468
N18100 X149.41 Y209.687
N18105 X148.141 Y209.926
N18110 X146.875 Y210.185
N18115 X145.613 Y210.464
N18120 X144.356 Y210.762
N18125 X143.104 Y211.08
N18130 X141.856 Y211.417
N18135 X140.615 Y211.774
N18140 X139.378 Y212.15
N18145 X138.148 Y212.545
N18150 X136.924 Y212.958
N18155 X135.707 Y213.391
N18160 X134.496 Y213.843
N18165 X133.293 Y214.313
N18170 X132.097 Y214.802
N18175 X130.908 Y215.309
N18180 X129.728 Y215.835
N18185 X128.556 Y216.379
N18190 X127.393 Y216.941
N18195 X126.238 Y217.521
N18200 X125.093 Y218.119
N18205 X123.957 Y218.735
N18210 X122.831 Y219.369
N18215 X121.715 Y220.019
N18220 X120.609 Y220.687
N18225 X119.513 Y221.372
N18230 X118.428 Y222.074
N18235 X117.354 Y222.792
N18240 X116.291 Y223.527
N18245 X115.24 Y224.278
N18250 X114.201 Y225.045
N18255 X113.173 Y225.828
N18260 X112.158 Y226.627
N18265 X111.155 Y227.442
N18270 X110.164 Y228.272
N18275 X109.187 Y229.117
N18280 X108.223 Y229.977
N18285 X107.273 Y230.853
N18290 X106.336 Y231.742
N18295 X105.413 Y232.647
N18300 X104.504 Y233.565
N18305 X103.609 Y234.497
N18310 X102.729 Y235.443
N18315 X101.863 Y236.402
N18320 X101.012 Y237.374
N18325 X100.177 Y238.36
N18330 X99.356 Y239.358
N18335 X98.551 Y240.369
N18340 X97.762 Y241.391
N18345 X96.988 Y242.426
N18350 X96.231 Y243.473
N18355 X95.49 Y244.531
N18360 X94.765 Y245.601
N18365 X94.057 Y246.682
N18370 X93.365 Y247.773
N18375 X92.691 Y248.875
N18380 X92.034 Y249.988
N18385 X91.393 Y251.11
N18390 X90.771 Y252.242
N18395 X90.165 Y253.383
N18400 X89.577 Y254.534
N18405 X89.007 Y255.693
N18410 X88.455 Y256.862
N18415 X87.921 Y258.038
N18420 X87.405 Y259.223
N18425 X86.907 Y260.415
N18430 X86.427 Y261.615
N18435 X85.966 Y262.822
N18440 X85.524 Y264.035
N18445 X85.1 Y265.256
N18450 X84.695 Y266.483
N18455 X84.31 Y267.716
N18460 X83.943 Y268.955
N18465 X83.596 Y270.2
N18470 X83.267 Y271.449
N18475 X82.958 Y272.704
N18480 X82.668 Y273.963
N18485 X82.397 Y275.226
N18490 X82.146 Y276.494
N18495 X81.914 Y277.765
N18500 X81.702 Y279.039
N18505 X81.509 Y280.317
N18510 X81.336 Y281.597
N18515 X81.182 Y282.88
N18520 X81.048 Y284.165
N18525 X80.934 Y285.452
N18530 X80.84 Y286.741
N18535 X80.766 Y288.031
N18540 X80.711 Y289.322
N18545 X80.676 Y290.613
N18550 X80.662 Y291.905
N18555 X80.667 Y293.197
N18560 X80.692 Y294.489
N18565 X80.736 Y295.78
N18570 X80.801 Y297.071
N18575 X80.885 Y298.36
N18580 X80.988 Y299.648
N18585 X81.112 Y300.934
N18590 X81.255 Y302.218
N18595 X81.418 Y303.5
N18600 X81.6 Y304.779
N18605 X81.802 Y306.055
N18610 X82.023 Y307.328
N18615 X82.264 Y308.598
N18620 X82.525 Y309.863
N18625 X82.805 Y311.124
N18630 X83.104 Y312.381
N18635 X83.423 Y313.634
N18640 X83.761 Y314.881
N18645 X84.118 Y316.122
N18650 X84.493 Y317.359
N18655 X84.888 Y318.589
N18660 X85.301 Y319.813
N18665 X85.733 Y321.031
N18670 X86.184 Y322.242
N18675 X86.653 Y323.446
N18680 X87.14 Y324.642
N18685 X87.646 Y325.831
N18690 X88.17 Y327.012
N18695 X88.712 Y328.185
N18700 X89.271 Y329.35
N18705 X89.849 Y330.506
N18710 X90.444 Y331.652
N18715 X91.057 Y332.79
N18720 X91.687 Y333.918
N18725 X92.335 Y335.036
N18730 X92.999 Y336.144
N18735 X93.68 Y337.242
N18740 X94.378 Y338.329
N18745 X95.093 Y339.406
N18750 X95.824 Y340.471
N18755 X96.571 Y341.525
N18760 X97.334 Y342.568
N18765 X98.113 Y343.599
N18770 X98.908 Y344.618
N18775 X99.718 Y345.624
N18780 X100.543 Y346.618
N18785 X101.384 Y347.6
N18790 X102.239 Y348.568
N18795 X103.109 Y349.523
N18800 X103.994 Y350.464
N18805 X104.893 Y351.392
N18810 X105.807 Y352.306
N18815 X106.734 Y353.206
N18820 X107.675 Y354.091
N18825 X108.629 Y354.962
N18830 X109.597 Y355.819
N18835 X110.577 Y356.66
N18840 X111.57 Y357.487
N18845 X112.576 Y358.298
N18850 X113.594 Y359.094
N18855 X114.624 Y359.874
N18860 X115.665 Y360.638
N18865 X116.719 Y361.387
N18870 X117.783 Y362.119
N18875 X118.859 Y362.834
N18880 X119.946 Y363.534
N18885 X121.043 Y364.216
N18890 X122.15 Y364.881
N18895 X123.268 Y365.529
N18900 X124.396 Y366.16
N18905 X125.532 Y366.774
N18910 X126.679 Y367.371
N18915 X127.834 Y367.949
N18920 X128.998 Y368.511
N18925 X130.17 Y369.054
N18930 X131.35 Y369.579
N18935 X132.539 Y370.087
N18940 X133.735 Y370.576
N18945 X134.938 Y371.046
N18950 X136.148 Y371.499
N18955 X137.365 Y371.932
N18960 X138.589 Y372.348
N18965 X139.819 Y372.744
N18970 X141.054 Y373.121
N18975 X142.296 Y373.479
N18980 X143.542 Y373.818
N18985 X144.794 Y374.138
N18990 X146.051 Y374.439
N18995 X147.312 Y374.721
N19000 X148.577 Y374.984
N19005 X149.846 Y375.227
N19010 X151.118 Y375.451
N19015 X152.394 Y375.655
N19020 X153.673 Y375.84
N19025 X154.954 Y376.005
N19030 X156.238 Y376.151
N19035 X157.524 Y376.277
N19040 X158.812 Y376.384
N19045 X160.101 Y376.471
N19050 X161.391 Y376.538
N19055 X162.682 Y376.586
N19060 X163.974 Y376.613
N19065 X165.266 Y376.621
N19070 X166.558 Y376.609
N19075 X167.85 Y376.578
N19080 X169.141 Y376.526
N19085 X170.431 Y376.456
N19090 X171.72 Y376.365
N19095 X173.007 Y376.255
N19100 X174.293 Y376.126
N19105 X175.576 Y375.977
N19110 X176.857 Y375.809
N19115 X178.135 Y375.621
N19120 X179.411 Y375.413
N19125 X180.683 Y375.187
N19130 X181.951 Y374.941
N19135 X183.216 Y374.676
N19140 X184.476 Y374.391
N19145 X185.732 Y374.088
N19150 X186.983 Y373.765
N19155 X188.229 Y373.424
N19160 X189.47 Y373.063
N19165 X190.705 Y372.684
N19170 X191.934 Y372.286
N19175 X193.158 Y371.87
N19180 X194.374 Y371.435
N19185 X195.584 Y370.982
N19190 X196.788 Y370.511
N19195 X197.983 Y370.022
N19200 X199.172 Y369.515
N19205 X200.352 Y368.99
N19210 X201.525 Y368.447
N19215 X202.689 Y367.887
N19220 X203.845 Y367.309
N19225 X204.992 Y366.714
N19230 X206.129 Y366.101
N19235 X207.257 Y365.472
N19240 X208.376 Y364.825
N19245 X209.485 Y364.162
N19250 X210.584 Y363.482
N19255 X211.672 Y362.786
N19260 X212.75 Y362.073
N19265 X213.817 Y361.345
N19270 X214.873 Y360.6
N19275 X215.918 Y359.84
N19280 X216.951 Y359.065
N19285 X217.973 Y358.274
N19290 X218.983 Y357.467
N19295 X219.98 Y356.646
N19300 X220.965 Y355.81
N19305 X221.938 Y354.96
N19310 X222.898 Y354.095
N19315 X223.844 Y353.215
N19320 X224.778 Y352.322
N19325 X225.697 Y351.414
N19330 X226.604 Y350.493
N19335 X227.496 Y349.559
N19340 X228.374 Y348.611
N19345 X229.238 Y347.651
N19350 X230.088 Y346.677
N19355 X230.923 Y345.692
N19360 X231.744 Y344.693
N19365 X232.549 Y343.683
N19370 X233.339 Y342.661
N19375 X234.115 Y341.627
N19380 X234.874 Y340.582
N19385 X235.618 Y339.526
N19390 X236.346 Y338.459
N19395 X237.059 Y337.381
N19400 X237.755 Y336.292
N19405 X238.434 Y335.193
N19410 X239.098 Y334.084
N19415 X239.744 Y332.966
N19420 X240.374 Y331.837
N19425 X240.987 Y330.7
N19430 X241.583 Y329.554
N19435 X242.162 Y328.399
N19440 X242.724 Y327.235
N19445 X243.268 Y326.063
N19450 X243.795 Y324.884
N19455 X244.304 Y323.696
N19460 X244.796 Y322.501
N19465 X245.27 Y321.299
N19470 X245.726 Y320.09
N19475 X246.164 Y318.875
N19480 X246.584 Y317.653
N19485 X246.985 Y316.425
N19490 X247.368 Y315.191
N19495 X247.733 Y313.951
N19500 X248.079 Y312.706
N19505 X248.406 Y311.457
N19510 X248.715 Y310.202
N19515 X249.005 Y308.943
N19520 X249.276 Y307.68
N19525 X249.529 Y306.412
N19530 X249.762 Y305.142
N19535 X249.977 Y303.868
N19540 X250.173 Y302.591
N19545 X250.35 Y301.311
N19550 X250.508 Y300.028
N19555 X250.646 Y298.744
N19560 X250.766 Y297.457
N19565 X250.866 Y296.169
N19570 X250.947 Y294.879
N19575 X251.009 Y293.589
N19580 X251.051 Y292.297
N19585 X251.074 Y291.006
N19590 X251.078 Y289.714
N19595 X251.062 Y288.422
N19600 X251.027 Y287.13
N19605 X250.973 Y285.839
N19610 X250.9 Y284.549
N19615 X250.807 Y283.26
N19620 X250.695 Y281.973
N19625 X250.564 Y280.688
N19630 X250.414 Y279.404
N19635 X250.245 Y278.124
N19640 X250.057 Y276.845
N19645 X249.85 Y275.57
N19650 X249.623 Y274.298
N19655 X249.378 Y273.029
N19660 X249.114 Y271.765
N19665 X248.831 Y270.504
N19670 X248.529 Y269.248
N19675 X248.208 Y267.996
N19680 X247.868 Y266.749
N19685 X247.51 Y265.508
N19690 X247.133 Y264.272
N19695 X246.738 Y263.042
N19700 X246.325 Y261.818
N19705 X245.893 Y260.6
N19710 X245.443 Y259.389
N19715 X244.976 Y258.184
N19720 X244.49 Y256.987
N19725 X243.987 Y255.797
N19730 X243.466 Y254.615
N19735 X242.927 Y253.44
N19740 X242.371 Y252.274
N19745 X241.797 Y251.116
N19750 X241.206 Y249.967
N19755 X240.598 Y248.827
N19760 X239.973 Y247.697
N19765 X239.331 Y246.575
N19770 X238.672 Y245.464
N19775 X237.997 Y244.362
N19780 X237.306 Y243.271
N19785 X236.598 Y242.19
N19790 X235.874 Y241.12
N19795 X235.134 Y240.06
N19800 X234.379 Y239.012
N19805 X233.608 Y237.975
N19810 X232.822 Y236.95
N19815 X232.02 Y235.936
N19820 X231.204 Y234.935
N19825 X230.372 Y233.946
N19830 X229.526 Y232.969
N19835 X228.666 Y232.005
N19840 X227.791 Y231.055
N19845 X226.902 Y230.117
N19850 X225.999 Y229.193
N19855 X225.083 Y228.282
N19860 X224.152 Y227.385
N19865 X223.209 Y226.503
N19870 X222.253 Y225.634
N19875 X221.283 Y224.78
N19880 X220.301 Y223.94
N19885 X219.307 Y223.115
N19890 X218.301 Y222.304
N19895 X217.283 Y221.509
N19900 X216.253 Y220.729
N19905 X215.211 Y219.964
N19910 X214.158 Y219.215
N19915 X213.095 Y218.482
N19920 X212.02 Y217.764
N19925 X210.935 Y217.063
N19930 X209.839 Y216.378
N19935 X208.734 Y215.709
N19940 X207.618 Y215.057
N19945 X206.493 Y214.422
N19950 X205.359 Y213.803
N19955 X204.215 Y213.202
N19960 X203.063 Y212.617
N19965 X201.902 Y212.05
N19970 X200.733 Y211.5
N19975 X199.556 Y210.967
N19980 X198.371 Y210.451
N19985 X197.179 Y209.954
N19990 X195.979 Y209.474
N19995 X194.773 Y209.011
N20000 X193.56 Y208.567
N20005 X192.34 Y208.141
N20010 X191.114 Y207.733
N20015 X189.882 Y207.343
N20020 X188.645 Y206.971
N20025 X187.402 Y206.618
N20030 X186.154 Y206.284
N20035 X184.901 Y205.968
N20040 X183.644 Y205.67
N20045 X182.382 Y205.391
N20050 X181.117 Y205.131
N20055 X179.847 Y204.89
N20060 X178.575 Y204.667
N20065 X177.299 Y204.463
N20070 X176.02 Y204.278
N20075 X174.739 Y204.112
N20080 X173.455 Y203.964
N20085 X172.169 Y203.836
N20090 X170.882 Y203.727
N20095 X169.593 Y203.636
N20100 X168.303 Y203.565
N20105 X167.012 Y203.512
N20110 X165.72 Y203.479
N20115 X164.428 Y203.465
N20120 X163.136 Y203.47
N20125 X161.844 Y203.495
N20130 X160.553 Y203.538
N20135 X159.263 Y203.6
N20140 X157.973 Y203.681
N20145 X156.685 Y203.781
N20150 X155.398 Y203.9
N20155 X154.114 Y204.038
N20160 X152.831 Y204.195
N20165 X151.551 Y204.37
N20170 X150.274 Y204.564
N20175 X148.999 Y204.777
N20180 X147.728 Y205.009
N20185 X146.461 Y205.259
N20190 X145.197 Y205.528
N20195 X143.937 Y205.816
N20200 X142.682 Y206.122
N20205 X141.431 Y206.447
N20210 X140.186 Y206.789
N20215 X138.945 Y207.151
N20220 X137.71 Y207.53
N20225 X136.481 Y207.927
N20230 X135.257 Y208.343
N20235 X134.04 Y208.776
N20240 X132.829 Y209.227
N20245 X131.625 Y209.696
N20250 X130.428 Y210.182
N20255 X129.238 Y210.685
N20260 X128.056 Y211.206
N20265 X126.881 Y211.745
N20270 X125.714 Y212.3
N20275 X124.556 Y212.872
N20280 X123.406 Y213.461
N20285 X122.265 Y214.067
N20290 X121.133 Y214.69
N20295 X120.01 Y215.33
N20300 X118.897 Y215.985
N20305 X117.793 Y216.657
N20310 X116.7 Y217.345
N20315 X115.616 Y218.049
N20320 X114.543 Y218.769
N20325 X113.481 Y219.504
N20330 X112.429 Y220.255
N20335 X111.388 Y221.02
N20340 X110.359 Y221.801
N20345 X109.341 Y222.597
N20350 X108.335 Y223.408
N20355 X107.341 Y224.233
N20360 X106.358 Y225.072
N20365 X105.389 Y225.926
N20370 X104.431 Y226.794
N20375 X103.487 Y227.676
N20380 X102.556 Y228.571
N20385 X101.637 Y229.48
N20390 X100.733 Y230.403
N20395 X99.841 Y231.338
N20400 X98.964 Y232.286
N20405 X98.1 Y233.247
N20410 X97.251 Y234.221
N20415 X96.415 Y235.207
N20420 X95.595 Y236.204
N20425 X94.788 Y237.214
N20430 X93.997 Y238.235
N20435 X93.22 Y239.268
N20440 X92.458 Y240.311
N20445 X91.712 Y241.366
N20450 X90.981 Y242.432
N20455 X90.266 Y243.508
N20460 X89.566 Y244.594
N20465 X88.882 Y245.69
N20470 X88.215 Y246.796
N20475 X87.564 Y247.912
N20480 X86.929 Y249.038
N20485 X86.31 Y250.172
N20490 X85.708 Y251.315
N20495 X85.123 Y252.467
N20500 X84.554 Y253.627
N20505 X84.003 Y254.796
N20510 X83.468 Y255.972
N20515 X82.95 Y257.156
N20520 X82.45 Y258.347
N20525 X81.967 Y259.545
N20530 X81.501 Y260.751
N20535 X81.053 Y261.962
N20540 X80.623 Y263.181
N20545 X80.21 Y264.405
N20550 X79.815 Y265.635
N20555 X79.438 Y266.871
N20560 X79.079 Y268.112
N20565 X78.738 Y269.359
N20570 X78.416 Y270.61
N20575 X78.111 Y271.865
N20580 X77.825 Y273.125
